;FLAVOR:Marlin
;TIME:307
;Filament used:0.253831m
;Layer height: 0.3
;MINX:68.733
;MINY:67.289
;MINZ:0.2
;MAXX:95.962
;MAXY:97.059
;MAXZ:2.9
                                 
;Creative3D GCode Generated by CXEngineDEV
;Generated Time:2022-04-08 18:14:05
;----------Machine Config--------------
;Machine Name:Creality Ender-2 Pro
;Machine Height:180
;Machine Width:165
;Machine Depth:165
;Material name:PLA
;Number of Extruders:1
;ExtruderParams[0] Nozzle Diameter1000
;----------Profile Config---------------
;Layer Height:0.3
;Wall Thickness:0.8
;Top/Bottom Thickness:1
;Out Wall Line Width:0.4
;Inner Wall Line Width:0.4
;Inital Layer Height:200
;Wall Line Count:1
;Infill Line Distance:4
;Infill Pattern:grid
;Infill Sparse Density:20
;Infill Wipe Distance:0
;Print Temperature:200
;Bed Temperature:60
;Support Enable:false
;Support Density:30
;Support Angle:1.0472
;Adhesion Type:none
;machine is belt:false
;machine belt offset:10
;machine belt offset Y:0
;----------Shell Config----------------
;Outer Wall Wipe Distance:200
;Infill Before Walls:false
;Infill Overlap:0.16
;Fill Gaps Between Walls:everywhere
;Minimum Infill Area:1
;Top Surface Skin Layer:0
;Top Layers:2
;Z Seam Alignment:sharpest_corner
;Seam Corner Preference:z_seam_corner_inner
;Z Seam X:82.5
;Z Seam Y:82.5
;Horizontal Expansion:0
;Top/Bottom Pattern:zigzag
;Ironing Pattern:zigzag
;Vase Model:false
;----------Support Config----------------
;Support Type:everywhere
;Support Pattern:zigzag
;Support Infill Layer Thickness:0.3
;Minimum Support Area:10
;Enable Support Roof:false
;Support Roof Thickness:0.8
;Support Roof Pattern:lines
; ---------PrintSpeed & Travel----------
;Enable Print Cool:true
;Avoid Printed Parts Traveling:true
;Enable Retraction:true
;Retraction Distance:8
;Retraction Speed:100
;Retraction Prime Speed:100
;Maximum Retraction Count:100
;Minimum Extrusion Distance Window:1
;Z Hop When Retracted:false
;Z Hop Height:0.2
;Retract Before Outer Wall:true
;Print Speed:50
;Infill Speed:50

;Prime Tower Speed:50
;Travel Speed:120
;Initial Layer Speed:25
;Skirt/Brim Speed:25
;Combing Mode:off
;---------------------End of Head--------------------------
M140 S60
M104 S200
M105
M109 S200
M82 ;absolute extrusion mode
M220 S100 ;Reset Feedrate
M221 S100 ;Reset Flowrate

G28 ;Home

G92 E0 ;Reset Extruder
G1 Z2.0 F3000 ;Move Z Axis up
G1 X10.1 Y20 Z0.28 F5000.0 ;Move to start position
G1 X10.1 Y145.0 Z0.28 F1500.0 E15 ;Draw the first line
G1 X10.4 Y145.0 Z0.28 F5000.0 ;Move to side a little
G1 X10.4 Y20 Z0.28 F1500.0 E30 ;Draw the second line
G92 E0  ;Reset Extruder
G1 E-1.0000 F1800 ;Retract a bit
G1 Z2.0 F3000 ;Move Z Axis up
G1 E0.0000 F1800 

G92 E0
G92 E0
G1 F6000 E-8

;LAYER_COUNT:10

;LAYER:0
M107
;MESH:
G0 F3600 X78.472 Y88.205 Z0.2
;TYPE:WALL-OUTER
G1 F6000 E0
G1 F1500 X78.291 Y88.289 E0.0073
G1 X75.556 Y89.564 E0.1177
G1 X75.222 Y89.798 E0.13262
G1 X74.979 Y90.157 E0.14848
G1 X74.878 Y90.579 E0.16436
G1 X74.93 Y90.996 E0.17973
G1 X74.987 Y91.144 E0.18554
G1 X75.841 Y92.98 E0.25962
G1 X76.077 Y93.313 E0.27455
G1 X76.435 Y93.556 E0.29038
G1 X76.855 Y93.657 E0.30619
G1 X77.277 Y93.606 E0.32174
G1 X77.478 Y93.522 E0.32971
G1 X80.149 Y92.279 E0.43749
G1 X80.33 Y92.195 E0.44479
G1 X80.246 Y92.014 E0.44951
G1 X78.556 Y88.386 E0.59594
G1 X78.472 Y88.205 E0.60065
G0 F3600 X78.291 Y88.289
G0 X78.107 Y87.891
;;retract;;
G1 F6000 E-7.39935
G0 F3600 X87.076 Y77.91
G1 F6000 E0.60065
G1 F1500 X77.758 Y77.91 E0.94156
G1 X82.394 Y88.052 E1.34955
G1 X82.653 Y88.05 E1.35902
G1 X87.076 Y77.91 E1.76376
G0 F3600 X86.876 Y77.91
G0 X86.876 Y77.47
;;retract;;
G1 F6000 E-6.23624
G0 F3600 X88.665 Y74.247
G1 F6000 E1.76376
G1 F1500 X91.671 Y67.289 E2.04107
G1 X95.653 Y67.289 E2.18675
G1 X95.655 Y67.289 E2.18683
G1 X95.962 Y67.289 E2.19806
G1 X95.836 Y67.57 E2.20459
G1 X82.772 Y96.659 E3.37125
G1 X82.593 Y97.057 E3.38721
G1 X82.409 Y96.661 E3.39592
G1 X82.342 Y96.518 E3.40169
G1 X82.129 Y96.134 E3.41776
G1 X81.855 Y95.772 E3.43437
G1 X81.534 Y95.454 E3.4509
G1 X81.167 Y95.181 E3.46764
G1 X80.766 Y94.964 E3.48432
G1 X80.342 Y94.808 E3.50085
G1 X79.899 Y94.711 E3.51744
G1 X79.443 Y94.68 E3.53416
G1 X78.992 Y94.71 E3.5507
G1 X78.55 Y94.806 E3.56724
G1 X78.117 Y94.953 E3.58397
G1 X77.68 Y95.052 E3.60037
G1 X77.458 Y95.08 E3.60855
G1 X77.01 Y95.09 E3.62495
G1 X76.789 Y95.071 E3.63306
G1 X76.35 Y94.991 E3.64939
G1 X76.122 Y94.924 E3.65808
G1 X75.727 Y94.763 E3.67369
G1 X75.51 Y94.648 E3.68268
G1 X75.155 Y94.41 E3.69831
G1 X74.97 Y94.257 E3.7071
G1 X74.661 Y93.942 E3.72324
G1 X74.517 Y93.764 E3.73162
G1 X74.283 Y93.399 E3.74748
G1 X74.168 Y93.178 E3.75659
G1 X73.756 Y92.292 E3.79234
G1 X73.594 Y91.869 E3.80891
G1 X73.53 Y91.642 E3.81754
G1 X73.459 Y91.21 E3.83356
G1 X73.443 Y90.986 E3.84178
G1 X73.46 Y90.542 E3.85803
G1 X73.493 Y90.312 E3.86653
G1 X73.597 Y89.885 E3.88261
G1 X73.677 Y89.664 E3.89121
G1 X73.865 Y89.271 E3.90715
G1 X73.985 Y89.074 E3.91559
G1 X74.25 Y88.724 E3.93165
G1 X74.407 Y88.556 E3.94006
G1 X74.746 Y88.259 E3.95655
G1 X74.931 Y88.128 E3.96485
G1 X75.323 Y87.888 E3.98166
G1 X75.502 Y87.761 E3.98969
G1 X75.84 Y87.461 E4.00623
G1 X76.133 Y87.118 E4.02273
G1 X76.374 Y86.734 E4.03932
G1 X76.561 Y86.316 E4.05607
G1 X76.685 Y85.879 E4.07269
G1 X76.747 Y85.427 E4.08938
G1 X76.745 Y84.97 E4.1061
G1 X76.678 Y84.522 E4.12268
G1 X76.547 Y84.091 E4.13916
G1 X76.456 Y83.875 E4.14773
G1 X68.865 Y67.572 E4.80568
G1 X68.733 Y67.289 E4.81711
G1 X69.045 Y67.289 E4.82371
G1 X69.046 Y67.289 E4.82375
G1 X72.95 Y67.289 E4.96658
G1 X76.141 Y74.247 E5.24664
G1 X88.665 Y74.247 E5.70485
G0 F3600 X88.744 Y74.064
G0 X89.146 Y74.239
;;retract;;
G1 F6000 E-2.29515
G0 F3600 X95.59 Y67.528
;TYPE:SKIN
G1 F6000 E5.70485
G1 F1500 X95.247 Y67.528 E5.7174
G1 X94.681 Y67.528 E5.7381
G1 X95.309 Y68.156 E5.7706
G1 X95.134 Y68.546 E5.78624
G1 X94.115 Y67.528 E5.83893
G1 X93.55 Y67.528 E5.85961
G1 X94.958 Y68.937 E5.93248
G1 X94.783 Y69.327 E5.94812
G1 X92.984 Y67.528 E6.0412
G1 X92.418 Y67.528 E6.06191
G1 X94.608 Y69.717 E6.1752
G1 X94.432 Y70.108 E6.19088
G1 X91.853 Y67.528 E6.32435
G1 X91.829 Y67.528 E6.32523
G1 X91.665 Y67.906 E6.3403
G1 X94.258 Y70.499 E6.47447
G1 X94.082 Y70.889 E6.49012
G1 X91.494 Y68.301 E6.62402
G1 X91.323 Y68.696 E6.63977
G1 X93.907 Y71.279 E6.77344
G1 X93.731 Y71.67 E6.78913
G1 X91.153 Y69.091 E6.92254
G1 X90.982 Y69.485 E6.93826
G1 X93.556 Y72.06 E7.07147
G1 X93.381 Y72.45 E7.0871
G1 X90.811 Y69.881 E7.22005
G1 X90.641 Y70.276 E7.23579
G1 X93.205 Y72.841 E7.36847
G1 X93.03 Y73.231 E7.38411
G1 X90.47 Y70.671 E7.51657
G1 X90.299 Y71.066 E7.53232
G1 X92.855 Y73.621 E7.66454
G1 X92.679 Y74.012 E7.68023
G1 X90.128 Y71.46 E7.81224
G1 X89.958 Y71.856 E7.82801
G1 X92.504 Y74.402 E7.95974
G1 X92.329 Y74.793 E7.97541
G1 X89.787 Y72.25 E8.10697
G1 X89.616 Y72.646 E8.12275
G1 X92.154 Y75.183 E8.25404
G1 X91.979 Y75.574 E8.26971
G1 X89.445 Y73.04 E8.40082
G1 X89.275 Y73.435 E8.41655
G1 X91.803 Y75.964 E8.54738
G1 X91.628 Y76.354 E8.56302
G1 X89.103 Y73.83 E8.69364
G1 X88.933 Y74.225 E8.70937
G1 X91.452 Y76.745 E8.83973
G1 X91.277 Y77.135 E8.85537
G1 X88.629 Y74.487 E8.99238
G1 X88.063 Y74.487 E9.01309
G1 X91.102 Y77.525 E9.1703
G1 X90.926 Y77.916 E9.18599
G1 X87.498 Y74.487 E9.36338
G1 X86.932 Y74.487 E9.38409
G1 X90.751 Y78.306 E9.58169
G1 X90.576 Y78.697 E9.59736
G1 X86.366 Y74.487 E9.81519
G1 X85.801 Y74.487 E9.83586
G1 X90.401 Y79.087 E10.07387
G1 X90.226 Y79.478 E10.08954
G1 X85.235 Y74.487 E10.34778
G1 X84.669 Y74.487 E10.36849
G1 X90.05 Y79.868 E10.6469
G1 X89.875 Y80.258 E10.66254
G1 X87.393 Y77.776 E10.79096
G1 X87.221 Y78.17 E10.80669
G1 X89.7 Y80.649 E10.93495
G1 X89.524 Y81.039 E10.95061
G1 X87.049 Y78.564 E11.07867
G1 X86.877 Y78.958 E11.0944
G1 X89.349 Y81.429 E11.22227
G1 X89.173 Y81.82 E11.23796
G1 X86.706 Y79.352 E11.36563
G1 X86.535 Y79.746 E11.38134
G1 X88.998 Y82.21 E11.50881
G1 X88.823 Y82.6 E11.52445
G1 X86.363 Y80.14 E11.65173
G1 X86.191 Y80.534 E11.66746
G1 X88.648 Y82.991 E11.79458
G1 X88.473 Y83.382 E11.81026
G1 X86.019 Y80.928 E11.93723
G1 X85.847 Y81.322 E11.95296
G1 X88.297 Y83.772 E12.07972
G1 X88.122 Y84.162 E12.09536
G1 X85.675 Y81.716 E12.22194
G1 X85.504 Y82.109 E12.23762
G1 X87.947 Y84.553 E12.36405
G1 X87.771 Y84.943 E12.37971
G1 X85.332 Y82.503 E12.50593
G1 X85.16 Y82.897 E12.52166
G1 X87.596 Y85.333 E12.6477
G1 X87.421 Y85.723 E12.66334
G1 X84.988 Y83.291 E12.7892
G1 X84.816 Y83.685 E12.80492
G1 X87.245 Y86.114 E12.9306
G1 X87.07 Y86.504 E12.94624
G1 X84.644 Y84.079 E13.07174
G1 X84.473 Y84.473 E13.08745
G1 X86.894 Y86.894 E13.21272
G1 X86.72 Y87.285 E13.22837
G1 X84.301 Y84.866 E13.35353
G1 X84.129 Y85.26 E13.36926
G1 X86.544 Y87.676 E13.49424
G1 X86.369 Y88.066 E13.50988
G1 X83.958 Y85.655 E13.63463
G1 X83.786 Y86.049 E13.65036
G1 X86.194 Y88.456 E13.77492
G1 X86.018 Y88.847 E13.79061
G1 X83.614 Y86.443 E13.91499
G1 X83.442 Y86.836 E13.93069
G1 X85.843 Y89.237 E14.05492
G1 X85.668 Y89.627 E14.07056
G1 X83.271 Y87.23 E14.19458
G1 X83.099 Y87.624 E14.21031
G1 X85.492 Y90.018 E14.33415
G1 X85.317 Y90.408 E14.34979
G1 X82.927 Y88.018 E14.47345
G1 X82.809 Y88.288 E14.48423
G1 X82.633 Y88.29 E14.49067
G1 X85.142 Y90.798 E14.62046
G1 X84.966 Y91.189 E14.63615
G1 X75.91 Y82.133 E15.10471
G1 X76.403 Y83.191 E15.14742
G1 X84.792 Y91.58 E15.58147
G1 X84.616 Y91.97 E15.59712
G1 X76.825 Y84.178 E16.00026
G1 X76.913 Y84.468 E16.01135
G1 X76.976 Y84.895 E16.02714
G1 X84.441 Y92.36 E16.41338
G1 X84.265 Y92.751 E16.42907
G1 X76.982 Y85.467 E16.80592
G1 X76.919 Y85.926 E16.82287
G1 X76.909 Y85.96 E16.82417
G1 X84.09 Y93.141 E17.19572
G1 X83.915 Y93.531 E17.21136
G1 X78.866 Y88.483 E17.47257
G1 X79.359 Y89.541 E17.51528
G1 X83.739 Y93.922 E17.74193
G1 X83.564 Y94.312 E17.75756
G1 X79.852 Y90.6 E17.94963
G1 X80.345 Y91.659 E17.99236
G1 X83.389 Y94.702 E18.14984
G1 X83.213 Y95.093 E18.16552
G1 X80.5 Y92.379 E18.30592
G1 X80.114 Y92.559 E18.3215
G1 X83.039 Y95.484 E18.47285
G1 X82.863 Y95.874 E18.4885
G1 X79.728 Y92.739 E18.65071
G1 X79.343 Y92.919 E18.66626
G1 X82.688 Y96.264 E18.83933
G1 X82.59 Y96.481 E18.84804
G1 X82.556 Y96.408 E18.85099
G1 X82.331 Y96.002 E18.86797
G1 X82.035 Y95.613 E18.88585
G1 X81.69 Y95.271 E18.90362
G1 X81.297 Y94.977 E18.92158
G1 X80.865 Y94.743 E18.93956
G1 X80.448 Y94.591 E18.95579
G1 X78.956 Y93.099 E19.03299
G1 X78.57 Y93.278 E19.04856
G1 X79.751 Y94.458 E19.10964
G1 X79.442 Y94.439 E19.12096
G1 X79.181 Y94.455 E19.13053
G1 X78.184 Y93.458 E19.18212
G1 X77.798 Y93.637 E19.19768
G1 X78.688 Y94.528 E19.24376
G1 X78.485 Y94.573 E19.25137
G1 X78.249 Y94.654 E19.26049
G1 X77.406 Y93.811 E19.30411
G1 X77.339 Y93.838 E19.30676
G1 X76.92 Y93.891 E19.32221
G1 X77.806 Y94.777 E19.36805
G1 X77.636 Y94.815 E19.37442
G1 X77.443 Y94.839 E19.38154
G1 X77.305 Y94.842 E19.38659
G1 X76.04 Y93.577 E19.45204
G0 F3600 X75.907 Y93.485
G1 F1500 X75.801 Y93.338 E19.45867
G1 X75.632 Y93.1 E19.46935
G1 X75.2 Y92.17 E19.50687
G1 X73.695 Y90.665 E19.58474
G1 X73.7 Y90.563 E19.58847
G1 X73.728 Y90.355 E19.59615
G1 X73.772 Y90.177 E19.60286
G1 X74.724 Y91.129 E19.65212
G1 X74.695 Y91.054 E19.65506
G1 X74.634 Y90.565 E19.67309
G1 X74.652 Y90.491 E19.67587
G1 X73.903 Y89.743 E19.7146
G1 X74.069 Y89.395 E19.72871
G1 X74.089 Y89.362 E19.73012
G1 X74.768 Y90.041 E19.76525
G1 X74.995 Y89.703 E19.78015
G1 X74.319 Y89.027 E19.81512
G1 X74.432 Y88.879 E19.82194
G1 X74.575 Y88.725 E19.82963
G1 X74.579 Y88.722 E19.82981
G1 X75.304 Y89.446 E19.86729
G1 X75.435 Y89.354 E19.87315
G1 X75.668 Y89.245 E19.88256
G1 X74.882 Y88.459 E19.92323
G1 X74.891 Y88.45 E19.9237
G1 X75.062 Y88.328 E19.93138
G1 X75.22 Y88.231 E19.93816
G1 X76.054 Y89.065 E19.98132
G1 X76.44 Y88.885 E19.9969
G1 X75.564 Y88.01 E20.0422
G1 X75.651 Y87.948 E20.04611
G1 X75.873 Y87.752 E20.05694
G1 X76.826 Y88.705 E20.10625
G1 X77.211 Y88.525 E20.1218
G1 X76.151 Y87.464 E20.17667
G1 X76.327 Y87.26 E20.18653
G1 X76.397 Y87.145 E20.19145
G1 X77.597 Y88.345 E20.25354
G1 X77.983 Y88.166 E20.26911
G1 X76.61 Y86.792 E20.34017
G1 X76.784 Y86.401 E20.35583
G1 X78.369 Y87.986 E20.43784
G0 F3600 X78.866 Y88.483
G1 F1500 X78.587 Y87.884 E20.46202
;;retract;;
G1 F6000 E12.46202
G0 F3600 X82.24 Y88.292
G1 F6000 E20.46202
G1 F1500 X81.907 Y87.563 E20.49134
G1 X75.417 Y81.074 E20.82711
G1 X74.924 Y80.015 E20.86985
G1 X81.431 Y86.522 E21.20652
G1 X80.955 Y85.48 E21.24844
G1 X74.43 Y78.956 E21.58602
G1 X73.937 Y77.897 E21.62875
G1 X80.478 Y84.438 E21.96719
G1 X80.002 Y83.396 E22.0091
G1 X73.444 Y76.838 E22.34842
G1 X72.951 Y75.779 E22.39115
G1 X79.526 Y82.355 E22.73138
G1 X79.05 Y81.313 E22.77329
G1 X72.457 Y74.72 E23.11441
G1 X71.965 Y73.662 E23.1571
G1 X78.574 Y80.271 E23.49906
G1 X78.098 Y79.229 E23.54097
G1 X71.471 Y72.602 E23.88385
G1 X70.978 Y71.544 E23.92656
G1 X77.621 Y78.187 E24.27027
G1 X77.385 Y77.669 E24.2911
G1 X77.669 Y77.669 E24.30149
G1 X70.485 Y70.485 E24.67319
G1 X69.992 Y69.426 E24.71593
G1 X78.235 Y77.669 E25.14243
G1 X78.8 Y77.669 E25.1631
G1 X69.498 Y68.367 E25.64439
G1 X69.108 Y67.528 E25.67824
G1 X69.225 Y67.528 E25.68252
G1 X75.819 Y74.122 E26.0237
G1 X75.34 Y73.077 E26.06576
G1 X69.791 Y67.528 E26.35286
G1 X70.357 Y67.528 E26.37357
G1 X74.861 Y72.032 E26.60661
G1 X74.382 Y70.988 E26.64864
G1 X70.922 Y67.528 E26.82766
G1 X71.488 Y67.528 E26.84837
G1 X73.903 Y69.944 E26.97335
G1 X73.425 Y68.899 E27.01539
G1 X72.054 Y67.528 E27.08632
G1 X72.619 Y67.528 E27.107
G1 X72.796 Y67.528 E27.11347
G0 F3600 X72.946 Y67.855
G1 F1500 X72.619 Y67.528 E27.13039
;;retract;;
G1 F6000 E19.13039
G0 F3600 X75.986 Y74.487
G1 F6000 E27.13039
G1 F1500 X75.819 Y74.122 E27.14508
G0 F3600 X76.184 Y74.487
G1 F1500 X79.366 Y77.669 E27.30971
G1 X79.932 Y77.669 E27.33042
G1 X76.75 Y74.487 E27.49506
G1 X77.315 Y74.487 E27.51573
G1 X80.497 Y77.669 E27.68037
G1 X81.063 Y77.669 E27.70108
G1 X77.881 Y74.487 E27.86572
G1 X78.447 Y74.487 E27.88642
G1 X81.629 Y77.669 E28.05106
G1 X82.194 Y77.669 E28.07173
G1 X79.012 Y74.487 E28.23637
G1 X79.578 Y74.487 E28.25708
G1 X82.76 Y77.669 E28.42172
G1 X83.326 Y77.669 E28.44243
G1 X80.144 Y74.487 E28.60707
G1 X80.709 Y74.487 E28.62774
G1 X83.891 Y77.669 E28.79238
G1 X84.457 Y77.669 E28.81308
G1 X81.275 Y74.487 E28.97772
G1 X81.841 Y74.487 E28.99843
G1 X85.023 Y77.669 E29.16307
G1 X85.588 Y77.669 E29.18374
G1 X82.406 Y74.487 E29.34838
G1 X82.972 Y74.487 E29.36909
G1 X86.154 Y77.669 E29.53373
G1 X86.72 Y77.669 E29.55443
G1 X83.538 Y74.487 E29.71907
G1 X84.103 Y74.487 E29.73974
G1 X87.285 Y77.669 E29.90438
G0 F3600 X87.393 Y77.776
G1 F1500 X87.44 Y77.67 E29.90862
;;retract;;
G1 F6000 E21.90862
G0 F3600 X95.484 Y67.766
G1 F6000 E29.90862
G1 F1500 X95.247 Y67.528 E29.92091
;;retract;;
G1 F6000 E21.92091
G0 F3600 X75.801 Y93.338
G1 F6000 E29.92091
G1 F1500 X73.705 Y91.241 E30.02939
G1 X73.763 Y91.588 E30.04226
G1 X73.817 Y91.782 E30.04963
G1 X73.902 Y92.004 E30.05832
G1 X76.709 Y94.81 E30.20353
G1 X76.402 Y94.755 E30.21494
G1 X76.199 Y94.696 E30.22268
G1 X75.91 Y94.578 E30.2341
G1 X75.834 Y94.547 E30.2371
G1 X75.625 Y94.436 E30.24576
G1 X75.299 Y94.217 E30.26013
G1 X75.137 Y94.084 E30.2678
G1 X74.836 Y93.777 E30.28353
G1 X74.712 Y93.623 E30.29076
G1 X74.489 Y93.274 E30.30591
G0 F3600 X74.488 Y93.275
G1 F1500 X74.381 Y93.068 E30.31444
G0 F3600 X74.363 Y93.031
G1 F1500 X75.91 Y94.578 E30.39448
;;retract;;
G1 F6000 E22.39448
G0 F3600 X82.523 Y96.382
;TYPE:SKIN
G1 F6000 E30.39448
G1 F1500 X82.491 Y96.633 E30.40423
G1 X82.703 Y96.28 E30.42008
G0 F3600 X82.853 Y96.146
G1 F1500 X82.915 Y96.208 E30.42169
;;retract;;
G1 F6000 E22.42169
;MESH:NONMESH
G0 F600 X82.915 Y96.208 Z0.5
G0 F3600 X78.472 Y88.205
;TIME_ELAPSED:50.804550

;LAYER:1
M140 S60
M106 S127.5
;TYPE:WALL-OUTER
;MESH:
G1 F6000 E30.42169
G1 F1500 X78.291 Y88.289 E30.43164
G1 X75.556 Y89.564 E30.58219
G1 X75.241 Y89.784 E30.60136
G1 X75.038 Y90.039 E30.61762
G1 X74.9 Y90.413 E30.63751
G1 X74.878 Y90.735 E30.65361
G1 X74.973 Y91.112 E30.67301
G1 X75.841 Y92.979 E30.77573
G1 X76.062 Y93.295 E30.79497
G1 X76.317 Y93.497 E30.8112
G1 X76.691 Y93.635 E30.83109
G1 X77.013 Y93.657 E30.84719
G1 X77.39 Y93.562 E30.86658
G1 X80.149 Y92.279 E31.01839
G1 X80.33 Y92.195 E31.02834
G1 X80.246 Y92.014 E31.03477
G1 X78.556 Y88.386 E31.23445
