; generated by Slic3r Prusa Edition 1.39.1-prusa3d on 2018-04-22 at 18:17:10

; 

; external perimeters extrusion width = 0.45mm
; perimeters extrusion width = 0.45mm
; infill extrusion width = 0.45mm
; solid infill extrusion width = 0.45mm
; top infill extrusion width = 0.33mm
; first layer extrusion width = 0.42mm

M107
M115 U3.1.0 ; tell printer latest fw version
M201 X9000 Y9000 Z500 E10000 ; sets maximum accelerations, mm/sec^2
M203 X500 Y500 Z12 E120 ; sets maximum feedrates, mm/sec
M204 S1500 T1500 ; sets acceleration (S) and retract acceleration (T)
M205 X10 Y10 Z0.2 E2.5 ; sets the jerk limits, mm/sec
M205 S0 T0 ; sets the minimum extruding and travel feed rate, mm/sec
M83  ; extruder relative mode
M104 S215 ; set extruder temp
M140 S60 ; set bed temp
M190 S60 ; wait for bed temp
M109 S215 ; wait for extruder temp
G28 W ; home all without mesh bed level
G80 ; mesh bed leveling
G1 Y-3.0 F1000.0 ; go outside print area
G92 E0.0
G1 E18.0 F1000.0;
G1 X60.0 E9.0  F1000.0 ; intro line
G1 X100.0 E12.5  F1000.0 ; intro line
G92 E0.0
M900 K30; Filament gcode
G21 ; set units to millimeters
G90 ; use absolute coordinates
M83 ; use relative distances for extrusion
;BEFORE_LAYER_CHANGE
;0.2


G1 E-0.80000 F2100.00000
G1 Z0.600 F7200.000
;AFTER_LAYER_CHANGE
;0.2
G1 X108.917 Y88.065 F7200.000
G1 Z0.200 F7200.000
G1 E0.80000 F2100.00000
M204 S1000
G1 F900
G1 X109.476 Y87.533 E0.02422
G1 X110.162 Y87.177 E0.02422
G1 X110.920 Y87.026 E0.02422
G1 X138.929 Y87.022 E0.87823
G1 X139.491 Y87.080 E0.01771
G1 X140.025 Y87.251 E0.01758
G1 X140.514 Y87.526 E0.01758
G1 X140.939 Y87.897 E0.01771
G1 X141.278 Y88.344 E0.01758
G1 X141.521 Y88.854 E0.01771
G1 X141.654 Y89.399 E0.01758
G1 X141.673 Y89.964 E0.01771
G1 X137.319 Y114.360 E0.77703
G1 X136.962 Y115.510 E0.03775
G1 X135.966 Y117.710 E0.07571
G1 X135.509 Y118.450 E0.02728
G1 X134.664 Y119.381 E0.03943
G1 X133.670 Y120.086 E0.03819
G1 X132.862 Y120.460 E0.02792
G1 X126.002 Y122.874 E0.22801
G1 X125.094 Y122.974 E0.02866
G1 X124.202 Y122.771 E0.02866
G1 X123.369 Y122.235 E0.03107
G1 X122.779 Y121.439 E0.03107
G1 X108.573 Y90.927 E1.05529
G1 X108.390 Y90.393 E0.01771
G1 X108.321 Y89.832 E0.01771
G1 X108.368 Y89.269 E0.01771
G1 X108.528 Y88.728 E0.01771
G1 X108.886 Y88.117 E0.02221
G1 X109.209 Y88.308 F7200.000
G1 F900
G1 X109.708 Y87.831 E0.02165
G1 X110.303 Y87.527 E0.02095
G1 X110.960 Y87.402 E0.02095
G1 X138.929 Y87.399 E0.87696
G1 X139.417 Y87.450 E0.01538
G1 X139.880 Y87.599 E0.01526
G1 X140.307 Y87.841 E0.01538
G1 X140.674 Y88.166 E0.01538
G1 X140.967 Y88.559 E0.01538
G1 X141.174 Y89.004 E0.01538
G1 X141.284 Y89.482 E0.01538
G1 X141.294 Y89.973 E0.01538
G1 X136.948 Y114.293 E0.77463
G1 X136.609 Y115.379 E0.03566
G1 X135.724 Y117.347 E0.06767
G1 X135.209 Y118.222 E0.03181
G1 X134.417 Y119.096 E0.03698
G1 X133.493 Y119.753 E0.03557
G1 X132.731 Y120.107 E0.02632
G1 X125.914 Y122.507 E0.22661
G1 X125.119 Y122.598 E0.02508
G1 X124.336 Y122.418 E0.02520
G1 X123.621 Y121.955 E0.02673
G1 X123.113 Y121.265 E0.02684
G1 X108.915 Y90.769 E1.05474
G1 X108.757 Y90.304 E0.01538
G1 X108.698 Y89.817 E0.01538
G1 X108.740 Y89.329 E0.01538
G1 X108.880 Y88.863 E0.01526
G1 X109.178 Y88.360 E0.01834
G1 F5760
G1 X109.708 Y87.831 E-0.25927
G1 F5760
G1 X110.303 Y87.527 E-0.23142
G1 F5760
G1 X110.960 Y87.402 E-0.23142
G1 F5760
G1 X111.069 Y87.402 E-0.03789
G1 E-0.04000 F2100.00000
G1 Z0.800 F7200.000
G1 X129.053 Y110.324 F7200.000
G1 Z0.200 F7200.000
G1 E0.80000 F2100.00000
G1 F900
G1 X132.065 Y111.688 E0.10367
G1 X132.406 Y111.937 E0.01323
G1 X132.587 Y112.121 E0.00808
G1 X132.827 Y112.456 E0.01292
G1 X132.997 Y112.841 E0.01320
G1 X133.061 Y113.082 E0.00782
G1 X133.104 Y113.501 E0.01322
G1 X133.057 Y113.936 E0.01370
G1 X132.930 Y114.321 E0.01273
G1 X132.495 Y115.290 E0.03328
G1 X132.291 Y115.641 E0.01273
G1 X131.997 Y115.965 E0.01370
G1 X131.643 Y116.220 E0.01370
G1 X131.243 Y116.397 E0.01370
G1 X130.831 Y116.483 E0.01322
G1 X130.597 Y116.495 E0.00734
G1 X130.363 Y116.482 E0.00734
G1 X129.952 Y116.393 E0.01319
G1 X126.932 Y115.047 E0.10367
G1 X129.029 Y110.379 E0.16046
G1 X129.242 Y110.824 F7200.000
G1 F900
G1 X131.874 Y112.016 E0.09059
G1 X132.158 Y112.224 E0.01105
G1 X132.297 Y112.365 E0.00621
G1 X132.498 Y112.644 E0.01078
G1 X132.640 Y112.966 E0.01104
G1 X132.689 Y113.150 E0.00596
G1 X132.725 Y113.500 E0.01104
G1 X132.686 Y113.856 E0.01122
G1 X132.578 Y114.185 E0.01087
G1 X132.159 Y115.117 E0.03204
G1 X131.985 Y115.417 E0.01087
G1 X131.745 Y115.682 E0.01122
G1 X131.455 Y115.891 E0.01122
G1 X131.127 Y116.036 E0.01122
G1 X130.783 Y116.108 E0.01104
G1 X130.598 Y116.117 E0.00579
G1 X130.414 Y116.107 E0.00579
G1 X130.070 Y116.032 E0.01103
G1 X127.431 Y114.857 E0.09059
G1 X129.218 Y110.878 E0.13675
G1 X129.334 Y110.434 F7200.000
G1 F5760
G1 X131.235 Y111.742 E-0.76000
G1 E-0.04000 F2100.00000
G1 Z0.800 F7200.000
G1 X119.809 Y100.210 F7200.000
G1 Z0.200 F7200.000
G1 E0.80000 F2100.00000
G1 F900
G1 X130.322 Y100.210 E0.32962
G1 X125.189 Y111.978 E0.40255
G1 X119.834 Y100.265 E0.40382
G1 X120.396 Y100.587 F7200.000
G1 F900
G1 X129.746 Y100.587 E0.29316
G1 X125.181 Y111.054 E0.35802
G1 X120.421 Y100.642 E0.35894
G1 X120.196 Y100.241 F7200.000
G1 F5760
G1 X122.615 Y100.629 E-0.76000
G1 E-0.04000 F2100.00000
G1 Z0.800 F7200.000
G1 X118.547 Y97.321 F7200.000
G1 Z0.200 F7200.000
G1 E0.80000 F2100.00000
G1 F900
G1 X131.574 Y97.321 E0.40846
G1 X134.580 Y90.363 E0.23765
G1 X138.018 Y90.363 E0.10781
G1 X130.856 Y106.310 E0.54813
G1 X130.758 Y106.553 E0.00820
G1 X130.624 Y107.019 E0.01521
G1 X130.576 Y107.297 E0.00886
G1 X130.544 Y107.787 E0.01537
G1 X130.585 Y108.308 E0.01639
G1 X130.693 Y108.789 E0.01547
G1 X130.779 Y109.043 E0.00840
G1 X130.885 Y109.296 E0.00859
G1 X131.125 Y109.727 E0.01546
G1 X131.436 Y110.138 E0.01617
G1 X131.803 Y110.500 E0.01617
G1 X132.216 Y110.804 E0.01609
G1 X132.802 Y111.110 E0.02072
G1 X133.116 Y111.309 E0.01166
G1 X133.487 Y111.653 E0.01584
G1 X133.695 Y111.927 E0.01079
G1 X133.862 Y112.228 E0.01079
G1 X133.984 Y112.549 E0.01079
G1 X134.061 Y112.895 E0.01112
G1 X134.081 Y113.411 E0.01617
G1 X133.992 Y113.908 E0.01584
G1 X133.867 Y114.251 E0.01145
G1 X133.104 Y115.949 E0.05838
G1 X132.889 Y116.362 E0.01458
G1 X132.687 Y116.635 E0.01066
G1 X132.446 Y116.880 E0.01079
G1 X132.171 Y117.088 E0.01079
G1 X131.871 Y117.255 E0.01079
G1 X131.549 Y117.377 E0.01079
G1 X131.213 Y117.452 E0.01079
G1 X130.870 Y117.479 E0.01080
G1 X130.366 Y117.430 E0.01586
G1 X130.010 Y117.327 E0.01163
G1 X129.401 Y117.096 E0.02041
G1 X129.120 Y117.027 E0.00907
G1 X128.633 Y116.960 E0.01542
G1 X128.135 Y116.963 E0.01563
G1 X127.597 Y117.043 E0.01703
G1 X127.126 Y117.185 E0.01545
G1 X126.673 Y117.395 E0.01564
G1 X126.426 Y117.543 E0.00902
G1 X126.029 Y117.845 E0.01565
G1 X125.678 Y118.200 E0.01567
G1 X125.502 Y118.422 E0.00887
G1 X125.247 Y118.825 E0.01496
G1 X111.996 Y90.363 E0.98438
G1 X115.355 Y90.363 E0.10534
G1 X118.522 Y97.266 E0.23814
G1 X118.789 Y96.944 F7200.000
G1 F900
G1 X131.326 Y96.944 E0.39310
G1 X134.332 Y89.986 E0.23765
G1 X138.601 Y89.986 E0.13385
G1 X131.203 Y106.458 E0.56618
G1 X131.115 Y106.676 E0.00735
G1 X130.992 Y107.103 E0.01394
G1 X130.951 Y107.342 E0.00760
G1 X130.922 Y107.784 E0.01390
G1 X130.959 Y108.252 E0.01470
G1 X131.056 Y108.687 E0.01400
G1 X131.131 Y108.909 E0.00734
G1 X131.225 Y109.130 E0.00753
G1 X131.441 Y109.520 E0.01399
G1 X131.720 Y109.888 E0.01447
G1 X132.049 Y110.212 E0.01447
G1 X132.417 Y110.484 E0.01433
G1 X132.991 Y110.783 E0.02030
G1 X133.335 Y111.002 E0.01279
G1 X133.485 Y111.121 E0.00601
G1 X133.771 Y111.403 E0.01260
G1 X134.012 Y111.720 E0.01248
G1 X134.204 Y112.069 E0.01248
G1 X134.346 Y112.441 E0.01248
G1 X134.434 Y112.833 E0.01260
G1 X134.455 Y113.023 E0.00601
G1 X134.458 Y113.428 E0.01271
G1 X134.439 Y113.619 E0.00601
G1 X134.356 Y114.012 E0.01260
G1 X134.216 Y114.393 E0.01271
G1 X133.444 Y116.114 E0.05915
G1 X133.210 Y116.562 E0.01584
G1 X132.975 Y116.881 E0.01243
G1 X132.695 Y117.164 E0.01248
G1 X132.378 Y117.405 E0.01248
G1 X132.030 Y117.598 E0.01248
G1 X131.658 Y117.739 E0.01248
G1 X131.269 Y117.826 E0.01248
G1 X130.872 Y117.857 E0.01248
G1 X130.482 Y117.832 E0.01227
G1 X130.282 Y117.798 E0.00634
G1 X129.891 Y117.686 E0.01278
G1 X129.289 Y117.457 E0.02019
G1 X129.049 Y117.398 E0.00773
G1 X128.608 Y117.337 E0.01396
G1 X128.157 Y117.340 E0.01415
G1 X127.917 Y117.367 E0.00755
G1 X127.687 Y117.410 E0.00736
G1 X127.260 Y117.539 E0.01399
G1 X126.850 Y117.728 E0.01417
G1 X126.638 Y117.856 E0.00774
G1 X126.278 Y118.129 E0.01416
G1 X125.960 Y118.451 E0.01418
G1 X125.810 Y118.640 E0.00760
G1 X125.570 Y119.019 E0.01403
G1 X125.249 Y119.723 E0.02427
G1 X111.404 Y89.986 E1.02847
G1 X115.597 Y89.986 E0.13147
G1 X118.764 Y96.889 E0.23814
G1 X118.896 Y97.329 F7200.000
G1 F5760
G1 X120.958 Y96.899 E-0.76000
G1 E-0.04000 F2100.00000
G1 Z0.800 F7200.000
G1 X113.377 Y93.062 F7200.000
G1 Z0.200 F7200.000
G1 E0.80000 F2100.00000
G1 F900
G1 X120.242 Y99.927 E0.30634
G1 X119.706 Y99.927 E0.01693
G1 X114.195 Y94.417 E0.24591
G1 X114.662 Y95.421 E0.03495
G1 X119.537 Y100.296 E0.21754
G1 X119.989 Y101.284 E0.03430
G1 X115.130 Y96.425 E0.21684
G1 X115.597 Y97.429 E0.03495
G1 X120.441 Y102.273 E0.21615
G1 X120.893 Y103.261 E0.03430
G1 X116.065 Y98.433 E0.21545
G1 X116.532 Y99.437 E0.03495
G1 X121.345 Y104.250 E0.21475
G1 X121.797 Y105.239 E0.03430
G1 X117.000 Y100.441 E0.21406
G1 X117.467 Y101.446 E0.03495
G1 X122.249 Y106.227 E0.21336
G1 X122.701 Y107.216 E0.03430
G1 X117.935 Y102.450 E0.21267
G1 X118.402 Y103.454 E0.03495
G1 X123.153 Y108.204 E0.21197
G1 X123.605 Y109.193 E0.03430
G1 X118.870 Y104.458 E0.21128
G1 X119.337 Y105.462 E0.03495
G1 X124.056 Y110.181 E0.21058
G1 X124.508 Y111.170 E0.03430
G1 X119.805 Y106.466 E0.20989
G1 X120.272 Y107.470 E0.03495
G1 X127.002 Y114.200 E0.30031
G1 X126.836 Y114.571 E0.01281
G1 X120.740 Y108.474 E0.27202
G1 X121.207 Y109.479 E0.03495
G1 X126.670 Y114.941 E0.24374
G1 X126.558 Y115.190 E0.00863
G1 X127.209 Y115.481 E0.02251
G1 X128.407 Y116.679 E0.05346
G1 X128.651 Y116.677 E0.00771
G1 X128.989 Y116.724 E0.01074
G1 X128.177 Y115.912 E0.03623
G1 X129.144 Y116.343 E0.03342
G1 X129.715 Y116.913 E0.02546
G1 X130.099 Y117.059 E0.01296
G1 X130.420 Y117.151 E0.01052
G1 X130.497 Y117.158 E0.00245
G1 X130.039 Y116.701 E0.02041
G1 X130.325 Y116.763 E0.00923
G1 X130.650 Y116.775 E0.01026
G1 X131.056 Y117.181 E0.01811
G1 X131.171 Y117.172 E0.00364
G1 X131.504 Y117.092 E0.01079
G1 X131.123 Y116.711 E0.01700
G1 X131.330 Y116.667 E0.00669
G1 X131.528 Y116.580 E0.00684
G1 X131.877 Y116.928 E0.01553
G1 X132.017 Y116.850 E0.00505
G1 X132.198 Y116.713 E0.00718
G1 X131.882 Y116.397 E0.01411
G1 X132.192 Y116.171 E0.01212
G1 X132.472 Y116.451 E0.01249
G1 X132.690 Y116.132 E0.01218
G1 X132.447 Y115.889 E0.01083
G1 X132.520 Y115.809 E0.00342
G1 X132.661 Y115.566 E0.00885
G1 X132.872 Y115.777 E0.00939
G1 X133.038 Y115.406 E0.01281
G1 X132.841 Y115.209 E0.00879
G1 X133.007 Y114.839 E0.01281
G1 X133.204 Y115.036 E0.00879
G1 X133.371 Y114.666 E0.01281
G1 X133.174 Y114.469 E0.00879
G1 X133.311 Y114.069 E0.01333
G1 X133.537 Y114.295 E0.01010
G1 X133.690 Y113.912 E0.01303
G1 X133.378 Y113.599 E0.01394
G1 X133.388 Y113.502 E0.00308
G1 X133.338 Y113.023 E0.01520
G1 X133.783 Y113.468 E0.01987
G1 X133.797 Y113.391 E0.00248
G1 X133.779 Y112.927 E0.01464
G1 X127.724 Y106.873 E0.27016
G1 X127.887 Y106.499 E0.01286
G1 X130.505 Y109.117 E0.11681
G1 X130.420 Y108.866 E0.00836
G1 X130.313 Y108.388 E0.01546
G1 X128.050 Y106.125 E0.10096
G1 X128.213 Y105.752 E0.01286
G1 X130.262 Y107.800 E0.09140
G1 X130.293 Y107.295 E0.01598
G1 X128.376 Y105.378 E0.08553
G1 X128.539 Y105.004 E0.01286
G1 X130.380 Y106.845 E0.08213
G1 X130.502 Y106.431 E0.01363
G1 X128.702 Y104.631 E0.08031
G1 X128.865 Y104.257 E0.01286
G1 X130.661 Y106.053 E0.08015
G1 X130.828 Y105.683 E0.01281
G1 X129.028 Y103.884 E0.08029
G1 X129.191 Y103.510 E0.01286
G1 X130.994 Y105.313 E0.08044
G1 X131.160 Y104.942 E0.01281
G1 X129.354 Y103.136 E0.08059
G1 X129.517 Y102.763 E0.01286
G1 X131.327 Y104.572 E0.08074
G1 X131.493 Y104.202 E0.01281
G1 X129.680 Y102.389 E0.08089
G1 X129.843 Y102.015 E0.01286
G1 X131.659 Y103.831 E0.08104
G1 X131.825 Y103.461 E0.01281
G1 X130.006 Y101.642 E0.08119
G1 X130.169 Y101.268 E0.01286
G1 X131.992 Y103.091 E0.08133
G1 X132.158 Y102.720 E0.01281
G1 X130.332 Y100.894 E0.08148
G1 X130.495 Y100.521 E0.01286
G1 X132.453 Y102.478 E0.08736
G1 F5760
G1 X130.901 Y100.927 E-0.76000
G1 E-0.04000 F2100.00000
G1 Z0.800 F7200.000
G1 X132.433 Y111.045 F7200.000
G1 Z0.200 F7200.000
G1 E0.80000 F2100.00000
G1 F900
G1 X133.817 Y112.429 E0.06174
G1 F5760
G1 X132.433 Y111.045 E-0.67777
G1 E-0.12223 F2100.00000
G1 Z0.800 F7200.000
G1 X131.725 Y111.410 F7200.000
G1 Z0.200 F7200.000
G1 E0.80000 F2100.00000
G1 F900
G1 X127.561 Y107.246 E0.18577
G1 X127.398 Y107.620 E0.01286
G1 X130.403 Y110.625 E0.13409
G1 X129.423 Y110.181 E0.03397
G1 X127.235 Y107.994 E0.09760
G1 X127.072 Y108.367 E0.01286
G1 X128.832 Y110.127 E0.07851
G1 X128.665 Y110.497 E0.01281
G1 X126.909 Y108.741 E0.07836
G1 X126.746 Y109.115 E0.01286
G1 X128.499 Y110.867 E0.07821
G1 X128.333 Y111.238 E0.01281
G1 X126.583 Y109.488 E0.07806
G1 X126.420 Y109.862 E0.01286
G1 X128.167 Y111.608 E0.07791
G1 X128.000 Y111.978 E0.01281
G1 X126.257 Y110.236 E0.07777
G1 X126.094 Y110.609 E0.01286
G1 X127.834 Y112.349 E0.07762
G1 X127.668 Y112.719 E0.01281
G1 X125.931 Y110.983 E0.07747
G1 X125.768 Y111.357 E0.01286
G1 X127.501 Y113.089 E0.07732
G1 X127.335 Y113.460 E0.01281
G1 X125.605 Y111.730 E0.07717
G1 X125.442 Y112.104 E0.01286
G1 X127.297 Y113.958 E0.08275
G1 F5760
G1 X125.745 Y112.407 E-0.76000
G1 E-0.04000 F2100.00000
G1 Z0.800 F7200.000
G1 X128.053 Y116.861 F7200.000
G1 Z0.200 F7200.000
G1 E0.80000 F2100.00000
G1 F900
G1 X121.675 Y110.483 E0.28460
G1 X122.142 Y111.487 E0.03495
G1 X127.448 Y116.793 E0.23677
G1 X127.036 Y116.917 E0.01359
G1 X122.610 Y112.491 E0.19749
G1 X123.077 Y113.495 E0.03495
G1 X126.668 Y117.086 E0.16021
G1 X126.321 Y117.276 E0.01247
G1 X123.545 Y114.499 E0.12390
G1 X124.012 Y115.503 E0.03495
G1 X126.012 Y117.503 E0.08921
G1 X125.842 Y117.632 E0.00673
G1 X125.724 Y117.751 E0.00530
G1 X124.480 Y116.508 E0.05550
G1 X124.947 Y117.512 E0.03495
G1 X125.579 Y118.143 E0.02818
G1 F5760
G1 X124.947 Y117.512 E-0.30930
G1 F5760
G1 X124.480 Y116.508 E-0.38363
G1 F5760
G1 X124.617 Y116.644 E-0.06707
G1 E-0.04000 F2100.00000
G1 Z0.800 F7200.000
G1 X137.609 Y90.998 F7200.000
G1 Z0.200 F7200.000
G1 E0.80000 F2100.00000
G1 F900
G1 X137.256 Y90.646 E0.01574
G1 X136.719 Y90.646 E0.01693
G1 X137.314 Y91.240 E0.02654
G1 X137.148 Y91.611 E0.01281
G1 X136.183 Y90.646 E0.04306
G1 X135.646 Y90.646 E0.01693
G1 X136.981 Y91.981 E0.05958
G1 X136.815 Y92.351 E0.01281
G1 X135.109 Y90.646 E0.07611
G1 X134.766 Y90.646 E0.01085
G1 X134.707 Y90.780 E0.00463
G1 X136.649 Y92.722 E0.08662
G1 X136.482 Y93.092 E0.01281
G1 X134.546 Y91.155 E0.08642
G1 X134.384 Y91.530 E0.01288
G1 X136.316 Y93.462 E0.08623
G1 X136.150 Y93.833 E0.01281
G1 X134.222 Y91.905 E0.08603
G1 X134.060 Y92.279 E0.01288
G1 X135.983 Y94.203 E0.08583
G1 X135.817 Y94.573 E0.01281
G1 X133.898 Y92.654 E0.08563
G1 X133.736 Y93.029 E0.01288
G1 X135.651 Y94.944 E0.08544
G1 X135.484 Y95.314 E0.01281
G1 X133.574 Y93.404 E0.08524
G1 X133.412 Y93.778 E0.01288
G1 X135.318 Y95.684 E0.08504
G1 X135.152 Y96.055 E0.01281
G1 X133.250 Y94.153 E0.08484
G1 X133.089 Y94.528 E0.01288
G1 X134.986 Y96.425 E0.08465
G1 X134.819 Y96.795 E0.01281
G1 X132.927 Y94.903 E0.08445
G1 X132.765 Y95.277 E0.01288
G1 X134.653 Y97.166 E0.08425
G1 X134.487 Y97.536 E0.01281
G1 X132.603 Y95.652 E0.08405
G1 X132.441 Y96.027 E0.01288
G1 X134.320 Y97.906 E0.08386
G1 X134.154 Y98.277 E0.01281
G1 X132.279 Y96.402 E0.08366
G1 X132.117 Y96.776 E0.01288
G1 X133.988 Y98.647 E0.08346
G1 X133.821 Y99.017 E0.01281
G1 X131.955 Y97.151 E0.08326
G1 X131.793 Y97.526 E0.01288
G1 X133.655 Y99.388 E0.08307
G1 X133.489 Y99.758 E0.01281
G1 X131.335 Y97.604 E0.09612
G1 X130.798 Y97.604 E0.01693
G1 X133.322 Y100.128 E0.11264
G1 X133.156 Y100.498 E0.01281
G1 X130.261 Y97.604 E0.12917
G1 X129.725 Y97.604 E0.01693
G1 X132.990 Y100.869 E0.14569
