; generated by Slic3r Prusa Edition 1.39.1-prusa3d on 2018-05-09 at 12:53:29

; 

; external perimeters extrusion width = 0.45mm
; perimeters extrusion width = 0.45mm
; infill extrusion width = 0.45mm
; solid infill extrusion width = 0.45mm
; top infill extrusion width = 0.33mm
; first layer extrusion width = 0.42mm

M107
M115 U3.1.0 ; tell printer latest fw version
M201 X9000 Y9000 Z500 E10000 ; sets maximum accelerations, mm/sec^2
M203 X500 Y500 Z12 E120 ; sets maximum feedrates, mm/sec
M204 S1500 T1500 ; sets acceleration (S) and retract acceleration (T)
M205 X10 Y10 Z0.2 E2.5 ; sets the jerk limits, mm/sec
M205 S0 T0 ; sets the minimum extruding and travel feed rate, mm/sec
M83  ; extruder relative mode
M104 S200 ; set extruder temp
M140 S65 ; set bed temp
M190 S65 ; wait for bed temp
M109 S200 ; wait for extruder temp
G28 W ; home all without mesh bed level
G80 ; mesh bed leveling
G1 Y-3.0 F1000.0 ; go outside print area
G92 E0.0
G1 E18.0 F1000.0;
G1 X60.0 E9.0  F1000.0 ; intro line
G1 X100.0 E12.5  F1000.0 ; intro line
G92 E0.0
M900 K30; Filament gcode
G21 ; set units to millimeters
G90 ; use absolute coordinates
M83 ; use relative distances for extrusion
;BEFORE_LAYER_CHANGE
;0.2


G1 E-0.80000 F2100.00000
G1 Z0.600 F7200.000
;AFTER_LAYER_CHANGE
;0.2
G1 X84.231 Y82.730 F7200.000
G1 Z0.200 F7200.000
G1 E0.80000 F2100.00000
M204 S1000
G1 F900
G1 X84.748 Y82.362 E0.01988
G1 X85.335 Y82.123 E0.01988
G1 X85.966 Y82.024 E0.02001
G1 X113.929 Y82.022 E0.87679
G1 X114.571 Y82.099 E0.02026
G1 X115.177 Y82.323 E0.02026
G1 X115.715 Y82.682 E0.02026
G1 X116.156 Y83.160 E0.02039
G1 X116.471 Y83.724 E0.02026
G1 X116.646 Y84.350 E0.02039
G1 X116.670 Y85.000 E0.02039
G1 X116.542 Y85.634 E0.02026
G1 X102.513 Y116.794 E1.07147
G1 X101.975 Y117.371 E0.02473
G1 X101.292 Y117.774 E0.02485
G1 X100.523 Y117.965 E0.02485
G1 X99.735 Y117.930 E0.02473
G1 X92.494 Y115.286 E0.24169
G1 X91.306 Y114.654 E0.04222
G1 X90.351 Y113.857 E0.03900
G1 X89.569 Y112.879 E0.03925
G1 X88.703 Y111.162 E0.06029
G1 X88.314 Y110.027 E0.03761
G1 X83.358 Y85.231 E0.79286
G1 X83.322 Y84.700 E0.01669
G1 X83.388 Y84.172 E0.01669
G1 X83.552 Y83.670 E0.01656
G1 X83.812 Y83.206 E0.01669
G1 X84.191 Y82.775 E0.01800
G1 F5760
G1 X84.748 Y82.362 E-0.23990
G1 F5760
G1 X85.335 Y82.123 E-0.21962
G1 F5760
G1 X85.966 Y82.024 E-0.22103
G1 F5760
G1 X86.195 Y82.024 E-0.07945
G1 E-0.04000 F2100.00000
G1 Z0.800 F7200.000
G1 X83.755 Y84.255 F7200.000
G1 Z0.200 F7200.000
G1 E0.80000 F2100.00000
G1 F900
G1 X84.129 Y83.410 E0.02896
G1 X84.493 Y83.001 E0.01716
G1 X84.941 Y82.687 E0.01716
G1 X85.449 Y82.483 E0.01716
G1 X85.993 Y82.400 E0.01728
G1 X113.929 Y82.399 E0.87590
G1 X114.487 Y82.466 E0.01763
G1 X115.014 Y82.663 E0.01763
G1 X115.480 Y82.978 E0.01763
G1 X115.861 Y83.397 E0.01775
G1 X116.131 Y83.890 E0.01763
G1 X116.278 Y84.433 E0.01763
G1 X116.292 Y84.995 E0.01763
G1 X116.173 Y85.549 E0.01775
G1 X102.195 Y116.591 E1.06744
G1 X101.720 Y117.093 E0.02166
G1 X101.121 Y117.436 E0.02166
G1 X100.448 Y117.593 E0.02166
G1 X99.758 Y117.550 E0.02166
G1 X92.632 Y114.935 E0.23800
G1 X91.510 Y114.336 E0.03988
G1 X90.619 Y113.591 E0.03643
G1 X89.883 Y112.669 E0.03698
G1 X89.048 Y111.010 E0.05824
G1 X88.681 Y109.941 E0.03543
G1 X83.732 Y85.178 E0.79179
G1 X83.754 Y84.315 E0.02707
G1 F5760
G1 X84.129 Y83.410 E-0.33916
G1 F5760
G1 X84.493 Y83.001 E-0.18955
G1 F5760
G1 X84.941 Y82.687 E-0.18955
G1 F5760
G1 X85.053 Y82.642 E-0.04173
G1 E-0.04000 F2100.00000
G1 Z0.800 F7200.000
G1 X96.314 Y105.379 F7200.000
G1 Z0.200 F7200.000
G1 E0.80000 F2100.00000
G1 F900
G1 X98.499 Y110.070 E0.16227
G1 X95.067 Y111.658 E0.11855
G1 X94.685 Y111.732 E0.01221
G1 X94.327 Y111.714 E0.01124
G1 X94.106 Y111.663 E0.00712
G1 X93.771 Y111.517 E0.01147
G1 X93.478 Y111.294 E0.01152
G1 X93.322 Y111.120 E0.00733
G1 X93.152 Y110.845 E0.01013
G1 X92.219 Y108.823 E0.06982
G1 X92.149 Y108.465 E0.01143
G1 X92.146 Y108.238 E0.00713
G1 X92.204 Y107.893 E0.01096
G1 X92.286 Y107.674 E0.00733
G1 X92.467 Y107.366 E0.01122
G1 X92.722 Y107.104 E0.01145
G1 X92.907 Y106.973 E0.00711
G1 X96.260 Y105.404 E0.11606
G1 X96.132 Y105.879 F7200.000
G1 F900
G1 X97.997 Y109.887 E0.13860
G1 X94.951 Y111.297 E0.10525
G1 X94.658 Y111.353 E0.00934
G1 X94.379 Y111.339 E0.00875
G1 X94.225 Y111.303 E0.00498
G1 X93.963 Y111.189 E0.00896
G1 X93.735 Y111.016 E0.00898
G1 X93.625 Y110.893 E0.00518
G1 X93.484 Y110.666 E0.00836
G1 X92.580 Y108.706 E0.06768
G1 X92.525 Y108.426 E0.00895
G1 X92.523 Y108.267 E0.00498
G1 X92.570 Y107.991 E0.00877
G1 X92.627 Y107.837 E0.00518
G1 X92.769 Y107.596 E0.00875
G1 X92.968 Y107.392 E0.00895
G1 X93.098 Y107.300 E0.00498
G1 X96.077 Y105.905 E0.10315
G1 X96.494 Y105.709 F7200.000
G1 F5760
G1 X97.030 Y107.881 E-0.76000
G1 E-0.04000 F2100.00000
G1 Z0.800 F7200.000
G1 X94.809 Y95.210 F7200.000
G1 Z0.200 F7200.000
G1 E0.80000 F2100.00000
G1 F900
G1 X105.322 Y95.210 E0.32962
G1 X100.189 Y106.978 E0.40255
G1 X94.834 Y95.265 E0.40382
G1 X95.396 Y95.587 F7200.000
G1 F900
G1 X104.746 Y95.587 E0.29316
G1 X100.181 Y106.054 E0.35802
G1 X95.421 Y95.642 E0.35894
G1 X95.196 Y95.241 F7200.000
G1 F5760
G1 X97.615 Y95.629 E-0.76000
G1 E-0.04000 F2100.00000
G1 Z0.800 F7200.000
G1 X93.547 Y92.321 F7200.000
G1 Z0.200 F7200.000
G1 E0.80000 F2100.00000
G1 F900
G1 X106.574 Y92.321 E0.40846
G1 X109.580 Y85.363 E0.23765
G1 X113.018 Y85.363 E0.10781
G1 X100.236 Y113.822 E0.97819
G1 X99.965 Y113.406 E0.01558
G1 X99.787 Y113.188 E0.00885
G1 X99.436 Y112.842 E0.01545
G1 X99.036 Y112.546 E0.01559
G1 X98.789 Y112.401 E0.00898
G1 X98.341 Y112.199 E0.01541
G1 X97.864 Y112.061 E0.01558
G1 X97.584 Y112.011 E0.00890
G1 X97.105 Y111.979 E0.01507
G1 X96.821 Y111.989 E0.00889
G1 X96.335 Y112.060 E0.01540
G1 X95.463 Y112.319 E0.02853
G1 X95.072 Y112.381 E0.01241
G1 X94.667 Y112.388 E0.01270
G1 X94.490 Y112.374 E0.00557
G1 X94.092 Y112.299 E0.01270
G1 X93.716 Y112.175 E0.01240
G1 X93.362 Y112.002 E0.01236
G1 X93.201 Y111.902 E0.00594
G1 X92.874 Y111.648 E0.01298
G1 X92.745 Y111.525 E0.00557
G1 X92.476 Y111.210 E0.01301
G1 X92.375 Y111.064 E0.00557
G1 X92.170 Y110.693 E0.01327
G1 X91.676 Y109.613 E0.03724
G1 X91.617 Y109.443 E0.00563
G1 X91.524 Y109.049 E0.01271
G1 X91.486 Y108.657 E0.01236
G1 X91.486 Y108.467 E0.00594
G1 X91.530 Y108.066 E0.01267
G1 X91.627 Y107.672 E0.01270
G1 X91.687 Y107.505 E0.00557
G1 X91.867 Y107.131 E0.01301
G1 X91.959 Y106.979 E0.00557
G1 X92.211 Y106.649 E0.01301
G1 X92.332 Y106.519 E0.00557
G1 X92.636 Y106.255 E0.01261
G1 X93.206 Y105.889 E0.02125
G1 X93.592 Y105.592 E0.01527
G1 X93.946 Y105.229 E0.01590
G1 X94.249 Y104.814 E0.01610
G1 X94.480 Y104.381 E0.01540
G1 X94.582 Y104.127 E0.00856
G1 X94.664 Y103.873 E0.00837
G1 X94.764 Y103.392 E0.01542
G1 X94.796 Y102.872 E0.01634
G1 X94.757 Y102.385 E0.01532
G1 X94.705 Y102.108 E0.00883
G1 X94.566 Y101.645 E0.01515
G1 X94.464 Y101.405 E0.00817
G1 X86.996 Y85.363 E0.55484
G1 X90.355 Y85.363 E0.10534
G1 X93.522 Y92.266 E0.23814
G1 X93.789 Y91.944 F7200.000
G1 F900
G1 X106.326 Y91.944 E0.39310
G1 X109.332 Y84.986 E0.23765
G1 X113.601 Y84.986 E0.13385
G1 X100.246 Y114.723 E1.02209
G1 X99.909 Y114.010 E0.02471
G1 X99.660 Y113.629 E0.01425
G1 X99.507 Y113.442 E0.00758
G1 X99.190 Y113.129 E0.01399
G1 X98.828 Y112.861 E0.01411
G1 X98.616 Y112.736 E0.00771
G1 X98.210 Y112.554 E0.01395
G1 X97.778 Y112.428 E0.01411
G1 X97.539 Y112.386 E0.00763
G1 X97.099 Y112.356 E0.01381
G1 X96.856 Y112.365 E0.00763
G1 X96.417 Y112.430 E0.01392
G1 X95.546 Y112.688 E0.02847
G1 X95.105 Y112.757 E0.01400
G1 X94.655 Y112.766 E0.01411
G1 X94.439 Y112.748 E0.00678
G1 X93.997 Y112.665 E0.01411
G1 X93.573 Y112.525 E0.01400
G1 X93.180 Y112.332 E0.01375
G1 X92.986 Y112.212 E0.00715
G1 X92.628 Y111.934 E0.01421
G1 X92.471 Y111.785 E0.00678
G1 X92.177 Y111.440 E0.01422
G1 X92.054 Y111.263 E0.00678
G1 X91.833 Y110.863 E0.01431
G1 X91.326 Y109.754 E0.03824
G1 X91.255 Y109.549 E0.00680
G1 X91.151 Y109.111 E0.01411
G1 X91.109 Y108.675 E0.01375
G1 X91.109 Y108.447 E0.00715
G1 X91.157 Y108.000 E0.01410
G1 X91.266 Y107.563 E0.01411
G1 X91.339 Y107.359 E0.00678
G1 X91.535 Y106.950 E0.01422
G1 X91.648 Y106.766 E0.00678
G1 X91.922 Y106.405 E0.01422
G1 X92.070 Y106.247 E0.00678
G1 X92.409 Y105.953 E0.01408
G1 X92.989 Y105.580 E0.02161
G1 X93.341 Y105.309 E0.01393
G1 X93.658 Y104.985 E0.01422
G1 X93.929 Y104.613 E0.01442
G1 X94.138 Y104.221 E0.01394
G1 X94.227 Y103.999 E0.00750
G1 X94.299 Y103.777 E0.00731
G1 X94.389 Y103.341 E0.01395
G1 X94.418 Y102.875 E0.01465
G1 X94.383 Y102.435 E0.01385
G1 X94.338 Y102.198 E0.00757
G1 X94.210 Y101.773 E0.01389
G1 X94.120 Y101.558 E0.00733
G1 X86.404 Y84.986 E0.57316
G1 X90.597 Y84.986 E0.13147
G1 X93.764 Y91.889 E0.23814
G1 X93.896 Y92.329 F7200.000
G1 F5760
G1 X95.958 Y91.899 E-0.76000
G1 E-0.04000 F2100.00000
G1 Z0.800 F7200.000
G1 X95.483 Y95.097 F7200.000
G1 Z0.200 F7200.000
G1 E0.80000 F2100.00000
G1 F900
G1 X88.665 Y88.279 E0.30342
G1 X89.132 Y89.281 E0.03477
G1 X94.778 Y94.927 E0.25130
G1 X94.369 Y94.927 E0.01288
G1 X94.475 Y95.160 E0.00804
G1 X89.598 Y90.282 E0.21706
G1 X90.064 Y91.284 E0.03477
G1 X94.926 Y96.146 E0.21637
G1 X95.377 Y97.132 E0.03412
G1 X90.530 Y92.285 E0.21568
G1 X90.997 Y93.287 E0.03477
G1 X95.827 Y98.118 E0.21499
G1 X96.278 Y99.104 E0.03412
G1 X91.463 Y94.288 E0.21429
G1 X91.929 Y95.290 E0.03477
G1 X96.729 Y100.090 E0.21360
G1 X97.180 Y101.075 E0.03412
G1 X92.396 Y96.291 E0.21291
G1 X92.862 Y97.293 E0.03477
G1 X97.630 Y102.061 E0.21222
G1 X98.081 Y103.047 E0.03412
G1 X93.328 Y98.294 E0.21153
G1 X93.794 Y99.296 E0.03477
G1 X98.532 Y104.033 E0.21084
G1 X98.982 Y105.019 E0.03412
G1 X94.261 Y100.297 E0.21014
G1 X94.726 Y101.298 E0.03474
G1 X99.777 Y106.349 E0.22478
G1 F5760
G1 X98.225 Y104.797 E-0.76000
G1 E-0.04000 F2100.00000
G1 Z0.800 F7200.000
G1 X96.104 Y105.352 F7200.000
G1 Z0.200 F7200.000
G1 E0.80000 F2100.00000
G1 F900
G1 X94.879 Y104.127 E0.05449
G1 X94.730 Y104.513 E0.01302
G1 X95.611 Y105.394 E0.03920
G1 X95.246 Y105.565 E0.01267
G1 X94.544 Y104.862 E0.03126
G1 X94.330 Y105.183 E0.01214
G1 X94.882 Y105.736 E0.02457
G1 X94.517 Y105.906 E0.01267
G1 X94.093 Y105.483 E0.01886
G1 X93.829 Y105.753 E0.01191
G1 X94.153 Y106.077 E0.01441
G1 X93.788 Y106.248 E0.01267
G1 X93.534 Y105.993 E0.01133
G1 X93.221 Y106.215 E0.01208
G1 X93.424 Y106.419 E0.00904
G1 X93.059 Y106.589 E0.01267
G1 X92.772 Y106.302 E0.01279
G1 X92.656 Y106.705 F7200.000
G1 F900
G1 X92.489 Y106.853 E0.00589
G1 F900
G1 X92.223 Y107.159 E0.01038
G1 X92.223 Y107.159 F7200.000
G1 F900
G1 X92.013 Y107.533 E0.00929
G1 F900
G1 X91.911 Y107.803 E0.00565
G1 X91.832 Y108.202 E0.00795
G1 X91.819 Y108.513 E0.00608
G1 X91.867 Y108.883 E0.00730
G1 X91.736 Y109.441 F7200.000
G1 F900
G1 X92.931 Y110.636 E0.06207
G1 X93.082 Y111.103 F7200.000
G1 F900
G1 X93.043 Y111.329 E0.00441
G1 X93.248 Y111.525 E0.00546
G1 X93.602 Y111.776 E0.00836
G1 X94.020 Y111.955 E0.00877
G1 F900
G1 X94.295 Y112.022 E0.00569
G1 F900
G1 X94.725 Y112.059 E0.01005
G1 F900
G1 X95.128 Y112.016 E0.01085
G1 X95.873 Y112.080 F7200.000
G1 F900
G1 X95.543 Y111.750 E0.01469
G1 X95.909 Y111.580 E0.01269
G1 X96.150 Y111.821 E0.01069
G1 X96.274 Y111.784 E0.00409
G1 X96.600 Y111.736 E0.01036
G1 X96.275 Y111.411 E0.01446
G1 X96.641 Y111.242 E0.01269
G1 X97.095 Y111.696 E0.02022
G1 X97.675 Y111.740 E0.01829
G1 X97.007 Y111.072 E0.02972
G1 X97.373 Y110.903 E0.01269
G1 X98.712 Y112.242 E0.05959
G1 F5760
G1 X97.373 Y110.903 E-0.65589
G1 F5760
G1 X97.100 Y111.029 E-0.10411
G1 E-0.04000 F2100.00000
G1 Z0.800 F7200.000
G1 X100.334 Y113.329 F7200.000
G1 Z0.200 F7200.000
G1 E0.80000 F2100.00000
G1 F900
G1 X97.739 Y110.734 E0.11550
G1 X98.105 Y110.564 E0.01269
G1 X100.372 Y112.831 E0.10089
G1 X100.537 Y112.462 E0.01274
G1 X98.471 Y110.395 E0.09199
G1 X98.837 Y110.226 E0.01269
G1 X100.703 Y112.093 E0.08308
G1 X100.869 Y111.723 E0.01274
G1 X98.457 Y109.311 E0.10736
G1 X97.991 Y108.309 E0.03477
G1 X101.035 Y111.354 E0.13549
G1 X101.201 Y110.984 E0.01274
G1 X97.524 Y107.308 E0.16362
G1 X97.058 Y106.306 E0.03477
G1 X101.367 Y110.615 E0.19176
G1 X101.533 Y110.246 E0.01274
G1 X94.988 Y103.701 E0.29126
G1 X95.045 Y103.429 E0.00874
G1 X95.057 Y103.235 E0.00614
G1 X101.699 Y109.876 E0.29559
G1 X101.865 Y109.507 E0.01274
G1 X95.067 Y102.709 E0.30253
G1 X95.038 Y102.347 E0.01143
G1 X94.991 Y102.098 E0.00797
G1 X102.030 Y109.138 E0.31329
G1 X102.196 Y108.768 E0.01274
G1 X100.470 Y107.042 E0.07684
G1 X100.632 Y106.669 E0.01280
G1 X102.362 Y108.399 E0.07699
G1 X102.528 Y108.030 E0.01274
G1 X100.795 Y106.296 E0.07714
G1 X100.957 Y105.924 E0.01280
G1 X102.694 Y107.660 E0.07729
G1 X102.860 Y107.291 E0.01274
G1 X101.120 Y105.551 E0.07744
G1 X101.282 Y105.178 E0.01280
G1 X103.026 Y106.922 E0.07758
G1 X103.192 Y106.552 E0.01274
G1 X101.445 Y104.806 E0.07773
G1 X101.608 Y104.433 E0.01280
G1 X103.357 Y106.183 E0.07788
G1 X103.523 Y105.814 E0.01274
G1 X101.770 Y104.060 E0.07803
G1 X101.933 Y103.688 E0.01280
G1 X103.689 Y105.444 E0.07818
G1 X103.855 Y105.075 E0.01274
G1 X102.095 Y103.315 E0.07832
G1 X102.258 Y102.942 E0.01280
G1 X104.021 Y104.706 E0.07847
G1 X104.187 Y104.336 E0.01274
G1 X102.420 Y102.570 E0.07862
G1 X102.583 Y102.197 E0.01280
G1 X104.353 Y103.967 E0.07877
G1 X104.519 Y103.597 E0.01274
G1 X102.745 Y101.824 E0.07892
G1 X102.908 Y101.452 E0.01280
G1 X104.685 Y103.228 E0.07906
G1 X104.850 Y102.859 E0.01274
G1 X103.071 Y101.079 E0.07921
G1 X103.233 Y100.706 E0.01280
G1 X105.016 Y102.489 E0.07936
G1 X105.182 Y102.120 E0.01274
G1 X103.396 Y100.334 E0.07951
G1 X103.558 Y99.961 E0.01280
G1 X105.348 Y101.751 E0.07966
G1 X105.514 Y101.381 E0.01274
G1 X103.721 Y99.588 E0.07980
G1 X103.883 Y99.216 E0.01280
G1 X105.680 Y101.012 E0.07995
G1 X105.846 Y100.643 E0.01274
G1 X104.046 Y98.843 E0.08010
G1 X104.208 Y98.470 E0.01280
G1 X106.012 Y100.273 E0.08025
G1 X106.177 Y99.904 E0.01274
G1 X104.371 Y98.098 E0.08040
G1 X104.534 Y97.725 E0.01280
G1 X106.343 Y99.535 E0.08054
G1 X106.509 Y99.165 E0.01274
G1 X104.696 Y97.352 E0.08069
G1 X104.859 Y96.979 E0.01280
G1 X106.675 Y98.796 E0.08084
G1 X106.841 Y98.427 E0.01274
G1 X105.021 Y96.607 E0.08099
G1 X105.184 Y96.234 E0.01280
G1 X107.007 Y98.057 E0.08114
G1 X107.173 Y97.688 E0.01274
G1 X105.346 Y95.861 E0.08128
G1 X105.509 Y95.489 E0.01280
G1 X107.467 Y97.447 E0.08714
G1 F5760
G1 X105.915 Y95.895 E-0.76000
G1 E-0.04000 F2100.00000
G1 Z0.800 F7200.000
G1 X112.609 Y85.997 F7200.000
G1 Z0.200 F7200.000
G1 E0.80000 F2100.00000
G1 F900
G1 X112.258 Y85.646 E0.01563
G1 X111.723 Y85.646 E0.01684
G1 X112.315 Y86.238 E0.02636
G1 X112.149 Y86.607 E0.01274
G1 X111.188 Y85.646 E0.04280
G1 X110.652 Y85.646 E0.01684
G1 X111.983 Y86.977 E0.05923
G1 X111.817 Y87.346 E0.01274
G1 X110.117 Y85.646 E0.07567
G1 X109.766 Y85.646 E0.01106
G1 X109.710 Y85.774 E0.00440
G1 X111.652 Y87.715 E0.08640
G1 X111.486 Y88.085 E0.01274
G1 X109.549 Y86.148 E0.08620
G1 X109.387 Y86.522 E0.01281
G1 X111.320 Y88.454 E0.08601
G1 X111.154 Y88.823 E0.01274
G1 X109.226 Y86.895 E0.08581
G1 X109.064 Y87.269 E0.01281
G1 X110.988 Y89.193 E0.08561
G1 X110.822 Y89.562 E0.01274
G1 X108.903 Y87.643 E0.08542
G1 X108.741 Y88.017 E0.01281
G1 X110.656 Y89.932 E0.08522
G1 X110.490 Y90.301 E0.01274
G1 X108.580 Y88.390 E0.08502
G1 X108.418 Y88.764 E0.01281
G1 X110.324 Y90.670 E0.08483
G1 X110.159 Y91.040 E0.01274
G1 X108.257 Y89.138 E0.08463
G1 X108.096 Y89.512 E0.01281
G1 X109.993 Y91.409 E0.08443
G1 X109.827 Y91.778 E0.01274
G1 X107.934 Y89.885 E0.08424
G1 X107.773 Y90.259 E0.01281
G1 X109.661 Y92.148 E0.08404
G1 X109.495 Y92.517 E0.01274
G1 X107.611 Y90.633 E0.08384
G1 X107.450 Y91.007 E0.01281
G1 X109.329 Y92.886 E0.08365
G1 X109.163 Y93.256 E0.01274
G1 X107.288 Y91.381 E0.08345
G1 X107.127 Y91.754 E0.01281
G1 X108.997 Y93.625 E0.08326
G1 X108.832 Y93.994 E0.01274
G1 X106.965 Y92.128 E0.08306
G1 X106.804 Y92.502 E0.01281
G1 X108.666 Y94.364 E0.08286
G1 X108.500 Y94.733 E0.01274
G1 X106.370 Y92.604 E0.09476
G1 X105.835 Y92.604 E0.01684
G1 X108.334 Y95.102 E0.11120
G1 X108.168 Y95.472 E0.01274
G1 X105.300 Y92.604 E0.12764
G1 X104.765 Y92.604 E0.01684
G1 X108.002 Y95.841 E0.14408
G1 X107.836 Y96.210 E0.01274
G1 X104.230 Y92.604 E0.16052
G1 X103.694 Y92.604 E0.01684
G1 X107.670 Y96.580 E0.17695
