; generated by Slic3r Prusa Edition 1.39.1-prusa3d on 2018-05-09 at 12:53:29

; 

; external perimeters extrusion width = 0.45mm
; perimeters extrusion width = 0.45mm
; infill extrusion width = 0.45mm
; solid infill extrusion width = 0.45mm
; top infill extrusion width = 0.33mm
; first layer extrusion width = 0.42mm

M107
M115 U3.1.0 ; tell printer latest fw version
M201 X9000 Y9000 Z500 E10000 ; sets maximum accelerations, mm/sec^2
M203 X500 Y500 Z12 E120 ; sets maximum feedrates, mm/sec
M204 S1500 T1500 ; sets acceleration (S) and retract acceleration (T)
M205 X10 Y10 Z0.2 E2.5 ; sets the jerk limits, mm/sec
M205 S0 T0 ; sets the minimum extruding and travel feed rate, mm/sec
M83  ; extruder relative mode
M104 S200 ; set extruder temp
M140 S65 ; set bed temp
M190 S65 ; wait for bed temp
M109 S200 ; wait for extruder temp
G28 W ; home all without mesh bed level
G80 ; mesh bed leveling
G1 Y-3.0 F1000.0 ; go outside print area
G92 E0.0
G1 E18.0 F1000.0;
G1 X60.0 E9.0  F1000.0 ; intro line
G1 X100.0 E12.5  F1000.0 ; intro line
G92 E0.0
M900 K30; Filament gcode
G21 ; set units to millimeters
G90 ; use absolute coordinates
M83 ; use relative distances for extrusion
;BEFORE_LAYER_CHANGE
;0.2


G1 E-0.80000 F2100.00000
G1 Z0.600 F7200.000
;AFTER_LAYER_CHANGE
;0.2
G1 X92.254 Y84.072 F7200.000
G1 Z0.200 F7200.000
G1 E0.80000 F2100.00000
M204 S1000
G1 F900
G1 X92.625 Y83.652 E0.01758
G1 X93.077 Y83.313 E0.01771
G1 X93.589 Y83.074 E0.01771
G1 X94.134 Y82.945 E0.01758
G1 X101.047 Y82.922 E0.21673
G1 X104.127 Y83.085 E0.09673
G1 X106.791 Y83.600 E0.08508
G1 X108.172 Y84.169 E0.04681
G1 X109.100 Y84.668 E0.03304
G1 X109.945 Y85.266 E0.03247
G1 X111.105 Y86.277 E0.04823
G1 X112.069 Y87.435 E0.04725
G1 X112.809 Y88.481 E0.04017
G1 X113.343 Y89.462 E0.03503
G1 X113.751 Y90.550 E0.03642
G1 X114.043 Y91.844 E0.04161
G1 X114.257 Y93.732 E0.05958
G1 X114.186 Y95.026 E0.04062
G1 X114.021 Y96.220 E0.03781
G1 X111.205 Y109.444 E0.42392
G1 X110.723 Y110.764 E0.04407
G1 X110.008 Y112.142 E0.04865
G1 X109.445 Y112.979 E0.03163
G1 X108.569 Y113.985 E0.04183
G1 X107.972 Y114.560 E0.02599
G1 X106.454 Y115.609 E0.05785
G1 X105.354 Y116.122 E0.03807
G1 X103.939 Y116.576 E0.04658
G1 X102.056 Y116.904 E0.05995
G1 X100.651 Y117.034 E0.04424
G1 X94.489 Y117.078 E0.19321
G1 X93.931 Y117.020 E0.01758
G1 X93.241 Y116.777 E0.02294
G1 X92.639 Y116.361 E0.02294
G1 X87.501 Y111.468 E0.22245
G1 X86.602 Y110.355 E0.04489
G1 X86.071 Y109.252 E0.03838
G1 X85.786 Y108.059 E0.03843
G1 X85.739 Y105.271 E0.08743
G1 X85.859 Y104.153 E0.03526
G1 X91.869 Y84.838 E0.63424
G1 X92.227 Y84.126 E0.02501
G1 X92.552 Y84.303 F7200.000
G1 F900
G1 X92.880 Y83.929 E0.01562
G1 X93.280 Y83.632 E0.01562
G1 X93.729 Y83.425 E0.01550
G1 X94.214 Y83.315 E0.01562
G1 X101.046 Y83.299 E0.21421
G1 X103.719 Y83.417 E0.08389
G1 X105.786 Y83.755 E0.06566
G1 X106.756 Y83.988 E0.03129
G1 X108.584 Y84.802 E0.06274
G1 X109.686 Y85.541 E0.04162
G1 X110.908 Y86.619 E0.05107
G1 X112.328 Y88.432 E0.07221
G1 X113.123 Y89.902 E0.05239
G1 X113.515 Y91.130 E0.04042
G1 X113.742 Y92.396 E0.04033
G1 X113.884 Y93.849 E0.04577
G1 X113.775 Y95.331 E0.04659
G1 X111.067 Y108.506 E0.42175
G1 X110.372 Y110.624 E0.06988
G1 X109.789 Y111.767 E0.04024
G1 X109.174 Y112.712 E0.03537
G1 X107.813 Y114.204 E0.06329
G1 X106.764 Y114.976 E0.04087
G1 X105.774 Y115.535 E0.03562
G1 X103.938 Y116.190 E0.06112
G1 X101.336 Y116.607 E0.08262
G1 X98.811 Y116.701 E0.07923
G1 X94.001 Y116.650 E0.15082
G1 X93.407 Y116.439 E0.01977
G1 X92.886 Y116.077 E0.01989
G1 X87.770 Y111.204 E0.22154
G1 X86.919 Y110.151 E0.04245
G1 X86.425 Y109.123 E0.03576
G1 X86.160 Y108.009 E0.03591
G1 X86.116 Y105.283 E0.08548
G1 X86.229 Y104.224 E0.03339
G1 X92.227 Y84.956 E0.63274
G1 X92.525 Y84.357 E0.02096
G1 F5760
G1 X92.880 Y83.929 E-0.19267
G1 F5760
G1 X93.280 Y83.632 E-0.17251
G1 F5760
G1 X93.729 Y83.425 E-0.17119
G1 F5760
G1 X94.214 Y83.315 E-0.17251
G1 F5760
G1 X94.362 Y83.315 E-0.05112
G1 E-0.04000 F2100.00000
G1 Z0.800 F7200.000
G1 X98.229 Y101.435 F7200.000
G1 Z0.200 F7200.000
G1 E0.80000 F2100.00000
G1 F900
G1 X100.183 Y101.435 E0.06128
G1 X101.179 Y101.480 E0.03124
G1 X101.944 Y101.589 E0.02422
G1 X102.580 Y101.779 E0.02084
G1 X103.175 Y102.063 E0.02065
G1 X104.102 Y102.642 E0.03428
G1 X104.702 Y103.458 E0.03174
G1 X104.946 Y103.873 E0.01509
G1 X105.061 Y104.116 E0.00843
G1 X105.219 Y104.578 E0.01533
G1 X105.318 Y105.055 E0.01527
G1 X105.373 Y105.526 E0.01487
G1 X105.416 Y106.236 E0.02229
G1 X105.371 Y106.932 E0.02188
G1 X105.314 Y107.395 E0.01462
G1 X105.214 Y107.853 E0.01469
G1 X105.137 Y108.096 E0.00799
G1 X105.040 Y108.336 E0.00812
G1 X104.815 Y108.754 E0.01491
G1 X104.548 Y109.143 E0.01478
G1 X104.078 Y109.735 E0.02369
G1 X103.411 Y110.173 E0.02503
G1 X102.772 Y110.519 E0.02278
G1 X102.406 Y110.663 E0.01234
G1 X102.028 Y110.770 E0.01232
G1 X101.307 Y110.885 E0.02289
G1 X100.354 Y110.941 E0.02991
G1 X98.229 Y110.941 E0.06665
G1 X98.229 Y101.495 E0.29615
G1 X98.606 Y101.812 F7200.000
G1 F900
G1 X100.175 Y101.812 E0.04920
G1 X101.144 Y101.855 E0.03040
G1 X101.863 Y101.958 E0.02277
G1 X102.444 Y102.132 E0.01904
G1 X102.993 Y102.394 E0.01907
G1 X103.841 Y102.923 E0.03135
G1 X104.386 Y103.665 E0.02887
G1 X104.612 Y104.049 E0.01396
G1 X104.711 Y104.258 E0.00725
G1 X104.855 Y104.678 E0.01392
G1 X104.946 Y105.115 E0.01400
G1 X104.998 Y105.559 E0.01401
G1 X105.038 Y106.235 E0.02122
G1 X104.995 Y106.897 E0.02080
G1 X104.942 Y107.331 E0.01373
G1 X104.850 Y107.755 E0.01360
G1 X104.782 Y107.967 E0.00698
G1 X104.698 Y108.175 E0.00702
G1 X104.492 Y108.558 E0.01362
G1 X104.244 Y108.919 E0.01373
G1 X103.821 Y109.453 E0.02138
G1 X103.217 Y109.849 E0.02263
G1 X102.612 Y110.176 E0.02157
G1 X102.285 Y110.305 E0.01104
G1 X101.946 Y110.401 E0.01103
G1 X101.266 Y110.510 E0.02160
G1 X100.344 Y110.564 E0.02898
G1 X98.606 Y110.564 E0.05448
G1 X98.606 Y101.872 E0.27250
G1 X98.580 Y101.413 F7200.000
G1 F5760
G1 X100.175 Y101.812 E-0.54388
G1 F5760
G1 X100.798 Y101.840 E-0.21612
G1 E-0.04000 F2100.00000
G1 Z0.800 F7200.000
G1 X95.080 Y103.737 F7200.000
G1 Z0.200 F7200.000
G1 E0.80000 F2100.00000
G1 F900
G1 X95.080 Y108.911 E0.16223
G1 X91.964 Y108.911 E0.09770
G1 X91.585 Y108.874 E0.01194
G1 X91.193 Y108.755 E0.01285
G1 X90.832 Y108.562 E0.01285
G1 X90.515 Y108.302 E0.01285
G1 X90.255 Y107.985 E0.01285
G1 X90.062 Y107.624 E0.01285
G1 X89.947 Y107.246 E0.01239
G1 X89.913 Y107.015 E0.00733
G1 X89.913 Y105.619 E0.04374
G1 X89.990 Y105.232 E0.01239
G1 X90.069 Y105.012 E0.00733
G1 X90.248 Y104.676 E0.01194
G1 X90.387 Y104.488 E0.00732
G1 X90.650 Y104.225 E0.01166
G1 X91.021 Y103.976 E0.01402
G1 X91.386 Y103.824 E0.01239
G1 X91.774 Y103.747 E0.01239
G1 X95.020 Y103.737 E0.10178
G1 X94.703 Y104.114 F7200.000
G1 F900
G1 X94.703 Y108.534 E0.13859
G1 X91.982 Y108.534 E0.08529
G1 X91.659 Y108.502 E0.01019
G1 X91.338 Y108.405 E0.01052
G1 X91.042 Y108.247 E0.01052
G1 X90.783 Y108.034 E0.01052
G1 X90.570 Y107.775 E0.01052
G1 X90.412 Y107.479 E0.01052
G1 X90.316 Y107.163 E0.01035
G1 X90.290 Y106.987 E0.00559
G1 X90.290 Y105.657 E0.04171
G1 X90.354 Y105.333 E0.01035
G1 X90.414 Y105.165 E0.00559
G1 X90.568 Y104.878 E0.01019
G1 X90.674 Y104.735 E0.00558
G1 X90.898 Y104.511 E0.00995
G1 X91.191 Y104.313 E0.01108
G1 X91.496 Y104.187 E0.01035
G1 X91.820 Y104.122 E0.01035
G1 X94.643 Y104.114 E0.08851
G1 X95.103 Y104.111 F7200.000
G1 F5760
G1 X94.672 Y106.308 E-0.76000
G1 E-0.04000 F2100.00000
G1 Z0.800 F7200.000
G1 X98.229 Y98.994 F7200.000
G1 Z0.200 F7200.000
G1 E0.80000 F2100.00000
G1 F900
G1 X98.229 Y89.152 E0.30859
G1 X101.496 Y89.152 E0.10245
G1 X102.386 Y89.178 E0.02789
G1 X103.280 Y89.260 E0.02816
G1 X103.891 Y89.377 E0.01949
G1 X104.490 Y89.565 E0.01970
G1 X105.313 Y89.945 E0.02842
G1 X106.161 Y90.423 E0.03051
G1 X106.702 Y91.007 E0.02495
G1 X107.012 Y91.390 E0.01545
G1 X107.228 Y91.710 E0.01210
G1 X107.413 Y92.055 E0.01229
G1 X107.554 Y92.421 E0.01229
G1 X107.656 Y92.793 E0.01210
G1 X107.744 Y93.278 E0.01545
G1 X107.831 Y94.044 E0.02417
G1 X107.745 Y94.796 E0.02373
G1 X107.660 Y95.276 E0.01530
G1 X107.525 Y95.748 E0.01539
G1 X107.426 Y95.996 E0.00838
G1 X107.307 Y96.236 E0.00837
G1 X107.045 Y96.650 E0.01538
G1 X106.745 Y97.035 E0.01529
G1 X106.222 Y97.624 E0.02470
G1 X105.283 Y98.156 E0.03385
G1 X104.669 Y98.453 E0.02138
G1 X104.020 Y98.691 E0.02168
G1 X103.347 Y98.847 E0.02166
G1 X102.671 Y98.935 E0.02137
G1 X101.996 Y98.976 E0.02123
G1 X98.289 Y98.994 E0.11623
G1 X98.606 Y98.615 F7200.000
G1 F900
G1 X98.606 Y89.529 E0.28489
G1 X101.491 Y89.529 E0.09046
G1 X102.363 Y89.555 E0.02736
G1 X103.227 Y89.634 E0.02721
G1 X103.799 Y89.744 E0.01824
G1 X104.354 Y89.917 E0.01826
G1 X105.141 Y90.281 E0.02718
G1 X105.924 Y90.723 E0.02819
G1 X106.417 Y91.254 E0.02272
G1 X106.709 Y91.615 E0.01455
G1 X106.905 Y91.905 E0.01097
G1 X107.070 Y92.213 E0.01096
G1 X107.196 Y92.539 E0.01096
G1 X107.288 Y92.876 E0.01097
G1 X107.370 Y93.333 E0.01455
G1 X107.451 Y94.044 E0.02244
G1 X107.372 Y94.741 E0.02201
G1 X107.292 Y95.191 E0.01432
G1 X107.168 Y95.626 E0.01419
G1 X107.081 Y95.842 E0.00730
G1 X106.978 Y96.051 E0.00730
G1 X106.737 Y96.433 E0.01418
G1 X106.456 Y96.794 E0.01432
G1 X105.982 Y97.327 E0.02236
G1 X105.108 Y97.822 E0.03151
G1 X104.522 Y98.105 E0.02041
G1 X103.912 Y98.329 E0.02037
G1 X103.280 Y98.476 E0.02034
G1 X102.636 Y98.560 E0.02037
G1 X101.983 Y98.599 E0.02049
G1 X98.666 Y98.615 E0.10402
G1 X98.206 Y98.617 F7200.000
G1 F5760
G1 X98.651 Y96.421 E-0.76000
G1 E-0.04000 F2100.00000
G1 Z0.800 F7200.000
G1 X105.594 Y100.883 F7200.000
G1 Z0.200 F7200.000
G1 E0.80000 F2100.00000
G1 F900
G1 X106.871 Y102.309 E0.06002
G1 X107.400 Y102.996 E0.02718
G1 X107.655 Y103.408 E0.01521
G1 X107.794 Y103.684 E0.00969
G1 X108.009 Y104.275 E0.01972
G1 X108.128 Y104.765 E0.01580
G1 X108.216 Y105.275 E0.01624
G1 X108.338 Y106.320 E0.03299
G1 X108.261 Y107.318 E0.03136
G1 X108.205 Y107.701 E0.01215
G1 X108.123 Y108.076 E0.01203
G1 X107.949 Y108.652 E0.01886
G1 X107.665 Y109.414 E0.02550
G1 X107.309 Y110.125 E0.02494
G1 X106.914 Y110.779 E0.02395
G1 X106.437 Y111.372 E0.02387
G1 X105.902 Y111.936 E0.02436
G1 X105.290 Y112.393 E0.02395
G1 X104.978 Y112.600 E0.01175
G1 X104.660 Y112.780 E0.01145
G1 X103.975 Y113.069 E0.02331
G1 X103.237 Y113.308 E0.02432
G1 X101.872 Y113.555 E0.04348
G1 X101.046 Y113.657 E0.02609
G1 X100.499 Y113.696 E0.01721
G1 X99.366 Y113.731 E0.03554
G1 X95.076 Y113.736 E0.13450
G1 X95.073 Y113.090 E0.02026
G1 X95.045 Y112.823 E0.00844
G1 X94.947 Y112.354 E0.01501
G1 X94.784 Y111.894 E0.01531
G1 X94.559 Y111.461 E0.01530
G1 X94.276 Y111.059 E0.01543
G1 X93.949 Y110.709 E0.01500
G1 X93.743 Y110.530 E0.00856
G1 X93.365 Y110.264 E0.01450
G1 X93.126 Y110.130 E0.00857
G1 X92.694 Y109.943 E0.01476
G1 X92.241 Y109.816 E0.01477
G1 X91.967 Y109.768 E0.00871
G1 X91.345 Y109.732 E0.01956
G1 X91.002 Y109.685 E0.01084
G1 X90.685 Y109.597 E0.01032
G1 X90.383 Y109.465 E0.01032
G1 X90.102 Y109.294 E0.01032
G1 X89.847 Y109.087 E0.01032
G1 X89.622 Y108.846 E0.01032
G1 X89.432 Y108.577 E0.01033
G1 X89.223 Y108.141 E0.01518
G1 X89.132 Y107.815 E0.01061
G1 X89.087 Y107.489 E0.01032
G1 X89.087 Y105.150 E0.07334
G1 X89.102 Y105.006 E0.00454
G1 X89.171 Y104.674 E0.01064
G1 X89.284 Y104.354 E0.01064
G1 X89.528 Y103.925 E0.01547
G1 X89.840 Y103.568 E0.01486
G1 X90.110 Y103.347 E0.01095
G1 X90.524 Y103.116 E0.01484
G1 X90.843 Y103.002 E0.01063
G1 X91.161 Y102.936 E0.01019
G1 X91.754 Y102.902 E0.01862
G1 X92.231 Y102.836 E0.01510
G1 X92.678 Y102.710 E0.01456
G1 X92.927 Y102.613 E0.00837
G1 X93.348 Y102.395 E0.01489
G1 X93.572 Y102.248 E0.00838
G1 X93.938 Y101.950 E0.01481
G1 X94.278 Y101.586 E0.01562
G1 X94.551 Y101.200 E0.01481
G1 X94.789 Y100.741 E0.01622
G1 X94.947 Y100.294 E0.01486
G1 X95.048 Y99.812 E0.01546
G1 X95.080 Y99.344 E0.01469
G1 X95.080 Y86.264 E0.41013
G1 X101.627 Y86.272 E0.20528
G1 X102.850 Y86.319 E0.03838
G1 X103.732 Y86.403 E0.02776
G1 X104.610 Y86.544 E0.02789
G1 X105.749 Y86.778 E0.03646
G1 X106.772 Y87.203 E0.03475
G1 X107.339 Y87.509 E0.02018
G1 X107.866 Y87.881 E0.02023
G1 X108.713 Y88.612 E0.03508
G1 X109.192 Y89.185 E0.02341
G1 X109.660 Y89.789 E0.02395
G1 X110.067 Y90.403 E0.02310
G1 X110.373 Y91.009 E0.02130
G1 X110.549 Y91.506 E0.01651
G1 X110.637 Y91.840 E0.01084
G1 X110.745 Y92.381 E0.01730
G1 X110.846 Y93.143 E0.02408
G1 X110.918 Y93.884 E0.02337
G1 X110.859 Y94.715 E0.02611
G1 X110.747 Y95.546 E0.02628
G1 X110.586 Y96.187 E0.02073
G1 X110.339 Y96.811 E0.02105
G1 X110.091 Y97.308 E0.01740
G1 X109.684 Y98.035 E0.02614
G1 X109.178 Y98.653 E0.02504
G1 X108.626 Y99.240 E0.02527
G1 X108.246 Y99.563 E0.01565
G1 X107.831 Y99.842 E0.01567
G1 X107.115 Y100.215 E0.02531
G1 X105.649 Y100.859 E0.05021
G1 X106.222 Y101.019 F7200.000
G1 F900
G1 X107.161 Y102.068 E0.04414
G1 X107.710 Y102.781 E0.02823
G1 X107.984 Y103.224 E0.01634
G1 X108.137 Y103.528 E0.01067
G1 X108.266 Y103.845 E0.01072
G1 X108.372 Y104.173 E0.01079
G1 X108.497 Y104.688 E0.01664
G1 X108.589 Y105.221 E0.01696
G1 X108.717 Y106.313 E0.03446
G1 X108.636 Y107.360 E0.03292
G1 X108.576 Y107.769 E0.01297
G1 X108.488 Y108.171 E0.01291
G1 X108.306 Y108.772 E0.01970
G1 X108.012 Y109.565 E0.02651
G1 X107.642 Y110.302 E0.02588
G1 X107.224 Y110.995 E0.02538
G1 X106.981 Y111.316 E0.01261
G1 X106.717 Y111.625 E0.01274
G1 X106.153 Y112.218 E0.02566
G1 X105.508 Y112.702 E0.02529
G1 X105.175 Y112.922 E0.01250
G1 X104.832 Y113.116 E0.01235
G1 X104.474 Y113.281 E0.01237
G1 X104.101 Y113.425 E0.01254
G1 X103.329 Y113.675 E0.02543
G1 X101.929 Y113.928 E0.04461
G1 X101.083 Y114.032 E0.02672
G1 X100.518 Y114.073 E0.01775
G1 X99.372 Y114.108 E0.03596
G1 X94.701 Y114.114 E0.14644
G1 X94.696 Y113.111 E0.03145
G1 X94.672 Y112.880 E0.00726
G1 X94.584 Y112.456 E0.01360
G1 X94.437 Y112.044 E0.01370
G1 X94.236 Y111.657 E0.01368
G1 X93.982 Y111.297 E0.01381
G1 X93.687 Y110.981 E0.01357
G1 X93.510 Y110.827 E0.00734
G1 X93.164 Y110.583 E0.01329
G1 X92.959 Y110.469 E0.00736
G1 X92.568 Y110.299 E0.01336
G1 X92.157 Y110.184 E0.01337
G1 X91.924 Y110.143 E0.00742
G1 X91.308 Y110.108 E0.01934
G1 X90.925 Y110.055 E0.01212
G1 X90.559 Y109.953 E0.01194
G1 X90.209 Y109.801 E0.01194
G1 X89.884 Y109.603 E0.01194
G1 X89.589 Y109.363 E0.01194
G1 X89.329 Y109.085 E0.01194
G1 X89.109 Y108.774 E0.01194
G1 X88.937 Y108.441 E0.01174
G1 X88.865 Y108.262 E0.00607
G1 X88.762 Y107.892 E0.01204
G1 X88.710 Y107.515 E0.01194
G1 X88.710 Y105.130 E0.07476
G1 X88.728 Y104.948 E0.00575
G1 X88.807 Y104.572 E0.01205
G1 X88.935 Y104.209 E0.01205
G1 X89.014 Y104.044 E0.00575
G1 X89.216 Y103.712 E0.01216
G1 X89.582 Y103.293 E0.01747
G1 X89.887 Y103.043 E0.01237
G1 X90.372 Y102.770 E0.01746
G1 X90.740 Y102.638 E0.01225
G1 X91.112 Y102.561 E0.01189
G1 X91.717 Y102.526 E0.01902
G1 X92.154 Y102.466 E0.01382
G1 X92.558 Y102.352 E0.01317
G1 X92.771 Y102.269 E0.00716
G1 X93.158 Y102.069 E0.01366
G1 X93.349 Y101.943 E0.00717
G1 X93.680 Y101.674 E0.01340
G1 X93.985 Y101.347 E0.01400
G1 X94.232 Y100.998 E0.01340
G1 X94.440 Y100.596 E0.01419
G1 X94.584 Y100.192 E0.01345
G1 X94.673 Y99.760 E0.01384
G1 X94.703 Y99.331 E0.01348
G1 X94.703 Y85.886 E0.42157
G1 X101.634 Y85.895 E0.21734
G1 X102.875 Y85.943 E0.03894
G1 X103.779 Y86.028 E0.02847
G1 X104.678 Y86.173 E0.02853
G1 X105.860 Y86.416 E0.03785
G1 X106.935 Y86.862 E0.03648
G1 X107.538 Y87.188 E0.02149
G1 X108.098 Y87.584 E0.02152
G1 X108.982 Y88.347 E0.03661
G1 X109.485 Y88.949 E0.02459
G1 X109.967 Y89.569 E0.02461
G1 X110.390 Y90.208 E0.02403
G1 X110.568 Y90.533 E0.01163
G1 X110.723 Y90.867 E0.01153
G1 X110.909 Y91.394 E0.01755
G1 X111.005 Y91.755 E0.01170
G1 X111.117 Y92.320 E0.01805
G1 X111.221 Y93.099 E0.02466
G1 X111.297 Y93.880 E0.02458
G1 X111.234 Y94.754 E0.02747
G1 X111.118 Y95.617 E0.02732
G1 X110.945 Y96.303 E0.02217
G1 X110.684 Y96.965 E0.02232
G1 X110.425 Y97.484 E0.01819
G1 X109.997 Y98.248 E0.02746
G1 X109.462 Y98.902 E0.02649
G1 X108.886 Y99.514 E0.02633
G1 X108.474 Y99.865 E0.01698
G1 X108.023 Y100.166 E0.01699
G1 X107.278 Y100.555 E0.02635
G1 X106.277 Y100.995 E0.03429
G1 X105.900 Y101.256 F7200.000
G1 F5760
G1 X107.161 Y102.068 E-0.48153
G1 F5760
G1 X107.652 Y102.705 E-0.27847
G1 E-0.04000 F2100.00000
G1 Z0.800 F7200.000
