;FLAVOR:Marlin
;TIME:322
;Filament used:0.277887m
;Layer height: 0.3
;MINX:71.192
;MINY:68.376
;MINZ:0.2
;MAXX:93.806
;MAXY:96.624
;MAXZ:2.9
                                 
;Creative3D GCode Generated by CXEngineDEV
;Generated Time:2022-04-08 18:14:05
;----------Machine Config--------------
;Machine Name:Creality Ender-2 Pro
;Machine Height:180
;Machine Width:165
;Machine Depth:165
;Material name:PLA
;Number of Extruders:1
;ExtruderParams[0] Nozzle Diameter1000
;----------Profile Config---------------
;Layer Height:0.3
;Wall Thickness:0.8
;Top/Bottom Thickness:1
;Out Wall Line Width:0.4
;Inner Wall Line Width:0.4
;Inital Layer Height:200
;Wall Line Count:1
;Infill Line Distance:4
;Infill Pattern:grid
;Infill Sparse Density:20
;Infill Wipe Distance:0
;Print Temperature:200
;Bed Temperature:60
;Support Enable:false
;Support Density:30
;Support Angle:1.0472
;Adhesion Type:none
;machine is belt:false
;machine belt offset:10
;machine belt offset Y:0
;----------Shell Config----------------
;Outer Wall Wipe Distance:200
;Infill Before Walls:false
;Infill Overlap:0.16
;Fill Gaps Between Walls:everywhere
;Minimum Infill Area:1
;Top Surface Skin Layer:0
;Top Layers:2
;Z Seam Alignment:sharpest_corner
;Seam Corner Preference:z_seam_corner_inner
;Z Seam X:82.5
;Z Seam Y:82.5
;Horizontal Expansion:0
;Top/Bottom Pattern:zigzag
;Ironing Pattern:zigzag
;Vase Model:false
;----------Support Config----------------
;Support Type:everywhere
;Support Pattern:zigzag
;Support Infill Layer Thickness:0.3
;Minimum Support Area:10
;Enable Support Roof:false
;Support Roof Thickness:0.8
;Support Roof Pattern:lines
; ---------PrintSpeed & Travel----------
;Enable Print Cool:true
;Avoid Printed Parts Traveling:true
;Enable Retraction:true
;Retraction Distance:8
;Retraction Speed:100
;Retraction Prime Speed:100
;Maximum Retraction Count:100
;Minimum Extrusion Distance Window:1
;Z Hop When Retracted:false
;Z Hop Height:0.2
;Retract Before Outer Wall:true
;Print Speed:50
;Infill Speed:50

;Prime Tower Speed:50
;Travel Speed:120
;Initial Layer Speed:25
;Skirt/Brim Speed:25
;Combing Mode:off
;---------------------End of Head--------------------------
M140 S60
M104 S200
M105
M109 S200
M82 ;absolute extrusion mode
M220 S100 ;Reset Feedrate
M221 S100 ;Reset Flowrate

G28 ;Home

G92 E0 ;Reset Extruder
G1 Z2.0 F3000 ;Move Z Axis up
G1 X10.1 Y20 Z0.28 F5000.0 ;Move to start position
G1 X10.1 Y145.0 Z0.28 F1500.0 E15 ;Draw the first line
G1 X10.4 Y145.0 Z0.28 F5000.0 ;Move to side a little
G1 X10.4 Y20 Z0.28 F1500.0 E30 ;Draw the second line
G92 E0  ;Reset Extruder
G1 E-1.0000 F1800 ;Retract a bit
G1 Z2.0 F3000 ;Move Z Axis up
G1 E0.0000 F1800 

G92 E0
G92 E0
G1 F6000 E-8

;LAYER_COUNT:10

;LAYER:0
M107
;MESH:
G0 F3600 X81.115 Y72.039 Z0.2
;TYPE:WALL-OUTER
G1 F6000 E0
G1 F1500 X81.115 Y80.904 E0.32434
G1 X81.115 Y81.104 E0.33165
G1 X81.315 Y81.104 E0.33639
G1 X84.157 Y81.098 E0.44037
G1 X84.807 Y81.074 E0.46417
G1 X85.133 Y81.05 E0.47613
G1 X85.457 Y81.014 E0.48805
G1 X85.934 Y80.936 E0.50574
G1 X86.251 Y80.862 E0.51765
G1 X86.563 Y80.77 E0.52955
G1 X86.868 Y80.657 E0.54145
G1 X87.312 Y80.46 E0.55922
G1 X87.877 Y80.164 E0.58255
G1 X88.475 Y79.818 E0.60783
G1 X88.947 Y79.287 E0.63382
G1 X89.227 Y78.927 E0.65051
G1 X89.463 Y78.552 E0.66672
G1 X89.614 Y78.238 E0.67947
G1 X89.726 Y77.908 E0.69222
G1 X89.823 Y77.473 E0.70852
G1 X89.89 Y77.015 E0.72546
G1 X89.94 Y76.543 E0.74282
G1 X89.861 Y75.843 E0.7686
G1 X89.777 Y75.379 E0.78585
G1 X89.685 Y75.042 E0.79863
G1 X89.561 Y74.722 E0.81118
G1 X89.399 Y74.414 E0.82392
G1 X89.2 Y74.121 E0.83688
G1 X88.908 Y73.761 E0.85383
G1 X88.417 Y73.232 E0.88024
G1 X87.892 Y72.929 E0.90242
G1 X87.381 Y72.66 E0.92355
G1 X87.116 Y72.536 E0.93425
G1 X86.714 Y72.377 E0.95007
G1 X86.435 Y72.29 E0.96076
G1 X86.152 Y72.22 E0.97142
G1 X85.727 Y72.144 E0.98722
G1 X85.437 Y72.108 E0.99791
G1 X84.859 Y72.065 E1.01912
G1 X83.99 Y72.039 E1.05092
G1 X81.115 Y72.039 E1.15611
G0 F3600 X81.115 Y72.239
G0 X80.675 Y72.239
;;retract;;
G1 F6000 E-6.84389
G0 F3600 X77.192 Y91.024
G1 F6000 E1.15611
G1 F1500 X77.192 Y86.925 E1.30608
G1 X77.091 Y86.624 E1.31769
G1 X74.475 Y86.624 E1.4134
G1 X74.16 Y86.656 E1.42498
G1 X73.841 Y86.752 E1.43717
G1 X73.546 Y86.91 E1.44942
G1 X73.289 Y87.122 E1.46161
G1 X73.077 Y87.379 E1.47379
G1 X72.92 Y87.673 E1.48599
G1 X72.823 Y87.993 E1.49822
G1 X72.792 Y88.314 E1.51002
G1 X72.792 Y89.341 E1.54759
G1 X72.823 Y89.656 E1.55917
G1 X72.92 Y89.975 E1.57137
G1 X73.077 Y90.27 E1.5836
G1 X73.289 Y90.527 E1.59579
G1 X73.546 Y90.738 E1.60795
G1 X73.841 Y90.896 E1.6202
G1 X74.16 Y90.992 E1.63239
G1 X74.482 Y91.024 E1.64422
G1 X77.192 Y91.024 E1.74337
G0 F3600 X77.192 Y90.824
G0 X77.632 Y90.824
;;retract;;
G1 F6000 E-6.25663
G0 F3600 X81.115 Y84.322
G1 F6000 E1.74337
G1 F1500 X81.115 Y93.054 E2.06284
G1 X82.841 Y93.054 E2.12599
G1 X83.533 Y93.02 E2.15134
G1 X83.993 Y92.973 E2.16826
G1 X84.437 Y92.893 E2.18476
G1 X84.78 Y92.796 E2.1978
G1 X85.104 Y92.669 E2.21054
G1 X85.507 Y92.462 E2.22711
G1 X85.907 Y92.216 E2.24429
G1 X86.313 Y91.945 E2.26215
G1 X86.735 Y91.413 E2.28699
G1 X86.983 Y91.052 E2.30302
G1 X87.186 Y90.675 E2.31868
G1 X87.335 Y90.264 E2.33468
G1 X87.428 Y89.838 E2.35063
G1 X87.484 Y89.396 E2.36693
G1 X87.527 Y88.734 E2.3912
G1 X87.486 Y88.061 E2.41587
G1 X87.437 Y87.626 E2.43189
G1 X87.348 Y87.191 E2.44813
G1 X87.241 Y86.862 E2.46079
G1 X87.103 Y86.555 E2.4731
G1 X86.883 Y86.18 E2.48901
G1 X86.622 Y85.809 E2.50561
G1 X86.332 Y85.43 E2.52306
G1 X85.696 Y85.024 E2.55067
G1 X85.273 Y84.791 E2.56834
G1 X84.941 Y84.641 E2.58167
G1 X84.593 Y84.526 E2.59508
G1 X84.131 Y84.426 E2.61237
G1 X83.641 Y84.366 E2.63043
G1 X83.157 Y84.337 E2.64817
G1 X82.672 Y84.322 E2.66592
G1 X81.115 Y84.322 E2.72289
G0 F3600 X81.115 Y84.522
G0 X80.675 Y84.522
;;retract;;
G1 F6000 E-5.27711
G0 F3600 X88.736 Y83.524
G1 F6000 E2.72289
G1 F1500 X88.923 Y83.729 E2.73304
G1 X89.429 Y84.286 E2.76057
G1 X89.666 Y84.558 E2.77377
G1 X90.007 Y84.982 E2.79368
G1 X90.213 Y85.269 E2.8066
G1 X90.408 Y85.574 E2.81985
G1 X90.571 Y85.87 E2.83221
G1 X90.712 Y86.18 E2.84467
G1 X90.828 Y86.499 E2.85709
G1 X90.926 Y86.834 E2.86986
G1 X91.005 Y87.179 E2.88281
G1 X91.099 Y87.725 E2.90308
G1 X91.226 Y88.809 E2.94301
G1 X91.168 Y89.645 E2.97367
G1 X91.117 Y90.068 E2.98926
G1 X91.046 Y90.466 E3.00405
G1 X90.943 Y90.869 E3.01927
G1 X90.816 Y91.269 E3.03462
G1 X90.522 Y92.06 E3.06549
G1 X90.154 Y92.798 E3.09567
G1 X89.953 Y93.158 E3.11075
G1 X89.735 Y93.495 E3.12543
G1 X89.484 Y93.827 E3.14066
G1 X89.227 Y94.128 E3.15514
G1 X88.659 Y94.726 E3.18532
G1 X88.34 Y94.97 E3.20001
G1 X87.843 Y95.325 E3.22236
G1 X87.51 Y95.531 E3.23668
G1 X87.153 Y95.713 E3.25134
G1 X86.798 Y95.862 E3.26543
G1 X86.211 Y96.066 E3.28816
G1 X85.835 Y96.183 E3.30257
G1 X84.705 Y96.393 E3.34462
G1 X84.147 Y96.479 E3.36528
G1 X83.58 Y96.543 E3.38615
G1 X83.02 Y96.582 E3.40669
G1 X82.444 Y96.606 E3.42778
G1 X81.293 Y96.624 E3.4699
G1 X77.192 Y96.624 E3.61994
G1 X77.192 Y95.813 E3.64961
G1 X77.165 Y95.395 E3.66494
G1 X77.075 Y94.964 E3.68104
G1 X76.929 Y94.553 E3.697
G1 X76.73 Y94.167 E3.71289
G1 X76.478 Y93.809 E3.72891
G1 X76.181 Y93.491 E3.74483
G1 X75.841 Y93.211 E3.76094
G1 X75.469 Y92.986 E3.77685
G1 X75.074 Y92.813 E3.79262
G1 X74.857 Y92.743 E3.80097
G1 X74.437 Y92.655 E3.81667
G1 X73.618 Y92.599 E3.8467
G1 X73.247 Y92.523 E3.86056
G1 X72.888 Y92.397 E3.87448
G1 X72.546 Y92.221 E3.88855
G1 X72.233 Y92.002 E3.90252
G1 X71.954 Y91.743 E3.91645
G1 X71.709 Y91.443 E3.93062
G1 X71.511 Y91.121 E3.94445
G1 X71.358 Y90.771 E3.95843
G1 X71.253 Y90.405 E3.97236
G1 X71.201 Y90.026 E3.98635
G1 X71.192 Y89.824 E3.99375
G1 X71.192 Y87.837 E4.06645
G1 X71.217 Y87.451 E4.0806
G1 X71.293 Y87.08 E4.09446
G1 X71.42 Y86.717 E4.10853
G1 X71.592 Y86.381 E4.12234
G1 X71.816 Y86.062 E4.1366
G1 X72.069 Y85.79 E4.15019
G1 X72.371 Y85.543 E4.16446
G1 X72.694 Y85.345 E4.17832
G1 X73.047 Y85.19 E4.19243
G1 X73.41 Y85.086 E4.20624
G1 X73.792 Y85.033 E4.22035
G1 X74.223 Y85.015 E4.23614
G1 X74.639 Y84.958 E4.2515
G1 X75.055 Y84.843 E4.26729
G1 X75.456 Y84.671 E4.28325
G1 X75.834 Y84.442 E4.29942
G1 X76.171 Y84.168 E4.31531
G1 X76.469 Y83.85 E4.33126
G1 X76.723 Y83.491 E4.34735
G1 X76.924 Y83.105 E4.36327
G1 X77.071 Y82.692 E4.37931
G1 X77.162 Y82.265 E4.39528
G1 X77.191 Y81.836 E4.41101
G1 X77.192 Y68.376 E4.90346
G1 X83.537 Y68.376 E5.1356
G1 X84.764 Y68.403 E5.1805
G1 X85.378 Y68.433 E5.20299
G1 X85.979 Y68.483 E5.22506
G1 X86.575 Y68.56 E5.24704
G1 X87.175 Y68.662 E5.26931
G1 X88.363 Y68.906 E5.31368
G1 X89.015 Y69.166 E5.33936
G1 X89.432 Y69.35 E5.35604
G1 X89.846 Y69.564 E5.37309
G1 X90.231 Y69.803 E5.38967
G1 X90.597 Y70.071 E5.40626
G1 X90.961 Y70.372 E5.42355
G1 X91.492 Y70.843 E5.44951
G1 X91.992 Y71.442 E5.47806
G1 X92.236 Y71.748 E5.49238
G1 X92.59 Y72.226 E5.51414
G1 X92.8 Y72.543 E5.52805
G1 X92.986 Y72.859 E5.54147
G1 X93.154 Y73.189 E5.55502
G1 X93.302 Y73.544 E5.56909
G1 X93.419 Y73.895 E5.58262
G1 X93.513 Y74.249 E5.59602
G1 X93.591 Y74.622 E5.60997
G1 X93.682 Y75.2 E5.63137
G1 X93.806 Y76.381 E5.67482
G1 X93.743 Y77.251 E5.70673
G1 X93.674 Y77.842 E5.7285
G1 X93.629 Y78.113 E5.73855
G1 X93.535 Y78.53 E5.75419
G1 X93.457 Y78.798 E5.7644
G1 X93.306 Y79.206 E5.78032
G1 X93.074 Y79.714 E5.80075
G1 X92.793 Y80.246 E5.82276
G1 X92.505 Y80.752 E5.84407
G1 X91.963 Y81.414 E5.87537
G1 X91.591 Y81.824 E5.89562
G1 X91.39 Y82.023 E5.90597
G1 X91.09 Y82.286 E5.92057
G1 X90.867 Y82.454 E5.93078
G1 X90.525 Y82.676 E5.9457
G1 X90.283 Y82.814 E5.95589
G1 X89.78 Y83.066 E5.97647
G1 X88.99 Y83.413 E6.00804
G1 X88.736 Y83.524 E6.01407
G0 F3600 X88.871 Y83.672
G0 X88.545 Y83.968
;;retract;;
G1 F6000 E-1.98593
G0 F3600 X89.407 Y69.608
;TYPE:SKIN
G1 F6000 E6.01407
G1 F1500 X89.321 Y69.563 E6.01762
G1 X88.924 Y69.388 E6.03349
G1 X88.42 Y69.186 E6.05336
G1 X93.183 Y73.95 E6.29982
G1 X93.189 Y73.967 E6.30048
G1 X93.277 Y74.299 E6.31305
G1 X93.353 Y74.659 E6.32651
G0 F3600 X93.352 Y74.659
G1 F1500 X93.357 Y74.689 E6.32762
G1 X87.677 Y69.01 E6.62148
G1 X87.126 Y68.896 E6.64207
G1 X86.972 Y68.87 E6.64778
G1 X93.456 Y75.354 E6.98327
G1 X93.523 Y75.987 E7.00656
G1 X86.303 Y68.767 E7.38012
G1 X85.952 Y68.721 E7.39308
G1 X85.668 Y68.698 E7.4035
G1 X93.551 Y76.581 E7.81137
G1 X93.513 Y77.108 E7.8307
G1 X85.063 Y68.658 E8.26791
G1 X84.75 Y68.643 E8.27938
G1 X84.476 Y68.637 E8.2894
G1 X93.457 Y77.618 E8.75409
G1 X93.434 Y77.814 E8.76131
G0 F3600 X93.435 Y77.814
G1 F1500 X93.393 Y78.059 E8.7704
G1 X93.383 Y78.109 E8.77227
G1 X89.649 Y74.375 E8.96546
G1 X89.778 Y74.622 E8.97566
G1 X89.912 Y74.966 E8.98917
G1 X90 Y75.292 E9.00152
G1 X93.274 Y78.566 E9.17092
G1 X93.231 Y78.714 E9.17656
G0 F3600 X93.23 Y78.715
G1 F1500 X93.13 Y78.988 E9.18719
G1 X90.116 Y75.974 E9.34314
G1 X90.18 Y76.541 E9.36402
G1 X90.173 Y76.597 E9.36608
G1 X92.961 Y79.384 E9.51031
G1 X92.861 Y79.601 E9.51905
G1 X92.775 Y79.765 E9.52583
G1 X90.117 Y77.107 E9.66335
G1 X90.058 Y77.515 E9.67843
G1 X90.04 Y77.595 E9.68143
G1 X92.58 Y80.134 E9.81283
G1 X92.374 Y80.494 E9.828
G1 X89.93 Y78.051 E9.95443
G1 X89.835 Y78.329 E9.96518
G1 X89.772 Y78.458 E9.97043
G1 X92.136 Y80.823 E10.09277
G1 X91.881 Y81.133 E10.10746
G1 X89.573 Y78.825 E10.22688
G1 X89.422 Y79.065 E10.23725
G1 X89.345 Y79.163 E10.24181
G1 X91.618 Y81.436 E10.35942
G1 X91.419 Y81.655 E10.37024
G0 F3600 X91.42 Y81.655
G1 F1500 X91.345 Y81.728 E10.37407
G1 X89.096 Y79.479 E10.49044
G1 X88.829 Y79.778 E10.5051
G1 X91.051 Y82 E10.62007
G1 X90.941 Y82.097 E10.62544
G1 X90.735 Y82.25 E10.63483
G1 X88.541 Y80.056 E10.74834
G1 X88.183 Y80.263 E10.76347
G1 X90.393 Y82.474 E10.87785
G1 X90.174 Y82.598 E10.88705
G1 X90.026 Y82.672 E10.89311
G1 X87.819 Y80.465 E11.0073
G1 X87.447 Y80.658 E11.02263
G1 X89.648 Y82.86 E11.13654
G1 X89.255 Y83.032 E11.15223
G1 X87.057 Y80.835 E11.26593
G1 X86.957 Y80.878 E11.26992
G1 X86.65 Y80.994 E11.28192
G1 X88.862 Y83.205 E11.39635
G1 X88.469 Y83.378 E11.41206
G1 X86.209 Y81.117 E11.52902
G1 X85.98 Y81.17 E11.53762
G1 X85.736 Y81.211 E11.54667
G1 X90.159 Y85.634 E11.77552
G1 X90.204 Y85.704 E11.77856
G1 X90.352 Y85.97 E11.7897
G1 X90.489 Y86.27 E11.80177
G0 F3600 X90.488 Y86.271
G1 F1500 X90.596 Y86.568 E11.81333
G0 F3600 X90.598 Y86.568
G1 F1500 X90.627 Y86.667 E11.8171
G1 X85.239 Y81.279 E12.09588
G1 X85.154 Y81.288 E12.09901
G1 X84.819 Y81.313 E12.1113
G1 X84.712 Y81.317 E12.11522
G1 X90.8 Y87.406 E12.43024
G1 X90.86 Y87.753 E12.44312
G0 F3600 X90.858 Y87.753
G1 F1500 X90.896 Y88.068 E12.45473
G1 X84.166 Y81.338 E12.80295
G1 X84.161 Y81.338 E12.80313
G1 X83.602 Y81.339 E12.82358
G1 X90.972 Y88.709 E13.20491
G1 X90.984 Y88.814 E13.20878
G1 X90.953 Y89.256 E13.22499
G1 X83.037 Y81.34 E13.63456
G1 X82.472 Y81.341 E13.65524
G1 X86.179 Y85.047 E13.84701
G1 X85.817 Y84.817 E13.8627
G1 X85.38 Y84.575 E13.88098
G1 X85.028 Y84.417 E13.8951
G1 X84.96 Y84.394 E13.89772
G1 X81.907 Y81.342 E14.05566
G1 X81.343 Y81.343 E14.0763
G1 X84.194 Y84.194 E14.22381
G1 X84.171 Y84.189 E14.22467
G1 X83.662 Y84.126 E14.24343
G1 X83.553 Y84.119 E14.24743
G1 X77.431 Y77.996 E14.56421
G1 X77.431 Y78.562 E14.58492
G1 X82.958 Y84.089 E14.87089
G1 X82.675 Y84.081 E14.88125
G1 X82.384 Y84.081 E14.89189
G1 X77.431 Y79.128 E15.14817
G1 X77.431 Y79.693 E15.16884
G1 X81.818 Y84.081 E15.39585
G1 X81.252 Y84.081 E15.41656
G1 X77.431 Y80.259 E15.61428
G1 X77.431 Y80.825 E15.63499
G1 X80.875 Y84.269 E15.81319
G1 X80.875 Y84.835 E15.83389
G1 X77.431 Y81.39 E16.01211
G1 X77.431 Y81.843 E16.02869
G1 X77.423 Y81.948 E16.03254
G1 X80.875 Y85.4 E16.21115
G1 X80.875 Y85.966 E16.23186
G1 X77.366 Y82.457 E16.41341
G1 X77.303 Y82.757 E16.42463
G1 X77.249 Y82.906 E16.43043
G1 X80.875 Y86.532 E16.61804
G1 X80.875 Y87.097 E16.63871
G1 X77.086 Y83.309 E16.83473
G1 X76.927 Y83.615 E16.84735
G1 X76.885 Y83.674 E16.85
G1 X80.875 Y87.663 E17.05642
G1 X80.875 Y88.229 E17.07712
G1 X76.651 Y84.004 E17.2957
G1 X76.377 Y84.297 E17.31038
G1 X80.875 Y88.794 E17.54308
G1 X80.875 Y89.36 E17.56379
G1 X76.072 Y84.557 E17.8123
G1 X75.972 Y84.638 E17.81701
G1 X75.732 Y84.783 E17.82727
G1 X80.875 Y89.926 E18.09337
G1 X80.875 Y90.491 E18.11404
G1 X77.431 Y87.048 E18.29221
G1 X77.431 Y87.614 E18.31292
G1 X80.875 Y91.057 E18.49109
G1 X80.875 Y91.623 E18.51179
G1 X77.431 Y88.179 E18.68999
G1 X77.431 Y88.745 E18.7107
G1 X80.875 Y92.189 E18.88889
G1 X80.875 Y92.754 E18.90956
G1 X80.875 Y93.293 E18.92928
G0 F3600 X80.875 Y92.754
G1 F1500 X77.431 Y89.311 E19.10745
G1 X77.431 Y89.876 E19.12812
G1 X83.826 Y96.271 E19.459
G1 X83.561 Y96.302 E19.46876
G1 X83.309 Y96.319 E19.47801
G1 X77.431 Y90.442 E19.78211
G1 X77.431 Y91.008 E19.80282
G1 X82.774 Y96.351 E20.07927
G1 X82.433 Y96.365 E20.09176
G1 X82.225 Y96.368 E20.09937
G1 X77.121 Y91.263 E20.36348
G1 X76.555 Y91.263 E20.38418
G1 X81.668 Y96.376 E20.64873
G1 X81.288 Y96.382 E20.66264
G1 X81.109 Y96.382 E20.66919
G1 X75.989 Y91.263 E20.93407
G1 X75.424 Y91.263 E20.95474
G1 X80.543 Y96.382 E21.2196
G1 X79.978 Y96.382 E21.24028
G1 X74.858 Y91.263 E21.50516
G1 X74.469 Y91.263 E21.51939
G1 X74.273 Y91.243 E21.5266
G1 X76.344 Y93.315 E21.63378
G1 X75.98 Y93.012 E21.65111
G1 X75.579 Y92.771 E21.66823
G1 X75.159 Y92.587 E21.685
G1 X74.999 Y92.535 E21.69116
G1 X73.348 Y90.885 E21.77656
G0 F3600 X73.119 Y90.696
G1 F1500 X72.924 Y90.46 E21.78776
G1 X72.877 Y90.403 E21.79046
G1 X72.696 Y90.066 E21.80445
G1 X72.587 Y89.702 E21.81836
G1 X72.571 Y89.542 E21.82424
G1 X71.431 Y88.402 E21.88322
G1 X71.431 Y87.852 E21.90335
G1 X71.432 Y87.837 E21.9039
G1 X72.551 Y88.956 E21.96179
G1 X72.551 Y88.391 E21.98247
G1 X71.486 Y87.325 E22.03759
G1 X71.523 Y87.146 E22.04428
G1 X71.614 Y86.887 E22.05433
G1 X72.606 Y87.879 E22.10565
G1 X72.696 Y87.58 E22.11708
G1 X72.758 Y87.466 E22.12182
G1 X71.797 Y86.505 E22.17155
G1 X72.007 Y86.206 E22.18491
G1 X72.034 Y86.176 E22.18639
G1 X72.979 Y87.121 E22.23529
G1 X73.119 Y86.951 E22.24334
G1 X73.259 Y86.835 E22.25
G1 X72.318 Y85.895 E22.29866
G1 X72.506 Y85.74 E22.30757
G1 X72.646 Y85.656 E22.31355
G1 X73.597 Y86.608 E22.36278
G1 X73.749 Y86.527 E22.36908
G1 X74.005 Y86.45 E22.37886
G1 X73.018 Y85.463 E22.42993
G1 X73.13 Y85.414 E22.4344
G1 X73.445 Y85.325 E22.44637
G1 X74.503 Y86.382 E22.50109
