; generated by Slic3r Prusa Edition 1.39.1-prusa3d on 2018-04-22 at 18:17:24

; 

; external perimeters extrusion width = 0.45mm
; perimeters extrusion width = 0.45mm
; infill extrusion width = 0.45mm
; solid infill extrusion width = 0.45mm
; top infill extrusion width = 0.33mm
; first layer extrusion width = 0.42mm

M107
M115 U3.1.0 ; tell printer latest fw version
M201 X9000 Y9000 Z500 E10000 ; sets maximum accelerations, mm/sec^2
M203 X500 Y500 Z12 E120 ; sets maximum feedrates, mm/sec
M204 S1500 T1500 ; sets acceleration (S) and retract acceleration (T)
M205 X10 Y10 Z0.2 E2.5 ; sets the jerk limits, mm/sec
M205 S0 T0 ; sets the minimum extruding and travel feed rate, mm/sec
M83  ; extruder relative mode
M104 S215 ; set extruder temp
M140 S60 ; set bed temp
M190 S60 ; wait for bed temp
M109 S215 ; wait for extruder temp
G28 W ; home all without mesh bed level
G80 ; mesh bed leveling
G1 Y-3.0 F1000.0 ; go outside print area
G92 E0.0
G1 E18.0 F1000.0;
G1 X60.0 E9.0  F1000.0 ; intro line
G1 X100.0 E12.5  F1000.0 ; intro line
G92 E0.0
M900 K30; Filament gcode
G21 ; set units to millimeters
G90 ; use absolute coordinates
M83 ; use relative distances for extrusion
;BEFORE_LAYER_CHANGE
;0.2


G1 E-0.80000 F2100.00000
G1 Z0.600 F7200.000
;AFTER_LAYER_CHANGE
;0.2
G1 X117.254 Y89.072 F7200.000
G1 Z0.200 F7200.000
G1 E0.80000 F2100.00000
M204 S1000
G1 F900
G1 X117.625 Y88.652 E0.01758
G1 X118.077 Y88.313 E0.01771
G1 X118.585 Y88.076 E0.01758
G1 X119.134 Y87.945 E0.01771
G1 X126.047 Y87.922 E0.21673
G1 X129.129 Y88.085 E0.09679
G1 X131.795 Y88.602 E0.08514
G1 X133.172 Y89.169 E0.04668
G1 X134.093 Y89.664 E0.03279
G1 X134.945 Y90.266 E0.03272
G1 X136.105 Y91.277 E0.04823
G1 X137.069 Y92.435 E0.04725
G1 X137.810 Y93.483 E0.04024
G1 X138.344 Y94.466 E0.03509
G1 X138.751 Y95.550 E0.03629
G1 X139.043 Y96.844 E0.04160
G1 X139.257 Y98.732 E0.05958
G1 X139.186 Y100.026 E0.04062
G1 X139.021 Y101.220 E0.03781
G1 X136.205 Y114.444 E0.42392
G1 X135.723 Y115.764 E0.04407
G1 X135.008 Y117.142 E0.04865
G1 X134.445 Y117.979 E0.03163
G1 X133.569 Y118.985 E0.04183
G1 X132.972 Y119.560 E0.02599
G1 X131.454 Y120.609 E0.05784
G1 X130.354 Y121.122 E0.03807
G1 X128.939 Y121.576 E0.04658
G1 X127.056 Y121.904 E0.05995
G1 X125.651 Y122.034 E0.04424
G1 X119.489 Y122.078 E0.19321
G1 X118.931 Y122.020 E0.01758
G1 X118.241 Y121.777 E0.02294
G1 X117.639 Y121.361 E0.02294
G1 X112.501 Y116.468 E0.22245
G1 X111.596 Y115.346 E0.04522
G1 X111.070 Y114.248 E0.03818
G1 X110.786 Y113.059 E0.03831
G1 X110.739 Y110.271 E0.08743
G1 X110.859 Y109.153 E0.03526
G1 X116.868 Y89.842 E0.63411
G1 X117.227 Y89.126 E0.02513
G1 X117.552 Y89.304 F7200.000
G1 F900
G1 X117.877 Y88.932 E0.01550
G1 X118.276 Y88.634 E0.01562
G1 X118.729 Y88.425 E0.01562
G1 X119.214 Y88.315 E0.01562
G1 X126.046 Y88.299 E0.21421
G1 X128.729 Y88.418 E0.08421
G1 X130.786 Y88.755 E0.06533
G1 X131.756 Y88.988 E0.03129
G1 X133.584 Y89.802 E0.06274
G1 X134.686 Y90.541 E0.04162
G1 X135.908 Y91.619 E0.05107
G1 X137.333 Y93.441 E0.07254
G1 X138.123 Y94.902 E0.05207
G1 X138.515 Y96.130 E0.04042
G1 X138.742 Y97.396 E0.04033
G1 X138.884 Y98.849 E0.04577
G1 X138.776 Y100.324 E0.04640
G1 X136.067 Y113.506 E0.42194
G1 X135.372 Y115.624 E0.06988
G1 X134.789 Y116.767 E0.04024
G1 X134.172 Y117.715 E0.03549
G1 X132.810 Y119.206 E0.06329
G1 X131.764 Y119.976 E0.04075
G1 X130.774 Y120.535 E0.03562
G1 X128.938 Y121.190 E0.06112
G1 X126.336 Y121.607 E0.08262
G1 X123.811 Y121.701 E0.07923
G1 X119.001 Y121.650 E0.15082
G1 X118.407 Y121.439 E0.01977
G1 X117.886 Y121.077 E0.01989
G1 X112.770 Y116.204 E0.22154
G1 X111.913 Y115.142 E0.04278
G1 X111.424 Y114.119 E0.03555
G1 X111.159 Y113.005 E0.03591
G1 X111.116 Y110.283 E0.08536
G1 X111.229 Y109.224 E0.03339
G1 X117.227 Y89.956 E0.63273
G1 X117.525 Y89.357 E0.02096
G1 F5760
G1 X117.877 Y88.932 E-0.19136
G1 F5760
G1 X118.276 Y88.634 E-0.17251
G1 F5760
G1 X118.729 Y88.425 E-0.17251
G1 F5760
G1 X119.214 Y88.315 E-0.17251
G1 F5760
G1 X119.362 Y88.315 E-0.05112
G1 E-0.04000 F2100.00000
G1 Z0.800 F7200.000
G1 X123.229 Y106.435 F7200.000
G1 Z0.200 F7200.000
G1 E0.80000 F2100.00000
G1 F900
G1 X125.183 Y106.435 E0.06128
G1 X126.179 Y106.480 E0.03124
G1 X126.944 Y106.589 E0.02422
G1 X127.580 Y106.779 E0.02084
G1 X128.175 Y107.063 E0.02065
G1 X129.102 Y107.642 E0.03428
G1 X129.702 Y108.458 E0.03174
G1 X129.946 Y108.873 E0.01509
G1 X130.061 Y109.116 E0.00843
G1 X130.219 Y109.578 E0.01533
G1 X130.318 Y110.055 E0.01527
G1 X130.373 Y110.526 E0.01487
G1 X130.416 Y111.236 E0.02229
G1 X130.371 Y111.932 E0.02188
G1 X130.314 Y112.395 E0.01462
G1 X130.214 Y112.853 E0.01469
G1 X130.137 Y113.096 E0.00799
G1 X130.040 Y113.336 E0.00812
G1 X129.815 Y113.754 E0.01491
G1 X129.548 Y114.143 E0.01478
G1 X129.078 Y114.735 E0.02369
G1 X128.411 Y115.173 E0.02503
G1 X127.772 Y115.519 E0.02278
G1 X127.406 Y115.663 E0.01234
G1 X127.028 Y115.770 E0.01232
G1 X126.307 Y115.885 E0.02289
G1 X125.354 Y115.941 E0.02991
G1 X123.229 Y115.941 E0.06665
G1 X123.229 Y106.495 E0.29615
G1 X123.606 Y106.812 F7200.000
G1 F900
G1 X125.175 Y106.812 E0.04920
G1 X126.144 Y106.855 E0.03040
G1 X126.863 Y106.958 E0.02277
G1 X127.444 Y107.132 E0.01904
G1 X127.993 Y107.394 E0.01907
G1 X128.841 Y107.923 E0.03135
G1 X129.386 Y108.665 E0.02887
G1 X129.612 Y109.049 E0.01396
G1 X129.711 Y109.258 E0.00725
G1 X129.855 Y109.678 E0.01392
G1 X129.946 Y110.115 E0.01400
G1 X129.998 Y110.559 E0.01401
G1 X130.038 Y111.235 E0.02122
G1 X129.995 Y111.897 E0.02080
G1 X129.942 Y112.331 E0.01373
G1 X129.850 Y112.755 E0.01360
G1 X129.782 Y112.967 E0.00698
G1 X129.698 Y113.175 E0.00702
G1 X129.492 Y113.558 E0.01362
G1 X129.244 Y113.919 E0.01373
G1 X128.821 Y114.453 E0.02138
G1 X128.217 Y114.849 E0.02263
G1 X127.612 Y115.176 E0.02157
G1 X127.285 Y115.305 E0.01104
G1 X126.946 Y115.401 E0.01103
G1 X126.266 Y115.510 E0.02160
G1 X125.344 Y115.564 E0.02898
G1 X123.606 Y115.564 E0.05448
G1 X123.606 Y106.872 E0.27250
G1 X123.580 Y106.413 F7200.000
G1 F5760
G1 X125.175 Y106.812 E-0.54388
G1 F5760
G1 X125.798 Y106.840 E-0.21612
G1 E-0.04000 F2100.00000
G1 Z0.800 F7200.000
G1 X120.080 Y108.737 F7200.000
G1 Z0.200 F7200.000
G1 E0.80000 F2100.00000
G1 F900
G1 X120.080 Y113.911 E0.16223
G1 X116.964 Y113.911 E0.09770
G1 X116.585 Y113.874 E0.01194
G1 X116.193 Y113.755 E0.01285
G1 X115.832 Y113.562 E0.01285
G1 X115.515 Y113.302 E0.01285
G1 X115.255 Y112.985 E0.01285
G1 X115.062 Y112.624 E0.01285
G1 X114.947 Y112.246 E0.01239
G1 X114.913 Y112.015 E0.00733
G1 X114.913 Y110.619 E0.04374
G1 X114.990 Y110.232 E0.01239
G1 X115.069 Y110.012 E0.00733
G1 X115.248 Y109.676 E0.01194
G1 X115.387 Y109.488 E0.00733
G1 X115.657 Y109.219 E0.01194
G1 X115.844 Y109.080 E0.00733
G1 X116.180 Y108.900 E0.01194
G1 X116.400 Y108.821 E0.00733
G1 X116.774 Y108.747 E0.01194
G1 X120.020 Y108.737 E0.10178
G1 X119.703 Y109.114 F7200.000
G1 F900
G1 X119.703 Y113.534 E0.13859
G1 X116.982 Y113.534 E0.08529
G1 X116.659 Y113.502 E0.01019
G1 X116.338 Y113.405 E0.01052
G1 X116.042 Y113.247 E0.01052
G1 X115.783 Y113.034 E0.01052
G1 X115.570 Y112.775 E0.01052
G1 X115.412 Y112.479 E0.01052
G1 X115.316 Y112.163 E0.01035
G1 X115.290 Y111.987 E0.00559
G1 X115.290 Y110.657 E0.04171
G1 X115.354 Y110.333 E0.01035
G1 X115.414 Y110.165 E0.00559
G1 X115.568 Y109.878 E0.01019
G1 X115.674 Y109.735 E0.00559
G1 X115.904 Y109.505 E0.01019
G1 X116.047 Y109.399 E0.00559
G1 X116.333 Y109.246 E0.01019
G1 X116.501 Y109.186 E0.00559
G1 X116.820 Y109.122 E0.01019
G1 X119.643 Y109.114 E0.08851
G1 X120.103 Y109.111 F7200.000
G1 F5760
G1 X119.672 Y111.308 E-0.76000
G1 E-0.04000 F2100.00000
G1 Z0.800 F7200.000
G1 X123.229 Y103.994 F7200.000
G1 Z0.200 F7200.000
G1 E0.80000 F2100.00000
G1 F900
G1 X123.229 Y94.152 E0.30859
G1 X126.496 Y94.152 E0.10245
G1 X127.386 Y94.178 E0.02789
G1 X128.280 Y94.260 E0.02816
G1 X128.891 Y94.377 E0.01949
G1 X129.490 Y94.565 E0.01970
G1 X130.313 Y94.945 E0.02842
G1 X131.161 Y95.423 E0.03051
G1 X131.702 Y96.007 E0.02495
G1 X132.012 Y96.390 E0.01545
G1 X132.228 Y96.710 E0.01210
G1 X132.413 Y97.055 E0.01229
G1 X132.554 Y97.421 E0.01229
G1 X132.656 Y97.793 E0.01210
G1 X132.744 Y98.278 E0.01545
G1 X132.831 Y99.044 E0.02417
G1 X132.745 Y99.796 E0.02373
G1 X132.660 Y100.276 E0.01530
G1 X132.525 Y100.748 E0.01539
G1 X132.426 Y100.996 E0.00838
G1 X132.307 Y101.236 E0.00837
G1 X132.045 Y101.650 E0.01538
G1 X131.745 Y102.035 E0.01529
G1 X131.222 Y102.624 E0.02470
G1 X130.283 Y103.156 E0.03385
G1 X129.669 Y103.453 E0.02138
G1 X129.020 Y103.691 E0.02168
G1 X128.347 Y103.847 E0.02166
G1 X127.671 Y103.935 E0.02137
G1 X126.996 Y103.976 E0.02123
G1 X123.289 Y103.994 E0.11623
G1 X123.606 Y103.615 F7200.000
G1 F900
G1 X123.606 Y94.529 E0.28489
G1 X126.491 Y94.529 E0.09046
G1 X127.363 Y94.555 E0.02736
G1 X128.227 Y94.634 E0.02721
G1 X128.799 Y94.744 E0.01824
G1 X129.354 Y94.917 E0.01826
G1 X130.141 Y95.281 E0.02718
G1 X130.924 Y95.723 E0.02819
G1 X131.417 Y96.254 E0.02272
G1 X131.709 Y96.615 E0.01455
G1 X131.905 Y96.905 E0.01097
G1 X132.070 Y97.213 E0.01096
G1 X132.196 Y97.539 E0.01096
G1 X132.288 Y97.876 E0.01097
G1 X132.370 Y98.333 E0.01455
G1 X132.451 Y99.044 E0.02244
G1 X132.372 Y99.741 E0.02201
G1 X132.292 Y100.191 E0.01432
G1 X132.168 Y100.626 E0.01419
G1 X132.081 Y100.842 E0.00730
G1 X131.978 Y101.051 E0.00730
G1 X131.737 Y101.433 E0.01418
G1 X131.456 Y101.794 E0.01432
G1 X130.982 Y102.327 E0.02236
G1 X130.108 Y102.822 E0.03151
G1 X129.522 Y103.105 E0.02041
G1 X128.912 Y103.329 E0.02037
G1 X128.280 Y103.476 E0.02034
G1 X127.636 Y103.560 E0.02037
G1 X126.983 Y103.599 E0.02049
G1 X123.666 Y103.615 E0.10402
G1 X123.206 Y103.617 F7200.000
G1 F5760
G1 X123.651 Y101.421 E-0.76000
G1 E-0.04000 F2100.00000
G1 Z0.800 F7200.000
G1 X130.594 Y105.883 F7200.000
G1 Z0.200 F7200.000
G1 E0.80000 F2100.00000
G1 F900
G1 X131.871 Y107.309 E0.06002
G1 X132.400 Y107.996 E0.02718
G1 X132.655 Y108.408 E0.01521
G1 X132.794 Y108.684 E0.00969
G1 X133.009 Y109.275 E0.01972
G1 X133.128 Y109.765 E0.01580
G1 X133.216 Y110.275 E0.01624
G1 X133.338 Y111.320 E0.03299
G1 X133.261 Y112.318 E0.03136
G1 X133.205 Y112.701 E0.01215
G1 X133.123 Y113.076 E0.01203
G1 X132.949 Y113.652 E0.01886
G1 X132.665 Y114.414 E0.02550
G1 X132.309 Y115.125 E0.02494
G1 X131.914 Y115.779 E0.02395
G1 X131.437 Y116.372 E0.02387
G1 X130.902 Y116.936 E0.02436
G1 X130.290 Y117.393 E0.02395
G1 X129.978 Y117.600 E0.01175
G1 X129.660 Y117.780 E0.01145
G1 X128.975 Y118.069 E0.02331
G1 X128.237 Y118.308 E0.02432
G1 X126.872 Y118.555 E0.04348
G1 X126.046 Y118.657 E0.02609
G1 X125.499 Y118.696 E0.01721
G1 X124.366 Y118.731 E0.03554
G1 X120.076 Y118.736 E0.13450
G1 X120.073 Y118.090 E0.02026
G1 X120.045 Y117.823 E0.00844
G1 X119.947 Y117.354 E0.01501
G1 X119.784 Y116.894 E0.01531
G1 X119.559 Y116.461 E0.01530
G1 X119.276 Y116.059 E0.01543
G1 X118.949 Y115.709 E0.01500
G1 X118.743 Y115.530 E0.00856
G1 X118.365 Y115.264 E0.01450
G1 X118.126 Y115.130 E0.00857
G1 X117.694 Y114.943 E0.01476
G1 X117.241 Y114.816 E0.01477
G1 X116.967 Y114.768 E0.00871
G1 X116.345 Y114.732 E0.01956
G1 X116.002 Y114.685 E0.01084
G1 X115.685 Y114.597 E0.01032
G1 X115.383 Y114.465 E0.01032
G1 X115.102 Y114.294 E0.01032
G1 X114.847 Y114.087 E0.01032
G1 X114.622 Y113.846 E0.01032
G1 X114.432 Y113.577 E0.01033
G1 X114.223 Y113.141 E0.01518
G1 X114.132 Y112.815 E0.01061
G1 X114.087 Y112.489 E0.01032
G1 X114.087 Y110.160 E0.07303
G1 X114.133 Y109.824 E0.01064
G1 X114.216 Y109.526 E0.00970
G1 X114.348 Y109.223 E0.01034
G1 X114.523 Y108.933 E0.01063
G1 X114.730 Y108.678 E0.01030
G1 X114.971 Y108.453 E0.01034
G1 X115.231 Y108.268 E0.00998
G1 X115.524 Y108.116 E0.01034
G1 X115.843 Y108.002 E0.01063
G1 X116.161 Y107.936 E0.01019
G1 X116.754 Y107.902 E0.01862
G1 X117.231 Y107.836 E0.01510
G1 X117.678 Y107.710 E0.01456
G1 X117.927 Y107.613 E0.00837
G1 X118.348 Y107.395 E0.01489
G1 X118.572 Y107.248 E0.00838
G1 X118.938 Y106.950 E0.01481
G1 X119.278 Y106.586 E0.01562
G1 X119.551 Y106.200 E0.01481
G1 X119.789 Y105.741 E0.01622
G1 X119.947 Y105.294 E0.01486
G1 X120.048 Y104.812 E0.01546
G1 X120.080 Y104.344 E0.01469
G1 X120.080 Y91.264 E0.41013
G1 X126.627 Y91.272 E0.20528
G1 X127.850 Y91.319 E0.03838
G1 X128.732 Y91.403 E0.02776
G1 X129.610 Y91.544 E0.02789
G1 X130.749 Y91.778 E0.03646
G1 X131.772 Y92.203 E0.03475
G1 X132.339 Y92.509 E0.02018
G1 X132.866 Y92.881 E0.02023
G1 X133.713 Y93.612 E0.03508
G1 X134.192 Y94.185 E0.02341
G1 X134.660 Y94.789 E0.02395
G1 X135.067 Y95.403 E0.02310
G1 X135.373 Y96.009 E0.02130
G1 X135.549 Y96.506 E0.01651
G1 X135.637 Y96.840 E0.01084
G1 X135.745 Y97.381 E0.01730
G1 X135.846 Y98.143 E0.02408
G1 X135.918 Y98.884 E0.02337
G1 X135.859 Y99.715 E0.02611
G1 X135.747 Y100.546 E0.02628
G1 X135.586 Y101.187 E0.02073
G1 X135.339 Y101.811 E0.02105
G1 X135.091 Y102.308 E0.01740
G1 X134.684 Y103.035 E0.02614
G1 X134.178 Y103.653 E0.02504
G1 X133.626 Y104.240 E0.02527
G1 X133.246 Y104.563 E0.01565
G1 X132.831 Y104.842 E0.01567
G1 X132.115 Y105.215 E0.02531
G1 X130.649 Y105.859 E0.05021
G1 X131.222 Y106.019 F7200.000
G1 F900
G1 X132.161 Y107.068 E0.04414
G1 X132.710 Y107.781 E0.02823
G1 X132.984 Y108.224 E0.01634
G1 X133.137 Y108.528 E0.01067
G1 X133.266 Y108.845 E0.01072
G1 X133.372 Y109.173 E0.01079
G1 X133.497 Y109.688 E0.01664
G1 X133.589 Y110.221 E0.01696
G1 X133.717 Y111.313 E0.03446
G1 X133.636 Y112.360 E0.03292
G1 X133.576 Y112.769 E0.01297
G1 X133.488 Y113.171 E0.01291
G1 X133.306 Y113.772 E0.01970
G1 X133.012 Y114.565 E0.02651
G1 X132.642 Y115.302 E0.02588
G1 X132.224 Y115.995 E0.02538
G1 X131.981 Y116.316 E0.01261
G1 X131.717 Y116.625 E0.01274
G1 X131.153 Y117.218 E0.02566
G1 X130.508 Y117.702 E0.02529
G1 X130.175 Y117.922 E0.01250
G1 X129.832 Y118.116 E0.01235
G1 X129.474 Y118.281 E0.01237
G1 X129.101 Y118.425 E0.01254
G1 X128.329 Y118.675 E0.02543
G1 X126.929 Y118.928 E0.04461
G1 X126.083 Y119.032 E0.02672
G1 X125.518 Y119.073 E0.01775
G1 X124.372 Y119.108 E0.03596
G1 X119.701 Y119.114 E0.14644
G1 X119.696 Y118.111 E0.03145
G1 X119.672 Y117.880 E0.00726
G1 X119.584 Y117.456 E0.01360
G1 X119.437 Y117.044 E0.01370
G1 X119.236 Y116.657 E0.01368
G1 X118.982 Y116.297 E0.01381
G1 X118.687 Y115.981 E0.01357
G1 X118.510 Y115.827 E0.00734
G1 X118.164 Y115.583 E0.01329
G1 X117.959 Y115.469 E0.00736
G1 X117.568 Y115.299 E0.01336
G1 X117.157 Y115.184 E0.01337
G1 X116.924 Y115.143 E0.00742
G1 X116.308 Y115.108 E0.01934
G1 X115.925 Y115.055 E0.01212
G1 X115.559 Y114.953 E0.01194
G1 X115.209 Y114.801 E0.01194
G1 X114.884 Y114.603 E0.01194
G1 X114.589 Y114.363 E0.01194
G1 X114.329 Y114.085 E0.01194
G1 X114.109 Y113.774 E0.01194
G1 X113.937 Y113.441 E0.01174
G1 X113.865 Y113.262 E0.00607
G1 X113.762 Y112.892 E0.01204
G1 X113.710 Y112.515 E0.01194
G1 X113.710 Y110.134 E0.07465
G1 X113.762 Y109.753 E0.01205
G1 X113.806 Y109.572 E0.00586
G1 X113.863 Y109.393 E0.00586
G1 X114.012 Y109.050 E0.01174
G1 X114.214 Y108.715 E0.01225
G1 X114.454 Y108.420 E0.01193
G1 X114.727 Y108.164 E0.01174
G1 X114.884 Y108.045 E0.00618
G1 X115.040 Y107.942 E0.00585
G1 X115.372 Y107.770 E0.01174
G1 X115.740 Y107.638 E0.01225
G1 X116.112 Y107.561 E0.01189
G1 X116.717 Y107.526 E0.01902
G1 X117.154 Y107.466 E0.01382
G1 X117.558 Y107.352 E0.01317
G1 X117.771 Y107.269 E0.00716
G1 X118.158 Y107.069 E0.01366
G1 X118.349 Y106.943 E0.00717
G1 X118.680 Y106.674 E0.01340
G1 X118.985 Y106.347 E0.01400
G1 X119.232 Y105.998 E0.01340
G1 X119.440 Y105.596 E0.01419
G1 X119.584 Y105.192 E0.01345
G1 X119.673 Y104.760 E0.01384
G1 X119.703 Y104.331 E0.01348
G1 X119.703 Y90.886 E0.42157
G1 X126.634 Y90.895 E0.21734
G1 X127.875 Y90.943 E0.03894
G1 X128.779 Y91.028 E0.02847
G1 X129.678 Y91.173 E0.02853
G1 X130.860 Y91.416 E0.03785
G1 X131.935 Y91.862 E0.03648
G1 X132.538 Y92.188 E0.02149
G1 X133.098 Y92.584 E0.02152
G1 X133.982 Y93.347 E0.03661
G1 X134.485 Y93.949 E0.02459
G1 X134.967 Y94.569 E0.02461
G1 X135.390 Y95.208 E0.02403
G1 X135.568 Y95.533 E0.01163
G1 X135.723 Y95.867 E0.01153
G1 X135.909 Y96.394 E0.01755
G1 X136.005 Y96.755 E0.01170
G1 X136.117 Y97.320 E0.01805
G1 X136.221 Y98.099 E0.02466
G1 X136.297 Y98.880 E0.02458
G1 X136.234 Y99.754 E0.02747
G1 X136.118 Y100.617 E0.02732
G1 X135.945 Y101.303 E0.02217
