; generated by Slic3r Prusa Edition 1.39.1-prusa3d on 2018-05-09 at 07:50:47

; 

; external perimeters extrusion width = 0.45mm
; perimeters extrusion width = 0.45mm
; infill extrusion width = 0.45mm
; solid infill extrusion width = 0.45mm
; top infill extrusion width = 0.33mm
; first layer extrusion width = 0.42mm

M107
M115 U3.1.0 ; tell printer latest fw version
M201 X9000 Y9000 Z500 E10000 ; sets maximum accelerations, mm/sec^2
M203 X500 Y500 Z12 E120 ; sets maximum feedrates, mm/sec
M204 S1500 T1500 ; sets acceleration (S) and retract acceleration (T)
M205 X10 Y10 Z0.2 E2.5 ; sets the jerk limits, mm/sec
M205 S0 T0 ; sets the minimum extruding and travel feed rate, mm/sec
M83  ; extruder relative mode
M104 S200 ; set extruder temp
M140 S55 ; set bed temp
M190 S55 ; wait for bed temp
M109 S200 ; wait for extruder temp
G28 W ; home all without mesh bed level
G80 ; mesh bed leveling
G1 Y-3.0 F1000.0 ; go outside print area
G92 E0.0
G1 E18.0 F1000.0;
G1 X60.0 E9.0  F1000.0 ; intro line
G1 X100.0 E12.5  F1000.0 ; intro line
G92 E0.0
M900 K30; Filament gcode
G21 ; set units to millimeters
G90 ; use absolute coordinates
M83 ; use relative distances for extrusion
;BEFORE_LAYER_CHANGE
;0.2


G1 E-0.80000 F2100.00000
G1 Z0.600 F7200.000
;AFTER_LAYER_CHANGE
;0.2
G1 X44.680 Y53.947 F7200.000
G1 Z0.200 F7200.000
G1 E0.80000 F2100.00000
M204 S1000
G1 F900
G1 X46.412 Y52.556 E0.06965
G1 X48.047 Y51.568 E0.05989
G1 X49.793 Y50.804 E0.05976
G1 X51.916 Y50.192 E0.06929
G1 X54.035 Y49.905 E0.06704
G1 X145.873 Y49.903 E2.87951
G1 X148.072 Y50.189 E0.06953
G1 X150.196 Y50.799 E0.06929
G1 X151.949 Y51.566 E0.06000
G1 X153.584 Y52.554 E0.05988
G1 X155.305 Y53.933 E0.06917
G1 X156.811 Y55.567 E0.06965
G1 X157.910 Y57.133 E0.06000
G1 X158.790 Y58.820 E0.05965
G1 X159.546 Y60.897 E0.06929
G1 X159.975 Y62.976 E0.06656
G1 X160.109 Y64.976 E0.06287
G1 X160.108 Y140.062 E2.35427
G1 X159.950 Y141.740 E0.05281
G1 X159.614 Y143.106 E0.04413
G1 X159.079 Y144.417 E0.04437
G1 X158.187 Y145.912 E0.05460
G1 X157.099 Y147.178 E0.05235
G1 X155.797 Y148.259 E0.05305
G1 X154.589 Y148.990 E0.04425
G1 X153.299 Y149.532 E0.04389
G1 X151.615 Y149.962 E0.05448
G1 X150.065 Y150.091 E0.04878
G1 X50.000 Y150.092 E3.13746
G1 X48.254 Y149.935 E0.05496
G1 X46.876 Y149.597 E0.04449
G1 X45.573 Y149.065 E0.04413
G1 X44.070 Y148.170 E0.05484
G1 X42.804 Y147.082 E0.05235
G1 X41.802 Y145.897 E0.04866
G1 X40.915 Y144.402 E0.05448
G1 X40.386 Y143.106 E0.04389
G1 X40.049 Y141.736 E0.04425
G1 X39.892 Y140.066 E0.05258
G1 X39.891 Y64.937 E2.35563
G1 X40.031 Y62.931 E0.06303
G1 X40.414 Y61.060 E0.05988
G1 X41.142 Y58.962 E0.06965
G1 X42.180 Y56.996 E0.06968
G1 X43.285 Y55.440 E0.05986
G1 X44.639 Y53.991 E0.06218
G1 F5760
G1 X46.345 Y52.611 E-0.76000
G1 E-0.04000 F2100.00000
G1 Z0.800 F7200.000
G1 X56.378 Y92.647 F7200.000
G1 Z0.200 F7200.000
G1 E0.80000 F2100.00000
G1 F900
G1 X58.170 Y92.257 E0.05752
G1 X59.979 Y92.127 E0.05686
G1 X140.021 Y92.127 E2.50966
G1 X141.830 Y92.257 E0.05686
G1 X143.622 Y92.647 E0.05752
G1 X145.341 Y93.288 E0.05752
G1 X146.951 Y94.167 E0.05751
G1 X148.419 Y95.266 E0.05751
G1 X149.716 Y96.563 E0.05751
G1 X150.816 Y98.032 E0.05752
G1 X151.695 Y99.642 E0.05751
G1 X152.336 Y101.360 E0.05752
G1 X152.726 Y103.153 E0.05751
G1 X152.855 Y104.962 E0.05686
G1 X152.855 Y130.003 E0.78517
G1 X152.726 Y131.812 E0.05686
G1 X152.336 Y133.605 E0.05752
G1 X151.695 Y135.323 E0.05751
G1 X150.816 Y136.933 E0.05752
G1 X149.716 Y138.402 E0.05751
G1 X148.419 Y139.699 E0.05752
G1 X146.951 Y140.798 E0.05751
G1 X145.341 Y141.677 E0.05751
G1 X143.622 Y142.318 E0.05752
G1 X141.830 Y142.708 E0.05752
G1 X140.021 Y142.838 E0.05686
G1 X59.979 Y142.838 E2.50966
G1 X58.170 Y142.708 E0.05686
G1 X56.378 Y142.318 E0.05752
G1 X54.659 Y141.677 E0.05751
G1 X53.049 Y140.798 E0.05752
G1 X51.581 Y139.699 E0.05751
G1 X50.284 Y138.402 E0.05752
G1 X49.184 Y136.933 E0.05751
G1 X48.305 Y135.323 E0.05752
G1 X47.664 Y133.605 E0.05751
G1 X47.274 Y131.812 E0.05751
G1 X47.145 Y130.003 E0.05686
G1 X47.145 Y104.962 E0.78517
G1 X47.274 Y103.153 E0.05686
G1 X47.664 Y101.360 E0.05751
G1 X48.305 Y99.642 E0.05752
G1 X49.184 Y98.032 E0.05751
G1 X50.284 Y96.563 E0.05751
G1 X51.581 Y95.266 E0.05752
G1 X53.049 Y94.167 E0.05751
G1 X54.659 Y93.288 E0.05752
G1 X56.322 Y92.668 E0.05563
G1 X56.453 Y93.021 F7200.000
G1 F900
G1 X58.224 Y92.631 E0.05685
G1 X59.992 Y92.505 E0.05559
G1 X140.007 Y92.505 E2.50881
G1 X141.776 Y92.631 E0.05559
G1 X143.516 Y93.009 E0.05582
G1 X145.184 Y93.632 E0.05582
G1 X146.746 Y94.485 E0.05582
G1 X148.172 Y95.552 E0.05582
G1 X149.431 Y96.811 E0.05582
G1 X150.498 Y98.236 E0.05582
G1 X151.351 Y99.799 E0.05582
G1 X151.973 Y101.467 E0.05582
G1 X152.352 Y103.207 E0.05582
G1 X152.478 Y104.975 E0.05559
G1 X152.478 Y129.990 E0.78433
G1 X152.352 Y131.758 E0.05559
G1 X151.973 Y133.498 E0.05582
G1 X151.351 Y135.166 E0.05582
G1 X150.498 Y136.729 E0.05582
G1 X149.431 Y138.154 E0.05582
G1 X148.172 Y139.413 E0.05582
G1 X146.746 Y140.480 E0.05582
G1 X145.184 Y141.333 E0.05582
G1 X143.516 Y141.956 E0.05582
G1 X141.776 Y142.334 E0.05582
G1 X140.007 Y142.461 E0.05559
G1 X59.992 Y142.461 E2.50881
G1 X58.224 Y142.334 E0.05559
G1 X56.484 Y141.956 E0.05582
G1 X54.816 Y141.333 E0.05582
G1 X53.254 Y140.480 E0.05582
G1 X51.828 Y139.413 E0.05582
G1 X50.569 Y138.154 E0.05582
G1 X49.502 Y136.729 E0.05582
G1 X48.649 Y135.166 E0.05582
G1 X48.027 Y133.498 E0.05582
G1 X47.648 Y131.758 E0.05582
G1 X47.522 Y129.990 E0.05559
G1 X47.522 Y104.975 E0.78433
G1 X47.648 Y103.207 E0.05559
G1 X48.027 Y101.467 E0.05582
G1 X48.649 Y99.799 E0.05582
G1 X49.502 Y98.236 E0.05582
G1 X50.569 Y96.811 E0.05582
G1 X51.828 Y95.552 E0.05582
G1 X53.254 Y94.485 E0.05582
G1 X54.816 Y93.632 E0.05582
G1 X56.397 Y93.042 E0.05291
G1 X56.547 Y92.632 F7200.000
G1 F5760
G1 X58.224 Y92.631 E-0.64857
G1 F5760
G1 X58.545 Y92.608 E-0.11143
G1 E-0.04000 F2100.00000
G1 Z0.800 F7200.000
G1 X58.170 Y87.708 F7200.000
G1 Z0.200 F7200.000
G1 E0.80000 F2100.00000
G1 F900
G1 X59.979 Y87.838 E0.05686
G1 X75.021 Y87.838 E0.47163
G1 X76.830 Y87.708 E0.05686
G1 X78.622 Y87.318 E0.05751
G1 X80.341 Y86.677 E0.05752
G1 X81.951 Y85.798 E0.05751
G1 X83.419 Y84.699 E0.05751
G1 X84.716 Y83.402 E0.05752
G1 X85.816 Y81.933 E0.05752
G1 X86.695 Y80.323 E0.05752
G1 X87.336 Y78.605 E0.05751
G1 X87.726 Y76.812 E0.05751
G1 X87.855 Y75.003 E0.05686
G1 X87.855 Y65.003 E0.31357
G1 X87.970 Y63.329 E0.05260
G1 X88.307 Y61.706 E0.05197
G1 X88.862 Y60.145 E0.05197
G1 X89.624 Y58.673 E0.05197
G1 X90.580 Y57.319 E0.05197
G1 X91.711 Y56.108 E0.05197
G1 X92.997 Y55.062 E0.05197
G1 X94.413 Y54.200 E0.05197
G1 X95.933 Y53.540 E0.05197
G1 X97.529 Y53.093 E0.05197
G1 X99.171 Y52.867 E0.05197
G1 X100.829 Y52.867 E0.05197
G1 X102.471 Y53.093 E0.05197
G1 X104.067 Y53.540 E0.05197
G1 X105.587 Y54.200 E0.05197
G1 X107.003 Y55.062 E0.05197
G1 X108.289 Y56.108 E0.05197
G1 X109.420 Y57.319 E0.05197
G1 X110.376 Y58.673 E0.05197
G1 X111.138 Y60.145 E0.05197
G1 X111.693 Y61.706 E0.05197
G1 X112.030 Y63.329 E0.05197
G1 X112.143 Y64.978 E0.05183
G1 X112.114 Y65.335 E0.01123
G1 X112.027 Y65.678 E0.01110
G1 X111.885 Y66.002 E0.01110
G1 X111.691 Y66.299 E0.01110
G1 X111.451 Y66.559 E0.01110
G1 X111.172 Y66.776 E0.01110
G1 X110.861 Y66.945 E0.01110
G1 X110.526 Y67.060 E0.01110
G1 X110.177 Y67.118 E0.01110
G1 X109.823 Y67.118 E0.01110
G1 X109.474 Y67.060 E0.01110
G1 X109.139 Y66.945 E0.01110
G1 X108.828 Y66.776 E0.01110
G1 X108.549 Y66.559 E0.01110
G1 X108.309 Y66.299 E0.01110
G1 X108.115 Y66.002 E0.01110
G1 X107.973 Y65.678 E0.01110
G1 X107.886 Y65.335 E0.01110
G1 X107.750 Y63.689 E0.05178
G1 X107.431 Y62.431 E0.04069
G1 X106.910 Y61.243 E0.04069
G1 X106.200 Y60.157 E0.04069
G1 X105.321 Y59.202 E0.04069
G1 X104.297 Y58.405 E0.04069
G1 X103.156 Y57.787 E0.04069
G1 X101.929 Y57.366 E0.04069
G1 X100.649 Y57.152 E0.04069
G1 X99.351 Y57.152 E0.04069
G1 X98.071 Y57.366 E0.04069
G1 X96.844 Y57.787 E0.04069
G1 X95.703 Y58.405 E0.04069
G1 X94.679 Y59.202 E0.04069
G1 X93.800 Y60.157 E0.04069
G1 X93.090 Y61.243 E0.04069
G1 X92.569 Y62.431 E0.04069
G1 X92.250 Y63.689 E0.04069
G1 X92.145 Y64.958 E0.03992
G1 X92.145 Y75.003 E0.31496
G1 X92.274 Y76.812 E0.05686
G1 X92.664 Y78.605 E0.05751
G1 X93.305 Y80.323 E0.05752
G1 X94.184 Y81.933 E0.05751
G1 X95.284 Y83.402 E0.05751
G1 X96.581 Y84.699 E0.05752
G1 X98.049 Y85.798 E0.05752
G1 X99.659 Y86.677 E0.05751
G1 X101.378 Y87.318 E0.05752
G1 X103.170 Y87.708 E0.05751
G1 X104.979 Y87.838 E0.05686
G1 X120.021 Y87.838 E0.47163
G1 X121.830 Y87.708 E0.05686
G1 X123.622 Y87.318 E0.05752
G1 X125.341 Y86.677 E0.05752
G1 X126.951 Y85.798 E0.05751
G1 X128.419 Y84.699 E0.05751
G1 X129.716 Y83.402 E0.05752
G1 X130.816 Y81.933 E0.05751
G1 X131.695 Y80.323 E0.05751
G1 X132.336 Y78.605 E0.05752
G1 X132.726 Y76.812 E0.05751
G1 X132.855 Y75.003 E0.05686
G1 X132.855 Y65.003 E0.31357
G1 X132.970 Y63.329 E0.05260
G1 X133.307 Y61.706 E0.05197
G1 X133.862 Y60.145 E0.05197
G1 X134.624 Y58.673 E0.05197
G1 X135.580 Y57.319 E0.05197
G1 X136.711 Y56.108 E0.05197
G1 X137.997 Y55.062 E0.05197
G1 X139.413 Y54.200 E0.05197
G1 X140.933 Y53.540 E0.05197
G1 X142.529 Y53.093 E0.05197
G1 X144.171 Y52.867 E0.05197
G1 X145.829 Y52.867 E0.05197
G1 X147.471 Y53.093 E0.05197
G1 X149.067 Y53.540 E0.05197
G1 X150.587 Y54.200 E0.05197
G1 X152.003 Y55.062 E0.05197
G1 X153.289 Y56.108 E0.05197
G1 X154.420 Y57.319 E0.05197
G1 X155.376 Y58.673 E0.05197
G1 X156.138 Y60.145 E0.05197
G1 X156.693 Y61.706 E0.05197
G1 X157.030 Y63.329 E0.05197
G1 X157.143 Y64.978 E0.05183
G1 X157.114 Y65.335 E0.01123
G1 X157.027 Y65.678 E0.01110
G1 X156.885 Y66.002 E0.01110
G1 X156.691 Y66.299 E0.01110
G1 X156.451 Y66.559 E0.01110
G1 X156.172 Y66.776 E0.01110
G1 X155.861 Y66.945 E0.01110
G1 X155.526 Y67.060 E0.01110
G1 X155.177 Y67.118 E0.01110
G1 X154.823 Y67.118 E0.01110
G1 X154.474 Y67.060 E0.01110
G1 X154.139 Y66.945 E0.01110
G1 X153.828 Y66.776 E0.01110
G1 X153.549 Y66.559 E0.01110
G1 X153.309 Y66.299 E0.01110
G1 X153.115 Y66.002 E0.01110
G1 X152.973 Y65.678 E0.01110
G1 X152.886 Y65.335 E0.01110
G1 X152.750 Y63.689 E0.05178
G1 X152.431 Y62.431 E0.04069
G1 X151.910 Y61.243 E0.04069
G1 X151.200 Y60.157 E0.04069
G1 X150.321 Y59.202 E0.04069
G1 X149.297 Y58.405 E0.04069
G1 X148.156 Y57.787 E0.04069
G1 X147.476 Y57.554 E0.02254
G1 X146.929 Y57.366 E0.01814
G1 X145.649 Y57.152 E0.04069
G1 X144.351 Y57.152 E0.04069
G1 X143.071 Y57.366 E0.04069
G1 X141.844 Y57.787 E0.04069
G1 X140.703 Y58.405 E0.04069
G1 X139.679 Y59.202 E0.04069
G1 X138.800 Y60.157 E0.04069
G1 X138.406 Y60.759 E0.02254
G1 X138.090 Y61.243 E0.01814
G1 X137.569 Y62.431 E0.04069
G1 X137.250 Y63.689 E0.04069
G1 X137.145 Y64.958 E0.03992
G1 X137.145 Y75.003 E0.31496
G1 X137.274 Y76.812 E0.05686
G1 X137.664 Y78.605 E0.05751
G1 X138.305 Y80.323 E0.05752
G1 X139.184 Y81.933 E0.05751
G1 X140.284 Y83.402 E0.05752
G1 X141.581 Y84.699 E0.05752
G1 X143.049 Y85.798 E0.05752
G1 X144.659 Y86.677 E0.05751
G1 X146.378 Y87.318 E0.05752
G1 X148.169 Y87.708 E0.05749
G1 X151.119 Y87.928 E0.09272
G1 X152.207 Y88.189 E0.03511
G1 X153.243 Y88.618 E0.03514
G1 X154.199 Y89.204 E0.03514
G1 X155.051 Y89.932 E0.03514
G1 X155.779 Y90.784 E0.03514
G1 X156.365 Y91.740 E0.03514
G1 X156.793 Y92.775 E0.03514
G1 X157.055 Y93.865 E0.03514
G1 X157.145 Y95.006 E0.03587
G1 X157.145 Y139.959 E1.40950
G1 X157.055 Y141.100 E0.03587
G1 X156.793 Y142.190 E0.03514
G1 X156.365 Y143.225 E0.03514
G1 X155.779 Y144.181 E0.03514
G1 X155.051 Y145.033 E0.03514
G1 X154.199 Y145.761 E0.03514
G1 X153.243 Y146.347 E0.03514
G1 X152.207 Y146.776 E0.03514
G1 X151.117 Y147.038 E0.03514
G1 X149.977 Y147.127 E0.03587
G1 X50.023 Y147.127 E3.13398
G1 X48.883 Y147.038 E0.03587
G1 X47.793 Y146.776 E0.03514
G1 X46.757 Y146.347 E0.03514
G1 X45.801 Y145.761 E0.03514
G1 X44.949 Y145.033 E0.03514
G1 X44.221 Y144.181 E0.03514
G1 X43.635 Y143.225 E0.03514
G1 X43.207 Y142.190 E0.03514
G1 X42.945 Y141.100 E0.03514
G1 X42.855 Y139.959 E0.03587
G1 X42.855 Y65.003 E2.35022
G1 X42.970 Y63.329 E0.05260
G1 X43.307 Y61.706 E0.05197
G1 X43.862 Y60.145 E0.05197
G1 X44.624 Y58.673 E0.05197
G1 X45.580 Y57.319 E0.05197
G1 X46.711 Y56.108 E0.05197
G1 X47.997 Y55.062 E0.05197
G1 X49.413 Y54.200 E0.05197
G1 X50.933 Y53.540 E0.05197
G1 X52.529 Y53.093 E0.05197
G1 X54.171 Y52.867 E0.05197
G1 X55.829 Y52.867 E0.05197
G1 X57.471 Y53.093 E0.05197
G1 X59.067 Y53.540 E0.05197
G1 X60.587 Y54.200 E0.05197
G1 X62.003 Y55.062 E0.05197
G1 X63.289 Y56.108 E0.05197
G1 X64.420 Y57.319 E0.05197
G1 X65.376 Y58.673 E0.05197
G1 X66.138 Y60.145 E0.05197
G1 X66.693 Y61.706 E0.05197
G1 X67.030 Y63.329 E0.05197
G1 X67.143 Y64.978 E0.05183
G1 X67.114 Y65.335 E0.01123
G1 X67.027 Y65.678 E0.01110
G1 X66.885 Y66.002 E0.01110
G1 X66.691 Y66.299 E0.01110
G1 X66.451 Y66.559 E0.01110
G1 X66.172 Y66.776 E0.01110
G1 X65.861 Y66.945 E0.01110
G1 X65.526 Y67.060 E0.01110
G1 X65.177 Y67.118 E0.01110
G1 X64.823 Y67.118 E0.01110
G1 X64.474 Y67.060 E0.01110
G1 X64.139 Y66.945 E0.01110
G1 X63.828 Y66.776 E0.01110
G1 X63.549 Y66.559 E0.01110
G1 X63.309 Y66.299 E0.01110
G1 X63.115 Y66.002 E0.01110
G1 X62.973 Y65.678 E0.01110
G1 X62.886 Y65.335 E0.01110
G1 X62.750 Y63.689 E0.05178
G1 X62.431 Y62.431 E0.04069
G1 X61.910 Y61.243 E0.04069
G1 X61.200 Y60.157 E0.04069
G1 X60.321 Y59.202 E0.04069
G1 X59.297 Y58.405 E0.04069
G1 X58.156 Y57.787 E0.04069
G1 X56.929 Y57.366 E0.04069
G1 X55.649 Y57.152 E0.04069
G1 X54.351 Y57.152 E0.04069
G1 X53.071 Y57.366 E0.04069
G1 X51.844 Y57.787 E0.04069
G1 X50.703 Y58.405 E0.04069
G1 X49.679 Y59.202 E0.04069
G1 X48.800 Y60.157 E0.04069
G1 X48.090 Y61.243 E0.04069
G1 X47.569 Y62.431 E0.04069
G1 X47.250 Y63.689 E0.04069
G1 X47.145 Y64.958 E0.03992
G1 X47.145 Y75.003 E0.31496
G1 X47.274 Y76.812 E0.05686
G1 X47.664 Y78.605 E0.05751
G1 X48.305 Y80.323 E0.05752
G1 X49.184 Y81.933 E0.05751
G1 X50.284 Y83.402 E0.05751
G1 X51.581 Y84.699 E0.05752
G1 X53.049 Y85.798 E0.05751
G1 X54.659 Y86.677 E0.05752
G1 X56.378 Y87.318 E0.05751
G1 X58.112 Y87.695 E0.05563
G1 X58.192 Y87.327 F7200.000
G1 F900
G1 X59.992 Y87.461 E0.05661
G1 X75.007 Y87.461 E0.47078
G1 X76.776 Y87.334 E0.05559
G1 X78.516 Y86.956 E0.05582
G1 X80.184 Y86.333 E0.05582
G1 X81.746 Y85.480 E0.05582
G1 X83.172 Y84.413 E0.05582
G1 X84.431 Y83.154 E0.05582
G1 X85.498 Y81.729 E0.05582
G1 X86.351 Y80.166 E0.05582
G1 X86.973 Y78.498 E0.05582
G1 X87.352 Y76.758 E0.05582
G1 X87.478 Y74.990 E0.05559
G1 X87.478 Y64.990 E0.31355
G1 X87.595 Y63.278 E0.05381
G1 X87.943 Y61.604 E0.05358
G1 X88.515 Y59.994 E0.05358
G1 X89.301 Y58.477 E0.05358
G1 X90.287 Y57.080 E0.05358
G1 X91.453 Y55.831 E0.05358
G1 X92.779 Y54.753 E0.05358
G1 X94.239 Y53.865 E0.05358
G1 X95.807 Y53.184 E0.05358
G1 X97.452 Y52.723 E0.05358
G1 X99.146 Y52.490 E0.05358
G1 X100.854 Y52.490 E0.05358
G1 X102.548 Y52.723 E0.05358
G1 X104.193 Y53.184 E0.05358
G1 X105.761 Y53.865 E0.05358
G1 X107.221 Y54.753 E0.05358
G1 X108.547 Y55.831 E0.05358
G1 X109.713 Y57.080 E0.05358
G1 X110.699 Y58.477 E0.05358
G1 X111.485 Y59.994 E0.05358
G1 X112.057 Y61.604 E0.05358
G1 X112.405 Y63.278 E0.05358
G1 X112.521 Y64.981 E0.05354
G1 X112.487 Y65.398 E0.01310
G1 X112.385 Y65.801 E0.01306
G1 X112.217 Y66.183 E0.01306
G1 X111.990 Y66.531 E0.01306
G1 X111.708 Y66.837 E0.01306
G1 X111.379 Y67.093 E0.01306
G1 X111.013 Y67.291 E0.01306
G1 X110.619 Y67.427 E0.01306
G1 X110.208 Y67.495 E0.01306
G1 X109.792 Y67.495 E0.01306
G1 X109.381 Y67.427 E0.01306
G1 X108.987 Y67.291 E0.01306
G1 X108.621 Y67.093 E0.01306
G1 X108.292 Y66.837 E0.01306
G1 X108.010 Y66.531 E0.01306
G1 X107.783 Y66.183 E0.01306
G1 X107.615 Y65.801 E0.01306
G1 X107.513 Y65.398 E0.01306
G1 X107.377 Y63.752 E0.05178
G1 X107.074 Y62.554 E0.03873
G1 X106.577 Y61.423 E0.03873
G1 X105.902 Y60.389 E0.03873
G1 X105.065 Y59.480 E0.03873
G1 X104.090 Y58.722 E0.03873
G1 X103.004 Y58.134 E0.03873
G1 X101.836 Y57.733 E0.03873
G1 X100.618 Y57.529 E0.03873
G1 X99.382 Y57.529 E0.03873
G1 X98.164 Y57.733 E0.03873
G1 X96.996 Y58.134 E0.03873
G1 X95.910 Y58.722 E0.03873
G1 X94.935 Y59.480 E0.03873
G1 X94.098 Y60.389 E0.03873
G1 X93.423 Y61.423 E0.03873
G1 X92.926 Y62.554 E0.03873
G1 X92.623 Y63.752 E0.03873
G1 X92.522 Y64.974 E0.03845
