; generated by Slic3r Prusa Edition 1.39.1-prusa3d on 2018-04-22 at 18:17:34

; 

; external perimeters extrusion width = 0.45mm
; perimeters extrusion width = 0.45mm
; infill extrusion width = 0.45mm
; solid infill extrusion width = 0.45mm
; top infill extrusion width = 0.33mm
; first layer extrusion width = 0.42mm

M107
M115 U3.1.0 ; tell printer latest fw version
M201 X9000 Y9000 Z500 E10000 ; sets maximum accelerations, mm/sec^2
M203 X500 Y500 Z12 E120 ; sets maximum feedrates, mm/sec
M204 S1500 T1500 ; sets acceleration (S) and retract acceleration (T)
M205 X10 Y10 Z0.2 E2.5 ; sets the jerk limits, mm/sec
M205 S0 T0 ; sets the minimum extruding and travel feed rate, mm/sec
M83  ; extruder relative mode
M104 S215 ; set extruder temp
M140 S60 ; set bed temp
M190 S60 ; wait for bed temp
M109 S215 ; wait for extruder temp
G28 W ; home all without mesh bed level
G80 ; mesh bed leveling
G1 Y-3.0 F1000.0 ; go outside print area
G92 E0.0
G1 E18.0 F1000.0;
G1 X60.0 E9.0  F1000.0 ; intro line
G1 X100.0 E12.5  F1000.0 ; intro line
G92 E0.0
M900 K30; Filament gcode
G21 ; set units to millimeters
G90 ; use absolute coordinates
M83 ; use relative distances for extrusion
;BEFORE_LAYER_CHANGE
;0.2


G1 E-0.80000 F2100.00000
G1 Z0.600 F7200.000
;AFTER_LAYER_CHANGE
;0.2
G1 X138.844 Y88.457 F7200.000
G1 Z0.200 F7200.000
G1 E0.80000 F2100.00000
M204 S1000
G1 F900
G1 X139.053 Y89.459 E0.03208
G1 X139.054 Y115.052 E0.80244
G1 X138.958 Y115.765 E0.02256
G1 X138.568 Y116.605 E0.02904
G1 X134.347 Y122.704 E0.23257
G1 X133.574 Y123.599 E0.03707
G1 X132.590 Y124.369 E0.03918
G1 X131.678 Y124.846 E0.03227
G1 X130.530 Y125.205 E0.03771
G1 X129.300 Y125.338 E0.03879
G1 X127.786 Y125.321 E0.04746
G1 X126.552 Y125.105 E0.03930
G1 X125.362 Y124.634 E0.04011
G1 X124.277 Y123.918 E0.04077
G1 X123.626 Y123.299 E0.02817
G1 X115.160 Y113.600 E0.40365
G1 X113.257 Y110.793 E0.10634
G1 X112.533 Y109.459 E0.04756
G1 X112.037 Y108.301 E0.03951
G1 X111.659 Y107.115 E0.03904
G1 X111.332 Y105.607 E0.04838
G1 X110.947 Y102.183 E0.10803
G1 X111.149 Y99.991 E0.06904
G1 X111.395 Y98.344 E0.05221
G1 X111.782 Y96.708 E0.05269
G1 X112.235 Y95.419 E0.04286
G1 X112.827 Y94.187 E0.04284
G1 X113.712 Y92.753 E0.05285
G1 X114.687 Y91.433 E0.05145
G1 X116.078 Y89.752 E0.06841
G1 X117.770 Y88.370 E0.06849
G1 X119.108 Y87.395 E0.05191
G1 X120.531 Y86.527 E0.05227
G1 X121.782 Y85.934 E0.04341
G1 X123.066 Y85.489 E0.04260
G1 X124.702 Y85.106 E0.05271
G1 X126.350 Y84.862 E0.05221
G1 X128.510 Y84.661 E0.06803
G1 X130.866 Y84.850 E0.07410
G1 X132.648 Y85.143 E0.05664
G1 X134.170 Y85.573 E0.04957
G1 X136.051 Y86.338 E0.06366
G1 X137.657 Y87.116 E0.05597
G1 X138.283 Y87.601 E0.02485
G1 X138.811 Y88.407 E0.03020
G1 X138.466 Y88.534 F7200.000
G1 F900
G1 X138.676 Y89.464 E0.02989
G1 X138.677 Y115.051 E0.80227
G1 X138.598 Y115.650 E0.01894
G1 X138.265 Y116.381 E0.02520
G1 X134.047 Y122.475 E0.23236
G1 X133.485 Y123.154 E0.02766
G1 X132.621 Y123.896 E0.03571
G1 X131.582 Y124.478 E0.03733
G1 X130.450 Y124.837 E0.03722
G1 X129.293 Y124.961 E0.03649
G1 X127.812 Y124.945 E0.04644
G1 X126.662 Y124.744 E0.03662
G1 X125.537 Y124.300 E0.03793
G1 X124.512 Y123.622 E0.03852
G1 X123.906 Y123.046 E0.02622
G1 X115.452 Y113.362 E0.40305
G1 X113.582 Y110.602 E0.10455
G1 X112.871 Y109.292 E0.04670
G1 X112.390 Y108.171 E0.03826
G1 X112.024 Y107.019 E0.03790
G1 X111.703 Y105.540 E0.04745
G1 X111.324 Y102.175 E0.10619
G1 X111.525 Y100.018 E0.06792
G1 X111.766 Y98.414 E0.05085
G1 X112.145 Y96.813 E0.05160
G1 X112.585 Y95.559 E0.04165
G1 X113.157 Y94.369 E0.04140
G1 X114.026 Y92.962 E0.05186
G1 X116.346 Y90.018 E0.11753
G1 X119.318 Y87.708 E0.11802
G1 X120.712 Y86.858 E0.05119
G1 X121.924 Y86.283 E0.04208
G1 X123.169 Y85.851 E0.04131
G1 X124.785 Y85.474 E0.05204
G1 X128.511 Y85.038 E0.11762
G1 X130.809 Y85.223 E0.07229
G1 X132.282 Y85.451 E0.04673
G1 X133.755 Y85.833 E0.04772
G1 X135.395 Y86.458 E0.05501
G1 X137.394 Y87.402 E0.06933
G1 X137.905 Y87.759 E0.01953
G1 X138.431 Y88.485 E0.02813
G1 F5760
G1 X138.676 Y89.464 E-0.34940
G1 F5760
G1 X138.676 Y90.649 E-0.41060
G1 E-0.04000 F2100.00000
G1 Z0.800 F7200.000
G1 X131.335 Y116.329 F7200.000
G1 Z0.200 F7200.000
G1 E0.80000 F2100.00000
G1 F900
G1 X131.326 Y119.777 E0.10812
G1 X131.238 Y120.133 E0.01149
G1 X131.141 Y120.346 E0.00733
G1 X130.937 Y120.640 E0.01122
G1 X130.650 Y120.894 E0.01201
G1 X130.326 Y121.064 E0.01147
G1 X130.109 Y121.132 E0.00713
G1 X129.782 Y121.172 E0.01034
G1 X127.711 Y121.172 E0.06494
G1 X127.381 Y121.132 E0.01040
G1 X127.159 Y121.061 E0.00733
G1 X126.842 Y120.894 E0.01121
G1 X126.574 Y120.658 E0.01121
G1 X126.439 Y120.487 E0.00683
G1 X126.327 Y120.300 E0.00683
G1 X126.201 Y119.965 E0.01122
G1 X126.159 Y119.620 E0.01089
G1 X126.159 Y116.268 E0.10509
G1 X128.845 Y116.550 E0.08469
G1 X131.275 Y116.334 E0.07648
G1 X130.957 Y116.741 F7200.000
G1 F900
G1 X130.949 Y119.731 E0.09374
G1 X130.880 Y120.009 E0.00897
G1 X130.812 Y120.159 E0.00518
G1 X130.653 Y120.388 E0.00875
G1 X130.434 Y120.582 E0.00915
G1 X130.182 Y120.714 E0.00896
G1 X130.030 Y120.762 E0.00498
G1 X129.759 Y120.795 E0.00856
G1 X127.734 Y120.795 E0.06350
G1 X127.462 Y120.762 E0.00857
G1 X127.305 Y120.712 E0.00518
G1 X127.058 Y120.582 E0.00874
G1 X126.849 Y120.397 E0.00874
G1 X126.668 Y120.135 E0.00997
G1 X126.570 Y119.874 E0.00875
G1 X126.536 Y119.597 E0.00875
G1 X126.536 Y116.687 E0.09125
G1 X128.842 Y116.929 E0.07271
G1 X130.897 Y116.746 E0.06467
G1 X131.357 Y116.743 F7200.000
G1 F5760
G1 X130.935 Y118.940 E-0.76000
G1 E-0.04000 F2100.00000
G1 Z0.800 F7200.000
G1 X135.713 Y114.677 F7200.000
G1 Z0.200 F7200.000
G1 E0.80000 F2100.00000
G1 F900
G1 X134.045 Y115.496 E0.05825
G1 X133.821 Y115.627 E0.00813
G1 X133.596 Y115.783 E0.00860
G1 X133.220 Y116.106 E0.01555
G1 X132.878 Y116.497 E0.01627
G1 X132.610 Y116.912 E0.01549
G1 X132.487 Y117.155 E0.00855
G1 X132.381 Y117.409 E0.00862
G1 X132.241 Y117.884 E0.01551
G1 X132.168 Y118.390 E0.01603
G1 X132.152 Y119.288 E0.02817
G1 X132.132 Y119.481 E0.00609
G1 X132.100 Y119.667 E0.00592
G1 X131.987 Y120.069 E0.01309
G1 X131.921 Y120.236 E0.00561
G1 X131.734 Y120.597 E0.01277
G1 X131.505 Y120.922 E0.01246
G1 X131.233 Y121.213 E0.01247
G1 X130.926 Y121.463 E0.01243
G1 X130.767 Y121.568 E0.00597
G1 X130.406 Y121.755 E0.01275
G1 X130.032 Y121.888 E0.01246
G1 X129.633 Y121.971 E0.01278
G1 X129.455 Y121.989 E0.00561
G1 X128.037 Y121.989 E0.04444
G1 X127.860 Y121.971 E0.00561
G1 X127.461 Y121.888 E0.01277
G1 X127.086 Y121.755 E0.01246
G1 X126.724 Y121.568 E0.01278
G1 X126.575 Y121.470 E0.00561
G1 X126.251 Y121.206 E0.01309
G1 X126.125 Y121.080 E0.00561
G1 X125.861 Y120.756 E0.01309
G1 X125.763 Y120.606 E0.00561
G1 X125.576 Y120.244 E0.01278
G1 X125.442 Y119.871 E0.01243
G1 X125.397 Y119.686 E0.00597
G1 X125.341 Y119.277 E0.01295
G1 X125.324 Y118.525 E0.02359
G1 X125.249 Y118.025 E0.01584
G1 X125.176 Y117.749 E0.00896
G1 X125.082 Y117.480 E0.00893
G1 X124.861 Y117.017 E0.01607
G1 X124.572 Y116.589 E0.01622
G1 X124.379 Y116.362 E0.00933
G1 X124.000 Y116.007 E0.01627
G1 X123.571 Y115.710 E0.01639
G1 X123.323 Y115.577 E0.00880
G1 X122.357 Y115.141 E0.03322
G1 X121.660 Y114.750 E0.02509
G1 X120.980 Y114.299 E0.02558
G1 X120.316 Y113.799 E0.02605
G1 X119.335 Y112.969 E0.04028
G1 X117.763 Y111.501 E0.06747
G1 X117.023 Y110.458 E0.04008
G1 X116.300 Y109.365 E0.04111
G1 X115.817 Y108.541 E0.02994
G1 X115.401 Y107.703 E0.02932
G1 X115.066 Y106.844 E0.02891
G1 X114.811 Y105.952 E0.02911
G1 X114.622 Y105.022 E0.02973
G1 X114.482 Y104.065 E0.03034
G1 X114.290 Y102.130 E0.06097
G1 X114.469 Y100.370 E0.05546
G1 X114.679 Y98.962 E0.04463
G1 X114.820 Y98.291 E0.02150
G1 X114.993 Y97.635 E0.02127
G1 X115.205 Y96.996 E0.02111
G1 X115.455 Y96.394 E0.02044
G1 X115.757 Y95.792 E0.02111
G1 X116.099 Y95.206 E0.02127
G1 X116.474 Y94.632 E0.02150
G1 X117.322 Y93.489 E0.04463
G1 X118.439 Y92.121 E0.05535
G1 X120.110 Y90.787 E0.06704
G1 X120.680 Y90.370 E0.02215
G1 X121.258 Y89.979 E0.02191
G1 X121.844 Y89.620 E0.02153
G1 X122.439 Y89.302 E0.02117
G1 X123.052 Y89.025 E0.02108
G1 X123.995 Y88.698 E0.03129
G1 X124.654 Y88.527 E0.02135
G1 X125.330 Y88.387 E0.02165
G1 X126.380 Y88.225 E0.03331
G1 X128.516 Y88.005 E0.06732
G1 X130.482 Y88.170 E0.06185
G1 X131.210 Y88.270 E0.02306
G1 X131.922 Y88.405 E0.02272
G1 X132.617 Y88.584 E0.02250
G1 X133.301 Y88.810 E0.02257
G1 X134.211 Y89.175 E0.03074
G1 X135.713 Y89.884 E0.05208
G1 X135.713 Y93.509 E0.11366
G1 X134.597 Y92.712 E0.04300
G1 X133.664 Y92.143 E0.03424
G1 X132.667 Y91.660 E0.03474
G1 X131.677 Y91.309 E0.03293
G1 X130.918 Y91.098 E0.02473
G1 X130.387 Y90.999 E0.01690
G1 X129.857 Y90.937 E0.01675
G1 X128.547 Y90.872 E0.04112
G1 X126.914 Y91.040 E0.05146
G1 X126.114 Y91.164 E0.02538
G1 X125.581 Y91.275 E0.01707
G1 X125.051 Y91.415 E0.01720
G1 X124.282 Y91.685 E0.02554
G1 X123.548 Y92.038 E0.02555
G1 X123.074 Y92.315 E0.01721
G1 X122.620 Y92.615 E0.01707
G1 X121.967 Y93.094 E0.02538
G1 X120.682 Y94.145 E0.05207
G1 X119.643 Y95.469 E0.05275
G1 X119.022 Y96.366 E0.03421
G1 X118.609 Y97.076 E0.02576
G1 X118.367 Y97.577 E0.01745
G1 X118.160 Y98.096 E0.01751
G1 X117.925 Y98.880 E0.02564
G1 X117.803 Y99.422 E0.01744
G1 X117.669 Y100.228 E0.02561
G1 X117.573 Y101.040 E0.02564
G1 X117.471 Y102.166 E0.03544
G1 X117.572 Y103.304 E0.03583
G1 X117.668 Y104.126 E0.02593
G1 X117.802 Y104.941 E0.02589
G1 X117.923 Y105.489 E0.01763
G1 X118.158 Y106.282 E0.02593
G1 X118.364 Y106.808 E0.01770
G1 X118.606 Y107.316 E0.01764
G1 X119.018 Y108.037 E0.02605
G1 X119.639 Y108.949 E0.03459
G1 X120.677 Y110.294 E0.05327
G1 X121.950 Y111.366 E0.05218
G1 X122.597 Y111.856 E0.02547
G1 X123.049 Y112.163 E0.01712
G1 X123.521 Y112.447 E0.01726
G1 X124.253 Y112.809 E0.02562
G1 X125.022 Y113.086 E0.02562
G1 X125.553 Y113.230 E0.01726
G1 X126.087 Y113.344 E0.01712
G1 X126.889 Y113.472 E0.02547
G1 X128.550 Y113.649 E0.05238
G1 X130.237 Y113.433 E0.05332
G1 X131.055 Y113.287 E0.02606
G1 X131.861 Y113.095 E0.02597
G1 X132.398 Y112.930 E0.01760
G1 X132.925 Y112.732 E0.01768
G1 X133.675 Y112.380 E0.02596
G1 X134.167 Y112.109 E0.01762
G1 X134.870 Y111.672 E0.02596
G1 X135.713 Y111.086 E0.03218
G1 X135.713 Y114.617 E0.11074
G1 X136.090 Y114.912 F7200.000
G1 F900
G1 X134.224 Y115.828 E0.06518
G1 X134.024 Y115.945 E0.00726
G1 X133.826 Y116.082 E0.00753
G1 X133.486 Y116.374 E0.01407
G1 X133.180 Y116.725 E0.01458
G1 X132.938 Y117.100 E0.01402
G1 X132.830 Y117.313 E0.00749
G1 X132.737 Y117.535 E0.00754
G1 X132.611 Y117.965 E0.01403
G1 X132.544 Y118.420 E0.01444
G1 X132.528 Y119.311 E0.02792
G1 X132.505 Y119.533 E0.00699
G1 X132.468 Y119.750 E0.00693
G1 X132.345 Y120.190 E0.01430
G1 X132.265 Y120.392 E0.00682
G1 X132.057 Y120.794 E0.01419
G1 X131.798 Y121.161 E0.01408
G1 X131.491 Y121.489 E0.01408
G1 X131.150 Y121.767 E0.01383
G1 X130.958 Y121.894 E0.00719
G1 X130.557 Y122.102 E0.01418
G1 X130.134 Y122.252 E0.01408
G1 X129.691 Y122.344 E0.01419
G1 X129.474 Y122.366 E0.00682
G1 X128.018 Y122.366 E0.04566
G1 X127.802 Y122.344 E0.00682
G1 X127.359 Y122.252 E0.01419
G1 X126.936 Y122.102 E0.01408
G1 X126.534 Y121.894 E0.01419
G1 X126.352 Y121.774 E0.00682
G1 X125.998 Y121.486 E0.01430
G1 X125.844 Y121.333 E0.00682
G1 X125.557 Y120.979 E0.01430
G1 X125.437 Y120.797 E0.00682
G1 X125.229 Y120.395 E0.01419
G1 X125.081 Y119.980 E0.01383
G1 X125.026 Y119.757 E0.00719
G1 X124.964 Y119.307 E0.01425
G1 X124.947 Y118.557 E0.02352
G1 X124.879 Y118.101 E0.01444
G1 X124.816 Y117.859 E0.00785
G1 X124.733 Y117.624 E0.00782
G1 X124.533 Y117.205 E0.01454
G1 X124.271 Y116.817 E0.01468
G1 X124.106 Y116.623 E0.00801
G1 X123.763 Y116.301 E0.01472
G1 X123.374 Y116.032 E0.01484
G1 X123.156 Y115.916 E0.00773
G1 X122.187 Y115.478 E0.03334
G1 X121.463 Y115.071 E0.02604
G1 X120.762 Y114.607 E0.02637
G1 X120.081 Y114.094 E0.02673
G1 X119.085 Y113.251 E0.04090
G1 X117.477 Y111.750 E0.06896
G1 X116.712 Y110.671 E0.04147
G1 X115.980 Y109.564 E0.04162
G1 X115.485 Y108.720 E0.03067
G1 X115.056 Y107.856 E0.03025
G1 X114.708 Y106.965 E0.03000
G1 X114.444 Y106.041 E0.03012
G1 X114.250 Y105.087 E0.03052
G1 X114.108 Y104.111 E0.03094
G1 X113.911 Y102.130 E0.06243
G1 X114.094 Y100.323 E0.05693
G1 X114.308 Y98.896 E0.04525
G1 X114.452 Y98.204 E0.02215
G1 X114.631 Y97.528 E0.02195
G1 X114.851 Y96.868 E0.02180
G1 X115.113 Y96.234 E0.02152
G1 X115.425 Y95.612 E0.02180
G1 X115.778 Y95.008 E0.02195
G1 X116.165 Y94.417 E0.02215
G1 X117.024 Y93.257 E0.04525
G1 X118.172 Y91.852 E0.05689
G1 X119.881 Y90.488 E0.06855
G1 X120.462 Y90.062 E0.02261
G1 X121.054 Y89.661 E0.02240
G1 X121.657 Y89.293 E0.02214
G1 X122.272 Y88.963 E0.02191
G1 X122.906 Y88.677 E0.02180
G1 X123.889 Y88.336 E0.03261
G1 X124.569 Y88.159 E0.02202
G1 X125.264 Y88.016 E0.02225
G1 X126.332 Y87.851 E0.03390
G1 X128.510 Y87.626 E0.06865
G1 X130.525 Y87.795 E0.06341
G1 X131.271 Y87.897 E0.02360
G1 X132.005 Y88.036 E0.02341
G1 X132.724 Y88.222 E0.02329
G1 X133.430 Y88.456 E0.02334
G1 X134.361 Y88.829 E0.03146
G1 X136.090 Y89.645 E0.05992
G1 X136.090 Y94.285 E0.14549
G1 X135.691 Y93.962 E0.01611
G1 X134.921 Y93.393 E0.03002
G1 X134.392 Y93.028 E0.02015
G1 X133.484 Y92.475 E0.03334
G1 X132.522 Y92.008 E0.03352
G1 X131.564 Y91.669 E0.03187
G1 X130.833 Y91.465 E0.02380
G1 X130.331 Y91.372 E0.01599
G1 X129.826 Y91.313 E0.01596
G1 X128.557 Y91.250 E0.03983
G1 X126.963 Y91.414 E0.05025
G1 X126.182 Y91.536 E0.02478
G1 X125.668 Y91.642 E0.01646
G1 X125.161 Y91.775 E0.01642
G1 X124.427 Y92.033 E0.02441
G1 X123.725 Y92.371 E0.02441
G1 X123.273 Y92.635 E0.01642
G1 X122.835 Y92.924 E0.01645
G1 X122.198 Y93.392 E0.02478
G1 X120.953 Y94.411 E0.05046
G1 X119.946 Y95.692 E0.05109
G1 X119.340 Y96.568 E0.03339
G1 X118.942 Y97.253 E0.02484
G1 X118.712 Y97.729 E0.01658
G1 X118.517 Y98.221 E0.01658
G1 X118.290 Y98.975 E0.02470
G1 X118.173 Y99.495 E0.01669
G1 X118.042 Y100.281 E0.02500
G1 X117.948 Y101.079 E0.02520
G1 X117.850 Y102.166 E0.03422
G1 X117.947 Y103.266 E0.03461
G1 X118.042 Y104.073 E0.02549
G1 X118.172 Y104.869 E0.02530
G1 X118.288 Y105.395 E0.01688
G1 X118.515 Y106.160 E0.02500
G1 X118.710 Y106.658 E0.01677
G1 X118.940 Y107.141 E0.01678
G1 X119.338 Y107.837 E0.02514
G1 X119.944 Y108.727 E0.03377
G1 X120.951 Y110.031 E0.05165
G1 X122.185 Y111.071 E0.05060
G1 X122.817 Y111.550 E0.02485
G1 X123.252 Y111.845 E0.01650
G1 X123.702 Y112.116 E0.01646
G1 X124.401 Y112.462 E0.02446
G1 X125.135 Y112.726 E0.02446
G1 X125.642 Y112.863 E0.01646
G1 X126.156 Y112.973 E0.01650
G1 X126.939 Y113.098 E0.02485
G1 X128.546 Y113.269 E0.05068
G1 X130.180 Y113.060 E0.05165
G1 X130.979 Y112.918 E0.02543
G1 X131.762 Y112.731 E0.02524
G1 X132.276 Y112.573 E0.01686
G1 X132.779 Y112.384 E0.01686
G1 X133.504 Y112.044 E0.02511
G1 X133.977 Y111.783 E0.01692
G1 X134.663 Y111.356 E0.02534
G1 X136.090 Y110.339 E0.05494
G1 X136.090 Y114.852 E0.14151
G1 X135.692 Y114.876 F7200.000
G1 F5760
G1 X134.224 Y115.828 E-0.72938
G1 F5760
G1 X134.147 Y115.873 E-0.03062
G1 E-0.04000 F2100.00000
G1 Z0.800 F7200.000
G1 X135.600 Y112.128 F7200.000
G1 Z0.200 F7200.000
G1 E0.80000 F2100.00000
G1 F900
G1 X135.234 Y111.763 E0.01626
G1 X134.914 Y111.978 E0.01213
G1 X135.430 Y112.494 E0.02297
G1 X135.430 Y113.029 E0.01683
G1 X134.584 Y112.183 E0.03764
G1 X134.251 Y112.385 E0.01225
G1 X135.430 Y113.564 E0.05243
G1 X135.430 Y114.099 E0.01683
G1 X133.907 Y112.576 E0.06777
G1 X133.548 Y112.752 E0.01257
G1 X135.341 Y114.545 E0.07976
G1 X134.982 Y114.721 E0.01258
G1 X133.184 Y112.923 E0.08000
G1 X132.805 Y113.079 E0.01289
G1 X134.623 Y114.897 E0.08088
G1 X134.264 Y115.073 E0.01258
G1 X132.413 Y113.222 E0.08237
G1 X132.003 Y113.348 E0.01347
G1 X133.906 Y115.250 E0.08463
G1 X133.575 Y115.454 E0.01223
G1 X131.575 Y113.454 E0.08895
G1 X131.143 Y113.557 E0.01397
G1 X133.273 Y115.687 E0.09475
G1 X132.990 Y115.939 E0.01192
G1 X130.690 Y113.639 E0.10231
G1 X130.234 Y113.718 E0.01457
G1 X132.741 Y116.225 E0.11152
G1 X132.652 Y116.327 E0.00424
G1 X132.517 Y116.536 E0.00784
G1 X129.760 Y113.779 E0.12265
G1 X129.286 Y113.840 E0.01504
G1 X132.315 Y116.869 E0.13476
G1 X132.147 Y117.236 E0.01270
G1 X131.617 Y116.706 E0.02359
G1 X131.615 Y117.240 E0.01679
G1 X132.018 Y117.642 E0.01791
G1 X131.965 Y117.823 E0.00593
