; generated by Slic3r Prusa Edition 1.39.1-prusa3d on 2018-05-09 at 07:50:45

; 

; external perimeters extrusion width = 0.45mm
; perimeters extrusion width = 0.45mm
; infill extrusion width = 0.45mm
; solid infill extrusion width = 0.45mm
; top infill extrusion width = 0.33mm
; first layer extrusion width = 0.42mm

M107
M115 U3.1.0 ; tell printer latest fw version
M201 X9000 Y9000 Z500 E10000 ; sets maximum accelerations, mm/sec^2
M203 X500 Y500 Z12 E120 ; sets maximum feedrates, mm/sec
M204 S1500 T1500 ; sets acceleration (S) and retract acceleration (T)
M205 X10 Y10 Z0.2 E2.5 ; sets the jerk limits, mm/sec
M205 S0 T0 ; sets the minimum extruding and travel feed rate, mm/sec
M83  ; extruder relative mode
M104 S200 ; set extruder temp
M140 S55 ; set bed temp
M190 S55 ; wait for bed temp
M109 S200 ; wait for extruder temp
G28 W ; home all without mesh bed level
G80 ; mesh bed leveling
G1 Y-3.0 F1000.0 ; go outside print area
G92 E0.0
G1 E18.0 F1000.0;
G1 X60.0 E9.0  F1000.0 ; intro line
G1 X100.0 E12.5  F1000.0 ; intro line
G92 E0.0
M900 K30; Filament gcode
G21 ; set units to millimeters
G90 ; use absolute coordinates
M83 ; use relative distances for extrusion
;BEFORE_LAYER_CHANGE
;0.2


G1 E-0.80000 F2100.00000
G1 Z0.600 F7200.000
;AFTER_LAYER_CHANGE
;0.2
G1 X113.844 Y83.457 F7200.000
G1 Z0.200 F7200.000
G1 E0.80000 F2100.00000
M204 S1000
G1 F900
G1 X114.053 Y84.459 E0.03208
G1 X114.054 Y110.052 E0.80244
G1 X113.958 Y110.765 E0.02256
G1 X113.571 Y111.602 E0.02892
G1 X109.347 Y117.704 E0.23270
G1 X108.574 Y118.599 E0.03707
G1 X107.590 Y119.369 E0.03918
G1 X106.689 Y119.841 E0.03189
G1 X105.530 Y120.205 E0.03809
G1 X104.300 Y120.338 E0.03879
G1 X102.786 Y120.321 E0.04747
G1 X101.551 Y120.105 E0.03930
G1 X100.370 Y119.637 E0.03985
G1 X99.268 Y118.910 E0.04139
G1 X98.623 Y118.296 E0.02794
G1 X90.160 Y108.600 E0.40352
G1 X88.257 Y105.793 E0.10634
G1 X87.533 Y104.459 E0.04756
G1 X87.037 Y103.302 E0.03947
G1 X86.656 Y102.104 E0.03942
G1 X86.334 Y100.618 E0.04769
G1 X85.947 Y97.183 E0.10837
G1 X86.150 Y94.978 E0.06942
G1 X86.395 Y93.344 E0.05182
G1 X86.782 Y91.708 E0.05269
G1 X87.233 Y90.426 E0.04262
G1 X87.825 Y89.191 E0.04296
G1 X88.706 Y87.761 E0.05267
G1 X89.695 Y86.423 E0.05214
G1 X91.078 Y84.752 E0.06803
G1 X92.760 Y83.378 E0.06810
G1 X94.096 Y82.403 E0.05184
G1 X95.542 Y81.522 E0.05310
G1 X96.782 Y80.934 E0.04303
G1 X98.066 Y80.489 E0.04260
G1 X99.714 Y80.103 E0.05309
G1 X101.350 Y79.862 E0.05184
G1 X103.510 Y79.661 E0.06803
G1 X105.870 Y79.851 E0.07423
G1 X107.638 Y80.141 E0.05619
G1 X109.168 Y80.573 E0.04983
G1 X111.051 Y81.338 E0.06372
G1 X112.657 Y82.116 E0.05597
G1 X113.283 Y82.601 E0.02485
G1 X113.811 Y83.407 E0.03020
G1 X113.465 Y83.530 F7200.000
G1 F900
G1 X113.676 Y84.464 E0.03001
G1 X113.677 Y110.051 E0.80227
G1 X113.598 Y110.650 E0.01894
G1 X113.265 Y111.381 E0.02520
G1 X109.049 Y117.471 E0.23224
G1 X108.485 Y118.154 E0.02778
G1 X107.621 Y118.896 E0.03572
G1 X106.582 Y119.478 E0.03733
G1 X105.450 Y119.837 E0.03722
G1 X104.293 Y119.961 E0.03649
G1 X102.812 Y119.945 E0.04644
G1 X101.662 Y119.744 E0.03662
G1 X100.537 Y119.300 E0.03793
G1 X99.512 Y118.622 E0.03852
G1 X98.906 Y118.046 E0.02622
G1 X90.452 Y108.362 E0.40305
G1 X88.582 Y105.602 E0.10455
G1 X87.871 Y104.292 E0.04670
G1 X87.391 Y103.172 E0.03822
G1 X87.022 Y102.012 E0.03816
G1 X86.705 Y100.551 E0.04689
G1 X86.324 Y97.175 E0.10653
G1 X86.525 Y95.018 E0.06792
G1 X86.766 Y93.414 E0.05085
G1 X87.145 Y91.813 E0.05160
G1 X87.581 Y90.570 E0.04128
G1 X88.155 Y89.372 E0.04165
G1 X89.026 Y87.962 E0.05198
G1 X91.346 Y85.018 E0.11753
G1 X94.318 Y82.708 E0.11802
G1 X95.722 Y81.853 E0.05156
G1 X96.924 Y81.283 E0.04170
G1 X98.169 Y80.851 E0.04131
G1 X99.785 Y80.474 E0.05203
G1 X103.511 Y80.038 E0.11762
G1 X105.809 Y80.223 E0.07229
G1 X107.274 Y80.449 E0.04647
G1 X108.747 Y80.830 E0.04772
G1 X110.394 Y81.457 E0.05525
G1 X112.394 Y82.402 E0.06935
G1 X112.905 Y82.759 E0.01953
G1 X113.429 Y83.482 E0.02801
G1 F5760
G1 X113.676 Y84.464 E-0.35069
G1 F5760
G1 X113.676 Y85.645 E-0.40931
G1 E-0.04000 F2100.00000
G1 Z0.800 F7200.000
G1 X106.335 Y111.329 F7200.000
G1 Z0.200 F7200.000
G1 E0.80000 F2100.00000
G1 F900
G1 X106.326 Y114.777 E0.10812
G1 X106.238 Y115.133 E0.01149
G1 X106.141 Y115.346 E0.00733
G1 X105.937 Y115.640 E0.01122
G1 X105.650 Y115.894 E0.01201
G1 X105.326 Y116.064 E0.01147
G1 X105.109 Y116.132 E0.00713
G1 X104.782 Y116.172 E0.01035
G1 X102.711 Y116.172 E0.06494
G1 X102.365 Y116.130 E0.01091
G1 X102.023 Y116.000 E0.01147
G1 X101.829 Y115.883 E0.00712
G1 X101.574 Y115.658 E0.01066
G1 X101.428 Y115.473 E0.00737
G1 X101.256 Y115.141 E0.01172
G1 X101.171 Y114.793 E0.01124
G1 X101.159 Y111.268 E0.11052
G1 X103.845 Y111.550 E0.08469
G1 X106.275 Y111.334 E0.07648
G1 X105.957 Y111.741 F7200.000
G1 F900
G1 X105.949 Y114.731 E0.09375
G1 X105.880 Y115.009 E0.00897
G1 X105.812 Y115.159 E0.00518
G1 X105.653 Y115.388 E0.00875
G1 X105.434 Y115.582 E0.00915
G1 X105.182 Y115.714 E0.00896
G1 X105.030 Y115.762 E0.00498
G1 X104.759 Y115.795 E0.00856
G1 X102.734 Y115.795 E0.06351
G1 X102.456 Y115.761 E0.00876
G1 X102.189 Y115.660 E0.00896
G1 X102.053 Y115.578 E0.00498
G1 X101.849 Y115.397 E0.00855
G1 X101.746 Y115.267 E0.00519
G1 X101.611 Y115.008 E0.00917
G1 X101.545 Y114.737 E0.00875
G1 X101.536 Y111.687 E0.09562
G1 X103.842 Y111.929 E0.07271
G1 X105.897 Y111.746 E0.06467
G1 X106.357 Y111.743 F7200.000
G1 F5760
G1 X105.935 Y113.940 E-0.76000
G1 E-0.04000 F2100.00000
G1 Z0.800 F7200.000
G1 X110.713 Y109.677 F7200.000
G1 Z0.200 F7200.000
G1 E0.80000 F2100.00000
G1 F900
G1 X109.045 Y110.496 E0.05825
G1 X108.821 Y110.627 E0.00813
G1 X108.596 Y110.783 E0.00860
G1 X108.220 Y111.106 E0.01555
G1 X107.878 Y111.497 E0.01627
G1 X107.610 Y111.912 E0.01549
G1 X107.487 Y112.155 E0.00855
G1 X107.381 Y112.409 E0.00862
G1 X107.241 Y112.884 E0.01551
G1 X107.168 Y113.390 E0.01603
G1 X107.152 Y114.288 E0.02817
G1 X107.132 Y114.481 E0.00609
G1 X107.100 Y114.667 E0.00592
G1 X106.990 Y115.060 E0.01278
G1 X106.832 Y115.424 E0.01243
G1 X106.739 Y115.590 E0.00597
G1 X106.505 Y115.922 E0.01274
G1 X106.233 Y116.212 E0.01246
G1 X105.925 Y116.463 E0.01247
G1 X105.586 Y116.670 E0.01243
G1 X105.415 Y116.752 E0.00597
G1 X105.032 Y116.888 E0.01275
G1 X104.633 Y116.971 E0.01277
G1 X104.455 Y116.989 E0.00561
G1 X103.037 Y116.989 E0.04444
G1 X102.860 Y116.971 E0.00561
G1 X102.451 Y116.886 E0.01309
G1 X102.280 Y116.832 E0.00561
G1 X101.907 Y116.670 E0.01278
G1 X101.559 Y116.459 E0.01275
G1 X101.408 Y116.343 E0.00597
G1 X101.119 Y116.072 E0.01243
G1 X100.861 Y115.756 E0.01278
G1 X100.763 Y115.606 E0.00561
G1 X100.571 Y115.236 E0.01309
G1 X100.505 Y115.069 E0.00561
G1 X100.396 Y114.677 E0.01278
G1 X100.341 Y114.277 E0.01266
G1 X100.324 Y113.525 E0.02359
G1 X100.249 Y113.025 E0.01584
G1 X100.176 Y112.749 E0.00896
G1 X100.082 Y112.480 E0.00893
G1 X99.861 Y112.017 E0.01607
G1 X99.572 Y111.589 E0.01622
G1 X99.379 Y111.362 E0.00933
G1 X99.000 Y111.007 E0.01627
G1 X98.571 Y110.710 E0.01639
G1 X98.323 Y110.577 E0.00880
G1 X97.357 Y110.141 E0.03322
G1 X96.660 Y109.750 E0.02509
G1 X95.980 Y109.299 E0.02558
G1 X95.316 Y108.799 E0.02605
G1 X94.335 Y107.969 E0.04028
G1 X92.763 Y106.501 E0.06747
G1 X92.023 Y105.458 E0.04008
G1 X91.300 Y104.365 E0.04111
G1 X90.817 Y103.541 E0.02994
G1 X90.401 Y102.703 E0.02932
G1 X90.066 Y101.844 E0.02891
G1 X89.811 Y100.952 E0.02911
G1 X89.622 Y100.022 E0.02973
G1 X89.482 Y99.065 E0.03034
G1 X89.290 Y97.130 E0.06097
G1 X89.469 Y95.370 E0.05546
G1 X89.679 Y93.962 E0.04463
G1 X89.820 Y93.291 E0.02150
G1 X89.993 Y92.635 E0.02127
G1 X90.205 Y91.996 E0.02111
G1 X90.455 Y91.394 E0.02044
G1 X90.757 Y90.792 E0.02111
G1 X91.099 Y90.206 E0.02127
G1 X91.474 Y89.632 E0.02150
G1 X92.322 Y88.489 E0.04463
G1 X93.439 Y87.121 E0.05535
G1 X95.110 Y85.787 E0.06704
G1 X95.680 Y85.370 E0.02215
G1 X96.258 Y84.979 E0.02191
G1 X96.844 Y84.620 E0.02153
G1 X97.439 Y84.302 E0.02117
G1 X98.052 Y84.025 E0.02108
G1 X98.995 Y83.698 E0.03129
G1 X99.654 Y83.527 E0.02135
G1 X100.330 Y83.387 E0.02165
G1 X101.380 Y83.225 E0.03331
G1 X103.516 Y83.005 E0.06732
G1 X105.482 Y83.170 E0.06185
G1 X106.210 Y83.270 E0.02306
G1 X106.922 Y83.405 E0.02272
G1 X107.617 Y83.584 E0.02250
G1 X108.301 Y83.810 E0.02257
G1 X109.211 Y84.175 E0.03074
G1 X110.713 Y84.884 E0.05208
G1 X110.713 Y88.509 E0.11366
G1 X109.597 Y87.712 E0.04300
G1 X108.664 Y87.143 E0.03424
G1 X107.667 Y86.660 E0.03474
G1 X106.677 Y86.309 E0.03293
G1 X105.918 Y86.098 E0.02473
G1 X105.387 Y85.999 E0.01690
G1 X104.857 Y85.937 E0.01675
G1 X103.547 Y85.872 E0.04112
G1 X101.914 Y86.040 E0.05146
G1 X101.114 Y86.164 E0.02538
G1 X100.581 Y86.275 E0.01707
G1 X100.051 Y86.415 E0.01720
G1 X99.282 Y86.685 E0.02554
G1 X98.548 Y87.038 E0.02555
G1 X98.074 Y87.315 E0.01721
G1 X97.620 Y87.615 E0.01707
G1 X96.967 Y88.094 E0.02538
G1 X95.682 Y89.145 E0.05207
G1 X94.643 Y90.469 E0.05275
G1 X94.022 Y91.366 E0.03421
G1 X93.609 Y92.076 E0.02576
G1 X93.367 Y92.577 E0.01745
G1 X93.160 Y93.096 E0.01751
G1 X92.925 Y93.880 E0.02564
G1 X92.803 Y94.422 E0.01744
G1 X92.669 Y95.228 E0.02561
G1 X92.573 Y96.040 E0.02564
G1 X92.471 Y97.166 E0.03544
G1 X92.572 Y98.304 E0.03583
G1 X92.668 Y99.126 E0.02593
G1 X92.802 Y99.941 E0.02589
G1 X92.923 Y100.489 E0.01763
G1 X93.158 Y101.282 E0.02593
G1 X93.364 Y101.808 E0.01770
G1 X93.606 Y102.316 E0.01764
G1 X94.018 Y103.037 E0.02605
G1 X94.639 Y103.949 E0.03459
G1 X95.677 Y105.294 E0.05327
G1 X96.950 Y106.366 E0.05218
G1 X97.597 Y106.856 E0.02547
G1 X98.049 Y107.163 E0.01712
G1 X98.521 Y107.447 E0.01726
G1 X99.253 Y107.809 E0.02562
G1 X100.022 Y108.086 E0.02562
G1 X100.553 Y108.230 E0.01726
G1 X101.087 Y108.344 E0.01712
G1 X101.889 Y108.472 E0.02547
G1 X103.550 Y108.649 E0.05238
G1 X105.237 Y108.433 E0.05332
G1 X106.055 Y108.287 E0.02606
G1 X106.861 Y108.095 E0.02597
G1 X107.398 Y107.930 E0.01760
G1 X107.925 Y107.732 E0.01768
G1 X108.675 Y107.380 E0.02596
G1 X109.167 Y107.109 E0.01762
G1 X109.870 Y106.672 E0.02596
G1 X110.713 Y106.086 E0.03218
G1 X110.713 Y109.617 E0.11074
G1 X111.090 Y109.912 F7200.000
G1 F900
G1 X109.224 Y110.828 E0.06518
G1 X109.024 Y110.945 E0.00726
G1 X108.826 Y111.082 E0.00753
G1 X108.486 Y111.374 E0.01407
G1 X108.180 Y111.725 E0.01458
G1 X107.938 Y112.100 E0.01402
G1 X107.830 Y112.313 E0.00749
G1 X107.737 Y112.535 E0.00754
G1 X107.611 Y112.965 E0.01403
G1 X107.544 Y113.420 E0.01444
G1 X107.528 Y114.311 E0.02792
G1 X107.505 Y114.533 E0.00699
G1 X107.468 Y114.750 E0.00693
G1 X107.346 Y115.186 E0.01419
G1 X107.170 Y115.591 E0.01383
G1 X107.059 Y115.791 E0.00719
G1 X106.798 Y116.161 E0.01418
G1 X106.491 Y116.489 E0.01408
G1 X106.143 Y116.772 E0.01408
G1 X105.767 Y117.002 E0.01383
G1 X105.560 Y117.101 E0.00719
G1 X105.134 Y117.252 E0.01418
G1 X104.691 Y117.344 E0.01419
G1 X104.474 Y117.366 E0.00682
G1 X103.018 Y117.366 E0.04566
G1 X102.802 Y117.344 E0.00682
G1 X102.355 Y117.251 E0.01430
G1 X102.148 Y117.186 E0.00682
G1 X101.733 Y117.005 E0.01419
G1 X101.346 Y116.770 E0.01418
G1 X101.164 Y116.631 E0.00719
G1 X100.842 Y116.330 E0.01383
G1 X100.557 Y115.979 E0.01419
G1 X100.437 Y115.797 E0.00682
G1 X100.227 Y115.392 E0.01430
G1 X100.148 Y115.190 E0.00682
G1 X100.025 Y114.754 E0.01419
G1 X99.964 Y114.307 E0.01415
G1 X99.947 Y113.557 E0.02352
G1 X99.879 Y113.101 E0.01444
G1 X99.816 Y112.859 E0.00785
G1 X99.733 Y112.624 E0.00782
G1 X99.533 Y112.205 E0.01454
G1 X99.271 Y111.817 E0.01468
G1 X99.106 Y111.623 E0.00801
G1 X98.763 Y111.301 E0.01472
G1 X98.374 Y111.032 E0.01484
G1 X98.156 Y110.916 E0.00773
G1 X97.187 Y110.478 E0.03334
G1 X96.463 Y110.071 E0.02604
G1 X95.762 Y109.607 E0.02637
G1 X95.081 Y109.094 E0.02673
G1 X94.085 Y108.251 E0.04090
G1 X92.477 Y106.750 E0.06896
G1 X91.712 Y105.671 E0.04147
G1 X90.980 Y104.564 E0.04162
G1 X90.485 Y103.720 E0.03067
G1 X90.056 Y102.856 E0.03025
G1 X89.708 Y101.965 E0.03000
G1 X89.444 Y101.041 E0.03012
G1 X89.250 Y100.087 E0.03052
G1 X89.108 Y99.111 E0.03094
G1 X88.911 Y97.130 E0.06243
G1 X89.094 Y95.323 E0.05693
G1 X89.308 Y93.896 E0.04525
G1 X89.452 Y93.204 E0.02215
G1 X89.631 Y92.528 E0.02195
G1 X89.851 Y91.868 E0.02180
G1 X90.113 Y91.234 E0.02152
G1 X90.425 Y90.612 E0.02180
G1 X90.778 Y90.008 E0.02195
G1 X91.165 Y89.417 E0.02215
G1 X92.024 Y88.257 E0.04525
G1 X93.172 Y86.852 E0.05689
G1 X94.881 Y85.488 E0.06855
G1 X95.462 Y85.062 E0.02261
G1 X96.054 Y84.661 E0.02240
G1 X96.657 Y84.293 E0.02214
G1 X97.272 Y83.963 E0.02191
G1 X97.906 Y83.677 E0.02180
G1 X98.889 Y83.336 E0.03261
G1 X99.569 Y83.159 E0.02202
G1 X100.264 Y83.016 E0.02225
G1 X101.332 Y82.851 E0.03390
G1 X103.510 Y82.626 E0.06865
G1 X105.525 Y82.795 E0.06341
G1 X106.271 Y82.897 E0.02360
G1 X107.005 Y83.036 E0.02341
G1 X107.724 Y83.222 E0.02329
G1 X108.430 Y83.456 E0.02334
G1 X109.361 Y83.829 E0.03146
G1 X111.090 Y84.645 E0.05992
G1 X111.090 Y89.285 E0.14549
G1 X110.691 Y88.962 E0.01611
G1 X109.921 Y88.393 E0.03002
G1 X109.392 Y88.028 E0.02015
G1 X108.484 Y87.475 E0.03334
G1 X107.522 Y87.008 E0.03352
G1 X106.564 Y86.669 E0.03187
G1 X105.833 Y86.465 E0.02380
G1 X105.331 Y86.372 E0.01599
G1 X104.826 Y86.313 E0.01596
G1 X103.557 Y86.250 E0.03983
G1 X101.963 Y86.414 E0.05025
G1 X101.182 Y86.536 E0.02478
G1 X100.668 Y86.642 E0.01646
G1 X100.161 Y86.775 E0.01642
G1 X99.427 Y87.033 E0.02441
G1 X98.725 Y87.371 E0.02441
G1 X98.273 Y87.635 E0.01642
G1 X97.835 Y87.924 E0.01645
G1 X97.198 Y88.392 E0.02478
G1 X95.953 Y89.411 E0.05046
G1 X94.946 Y90.692 E0.05109
G1 X94.340 Y91.568 E0.03339
G1 X93.942 Y92.253 E0.02484
G1 X93.712 Y92.729 E0.01658
G1 X93.517 Y93.221 E0.01658
G1 X93.290 Y93.975 E0.02470
G1 X93.173 Y94.495 E0.01669
G1 X93.042 Y95.281 E0.02500
G1 X92.948 Y96.079 E0.02520
G1 X92.850 Y97.166 E0.03422
G1 X92.947 Y98.266 E0.03461
G1 X93.042 Y99.073 E0.02549
G1 X93.172 Y99.869 E0.02530
G1 X93.288 Y100.395 E0.01688
G1 X93.515 Y101.160 E0.02500
G1 X93.710 Y101.658 E0.01677
G1 X93.940 Y102.141 E0.01678
G1 X94.338 Y102.837 E0.02514
G1 X94.944 Y103.727 E0.03377
G1 X95.951 Y105.031 E0.05165
G1 X97.185 Y106.071 E0.05060
G1 X97.817 Y106.550 E0.02485
G1 X98.252 Y106.845 E0.01650
G1 X98.702 Y107.116 E0.01646
G1 X99.401 Y107.462 E0.02446
G1 X100.135 Y107.726 E0.02446
G1 X100.642 Y107.863 E0.01646
G1 X101.156 Y107.973 E0.01650
G1 X101.939 Y108.098 E0.02485
G1 X103.546 Y108.269 E0.05068
G1 X105.180 Y108.060 E0.05165
G1 X105.979 Y107.918 E0.02543
G1 X106.762 Y107.731 E0.02524
G1 X107.276 Y107.573 E0.01686
G1 X107.779 Y107.384 E0.01686
G1 X108.504 Y107.044 E0.02511
G1 X108.977 Y106.783 E0.01692
G1 X109.663 Y106.356 E0.02534
G1 X111.090 Y105.339 E0.05494
G1 X111.090 Y109.852 E0.14151
G1 X110.692 Y109.876 F7200.000
G1 F5760
G1 X109.224 Y110.828 E-0.72938
G1 F5760
G1 X109.147 Y110.873 E-0.03062
G1 E-0.04000 F2100.00000
G1 Z0.800 F7200.000
G1 X110.600 Y106.806 F7200.000
G1 Z0.200 F7200.000
G1 E0.80000 F2100.00000
G1 F900
G1 X110.424 Y106.631 E0.00787
G1 X110.106 Y106.852 E0.01233
G1 X110.430 Y107.176 E0.01456
G1 X110.430 Y107.716 E0.01716
G1 X109.776 Y107.063 E0.02936
G1 X109.443 Y107.270 E0.01246
G1 X110.430 Y108.257 E0.04432
G1 X110.430 Y108.797 E0.01716
G1 X109.101 Y107.468 E0.05969
G1 X108.750 Y107.657 E0.01267
G1 X110.430 Y109.337 E0.07546
G1 X110.430 Y109.501 E0.00521
G1 X110.178 Y109.625 E0.00893
G1 X108.382 Y107.830 E0.08065
G1 X108.013 Y108.001 E0.01293
G1 X109.815 Y109.803 E0.08096
G1 X109.453 Y109.981 E0.01282
G1 X107.621 Y108.149 E0.08231
G1 X107.214 Y108.283 E0.01359
G1 X109.090 Y110.159 E0.08428
G1 X108.739 Y110.348 E0.01267
G1 X106.794 Y108.402 E0.08739
G1 X106.357 Y108.506 E0.01425
G1 X108.416 Y110.565 E0.09247
G1 X108.125 Y110.814 E0.01217
G1 X105.911 Y108.600 E0.09946
G1 X105.452 Y108.682 E0.01480
G1 X107.859 Y111.089 E0.10814
G1 X107.615 Y111.384 E0.01219
G1 X104.981 Y108.751 E0.11832
G1 X104.502 Y108.812 E0.01533
G1 X107.402 Y111.712 E0.13029
G1 X107.217 Y112.067 E0.01272
G1 X106.617 Y111.468 E0.02695
G1 X106.616 Y112.006 E0.01712
G1 X107.071 Y112.462 E0.02045
G1 X106.955 Y112.886 E0.01398
G1 X106.615 Y112.545 E0.01531
G1 X106.613 Y113.084 E0.01712
G1 X106.887 Y113.358 E0.01229
G1 X106.876 Y113.887 E0.01682
G1 X106.612 Y113.623 E0.01187
G1 X106.610 Y114.162 E0.01712
G1 X107.001 Y114.553 E0.01756
G1 X106.676 Y114.871 F7200.000
G1 F900
