;FLAVOR:Marlin
;TIME:271
;Filament used:0.224487m
;Layer height: 0.3
;MINX:71.401
;MINY:65.116
;MINZ:0.2
;MAXX:93.6
;MAXY:99.885
;MAXZ:2.9
                                   
;Creative3D GCode Generated by CXEngineDEV
;Generated Time:2022-04-08 18:14:05
;----------Machine Config--------------
;Machine Name:Creality Ender-2 Pro
;Machine Height:180
;Machine Width:165
;Machine Depth:165
;Material name:PLA
;Number of Extruders:1
;ExtruderParams[0] Nozzle Diameter1000
;----------Profile Config---------------
;Layer Height:0.3
;Wall Thickness:0.8
;Top/Bottom Thickness:1
;Out Wall Line Width:0.4
;Inner Wall Line Width:0.4
;Inital Layer Height:200
;Wall Line Count:1
;Infill Line Distance:4
;Infill Pattern:grid
;Infill Sparse Density:20
;Infill Wipe Distance:0
;Print Temperature:200
;Bed Temperature:60
;Support Enable:false
;Support Density:30
;Support Angle:1.0472
;Adhesion Type:none
;machine is belt:false
;machine belt offset:10
;machine belt offset Y:0
;----------Shell Config----------------
;Outer Wall Wipe Distance:200
;Infill Before Walls:false
;Infill Overlap:0.16
;Fill Gaps Between Walls:everywhere
;Minimum Infill Area:1
;Top Surface Skin Layer:0
;Top Layers:2
;Z Seam Alignment:sharpest_corner
;Seam Corner Preference:z_seam_corner_inner
;Z Seam X:82.5
;Z Seam Y:82.5
;Horizontal Expansion:0
;Top/Bottom Pattern:zigzag
;Ironing Pattern:zigzag
;Vase Model:false
;----------Support Config----------------
;Support Type:everywhere
;Support Pattern:zigzag
;Support Infill Layer Thickness:0.3
;Minimum Support Area:10
;Enable Support Roof:false
;Support Roof Thickness:0.8
;Support Roof Pattern:lines
; ---------PrintSpeed & Travel----------
;Enable Print Cool:true
;Avoid Printed Parts Traveling:true
;Enable Retraction:true
;Retraction Distance:8
;Retraction Speed:100
;Retraction Prime Speed:100
;Maximum Retraction Count:100
;Minimum Extrusion Distance Window:1
;Z Hop When Retracted:false
;Z Hop Height:0.2
;Retract Before Outer Wall:true
;Print Speed:50
;Infill Speed:50

;Prime Tower Speed:50
;Travel Speed:120
;Initial Layer Speed:25
;Skirt/Brim Speed:25
;Combing Mode:off
;---------------------End of Head--------------------------
M140 S60
M104 S200
M105
M109 S200
M82 ;absolute extrusion mode
M220 S100 ;Reset Feedrate
M221 S100 ;Reset Flowrate

G28 ;Home

G92 E0 ;Reset Extruder
G1 Z2.0 F3000 ;Move Z Axis up
G1 X10.1 Y20 Z0.28 F5000.0 ;Move to start position
G1 X10.1 Y145.0 Z0.28 F1500.0 E15 ;Draw the first line
G1 X10.4 Y145.0 Z0.28 F5000.0 ;Move to side a little
G1 X10.4 Y20 Z0.28 F1500.0 E30 ;Draw the second line
G92 E0  ;Reset Extruder
G1 E-1.0000 F1800 ;Retract a bit
G1 Z2.0 F3000 ;Move Z Axis up
G1 E0.0000 F1800 

G92 E0
G92 E0
G1 F6000 E-8

;LAYER_COUNT:10

;LAYER:0
M107
;MESH:
G0 F3600 X84.047 Y94.196 Z0.2
;TYPE:WALL-OUTER
G1 F6000 E0
G1 F1500 X84.047 Y94.42 E0.0082
G1 X84.047 Y94.421 E0.00823
G1 X84.047 Y97.102 E0.10632
G1 X84.117 Y97.504 E0.12125
G1 X84.34 Y97.877 E0.13715
G1 X84.681 Y98.147 E0.15306
G1 X85.081 Y98.274 E0.16842
G1 X85.24 Y98.285 E0.17425
G1 X87.264 Y98.285 E0.2483
G1 X87.665 Y98.215 E0.26319
G1 X88.038 Y97.992 E0.27909
G1 X88.308 Y97.651 E0.295
G1 X88.435 Y97.25 E0.31039
G1 X88.447 Y97.043 E0.31798
G1 X88.447 Y94.471 E0.41208
G1 X88.447 Y94.251 E0.42013
G1 X88.228 Y94.272 E0.4252
G1 X87.277 Y94.368 E0.46017
G1 X86.346 Y94.44 E0.49434
G1 X84.791 Y94.284 E0.55151
G1 X84.27 Y94.222 E0.57071
G1 X84.047 Y94.196 E0.57585
G0 F3600 X84.047 Y94.396
G0 X83.607 Y94.396
;;retract;;
G1 F6000 E-7.42415
G0 F3600 X81.763 Y94.322
G1 F6000 E0.57585
G1 F1500 X81.441 Y93.97 E0.59331
G1 X81.07 Y93.671 E0.61074
G1 X80.66 Y93.43 E0.62814
G1 X79.87 Y93.082 E0.65972
G1 X79.496 Y92.891 E0.67509
G1 X78.962 Y92.583 E0.69764
G1 X78.602 Y92.353 E0.71327
G1 X78.254 Y92.114 E0.72871
G1 X77.911 Y91.863 E0.74427
G1 X77.578 Y91.605 E0.75968
G1 X76.905 Y91.046 E0.79169
G1 X76.254 Y90.467 E0.82356
G1 X74.97 Y89.257 E0.88811
G1 X74.202 Y88.175 E0.93665
G1 X73.65 Y87.351 E0.97294
G1 X73.298 Y86.787 E0.99726
G1 X72.979 Y86.229 E1.02078
G1 X72.679 Y85.646 E1.04477
G1 X72.419 Y85.062 E1.06816
G1 X72.306 Y84.774 E1.07947
G1 X72.198 Y84.467 E1.09138
G1 X72.1 Y84.161 E1.10314
G1 X72.013 Y83.854 E1.11481
G1 X71.862 Y83.225 E1.13848
G1 X71.741 Y82.594 E1.16198
G1 X71.641 Y81.938 E1.18626
G1 X71.522 Y80.947 E1.22278
G1 X71.401 Y79.63 E1.27117
G1 X71.543 Y78.186 E1.32425
G1 X71.63 Y77.464 E1.35086
G1 X71.736 Y76.752 E1.37719
G1 X71.867 Y76.043 E1.40357
G1 X71.941 Y75.708 E1.41612
G1 X72.121 Y75.028 E1.44186
G1 X72.225 Y74.696 E1.45459
G1 X72.342 Y74.363 E1.4675
G1 X72.465 Y74.049 E1.47984
G1 X72.604 Y73.732 E1.4925
G1 X72.754 Y73.42 E1.50517
G1 X72.914 Y73.114 E1.5178
G1 X73.265 Y72.51 E1.54336
G1 X73.655 Y71.914 E1.56942
G1 X74.074 Y71.331 E1.59569
G1 X74.515 Y70.755 E1.62223
G1 X75.206 Y69.899 E1.66248
G1 X75.667 Y69.343 E1.6889
G1 X76.794 Y68.43 E1.74197
G1 X77.371 Y67.983 E1.76867
G1 X77.954 Y67.557 E1.79509
G1 X78.553 Y67.152 E1.82154
G1 X78.847 Y66.966 E1.83427
G1 X79.149 Y66.787 E1.84711
G1 X79.456 Y66.617 E1.85995
G1 X79.766 Y66.457 E1.87272
G1 X80.086 Y66.305 E1.88568
G1 X80.404 Y66.167 E1.89836
G1 X80.72 Y66.045 E1.91075
G1 X81.049 Y65.931 E1.92349
G1 X81.383 Y65.828 E1.93628
G1 X81.724 Y65.735 E1.94921
G1 X82.408 Y65.576 E1.9749
G1 X83.12 Y65.446 E2.00138
G1 X83.83 Y65.343 E2.02763
G1 X84.559 Y65.256 E2.05449
G1 X86.011 Y65.116 E2.10786
G1 X87.503 Y65.231 E2.16261
G1 X88.029 Y65.286 E2.18196
G1 X88.77 Y65.388 E2.20932
G1 X89.268 Y65.477 E2.22783
G1 X89.744 Y65.582 E2.24567
G1 X90.231 Y65.714 E2.26413
G1 X90.696 Y65.863 E2.28199
G1 X91.164 Y66.033 E2.30021
G1 X91.863 Y66.32 E2.32785
G1 X92.788 Y66.743 E2.36507
G1 X93.6 Y67.138 E2.3981
G1 X93.6 Y71.388 E2.55359
G1 X93.6 Y71.808 E2.56896
G1 X93.274 Y71.543 E2.5774
G1 X93.185 Y71.471 E2.58158
G1 X92.674 Y71.086 E2.60499
G1 X91.888 Y70.538 E2.64005
G1 X91.212 Y70.116 E2.6692
G1 X90.743 Y69.86 E2.68875
G1 X90.018 Y69.518 E2.71808
G1 X89.539 Y69.342 E2.73675
G1 X89.062 Y69.179 E2.75519
G1 X88.575 Y69.036 E2.77376
G1 X88.081 Y68.924 E2.7923
G1 X87.579 Y68.85 E2.81086
G1 X87.075 Y68.804 E2.82938
G1 X86.057 Y68.761 E2.86665
G1 X84.989 Y68.863 E2.90591
G1 X84.202 Y68.961 E2.93492
G1 X83.682 Y69.046 E2.9542
G1 X83.17 Y69.153 E2.97334
G1 X82.666 Y69.285 E2.9924
G1 X82.173 Y69.448 E3.01139
G1 X81.693 Y69.648 E3.03042
G1 X81.236 Y69.876 E3.0491
G1 X80.779 Y70.145 E3.06851
G1 X80.341 Y70.432 E3.08766
G1 X79.915 Y70.741 E3.10692
G1 X79.29 Y71.229 E3.13593
G1 X78.46 Y71.919 E3.17542
G1 X77.779 Y72.773 E3.21538
G1 X77.297 Y73.414 E3.24472
G1 X76.993 Y73.852 E3.26423
G1 X76.709 Y74.3 E3.28364
G1 X76.452 Y74.759 E3.30288
G1 X76.331 Y74.997 E3.31265
G1 X76.121 Y75.475 E3.33175
G1 X76.026 Y75.725 E3.34154
G1 X75.868 Y76.225 E3.36072
G1 X75.738 Y76.737 E3.38005
G1 X75.635 Y77.257 E3.39944
G1 X75.553 Y77.785 E3.41899
G1 X75.458 Y78.581 E3.44832
G1 X75.36 Y79.667 E3.48821
G1 X75.458 Y80.765 E3.52855
G1 X75.552 Y81.572 E3.55827
G1 X75.634 Y82.105 E3.578
G1 X75.737 Y82.631 E3.59761
G1 X75.866 Y83.15 E3.61718
G1 X76.021 Y83.649 E3.63629
G1 X76.219 Y84.155 E3.65617
G1 X76.449 Y84.636 E3.67568
G1 X76.708 Y85.103 E3.69522
G1 X76.992 Y85.558 E3.71484
G1 X77.296 Y86.004 E3.73459
G1 X77.778 Y86.656 E3.76425
G1 X78.459 Y87.525 E3.80464
G1 X79.281 Y88.229 E3.84424
G1 X79.9 Y88.728 E3.87333
G1 X80.324 Y89.043 E3.89265
G1 X80.758 Y89.338 E3.91185
G1 X81.204 Y89.606 E3.93089
G1 X81.436 Y89.731 E3.94053
G1 X81.906 Y89.953 E3.95955
G1 X82.392 Y90.138 E3.97857
G1 X82.89 Y90.29 E3.99762
G1 X83.4 Y90.413 E4.01682
G1 X83.917 Y90.51 E4.03606
G1 X84.44 Y90.589 E4.05542
G1 X84.967 Y90.654 E4.07484
G1 X86.046 Y90.76 E4.11451
G1 X87.143 Y90.627 E4.15494
G1 X87.681 Y90.551 E4.17482
G1 X88.465 Y90.412 E4.20395
G1 X89.001 Y90.291 E4.22405
G1 X89.518 Y90.147 E4.24369
G1 X90.016 Y89.978 E4.26293
G1 X90.519 Y89.77 E4.28284
G1 X91.001 Y89.536 E4.30244
G1 X91.471 Y89.276 E4.32209
G1 X91.932 Y88.996 E4.34183
G1 X92.605 Y88.545 E4.37147
G1 X93.283 Y88.053 E4.40212
G1 X93.6 Y87.823 E4.41645
G1 X93.6 Y88.214 E4.42438
G1 X93.6 Y88.215 E4.42441
G1 X93.6 Y92.422 E4.57833
G1 X92.824 Y92.814 E4.61014
G1 X91.722 Y93.342 E4.65484
G1 X91.343 Y93.583 E4.67128
G1 X90.995 Y93.881 E4.68804
G1 X90.695 Y94.224 E4.70471
G1 X90.446 Y94.607 E4.72142
G1 X90.252 Y95.024 E4.73825
G1 X90.122 Y95.467 E4.75514
G1 X90.057 Y95.913 E4.77163
G1 X90.047 Y96.163 E4.78079
G1 X90.047 Y96.572 E4.79575
G1 X90.017 Y97.026 E4.8124
G1 X89.978 Y97.252 E4.82079
G1 X89.858 Y97.686 E4.83726
G1 X89.777 Y97.892 E4.84536
G1 X89.57 Y98.294 E4.8619
G1 X89.447 Y98.482 E4.87012
G1 X89.299 Y98.675 E4.87902
G1 X88.999 Y98.995 E4.89507
G1 X88.653 Y99.278 E4.91142
G1 X88.461 Y99.405 E4.91984
G1 X88.076 Y99.605 E4.93572
G1 X87.857 Y99.692 E4.94434
G1 X87.426 Y99.813 E4.96072
G1 X87.2 Y99.854 E4.96912
G1 X86.747 Y99.884 E4.98573
G1 X85.76 Y99.885 E5.02184
G1 X85.302 Y99.855 E5.03863
G1 X85.08 Y99.817 E5.04687
G1 X84.646 Y99.697 E5.06335
G1 X84.44 Y99.616 E5.07145
G1 X84.031 Y99.405 E5.08828
G1 X83.85 Y99.286 E5.09621
G1 X83.657 Y99.138 E5.10511
G1 X83.337 Y98.838 E5.12115
G1 X83.054 Y98.492 E5.13751
G1 X82.926 Y98.299 E5.14598
G1 X82.727 Y97.915 E5.1618
G1 X82.639 Y97.693 E5.17054
G1 X82.519 Y97.264 E5.18684
G1 X82.478 Y97.036 E5.19531
G1 X82.448 Y96.585 E5.21185
G1 X82.438 Y96.058 E5.23114
G1 X82.37 Y95.601 E5.24804
G1 X82.231 Y95.144 E5.26552
G1 X82.028 Y94.717 E5.28281
G1 X81.763 Y94.322 E5.30022
G0 F3600 X81.628 Y94.175
G0 X81.953 Y93.879
;;retract;;
G1 F6000 E-2.69978
G0 F3600 X84.567 Y98.362
;TYPE:SKIN
G1 F6000 E5.30022
G1 F1500 X84.155 Y98.037 E5.31942
G1 X83.887 Y97.588 E5.33855
G1 X83.862 Y97.438 E5.34411
G1 X82.681 Y96.258 E5.40519
G1 X82.678 Y96.037 E5.41328
G1 X82.616 Y95.626 E5.42848
G1 X83.807 Y96.817 E5.49011
G1 X83.807 Y96.252 E5.51078
G1 X82.313 Y94.758 E5.58808
G1 X82.237 Y94.597 E5.59459
G1 X81.952 Y94.171 E5.61334
G1 X81.605 Y93.794 E5.63209
G1 X81.206 Y93.472 E5.65085
G0 F3600 X80.771 Y93.216
G1 F1500 X72.735 Y85.18 E6.06664
G1 X72.638 Y84.963 E6.07533
G1 X72.531 Y84.692 E6.08599
G1 X72.414 Y84.36 E6.09887
G1 X72.383 Y84.263 E6.1026
G1 X83.807 Y95.686 E6.69366
G1 X83.807 Y95.12 E6.71436
G1 X72.17 Y83.483 E7.31647
G1 X72.095 Y83.168 E7.32832
G1 X72.017 Y82.765 E7.34333
G1 X83.807 Y94.555 E7.95336
G1 X83.807 Y93.989 E7.97406
G1 X71.907 Y82.089 E8.58978
G1 X71.878 Y81.901 E8.59674
G1 X71.822 Y81.439 E8.61376
G1 X84.375 Y93.992 E9.26326
G1 X84.818 Y94.044 E9.27958
G1 X85.012 Y94.063 E9.28671
G1 X80.193 Y89.244 E9.53605
G1 X80.627 Y89.54 E9.55527
G1 X81.084 Y89.814 E9.57477
G1 X81.328 Y89.945 E9.5849
G1 X81.577 Y90.062 E9.59496
G1 X85.641 Y94.126 E9.80524
G1 X86.269 Y94.189 E9.82833
G1 X82.502 Y90.421 E10.02326
G1 X82.826 Y90.52 E10.03566
G1 X83.275 Y90.629 E10.05256
G1 X86.808 Y94.162 E10.23536
G1 X87.252 Y94.128 E10.25165
G1 X87.331 Y94.12 E10.25456
G1 X83.972 Y90.76 E10.42838
G1 X84.408 Y90.825 E10.44451
G1 X84.631 Y90.854 E10.45274
G1 X87.845 Y94.068 E10.61903
G1 X88.36 Y94.017 E10.63796
G1 X85.267 Y90.924 E10.798
G1 X85.894 Y90.985 E10.82105
G1 X89.986 Y95.077 E11.03277
G1 X90.026 Y94.938 E11.03806
G1 X90.149 Y94.675 E11.04868
G1 X86.428 Y90.954 E11.24121
G1 X86.933 Y90.893 E11.25982
G1 X90.351 Y94.311 E11.43667
G1 X90.503 Y94.078 E11.44685
G1 X90.588 Y93.982 E11.45154
G1 X87.433 Y90.827 E11.61478
G1 X87.718 Y90.788 E11.6253
G1 X87.923 Y90.752 E11.63292
G1 X90.854 Y93.683 E11.78457
G1 X91.159 Y93.422 E11.79926
G1 X88.403 Y90.665 E11.94188
G1 X88.512 Y90.646 E11.94593
G1 X88.869 Y90.566 E11.95931
G1 X91.5 Y93.197 E12.09544
G1 X91.605 Y93.131 E12.09998
G1 X91.872 Y93.003 E12.11081
G1 X89.319 Y90.45 E12.24291
G1 X89.589 Y90.375 E12.25316
G1 X89.753 Y90.319 E12.2595
G1 X92.254 Y92.82 E12.3889
G1 X92.637 Y92.637 E12.40443
G1 X90.172 Y90.172 E12.53197
G1 X90.573 Y90.007 E12.54784
G1 X93.013 Y92.447 E12.67409
G1 X93.359 Y92.274 E12.68824
G1 X93.359 Y92.227 E12.68996
G1 X90.956 Y89.825 E12.81427
G1 X91.11 Y89.75 E12.82053
G1 X91.327 Y89.63 E12.8296
G1 X93.359 Y91.662 E12.93474
G1 X93.359 Y91.096 E12.95545
G1 X91.688 Y89.425 E13.04191
G1 X92.04 Y89.212 E13.05696
G1 X93.359 Y90.53 E13.12518
G1 X93.359 Y89.965 E13.14585
G1 X92.379 Y88.985 E13.19656
G1 X92.717 Y88.758 E13.21145
G1 X93.359 Y89.399 E13.24465
G1 X93.359 Y88.833 E13.26535
G1 X93.046 Y88.521 E13.28152
G1 X93.359 Y88.293 E13.29569
;;retract;;
G1 F6000 E5.29569
G0 F3600 X88.687 Y93.985
G1 F6000 E13.29569
G1 F1500 X88.686 Y94.343 E13.30879
G1 X89.871 Y95.528 E13.3701
G1 X89.818 Y95.89 E13.38349
G1 X89.812 Y96.035 E13.38879
G1 X88.686 Y94.909 E13.44705
G1 X88.686 Y95.474 E13.46773
G1 X89.804 Y96.592 E13.52557
G1 X89.777 Y96.997 E13.54042
G1 X89.759 Y97.113 E13.54472
G1 X88.686 Y96.04 E13.60023
G1 X88.686 Y96.606 E13.62094
G1 X89.642 Y97.562 E13.67041
G1 X89.627 Y97.613 E13.67235
G1 X89.561 Y97.785 E13.67909
G1 X89.473 Y97.958 E13.68619
G1 X88.679 Y97.164 E13.72727
G1 X88.673 Y97.292 E13.73196
G1 X88.569 Y97.62 E13.74455
G1 X89.267 Y98.318 E13.78067
G1 X89.255 Y98.335 E13.78143
G1 X89.113 Y98.521 E13.78999
G1 X89.012 Y98.629 E13.7954
G1 X88.357 Y97.974 E13.82929
G1 X88.199 Y98.175 E13.83864
G1 X88.07 Y98.253 E13.84416
G1 X88.724 Y98.907 E13.878
G1 X88.505 Y99.086 E13.88835
G1 X88.405 Y99.153 E13.89275
G1 X87.703 Y98.451 E13.92907
G1 X87.283 Y98.524 E13.94467
G1 X87.21 Y98.524 E13.94734
G1 X88.039 Y99.352 E13.99021
G1 X87.981 Y99.383 E13.99261
G1 X87.783 Y99.46 E14.00038
G1 X87.625 Y99.504 E14.00639
G1 X86.644 Y98.524 E14.05712
G1 X86.078 Y98.524 E14.07782
G1 X87.169 Y99.614 E14.13425
G1 X86.731 Y99.643 E14.15031
G1 X86.632 Y99.643 E14.15393
G1 X85.513 Y98.524 E14.21183
G1 X85.231 Y98.524 E14.22214
G1 X85.035 Y98.511 E14.22933
G1 X84.888 Y98.465 E14.23497
G1 X86.066 Y99.643 E14.29592
G1 X85.776 Y99.644 E14.30653
G1 X85.482 Y99.624 E14.31731
G1 X82.706 Y96.848 E14.46094
G1 X82.717 Y97.009 E14.46684
G1 X82.751 Y97.203 E14.47405
G0 F3600 X82.752 Y97.204
G1 F1500 X82.851 Y97.559 E14.48753
G1 X84.773 Y99.481 E14.58698
G1 X84.717 Y99.465 E14.58911
G1 X84.545 Y99.399 E14.59585
G1 X84.147 Y99.192 E14.61226
G1 X83.995 Y99.093 E14.6189
G1 X83.809 Y98.951 E14.62746
G1 X83.514 Y98.675 E14.64224
G1 X83.246 Y98.347 E14.65774
G1 X83.133 Y98.176 E14.66524
G1 X82.945 Y97.811 E14.68026
G1 X82.868 Y97.618 E14.68786
;;retract;;
G1 F6000 E6.68786
G0 F3600 X80.768 Y93.215
G1 F6000 E14.68786
G1 F1500 X79.966 Y92.861 E14.71993
G1 X79.729 Y92.739 E14.72969
G1 X73.305 Y86.316 E15.06204
G1 X73.501 Y86.659 E15.0765
G1 X73.852 Y87.222 E15.10077
G1 X74.273 Y87.85 E15.12843
G1 X78.197 Y91.773 E15.33143
G1 X78.053 Y91.668 E15.33795
G1 X77.731 Y91.418 E15.35287
G1 X77.059 Y90.86 E15.38483
G1 X76.418 Y90.29 E15.41621
G0 F3600 X76.417 Y90.291
G1 F1500 X75.152 Y89.099 E15.4798
G1 X74.398 Y88.035 E15.52751
;;retract;;
G1 F6000 E7.52751
G0 F3600 X80.184 Y89.238
G1 F6000 E15.52751
G1 F1500 X79.754 Y88.917 E15.54714
G1 X79.127 Y88.413 E15.57658
G1 X78.285 Y87.691 E15.61716
G1 X77.586 Y86.8 E15.65859
G1 X77.124 Y86.175 E15.68702
G1 X71.749 Y80.8 E15.96513
G1 X71.692 Y80.177 E15.98802
G1 X76.211 Y84.697 E16.22186
G1 X75.998 Y84.25 E16.23998
G1 X75.794 Y83.727 E16.26051
G1 X75.787 Y83.707 E16.26129
G1 X71.647 Y79.567 E16.4755
G1 X71.698 Y79.052 E16.49443
G1 X75.56 Y82.913 E16.69423
G1 X75.502 Y82.682 E16.70294
G1 X75.408 Y82.196 E16.72105
G1 X71.749 Y78.537 E16.91037
G1 X71.781 Y78.213 E16.92228
G1 X71.803 Y78.026 E16.92917
G1 X75.305 Y81.527 E17.11034
G1 X75.231 Y80.888 E17.13387
G1 X71.864 Y77.521 E17.30808
G1 X71.868 Y77.498 E17.30894
G1 X71.938 Y77.029 E17.32629
G1 X75.173 Y80.264 E17.49367
G1 X75.119 Y79.666 E17.51564
G1 X75.121 Y79.647 E17.51634
G1 X72.018 Y76.543 E17.67691
G1 X72.102 Y76.086 E17.69391
G1 X72.107 Y76.067 E17.69463
G1 X75.168 Y79.128 E17.85301
G1 X75.214 Y78.609 E17.87207
G1 X72.214 Y75.608 E18.02732
G1 X72.332 Y75.161 E18.04423
G1 X75.273 Y78.102 E18.1964
G1 X75.315 Y77.752 E18.2093
G1 X75.339 Y77.602 E18.21486
G1 X72.467 Y74.729 E18.36348
G1 X72.568 Y74.443 E18.37458
G1 X72.617 Y74.314 E18.37963
G1 X75.418 Y77.115 E18.52455
G1 X75.504 Y76.683 E18.54067
G1 X75.514 Y76.645 E18.54211
G1 X72.784 Y73.915 E18.68336
G1 X72.82 Y73.834 E18.6866
G1 X72.965 Y73.531 E18.69889
G1 X75.629 Y76.194 E18.8367
G1 X75.637 Y76.158 E18.83805
