; generated by Slic3r Prusa Edition 1.39.1-prusa3d on 2018-04-22 at 18:17:47

; 

; external perimeters extrusion width = 0.45mm
; perimeters extrusion width = 0.45mm
; infill extrusion width = 0.45mm
; solid infill extrusion width = 0.45mm
; top infill extrusion width = 0.33mm
; first layer extrusion width = 0.42mm

M107
M115 U3.1.0 ; tell printer latest fw version
M201 X9000 Y9000 Z500 E10000 ; sets maximum accelerations, mm/sec^2
M203 X500 Y500 Z12 E120 ; sets maximum feedrates, mm/sec
M204 S1500 T1500 ; sets acceleration (S) and retract acceleration (T)
M205 X10 Y10 Z0.2 E2.5 ; sets the jerk limits, mm/sec
M205 S0 T0 ; sets the minimum extruding and travel feed rate, mm/sec
M83  ; extruder relative mode
M104 S215 ; set extruder temp
M140 S60 ; set bed temp
M190 S60 ; wait for bed temp
M109 S215 ; wait for extruder temp
G28 W ; home all without mesh bed level
G80 ; mesh bed leveling
G1 Y-3.0 F1000.0 ; go outside print area
G92 E0.0
G1 E18.0 F1000.0;
G1 X60.0 E9.0  F1000.0 ; intro line
G1 X100.0 E12.5  F1000.0 ; intro line
G92 E0.0
M900 K30; Filament gcode
G21 ; set units to millimeters
G90 ; use absolute coordinates
M83 ; use relative distances for extrusion
;BEFORE_LAYER_CHANGE
;0.2


G1 E-0.80000 F2100.00000
G1 Z0.600 F7200.000
;AFTER_LAYER_CHANGE
;0.2
G1 X114.636 Y89.140 F7200.000
G1 Z0.200 F7200.000
G1 E0.80000 F2100.00000
M204 S1000
G1 F900
G1 X115.004 Y88.700 E0.01796
G1 X115.450 Y88.348 E0.01784
G1 X115.964 Y88.094 E0.01796
G1 X116.519 Y87.951 E0.01796
G1 X122.864 Y87.922 E0.19897
G1 X125.135 Y87.971 E0.07120
G1 X127.031 Y88.137 E0.05967
G1 X128.517 Y88.398 E0.04733
G1 X130.595 Y88.907 E0.06706
G1 X132.760 Y89.825 E0.07374
G1 X134.319 Y90.738 E0.05665
G1 X136.298 Y92.264 E0.07837
G1 X137.559 Y93.650 E0.05873
G1 X138.877 Y95.276 E0.06564
G1 X139.880 Y96.805 E0.05734
G1 X140.672 Y98.473 E0.05788
G1 X141.201 Y100.207 E0.05684
G1 X141.580 Y102.342 E0.06800
G1 X141.831 Y104.955 E0.08231
G1 X141.648 Y107.182 E0.07004
G1 X141.346 Y109.224 E0.06472
G1 X140.909 Y110.941 E0.05557
G1 X140.397 Y112.269 E0.04463
G1 X139.736 Y113.524 E0.04445
G1 X138.773 Y114.956 E0.05411
G1 X136.500 Y117.665 E0.11088
G1 X134.857 Y118.974 E0.06587
G1 X133.323 Y119.939 E0.05682
G1 X132.163 Y120.487 E0.04022
G1 X130.547 Y121.111 E0.05431
G1 X128.215 Y121.661 E0.07513
G1 X126.721 Y121.899 E0.04743
G1 X125.227 Y122.022 E0.04700
G1 X122.971 Y122.078 E0.07076
G1 X116.409 Y122.030 E0.20575
G1 X115.671 Y121.777 E0.02447
G1 X115.030 Y121.325 E0.02460
G1 X109.863 Y116.104 E0.23032
G1 X109.121 Y115.140 E0.03812
G1 X108.537 Y113.937 E0.04194
G1 X108.233 Y112.718 E0.03938
G1 X108.169 Y110.776 E0.06093
G1 X108.289 Y109.603 E0.03697
G1 X114.293 Y89.859 E0.64705
G1 X114.611 Y89.194 E0.02310
G1 X114.943 Y89.360 F7200.000
G1 F900
G1 X115.266 Y88.971 E0.01585
G1 X115.661 Y88.661 E0.01574
G1 X116.116 Y88.440 E0.01585
G1 X116.607 Y88.320 E0.01585
G1 X122.864 Y88.299 E0.19619
G1 X125.113 Y88.347 E0.07054
G1 X126.980 Y88.511 E0.05875
G1 X128.433 Y88.765 E0.04624
G1 X130.456 Y89.258 E0.06529
G1 X132.592 Y90.163 E0.07273
G1 X134.106 Y91.049 E0.05501
G1 X136.045 Y92.543 E0.07675
G1 X137.273 Y93.895 E0.05727
G1 X138.581 Y95.510 E0.06515
G1 X139.556 Y96.997 E0.05575
G1 X140.321 Y98.611 E0.05601
G1 X140.839 Y100.313 E0.05578
G1 X141.208 Y102.405 E0.06660
G1 X141.454 Y104.963 E0.08057
G1 X141.271 Y107.154 E0.06896
G1 X140.972 Y109.171 E0.06394
G1 X140.544 Y110.845 E0.05417
G1 X140.038 Y112.148 E0.04382
G1 X139.205 Y113.666 E0.05428
G1 X138.221 Y115.061 E0.05354
G1 X136.205 Y117.423 E0.09738
G1 X134.312 Y118.899 E0.07525
G1 X132.819 Y119.773 E0.05425
G1 X130.412 Y120.757 E0.08151
G1 X128.135 Y121.292 E0.07334
G1 X126.659 Y121.527 E0.04687
G1 X122.966 Y121.701 E0.11591
G1 X116.476 Y121.659 E0.20350
G1 X115.834 Y121.437 E0.02130
G1 X115.281 Y121.043 E0.02130
G1 X110.138 Y115.847 E0.22921
G1 X109.437 Y114.934 E0.03610
G1 X108.890 Y113.807 E0.03925
G1 X108.606 Y112.659 E0.03710
G1 X108.546 Y110.779 E0.05895
G1 X108.660 Y109.670 E0.03498
G1 X114.652 Y89.974 E0.64550
G1 X114.918 Y89.414 E0.01942
G1 F5760
G1 X115.266 Y88.971 E-0.19533
G1 F5760
G1 X115.661 Y88.661 E-0.17382
G1 F5760
G1 X116.116 Y88.440 E-0.17513
G1 F5760
G1 X116.607 Y88.320 E-0.17513
G1 F5760
G1 X116.724 Y88.319 E-0.04059
G1 E-0.04000 F2100.00000
G1 Z0.800 F7200.000
G1 X120.659 Y94.152 F7200.000
G1 Z0.200 F7200.000
G1 E0.80000 F2100.00000
G1 F900
G1 X123.202 Y94.152 E0.07972
G1 X124.448 Y94.183 E0.03910
G1 X125.391 Y94.246 E0.02964
G1 X126.031 Y94.323 E0.02020
G1 X126.964 Y94.495 E0.02976
G1 X128.217 Y94.791 E0.04037
G1 X129.220 Y95.204 E0.03399
G1 X129.713 Y95.436 E0.01710
G1 X130.419 Y95.836 E0.02543
G1 X131.080 Y96.302 E0.02536
G1 X131.933 Y96.985 E0.03428
G1 X132.328 Y97.438 E0.01884
G1 X133.205 Y98.493 E0.04301
G1 X133.842 Y99.388 E0.03445
G1 X134.131 Y99.870 E0.01764
G1 X134.388 Y100.373 E0.01769
G1 X134.692 Y101.147 E0.02607
G1 X134.913 Y101.951 E0.02613
G1 X135.069 Y102.768 E0.02610
G1 X135.206 Y103.859 E0.03448
G1 X135.306 Y105.001 E0.03594
G1 X135.150 Y106.691 E0.05319
G1 X134.981 Y107.780 E0.03457
G1 X134.858 Y108.328 E0.01761
G1 X134.703 Y108.870 E0.01767
G1 X134.403 Y109.649 E0.02618
G1 X134.015 Y110.393 E0.02629
G1 X133.562 Y111.094 E0.02617
G1 X133.063 Y111.763 E0.02617
G1 X131.957 Y113.088 E0.05414
G1 X130.446 Y114.072 E0.05651
G1 X129.690 Y114.509 E0.02739
G1 X128.906 Y114.897 E0.02742
G1 X128.092 Y115.214 E0.02739
G1 X127.526 Y115.381 E0.01852
G1 X126.957 Y115.512 E0.01829
G1 X126.382 Y115.614 E0.01833
G1 X125.519 Y115.720 E0.02725
G1 X124.367 Y115.801 E0.03622
G1 X123.206 Y115.848 E0.03641
G1 X120.659 Y115.848 E0.07986
G1 X120.659 Y94.212 E0.67837
G1 X121.036 Y94.529 F7200.000
G1 F900
G1 X123.197 Y94.529 E0.06775
G1 X124.431 Y94.560 E0.03870
G1 X125.356 Y94.622 E0.02907
G1 X125.974 Y94.696 E0.01951
G1 X126.887 Y94.864 E0.02910
G1 X128.102 Y95.151 E0.03914
G1 X129.068 Y95.549 E0.03276
G1 X129.540 Y95.771 E0.01636
G1 X130.216 Y96.155 E0.02439
G1 X130.853 Y96.604 E0.02442
G1 X131.671 Y97.259 E0.03287
G1 X132.041 Y97.682 E0.01764
G1 X132.906 Y98.723 E0.04242
G1 X133.526 Y99.594 E0.03354
G1 X133.801 Y100.053 E0.01677
G1 X134.043 Y100.528 E0.01672
G1 X134.333 Y101.267 E0.02488
G1 X134.546 Y102.036 E0.02503
G1 X134.696 Y102.827 E0.02524
G1 X134.831 Y103.899 E0.03389
G1 X134.928 Y105.001 E0.03466
G1 X134.775 Y106.644 E0.05176
G1 X134.610 Y107.710 E0.03381
G1 X134.492 Y108.235 E0.01687
G1 X134.345 Y108.750 E0.01680
G1 X134.058 Y109.494 E0.02498
G1 X133.689 Y110.203 E0.02507
G1 X133.252 Y110.878 E0.02522
G1 X132.767 Y111.529 E0.02545
G1 X131.703 Y112.803 E0.05204
G1 X130.249 Y113.750 E0.05442
G1 X129.512 Y114.176 E0.02669
G1 X128.754 Y114.551 E0.02652
G1 X127.970 Y114.857 E0.02637
G1 X127.430 Y115.016 E0.01767
G1 X126.882 Y115.142 E0.01763
G1 X126.326 Y115.241 E0.01771
G1 X125.483 Y115.344 E0.02663
G1 X124.346 Y115.424 E0.03574
G1 X123.199 Y115.471 E0.03600
G1 X121.036 Y115.471 E0.06780
G1 X121.036 Y94.589 E0.65472
G1 X121.022 Y94.129 F7200.000
G1 F5760
G1 X123.197 Y94.529 E-0.74872
G1 F5760
G1 X123.230 Y94.530 E-0.01128
G1 E-0.04000 F2100.00000
G1 Z0.800 F7200.000
G1 X117.510 Y108.737 F7200.000
G1 Z0.200 F7200.000
G1 E0.80000 F2100.00000
G1 F900
G1 X117.510 Y113.913 E0.16228
G1 X113.730 Y113.904 E0.11851
G1 X113.359 Y113.812 E0.01201
G1 X113.019 Y113.634 E0.01203
G1 X112.745 Y113.391 E0.01147
G1 X112.605 Y113.212 E0.00713
G1 X112.443 Y112.904 E0.01090
G1 X112.376 Y112.687 E0.00713
G1 X112.336 Y112.360 E0.01034
G1 X112.336 Y110.289 E0.06494
G1 X112.378 Y109.943 E0.01091
G1 X112.507 Y109.601 E0.01147
G1 X112.617 Y109.421 E0.00663
G1 X112.751 Y109.251 E0.00677
G1 X113.020 Y109.013 E0.01127
G1 X113.366 Y108.834 E0.01222
G1 X113.714 Y108.749 E0.01124
G1 X117.450 Y108.737 E0.11714
G1 X117.133 Y109.114 F7200.000
G1 F900
G1 X117.133 Y113.535 E0.13860
G1 X113.777 Y113.527 E0.10523
G1 X113.493 Y113.457 E0.00915
G1 X113.235 Y113.321 E0.00916
G1 X113.021 Y113.132 E0.00896
G1 X112.923 Y113.007 E0.00498
G1 X112.793 Y112.760 E0.00876
G1 X112.746 Y112.608 E0.00498
G1 X112.713 Y112.337 E0.00856
G1 X112.713 Y110.312 E0.06351
G1 X112.747 Y110.034 E0.00876
G1 X112.848 Y109.767 E0.00896
G1 X113.026 Y109.512 E0.00976
G1 X113.235 Y109.327 E0.00876
G1 X113.500 Y109.189 E0.00934
G1 X113.771 Y109.123 E0.00875
G1 X117.073 Y109.114 E0.10354
G1 X117.533 Y109.111 F7200.000
G1 F5760
G1 X117.103 Y111.308 E-0.76000
G1 E-0.04000 F2100.00000
G1 Z0.800 F7200.000
G1 X117.510 Y91.264 F7200.000
G1 Z0.200 F7200.000
G1 E0.80000 F2100.00000
G1 F900
G1 X123.677 Y91.271 E0.19336
G1 X124.964 Y91.308 E0.04037
G1 X125.788 Y91.361 E0.02588
G1 X126.602 Y91.451 E0.02569
G1 X127.412 Y91.584 E0.02572
G1 X128.224 Y91.753 E0.02602
G1 X129.419 Y92.035 E0.03850
G1 X130.362 Y92.409 E0.03181
G1 X130.984 Y92.680 E0.02127
G1 X131.881 Y93.145 E0.03169
G1 X132.437 Y93.499 E0.02065
G1 X133.266 Y94.110 E0.03229
G1 X134.052 Y94.740 E0.03157
G1 X135.035 Y95.839 E0.04622
G1 X135.752 Y96.694 E0.03500
G1 X136.194 Y97.267 E0.02270
G1 X136.602 Y97.851 E0.02232
G1 X136.969 Y98.444 E0.02188
G1 X137.287 Y99.051 E0.02150
G1 X137.555 Y99.678 E0.02137
G1 X137.776 Y100.330 E0.02158
G1 X137.957 Y101.007 E0.02197
G1 X138.102 Y101.706 E0.02240
G1 X138.219 Y102.425 E0.02284
G1 X138.313 Y103.158 E0.02316
G1 X138.487 Y105.000 E0.05802
G1 X138.284 Y107.187 E0.06886
G1 X138.127 Y108.262 E0.03404
G1 X137.989 Y108.952 E0.02208
G1 X137.817 Y109.624 E0.02175
G1 X137.487 Y110.582 E0.03178
G1 X137.203 Y111.201 E0.02135
G1 X136.873 Y111.800 E0.02144
G1 X136.499 Y112.388 E0.02184
G1 X136.088 Y112.967 E0.02227
G1 X135.649 Y113.537 E0.02255
G1 X134.230 Y115.211 E0.06882
G1 X133.451 Y115.847 E0.03151
G1 X132.624 Y116.461 E0.03231
G1 X132.065 Y116.817 E0.02077
G1 X131.481 Y117.128 E0.02074
G1 X130.539 Y117.543 E0.03227
G1 X129.586 Y117.909 E0.03201
G1 X128.370 Y118.209 E0.03926
G1 X127.551 Y118.386 E0.02628
G1 X126.315 Y118.582 E0.03925
G1 X125.064 Y118.684 E0.03936
G1 X123.791 Y118.726 E0.03993
G1 X117.506 Y118.736 E0.19705
G1 X117.502 Y118.047 E0.02161
G1 X117.432 Y117.560 E0.01541
G1 X117.363 Y117.287 E0.00883
G1 X117.195 Y116.835 E0.01515
G1 X117.068 Y116.578 E0.00898
G1 X116.800 Y116.160 E0.01558
G1 X116.475 Y115.783 E0.01558
G1 X116.268 Y115.590 E0.00888
G1 X115.884 Y115.301 E0.01508
G1 X115.640 Y115.155 E0.00890
G1 X115.195 Y114.949 E0.01538
G1 X114.696 Y114.800 E0.01632
G1 X114.019 Y114.709 E0.02143
G1 X113.606 Y114.620 E0.01323
G1 X113.437 Y114.565 E0.00557
G1 X113.067 Y114.401 E0.01270
G1 X112.731 Y114.194 E0.01239
G1 X112.425 Y113.943 E0.01239
G1 X112.157 Y113.653 E0.01239
G1 X111.925 Y113.321 E0.01270
G1 X111.838 Y113.166 E0.00557
G1 X111.674 Y112.785 E0.01301
G1 X111.620 Y112.615 E0.00557
G1 X111.538 Y112.218 E0.01270
G1 X111.510 Y111.804 E0.01301
G1 X111.510 Y110.834 E0.03042
G1 X111.517 Y110.637 E0.00620
G1 X111.573 Y110.225 E0.01301
G1 X111.615 Y110.053 E0.00557
G1 X111.750 Y109.671 E0.01270
G1 X111.935 Y109.310 E0.01270
G1 X112.032 Y109.161 E0.00558
G1 X112.279 Y108.854 E0.01235
G1 X112.582 Y108.568 E0.01306
G1 X113.058 Y108.253 E0.01789
G1 X113.429 Y108.088 E0.01275
G1 X113.805 Y107.979 E0.01228
G1 X114.477 Y107.888 E0.02125
G1 X114.952 Y107.781 E0.01527
G1 X115.426 Y107.602 E0.01590
G1 X115.867 Y107.359 E0.01579
G1 X116.094 Y107.199 E0.00871
G1 X116.465 Y106.877 E0.01540
G1 X116.800 Y106.488 E0.01608
G1 X117.078 Y106.053 E0.01619
G1 X117.282 Y105.605 E0.01545
G1 X117.369 Y105.341 E0.00870
G1 X117.475 Y104.850 E0.01576
G1 X117.510 Y104.364 E0.01528
G1 X117.510 Y91.324 E0.40888
G1 X117.133 Y90.886 F7200.000
G1 F900
G1 X123.682 Y90.894 E0.20536
G1 X124.982 Y90.931 E0.04075
G1 X125.821 Y90.986 E0.02637
G1 X126.653 Y91.077 E0.02626
G1 X127.481 Y91.213 E0.02628
G1 X128.306 Y91.384 E0.02643
G1 X129.533 Y91.674 E0.03952
G1 X130.507 Y92.061 E0.03287
G1 X131.147 Y92.339 E0.02187
G1 X132.070 Y92.818 E0.03261
G1 X132.650 Y93.188 E0.02157
G1 X133.496 Y93.811 E0.03294
G1 X134.312 Y94.465 E0.03280
G1 X135.320 Y95.592 E0.04738
G1 X136.046 Y96.457 E0.03543
G1 X136.498 Y97.044 E0.02322
G1 X136.917 Y97.643 E0.02293
G1 X137.296 Y98.257 E0.02263
G1 X137.628 Y98.889 E0.02238
G1 X137.908 Y99.543 E0.02230
G1 X138.137 Y100.221 E0.02243
G1 X138.324 Y100.920 E0.02268
G1 X138.473 Y101.638 E0.02299
G1 X138.592 Y102.371 E0.02330
G1 X138.688 Y103.116 E0.02356
G1 X138.866 Y105.000 E0.05933
G1 X138.658 Y107.232 E0.07028
G1 X138.499 Y108.326 E0.03466
G1 X138.357 Y109.036 E0.02271
G1 X138.180 Y109.729 E0.02244
G1 X137.960 Y110.405 E0.02226
G1 X137.834 Y110.729 E0.01091
G1 X137.540 Y111.371 E0.02214
G1 X137.197 Y111.993 E0.02224
G1 X136.812 Y112.598 E0.02251
G1 X136.391 Y113.192 E0.02281
G1 X135.942 Y113.774 E0.02305
G1 X134.495 Y115.481 E0.07018
G1 X133.683 Y116.144 E0.03286
G1 X132.838 Y116.772 E0.03302
G1 X132.255 Y117.143 E0.02165
G1 X131.646 Y117.467 E0.02164
G1 X130.683 Y117.891 E0.03299
G1 X129.700 Y118.270 E0.03304
G1 X128.455 Y118.576 E0.04018
G1 X127.621 Y118.757 E0.02678
G1 X126.360 Y118.957 E0.04003
G1 X125.085 Y119.061 E0.04010
G1 X123.797 Y119.103 E0.04040
G1 X117.132 Y119.114 E0.20900
G1 X117.125 Y118.075 E0.03257
G1 X117.062 Y117.634 E0.01398
G1 X117.003 Y117.400 E0.00757
G1 X116.849 Y116.985 E0.01388
G1 X116.739 Y116.764 E0.00771
G1 X116.497 Y116.386 E0.01410
G1 X116.203 Y116.045 E0.01411
G1 X116.025 Y115.879 E0.00762
G1 X115.673 Y115.614 E0.01382
G1 X115.464 Y115.489 E0.00764
G1 X115.061 Y115.303 E0.01391
G1 X114.617 Y115.170 E0.01455
G1 X113.954 Y115.081 E0.02097
G1 X113.508 Y114.984 E0.01430
G1 X113.302 Y114.917 E0.00678
G1 X112.891 Y114.735 E0.01411
G1 X112.511 Y114.501 E0.01400
G1 X112.166 Y114.218 E0.01400
G1 X111.863 Y113.890 E0.01400
G1 X111.605 Y113.522 E0.01411
G1 X111.499 Y113.333 E0.00678
G1 X111.320 Y112.916 E0.01422
G1 X111.255 Y112.710 E0.00678
G1 X111.164 Y112.270 E0.01411
G1 X111.133 Y111.817 E0.01422
G1 X111.133 Y110.828 E0.03102
G1 X111.140 Y110.605 E0.00700
G1 X111.202 Y110.155 E0.01422
G1 X111.253 Y109.945 E0.00678
G1 X111.403 Y109.521 E0.01411
G1 X111.608 Y109.121 E0.01411
G1 X111.726 Y108.940 E0.00678
G1 X112.001 Y108.598 E0.01374
G1 X112.337 Y108.281 E0.01448
G1 X112.508 Y108.149 E0.00677
G1 X112.881 Y107.919 E0.01374
G1 X113.299 Y107.732 E0.01436
G1 X113.727 Y107.609 E0.01396
G1 X114.410 Y107.516 E0.02161
G1 X114.844 Y107.419 E0.01393
G1 X115.268 Y107.259 E0.01422
G1 X115.667 Y107.038 E0.01431
G1 X115.862 Y106.902 E0.00744
G1 X116.197 Y106.610 E0.01394
G1 X116.497 Y106.263 E0.01439
G1 X116.746 Y105.873 E0.01450
G1 X116.930 Y105.467 E0.01398
G1 X117.005 Y105.242 E0.00743
G1 X117.101 Y104.797 E0.01428
G1 X117.133 Y104.351 E0.01402
G1 X117.133 Y90.946 E0.42030
G1 X117.479 Y91.087 F7200.000
G1 F5760
G1 X119.327 Y90.929 E-0.76000
G1 E-0.04000 F2100.00000
G1 Z0.800 F7200.000
G1 X126.133 Y91.513 F7200.000
G1 Z0.200 F7200.000
G1 E0.80000 F2100.00000
G1 F900
G1 X129.769 Y95.150 E0.16215
G1 X129.334 Y94.945 E0.01518
G1 X128.815 Y94.731 E0.01771
G1 X125.724 Y91.641 E0.13780
G1 X125.150 Y91.603 E0.01813
G1 X127.995 Y94.448 E0.12685
G1 X127.293 Y94.282 E0.02274
G1 X124.591 Y91.580 E0.12050
G1 X124.039 Y91.564 E0.01741
G1 X126.619 Y94.144 E0.11503
G1 X125.970 Y94.031 E0.02078
G1 X123.492 Y91.554 E0.11046
G1 X122.955 Y91.553 E0.01693
G1 X125.363 Y93.961 E0.10735
G1 X124.788 Y93.923 E0.01815
G1 X122.418 Y91.553 E0.10568
G1 X121.881 Y91.552 E0.01693
G1 X124.225 Y93.895 E0.10448
G1 X123.675 Y93.881 E0.01735
G1 X121.345 Y91.551 E0.10389
G1 X120.808 Y91.551 E0.01693
G1 X123.126 Y93.869 E0.10340
G1 X122.590 Y93.869 E0.01691
G1 X120.271 Y91.550 E0.10343
G1 X119.734 Y91.549 E0.01693
G1 X122.054 Y93.869 E0.10346
G1 X121.518 Y93.869 E0.01691
G1 X119.197 Y91.548 E0.10349
G1 X118.660 Y91.548 E0.01693
G1 X120.981 Y93.869 E0.10352
G1 X120.445 Y93.869 E0.01691
G1 X118.123 Y91.547 E0.10355
G1 X117.793 Y91.547 E0.01041
G1 X117.793 Y91.753 E0.00651
G1 X120.376 Y94.337 E0.11520
G1 X120.376 Y94.873 E0.01691
G1 X117.793 Y92.289 E0.11520
G1 X117.793 Y92.826 E0.01691
G1 X120.376 Y95.409 E0.11520
G1 X120.376 Y95.946 E0.01691
G1 X117.793 Y93.362 E0.11520
G1 X117.793 Y93.898 E0.01691
G1 X120.376 Y96.482 E0.11520
G1 X120.376 Y97.018 E0.01691
G1 X117.793 Y94.435 E0.11520
G1 X117.793 Y94.971 E0.01691
G1 X120.376 Y97.554 E0.11520
G1 X120.376 Y98.091 E0.01691
G1 X117.793 Y95.507 E0.11520
