;FLAVOR:Marlin
;TIME:320
;Filament used:0.285937m
;Layer height: 0.3
;MINX:68.623
;MINY:68.376
;MINZ:0.2
;MAXX:96.377
;MAXY:96.624
;MAXZ:2.9
                                 
;Creative3D GCode Generated by CXEngineDEV
;Generated Time:2022-04-08 18:14:05
;----------Machine Config--------------
;Machine Name:Creality Ender-2 Pro
;Machine Height:180
;Machine Width:165
;Machine Depth:165
;Material name:PLA
;Number of Extruders:1
;ExtruderParams[0] Nozzle Diameter1000
;----------Profile Config---------------
;Layer Height:0.3
;Wall Thickness:0.8
;Top/Bottom Thickness:1
;Out Wall Line Width:0.4
;Inner Wall Line Width:0.4
;Inital Layer Height:200
;Wall Line Count:1
;Infill Line Distance:4
;Infill Pattern:grid
;Infill Sparse Density:20
;Infill Wipe Distance:0
;Print Temperature:200
;Bed Temperature:60
;Support Enable:false
;Support Density:30
;Support Angle:1.0472
;Adhesion Type:none
;machine is belt:false
;machine belt offset:10
;machine belt offset Y:0
;----------Shell Config----------------
;Outer Wall Wipe Distance:200
;Infill Before Walls:false
;Infill Overlap:0.16
;Fill Gaps Between Walls:everywhere
;Minimum Infill Area:1
;Top Surface Skin Layer:0
;Top Layers:2
;Z Seam Alignment:sharpest_corner
;Seam Corner Preference:z_seam_corner_inner
;Z Seam X:82.5
;Z Seam Y:82.5
;Horizontal Expansion:0
;Top/Bottom Pattern:zigzag
;Ironing Pattern:zigzag
;Vase Model:false
;----------Support Config----------------
;Support Type:everywhere
;Support Pattern:zigzag
;Support Infill Layer Thickness:0.3
;Minimum Support Area:10
;Enable Support Roof:false
;Support Roof Thickness:0.8
;Support Roof Pattern:lines
; ---------PrintSpeed & Travel----------
;Enable Print Cool:true
;Avoid Printed Parts Traveling:true
;Enable Retraction:true
;Retraction Distance:8
;Retraction Speed:100
;Retraction Prime Speed:100
;Maximum Retraction Count:100
;Minimum Extrusion Distance Window:1
;Z Hop When Retracted:false
;Z Hop Height:0.2
;Retract Before Outer Wall:true
;Print Speed:50
;Infill Speed:50

;Prime Tower Speed:50
;Travel Speed:120
;Initial Layer Speed:25
;Skirt/Brim Speed:25
;Combing Mode:off
;---------------------End of Head--------------------------
M140 S60
M104 S200
M105
M109 S200
M82 ;absolute extrusion mode
M220 S100 ;Reset Feedrate
M221 S100 ;Reset Flowrate

G28 ;Home

G92 E0 ;Reset Extruder
G1 Z2.0 F3000 ;Move Z Axis up
G1 X10.1 Y20 Z0.28 F5000.0 ;Move to start position
G1 X10.1 Y145.0 Z0.28 F1500.0 E15 ;Draw the first line
G1 X10.4 Y145.0 Z0.28 F5000.0 ;Move to side a little
G1 X10.4 Y20 Z0.28 F1500.0 E30 ;Draw the second line
G92 E0  ;Reset Extruder
G1 E-1.0000 F1800 ;Retract a bit
G1 Z2.0 F3000 ;Move Z Axis up
G1 E0.0000 F1800 

G92 E0
G92 E0
G1 F6000 E-8

;LAYER_COUNT:10

;LAYER:0
M107
;MESH:
G0 F3600 X78.546 Y72.039 Z0.2
;TYPE:WALL-OUTER
G1 F6000 E0
G1 F1500 X78.546 Y92.961 E0.76546
G1 X80.698 Y92.961 E0.84419
G1 X81.844 Y92.915 E0.88615
G1 X82.415 Y92.88 E0.90708
G1 X83.253 Y92.807 E0.93786
G1 X83.825 Y92.731 E0.95897
G1 X84.38 Y92.633 E0.97959
G1 X84.927 Y92.507 E1.00012
G1 X85.455 Y92.352 E1.02026
G1 X85.991 Y92.152 E1.04119
G1 X86.496 Y91.929 E1.06138
G1 X87.007 Y91.667 E1.08239
G1 X87.5 Y91.388 E1.10312
G1 X88.224 Y90.939 E1.13429
G1 X89.196 Y90.296 E1.17693
G1 X89.919 Y89.445 E1.21778
G1 X90.425 Y88.808 E1.24754
G1 X90.743 Y88.373 E1.26726
G1 X91.041 Y87.926 E1.28691
G1 X91.31 Y87.468 E1.30635
G1 X91.435 Y87.229 E1.31621
G1 X91.654 Y86.745 E1.33565
G1 X91.835 Y86.245 E1.3551
G1 X91.982 Y85.732 E1.37463
G1 X92.099 Y85.21 E1.3942
G1 X92.192 Y84.679 E1.41392
G1 X92.265 Y84.142 E1.43375
G1 X92.323 Y83.601 E1.45366
G1 X92.417 Y82.5 E1.49408
G1 X92.321 Y81.402 E1.53441
G1 X92.226 Y80.596 E1.5641
G1 X92.142 Y80.064 E1.58381
G1 X92.036 Y79.539 E1.6034
G1 X91.902 Y79.024 E1.62287
G1 X91.741 Y78.531 E1.64185
G1 X91.639 Y78.271 E1.65206
G1 X91.421 Y77.801 E1.67102
G1 X91.159 Y77.329 E1.69077
G1 X90.872 Y76.879 E1.7103
G1 X90.56 Y76.443 E1.72991
G1 X90.23 Y76.016 E1.74966
G1 X89.533 Y75.189 E1.78923
G1 X89.164 Y74.766 E1.80976
G1 X88.347 Y74.113 E1.84803
G1 X87.928 Y73.808 E1.86699
G1 X87.49 Y73.528 E1.88601
G1 X87.034 Y73.28 E1.905
G1 X86.564 Y73.058 E1.92402
G1 X85.599 Y72.661 E1.96219
G1 X84.986 Y72.511 E1.98528
G1 X84.083 Y72.312 E2.01911
G1 X83.471 Y72.206 E2.04184
G1 X82.856 Y72.132 E2.0645
G1 X82.238 Y72.085 E2.08717
G1 X81.314 Y72.051 E2.121
G1 X80.696 Y72.039 E2.14362
G1 X78.546 Y72.039 E2.22228
G0 F3600 X78.546 Y72.239
G0 X78.106 Y72.239
;;retract;;
G1 F6000 E-5.77772
G0 F3600 X74.623 Y91.024
G1 F6000 E2.22228
G1 F1500 X74.623 Y86.925 E2.37224
G1 X74.522 Y86.624 E2.38386
G1 X71.405 Y86.624 E2.4979
G1 X71.004 Y86.696 E2.5128
G1 X70.631 Y86.918 E2.52869
G1 X70.361 Y87.257 E2.54454
G1 X70.234 Y87.659 E2.55997
G1 X70.223 Y87.817 E2.56576
G1 X70.223 Y89.842 E2.63985
G1 X70.294 Y90.243 E2.65475
G1 X70.516 Y90.615 E2.6706
G1 X70.856 Y90.885 E2.68648
G1 X71.259 Y91.014 E2.70196
G1 X71.476 Y91.024 E2.70991
G1 X74.623 Y91.024 E2.82505
G0 F3600 X74.623 Y90.824
G0 X75.063 Y90.824
;;retract;;
G1 F6000 E-5.17495
G0 F3600 X88.833 Y95.126
G1 F6000 E2.82505
G1 F1500 X88.191 Y95.398 E2.85055
G1 X87.198 Y95.781 E2.88949
G1 X85.954 Y96.087 E2.93636
G1 X85.122 Y96.266 E2.9675
G1 X84.699 Y96.346 E2.98325
G1 X84.285 Y96.412 E2.99859
G1 X83.436 Y96.511 E3.02986
G1 X82.59 Y96.571 E3.06089
G1 X81.726 Y96.603 E3.09252
G1 X80.431 Y96.624 E3.13991
G1 X74.623 Y96.624 E3.3524
G1 X74.623 Y95.798 E3.38262
G1 X74.592 Y95.355 E3.39887
G1 X74.497 Y94.911 E3.41548
G1 X74.339 Y94.486 E3.43207
G1 X74.122 Y94.084 E3.44878
G1 X73.85 Y93.718 E3.46546
G1 X73.531 Y93.397 E3.48202
G1 X73.166 Y93.121 E3.49876
G1 X72.769 Y92.902 E3.51535
G1 X72.348 Y92.742 E3.53183
G1 X71.906 Y92.643 E3.5484
G1 X71.451 Y92.59 E3.56516
G1 X71.011 Y92.496 E3.58162
G1 X70.801 Y92.428 E3.5897
G1 X70.395 Y92.249 E3.60593
G1 X70.193 Y92.134 E3.61444
G1 X69.838 Y91.882 E3.63036
G1 X69.659 Y91.725 E3.63907
G1 X69.358 Y91.4 E3.65528
G1 X69.221 Y91.218 E3.66362
G1 X68.995 Y90.845 E3.67957
G1 X68.895 Y90.636 E3.68805
G1 X68.748 Y90.216 E3.70433
G1 X68.691 Y89.992 E3.71278
G1 X68.633 Y89.561 E3.7287
G1 X68.623 Y89.324 E3.73737
G1 X68.623 Y88.337 E3.77348
G1 X68.653 Y87.881 E3.7902
G1 X68.69 Y87.662 E3.79833
G1 X68.81 Y87.225 E3.81491
G1 X68.891 Y87.02 E3.82297
G1 X69.091 Y86.629 E3.83904
G1 X69.22 Y86.431 E3.84769
G1 X69.493 Y86.091 E3.86364
G1 X69.66 Y85.922 E3.87233
G1 X69.997 Y85.645 E3.88829
G1 X70.186 Y85.518 E3.89662
G1 X70.582 Y85.309 E3.91301
G1 X70.791 Y85.224 E3.92126
G1 X71.21 Y85.104 E3.93721
G1 X71.45 Y85.059 E3.94614
G1 X71.905 Y85.008 E3.96289
G1 X72.333 Y84.912 E3.97894
G1 X72.756 Y84.753 E3.99547
G1 X73.159 Y84.532 E4.01229
G1 X73.52 Y84.26 E4.02883
G1 X73.844 Y83.936 E4.04559
G1 X74.115 Y83.573 E4.06216
G1 X74.333 Y83.172 E4.07886
G1 X74.491 Y82.749 E4.09538
G1 X74.589 Y82.301 E4.11216
G1 X74.622 Y81.855 E4.12852
G1 X74.623 Y68.376 E4.62167
G1 X80.358 Y68.376 E4.83149
G1 X81.633 Y68.392 E4.87814
G1 X82.478 Y68.421 E4.90907
G1 X83.326 Y68.476 E4.94016
G1 X84.145 Y68.565 E4.9703
G1 X84.979 Y68.703 E5.00123
G1 X85.805 Y68.874 E5.03209
G1 X87.036 Y69.166 E5.07838
G1 X88.014 Y69.553 E5.11686
G1 X88.648 Y69.828 E5.14214
G1 X89.259 Y70.133 E5.16713
G1 X89.577 Y70.31 E5.18044
G1 X89.862 Y70.485 E5.19268
G1 X90.438 Y70.878 E5.21819
G1 X90.999 Y71.3 E5.24387
G1 X91.82 Y71.959 E5.28239
G1 X92.826 Y73.084 E5.33761
G1 X93.315 Y73.658 E5.3652
G1 X93.786 Y74.246 E5.39276
G1 X94.219 Y74.835 E5.4195
G1 X94.424 Y75.136 E5.43283
G1 X94.622 Y75.446 E5.44629
G1 X94.803 Y75.749 E5.4592
G1 X94.975 Y76.064 E5.47233
G1 X95.14 Y76.389 E5.48566
G1 X95.283 Y76.706 E5.49839
G1 X95.416 Y77.035 E5.51137
G1 X95.536 Y77.373 E5.52449
G1 X95.648 Y77.721 E5.53787
G1 X95.744 Y78.063 E5.55086
G1 X95.832 Y78.412 E5.56403
G1 X95.983 Y79.14 E5.59123
G1 X96.102 Y79.866 E5.61815
G1 X96.197 Y80.613 E5.6457
G1 X96.312 Y81.752 E5.68758
G1 X96.377 Y82.5 E5.71505
G1 X96.249 Y83.987 E5.76966
G1 X96.169 Y84.73 E5.797
G1 X96.068 Y85.462 E5.82403
G1 X95.942 Y86.183 E5.85081
G1 X95.868 Y86.533 E5.8639
G1 X95.691 Y87.225 E5.89003
G1 X95.586 Y87.569 E5.90319
G1 X95.47 Y87.903 E5.91613
G1 X95.343 Y88.231 E5.929
G1 X95.201 Y88.561 E5.94214
G1 X95.05 Y88.872 E5.95479
G1 X94.884 Y89.186 E5.96778
G1 X94.709 Y89.493 E5.98071
G1 X94.331 Y90.089 E6.00653
G1 X93.897 Y90.701 E6.03398
G1 X93.45 Y91.279 E6.06071
G1 X92.977 Y91.855 E6.08798
G1 X92 Y92.989 E6.14275
G1 X91.185 Y93.655 E6.18125
G1 X90.625 Y94.082 E6.20702
G1 X90.347 Y94.278 E6.21946
G1 X90.058 Y94.469 E6.23214
G1 X89.764 Y94.649 E6.24475
G1 X89.455 Y94.821 E6.25769
G1 X88.833 Y95.126 E6.28303
G0 F3600 X88.649 Y95.204
G0 X88.479 Y94.798
;;retract;;
G1 F6000 E-1.71697
G0 F3600 X70.331 Y90.775
;TYPE:SKIN
G1 F6000 E6.28303
G1 F1500 X70.214 Y90.579 E6.29138
G1 X68.863 Y89.227 E6.36131
G1 X68.863 Y88.661 E6.38202
G1 X69.983 Y89.782 E6.43999
G1 X69.983 Y89.216 E6.4607
G1 X68.878 Y88.111 E6.51788
G1 X68.893 Y87.896 E6.52576
G1 X68.923 Y87.719 E6.53233
G0 F3600 X68.924 Y87.719
G1 F1500 X68.951 Y87.619 E6.53612
G1 X69.983 Y88.65 E6.58949
G1 X69.983 Y88.084 E6.6102
G1 X69.082 Y87.184 E6.65679
G1 X69.109 Y87.12 E6.65933
G1 X69.269 Y86.805 E6.67226
G1 X70.016 Y87.552 E6.71091
G1 X70.144 Y87.141 E6.72666
G1 X70.156 Y87.126 E6.72736
G1 X69.497 Y86.467 E6.76146
G1 X69.671 Y86.25 E6.77163
G1 X69.757 Y86.162 E6.77613
G1 X70.408 Y86.812 E6.80979
G1 X70.47 Y86.733 E6.81347
G1 X70.736 Y86.575 E6.82479
G1 X70.062 Y85.901 E6.85966
G1 X70.142 Y85.834 E6.86348
G1 X70.309 Y85.723 E6.87081
G1 X70.401 Y85.675 E6.87461
G1 X71.151 Y86.424 E6.91339
G1 X71.383 Y86.383 E6.92201
G1 X71.675 Y86.383 E6.93269
G1 X70.779 Y85.487 E6.97905
G1 X70.869 Y85.448 E6.98264
G1 X71.21 Y85.352 E6.9956
G1 X72.241 Y86.383 E7.04894
G1 X72.807 Y86.383 E7.06965
G1 X71.697 Y85.273 E7.12708
G1 X71.944 Y85.245 E7.13618
G1 X72.18 Y85.191 E7.14504
G1 X73.372 Y86.383 E7.20671
G1 X73.938 Y86.383 E7.22742
G1 X72.616 Y85.061 E7.29582
G1 X72.857 Y84.97 E7.30525
G1 X73.008 Y84.888 E7.31153
G1 X74.504 Y86.383 E7.38891
G0 F3600 X74.791 Y86.67
G1 F1500 X74.863 Y86.884 E7.39717
G1 X74.862 Y87.307 E7.41265
G1 X78.305 Y90.75 E7.59079
G1 X78.305 Y91.316 E7.6115
G1 X74.862 Y87.873 E7.78964
G1 X74.862 Y88.439 E7.81035
G1 X78.305 Y91.882 E7.98849
G1 X78.305 Y92.447 E8.00916
G1 X74.862 Y89.004 E8.18731
G1 X74.862 Y89.57 E8.20801
G1 X78.305 Y93.013 E8.38616
G1 X78.305 Y93.2 E8.393
;;retract;;
G1 F6000 E0.393
G0 F3600 X74.527 Y94.326
G1 F6000 E8.393
G1 F1500 X74.559 Y94.385 E8.39545
G1 X74.729 Y94.843 E8.41333
G1 X74.797 Y95.161 E8.42522
G1 X76.018 Y96.382 E8.4884
G1 X75.452 Y96.382 E8.50911
G1 X74.862 Y95.793 E8.53961
G1 X74.862 Y96.358 E8.56028
G0 F3600 X74.862 Y96.382
G1 F1500 X74.886 Y96.382 E8.56116
;;retract;;
G1 F6000 E0.56116
G0 F3600 X74.527 Y94.326
G1 F6000 E8.56116
G1 F1500 X74.325 Y93.953 E8.57668
G1 X74.031 Y93.56 E8.59463
G1 X73.689 Y93.215 E8.61241
G1 X73.297 Y92.918 E8.6304
G0 F3600 X72.901 Y92.7
G1 F1500 X71.464 Y91.263 E8.70475
G1 X71.215 Y91.252 E8.71387
G1 X70.741 Y91.098 E8.7321
G1 X70.707 Y91.072 E8.73367
G1 X72.068 Y92.432 E8.80406
G1 X71.946 Y92.406 E8.80863
G1 X71.489 Y92.35 E8.82547
G1 X71.402 Y92.332 E8.82872
G1 X68.912 Y89.842 E8.95756
G1 X68.925 Y89.941 E8.96121
G1 X68.976 Y90.143 E8.96883
G1 X69.119 Y90.552 E8.98468
G1 X69.179 Y90.675 E8.98969
G1 X70.562 Y92.058 E9.06125
G1 X70.502 Y92.032 E9.06364
G1 X70.32 Y91.928 E9.07131
G1 X69.983 Y91.689 E9.08643
G1 X69.828 Y91.554 E9.09395
G1 X69.541 Y91.245 E9.10937
G1 X69.419 Y91.082 E9.11682
G1 X69.2 Y90.718 E9.13237
;;retract;;
G1 F6000 E1.13237
G0 F3600 X74.527 Y94.326
G1 F6000 E9.13237
G1 F1500 X76.583 Y96.382 E9.23874
G1 X77.149 Y96.382 E9.25945
G1 X72.03 Y91.263 E9.52431
G1 X72.595 Y91.263 E9.54498
G1 X77.715 Y96.382 E9.80987
G1 X78.28 Y96.382 E9.83054
G1 X73.161 Y91.263 E10.0954
G1 X73.727 Y91.263 E10.11611
G1 X78.846 Y96.382 E10.38097
G1 X79.412 Y96.382 E10.40168
G1 X74.292 Y91.263 E10.66656
G1 X74.858 Y91.263 E10.68727
G1 X79.978 Y96.382 E10.95216
G1 X80.427 Y96.383 E10.96858
G1 X80.542 Y96.381 E10.97279
G1 X74.862 Y90.702 E11.26665
G1 X74.862 Y90.136 E11.28736
G1 X81.098 Y96.372 E11.61002
G1 X81.655 Y96.363 E11.6304
G1 X78.492 Y93.2 E11.79405
G1 X79.058 Y93.2 E11.81476
G1 X82.201 Y96.344 E11.97741
G1 X82.62 Y96.328 E11.99275
G1 X82.742 Y96.319 E11.99722
G1 X79.623 Y93.2 E12.1586
G1 X80.189 Y93.2 E12.17931
G1 X83.271 Y96.281 E12.33875
G1 X83.38 Y96.274 E12.34274
G1 X83.782 Y96.227 E12.35755
G1 X80.753 Y93.198 E12.51427
G1 X81.297 Y93.176 E12.53419
G1 X84.288 Y96.167 E12.68895
G1 X84.655 Y96.109 E12.70254
G1 X84.772 Y96.086 E12.70691
G1 X81.841 Y93.154 E12.85858
G1 X81.856 Y93.154 E12.85913
G1 X82.375 Y93.123 E12.87815
G1 X85.244 Y95.992 E13.0266
G1 X85.709 Y95.892 E13.044
G1 X82.896 Y93.079 E13.18955
G1 X83.278 Y93.045 E13.20358
G1 X83.411 Y93.028 E13.20848
G1 X86.168 Y95.785 E13.35113
G1 X86.622 Y95.673 E13.36824
G1 X83.909 Y92.96 E13.50861
G1 X84.388 Y92.874 E13.52642
G1 X87.077 Y95.562 E13.66552
G1 X87.124 Y95.551 E13.66729
G1 X87.49 Y95.409 E13.68165
G1 X84.851 Y92.77 E13.81819
G1 X84.987 Y92.739 E13.8233
G1 X85.295 Y92.649 E13.83504
G1 X87.899 Y95.252 E13.96974
G1 X88.103 Y95.174 E13.97774
G0 F3600 X88.103 Y95.173
G1 F1500 X88.3 Y95.088 E13.98558
G1 X85.72 Y92.508 E14.11908
G1 X86.081 Y92.372 E14.13319
G1 X86.129 Y92.352 E14.13509
G1 X88.698 Y94.92 E14.26799
G1 X88.729 Y94.907 E14.26922
G1 X89.079 Y94.736 E14.28347
G1 X86.522 Y92.179 E14.41577
G1 X86.598 Y92.145 E14.41882
G1 X86.899 Y91.991 E14.43119
G1 X89.454 Y94.545 E14.56336
G1 X89.648 Y94.438 E14.57146
G1 X89.811 Y94.337 E14.57848
G1 X87.268 Y91.793 E14.71008
G1 X87.621 Y91.592 E14.72494
G1 X87.628 Y91.588 E14.72524
G1 X90.155 Y94.115 E14.85599
G1 X90.214 Y94.077 E14.85855
G1 X90.48 Y93.888 E14.87049
G1 X90.488 Y93.882 E14.87086
G1 X87.978 Y91.373 E15.0007
G1 X88.328 Y91.156 E15.01577
G1 X90.809 Y93.637 E15.14414
G1 X91.033 Y93.467 E15.15442
G1 X91.127 Y93.39 E15.15887
G1 X88.669 Y90.932 E15.28605
G1 X89.009 Y90.706 E15.30099
G1 X91.438 Y93.135 E15.42666
G1 X91.749 Y92.881 E15.44135
G1 X89.35 Y90.481 E15.56551
G1 X89.357 Y90.475 E15.56584
G1 X89.61 Y90.176 E15.58017
G1 X92.024 Y92.59 E15.70508
G1 X92.287 Y92.287 E15.71975
G1 X89.871 Y89.871 E15.84476
G1 X90.104 Y89.596 E15.85795
G1 X90.129 Y89.564 E15.85943
G1 X92.548 Y91.983 E15.98459
G1 X92.793 Y91.699 E15.99832
G1 X92.81 Y91.679 E15.99928
G1 X90.38 Y89.248 E16.12503
G1 X90.615 Y88.953 E16.13883
G1 X90.629 Y88.932 E16.13975
G1 X93.065 Y91.368 E16.26579
G1 X93.275 Y91.112 E16.27791
G1 X93.319 Y91.056 E16.28051
G1 X90.868 Y88.606 E16.4073
G1 X90.939 Y88.511 E16.41164
G1 X91.098 Y88.27 E16.42221
G1 X93.565 Y90.737 E16.54985
G1 X93.701 Y90.56 E16.55802
G1 X93.806 Y90.412 E16.56466
G1 X91.318 Y87.924 E16.69339
G1 X91.519 Y87.583 E16.70787
G1 X91.527 Y87.567 E16.70852
G1 X94.041 Y90.081 E16.8386
G1 X94.134 Y89.949 E16.84451
G1 X94.267 Y89.741 E16.85354
G1 X91.715 Y87.189 E16.98558
G1 X91.875 Y86.834 E16.99983
G1 X91.888 Y86.797 E17.00126
G1 X94.486 Y89.395 E17.13568
G1 X94.505 Y89.364 E17.13701
G1 X94.674 Y89.067 E17.14952
G1 X94.692 Y89.035 E17.15086
G1 X92.039 Y86.382 E17.28813
G1 X92.062 Y86.319 E17.29058
G1 X92.169 Y85.946 E17.30478
G1 X94.884 Y88.661 E17.44525
G1 X94.979 Y88.465 E17.45322
G1 X95.062 Y88.273 E17.46088
G1 X92.28 Y85.492 E17.60479
G1 X92.333 Y85.256 E17.61364
G1 X92.375 Y85.021 E17.62238
G1 X95.224 Y87.87 E17.76979
G1 X95.245 Y87.817 E17.77187
G0 F3600 X95.244 Y87.818
G1 F1500 X95.358 Y87.489 E17.78461
G1 X95.371 Y87.451 E17.78608
G1 X92.454 Y84.534 E17.93701
G1 X92.503 Y84.171 E17.95041
G1 X92.517 Y84.032 E17.95552
G1 X95.496 Y87.011 E18.10965
G1 X95.612 Y86.561 E18.12666
G1 X92.57 Y83.519 E18.28405
G1 X92.614 Y82.998 E18.30318
G1 X95.713 Y86.097 E18.46353
G1 X95.798 Y85.615 E18.48143
G1 X92.654 Y82.471 E18.6441
G1 X92.599 Y81.851 E18.66688
G1 X95.871 Y85.123 E18.83617
G1 X95.929 Y84.697 E18.8519
G1 X95.938 Y84.624 E18.85459
G1 X92.541 Y81.227 E19.03036
G1 X92.465 Y80.586 E19.05397
G1 X95.993 Y84.113 E19.23649
G1 X96.009 Y83.963 E19.24201
G1 X96.041 Y83.596 E19.25548
G1 X92.355 Y79.91 E19.4462
G1 X92.269 Y79.485 E19.46206
G1 X92.189 Y79.178 E19.47367
G1 X96.086 Y83.075 E19.6753
G1 X96.131 Y82.555 E19.6944
G1 X91.928 Y78.351 E19.91189
