; generated by Slic3r Prusa Edition 1.39.1-prusa3d on 2018-05-09 at 07:50:45

; 

; external perimeters extrusion width = 0.45mm
; perimeters extrusion width = 0.45mm
; infill extrusion width = 0.45mm
; solid infill extrusion width = 0.45mm
; top infill extrusion width = 0.33mm
; first layer extrusion width = 0.42mm

M107
M115 U3.1.0 ; tell printer latest fw version
M201 X9000 Y9000 Z500 E10000 ; sets maximum accelerations, mm/sec^2
M203 X500 Y500 Z12 E120 ; sets maximum feedrates, mm/sec
M204 S1500 T1500 ; sets acceleration (S) and retract acceleration (T)
M205 X10 Y10 Z0.2 E2.5 ; sets the jerk limits, mm/sec
M205 S0 T0 ; sets the minimum extruding and travel feed rate, mm/sec
M83  ; extruder relative mode
M104 S200 ; set extruder temp
M140 S55 ; set bed temp
M190 S55 ; wait for bed temp
M109 S200 ; wait for extruder temp
G28 W ; home all without mesh bed level
G80 ; mesh bed leveling
G1 Y-3.0 F1000.0 ; go outside print area
G92 E0.0
G1 E18.0 F1000.0;
G1 X60.0 E9.0  F1000.0 ; intro line
G1 X100.0 E12.5  F1000.0 ; intro line
G92 E0.0
M900 K30; Filament gcode
G21 ; set units to millimeters
G90 ; use absolute coordinates
M83 ; use relative distances for extrusion
;BEFORE_LAYER_CHANGE
;0.2


G1 E-0.80000 F2100.00000
G1 Z0.600 F7200.000
;AFTER_LAYER_CHANGE
;0.2
G1 X89.636 Y84.140 F7200.000
G1 Z0.200 F7200.000
G1 E0.80000 F2100.00000
M204 S1000
G1 F900
G1 X90.001 Y83.703 E0.01784
G1 X90.450 Y83.348 E0.01796
G1 X90.964 Y83.094 E0.01796
G1 X91.519 Y82.951 E0.01796
G1 X97.864 Y82.922 E0.19897
G1 X100.135 Y82.971 E0.07120
G1 X102.031 Y83.137 E0.05967
G1 X103.517 Y83.398 E0.04733
G1 X105.595 Y83.907 E0.06706
G1 X107.760 Y84.825 E0.07374
G1 X109.308 Y85.731 E0.05624
G1 X111.295 Y87.262 E0.07865
G1 X112.559 Y88.650 E0.05886
G1 X113.878 Y90.277 E0.06569
G1 X114.880 Y91.805 E0.05728
G1 X115.672 Y93.473 E0.05788
G1 X116.201 Y95.207 E0.05684
G1 X116.580 Y97.342 E0.06800
G1 X116.831 Y99.955 E0.08231
G1 X116.648 Y102.182 E0.07004
G1 X116.346 Y104.224 E0.06472
G1 X115.909 Y105.941 E0.05557
G1 X115.397 Y107.269 E0.04463
G1 X114.736 Y108.524 E0.04445
G1 X113.773 Y109.956 E0.05411
G1 X111.500 Y112.665 E0.11088
G1 X109.861 Y113.972 E0.06574
G1 X108.323 Y114.939 E0.05695
G1 X107.163 Y115.487 E0.04022
G1 X105.547 Y116.111 E0.05431
G1 X103.215 Y116.661 E0.07513
G1 X101.721 Y116.899 E0.04743
G1 X100.227 Y117.022 E0.04700
G1 X97.971 Y117.078 E0.07076
G1 X91.409 Y117.030 E0.20575
G1 X90.671 Y116.777 E0.02447
G1 X90.033 Y116.328 E0.02447
G1 X84.863 Y111.104 E0.23045
G1 X84.128 Y110.150 E0.03774
G1 X83.538 Y108.941 E0.04219
G1 X83.234 Y107.722 E0.03937
G1 X83.169 Y105.776 E0.06106
G1 X83.289 Y104.603 E0.03697
G1 X89.293 Y84.859 E0.64705
G1 X89.611 Y84.194 E0.02310
G1 X89.943 Y84.360 F7200.000
G1 F900
G1 X90.264 Y83.974 E0.01574
G1 X90.661 Y83.661 E0.01585
G1 X91.116 Y83.440 E0.01585
G1 X91.607 Y83.320 E0.01585
G1 X97.864 Y83.299 E0.19619
G1 X100.113 Y83.347 E0.07054
G1 X101.980 Y83.511 E0.05875
G1 X103.433 Y83.765 E0.04624
G1 X105.456 Y84.258 E0.06529
G1 X107.592 Y85.163 E0.07273
G1 X109.095 Y86.042 E0.05460
G1 X111.045 Y87.543 E0.07716
G1 X112.273 Y88.895 E0.05727
G1 X113.581 Y90.510 E0.06515
G1 X114.556 Y91.997 E0.05575
G1 X115.321 Y93.611 E0.05601
G1 X115.839 Y95.313 E0.05578
G1 X116.208 Y97.405 E0.06660
G1 X116.454 Y99.963 E0.08057
G1 X116.271 Y102.154 E0.06896
G1 X115.972 Y104.171 E0.06394
G1 X115.544 Y105.845 E0.05417
G1 X115.038 Y107.148 E0.04382
G1 X114.205 Y108.666 E0.05428
G1 X113.221 Y110.061 E0.05354
G1 X111.205 Y112.423 E0.09738
G1 X109.312 Y113.899 E0.07525
G1 X107.819 Y114.773 E0.05425
G1 X105.412 Y115.757 E0.08151
G1 X103.135 Y116.292 E0.07334
G1 X101.659 Y116.527 E0.04687
G1 X97.966 Y116.701 E0.11591
G1 X91.476 Y116.659 E0.20350
G1 X90.834 Y116.437 E0.02130
G1 X90.281 Y116.043 E0.02130
G1 X85.138 Y110.847 E0.22921
G1 X84.441 Y109.941 E0.03584
G1 X83.890 Y108.807 E0.03951
G1 X83.606 Y107.659 E0.03710
G1 X83.546 Y105.779 E0.05895
G1 X83.660 Y104.670 E0.03498
G1 X89.652 Y84.974 E0.64549
G1 X89.917 Y84.414 E0.01942
G1 F5760
G1 X90.264 Y83.974 E-0.19403
G1 F5760
G1 X90.661 Y83.661 E-0.17513
G1 F5760
G1 X91.116 Y83.440 E-0.17513
G1 F5760
G1 X91.607 Y83.320 E-0.17513
G1 F5760
G1 X91.724 Y83.319 E-0.04058
G1 E-0.04000 F2100.00000
G1 Z0.800 F7200.000
G1 X95.659 Y89.152 F7200.000
G1 Z0.200 F7200.000
G1 E0.80000 F2100.00000
G1 F900
G1 X98.202 Y89.152 E0.07972
G1 X99.448 Y89.183 E0.03910
G1 X100.391 Y89.246 E0.02964
G1 X101.031 Y89.323 E0.02020
G1 X101.964 Y89.495 E0.02976
G1 X103.217 Y89.791 E0.04037
G1 X104.220 Y90.204 E0.03399
G1 X104.713 Y90.436 E0.01710
G1 X105.419 Y90.836 E0.02543
G1 X106.080 Y91.302 E0.02536
G1 X106.933 Y91.985 E0.03428
G1 X107.328 Y92.438 E0.01884
G1 X108.205 Y93.493 E0.04301
G1 X108.842 Y94.388 E0.03445
G1 X109.131 Y94.870 E0.01764
G1 X109.388 Y95.373 E0.01769
G1 X109.692 Y96.147 E0.02607
G1 X109.913 Y96.951 E0.02613
G1 X110.069 Y97.768 E0.02610
G1 X110.206 Y98.859 E0.03448
G1 X110.306 Y100.001 E0.03594
G1 X110.150 Y101.691 E0.05319
G1 X109.981 Y102.780 E0.03457
G1 X109.858 Y103.328 E0.01761
G1 X109.703 Y103.870 E0.01767
G1 X109.403 Y104.649 E0.02618
G1 X109.015 Y105.393 E0.02629
G1 X108.562 Y106.094 E0.02617
G1 X108.063 Y106.763 E0.02617
G1 X106.957 Y108.088 E0.05414
G1 X105.446 Y109.072 E0.05651
G1 X104.690 Y109.509 E0.02739
G1 X103.906 Y109.897 E0.02742
G1 X103.092 Y110.214 E0.02739
G1 X102.526 Y110.381 E0.01852
G1 X101.957 Y110.512 E0.01829
G1 X101.382 Y110.614 E0.01833
G1 X100.519 Y110.720 E0.02725
G1 X99.367 Y110.801 E0.03622
G1 X98.206 Y110.848 E0.03641
G1 X95.659 Y110.848 E0.07986
G1 X95.659 Y89.212 E0.67837
G1 X96.036 Y89.529 F7200.000
G1 F900
G1 X98.197 Y89.529 E0.06775
G1 X99.431 Y89.560 E0.03870
G1 X100.356 Y89.622 E0.02907
G1 X100.974 Y89.696 E0.01951
G1 X101.887 Y89.864 E0.02910
G1 X103.102 Y90.151 E0.03914
G1 X104.068 Y90.549 E0.03276
G1 X104.540 Y90.771 E0.01636
G1 X105.216 Y91.155 E0.02439
G1 X105.853 Y91.604 E0.02442
G1 X106.671 Y92.259 E0.03287
G1 X107.041 Y92.682 E0.01764
G1 X107.906 Y93.723 E0.04242
G1 X108.526 Y94.594 E0.03354
G1 X108.801 Y95.053 E0.01677
G1 X109.043 Y95.528 E0.01672
G1 X109.333 Y96.267 E0.02488
G1 X109.546 Y97.036 E0.02503
G1 X109.696 Y97.827 E0.02524
G1 X109.831 Y98.899 E0.03389
G1 X109.928 Y100.001 E0.03466
G1 X109.775 Y101.644 E0.05176
G1 X109.610 Y102.710 E0.03381
G1 X109.492 Y103.235 E0.01687
G1 X109.345 Y103.750 E0.01680
G1 X109.058 Y104.494 E0.02498
G1 X108.689 Y105.203 E0.02507
G1 X108.252 Y105.878 E0.02522
G1 X107.767 Y106.529 E0.02545
G1 X106.703 Y107.803 E0.05204
G1 X105.249 Y108.750 E0.05442
G1 X104.512 Y109.176 E0.02669
G1 X103.754 Y109.551 E0.02652
G1 X102.970 Y109.857 E0.02637
G1 X102.430 Y110.016 E0.01767
G1 X101.882 Y110.143 E0.01763
G1 X101.326 Y110.241 E0.01771
G1 X100.483 Y110.344 E0.02663
G1 X99.346 Y110.424 E0.03574
G1 X98.199 Y110.471 E0.03600
G1 X96.036 Y110.471 E0.06780
G1 X96.036 Y89.589 E0.65472
G1 X96.022 Y89.129 F7200.000
G1 F5760
G1 X98.197 Y89.529 E-0.74872
G1 F5760
G1 X98.230 Y89.530 E-0.01128
G1 E-0.04000 F2100.00000
G1 Z0.800 F7200.000
G1 X92.510 Y103.737 F7200.000
G1 Z0.200 F7200.000
G1 E0.80000 F2100.00000
G1 F900
G1 X92.510 Y108.913 E0.16228
G1 X88.747 Y108.904 E0.11800
G1 X88.517 Y108.861 E0.00731
G1 X88.183 Y108.733 E0.01122
G1 X87.868 Y108.515 E0.01201
G1 X87.612 Y108.227 E0.01207
G1 X87.433 Y107.881 E0.01223
G1 X87.347 Y107.533 E0.01124
G1 X87.336 Y107.342 E0.00600
G1 X87.336 Y105.289 E0.06438
G1 X87.378 Y104.943 E0.01091
G1 X87.507 Y104.601 E0.01147
G1 X87.617 Y104.421 E0.00663
G1 X87.751 Y104.251 E0.00677
G1 X88.019 Y104.014 E0.01122
G1 X88.359 Y103.836 E0.01201
G1 X88.714 Y103.749 E0.01147
G1 X92.450 Y103.737 E0.11715
G1 X92.133 Y104.114 F7200.000
G1 F900
G1 X92.133 Y108.535 E0.13860
G1 X88.782 Y108.527 E0.10505
G1 X88.620 Y108.496 E0.00517
G1 X88.360 Y108.397 E0.00875
G1 X88.119 Y108.231 E0.00915
G1 X87.925 Y108.012 E0.00917
G1 X87.788 Y107.747 E0.00935
G1 X87.722 Y107.476 E0.00875
G1 X87.713 Y107.331 E0.00458
G1 X87.713 Y105.312 E0.06331
G1 X87.747 Y105.034 E0.00876
G1 X87.848 Y104.767 E0.00896
G1 X88.026 Y104.512 E0.00976
G1 X88.235 Y104.327 E0.00875
G1 X88.493 Y104.191 E0.00915
G1 X88.771 Y104.123 E0.00896
G1 X92.073 Y104.114 E0.10354
G1 X92.533 Y104.111 F7200.000
G1 F5760
G1 X92.103 Y106.308 E-0.76000
G1 E-0.04000 F2100.00000
G1 Z0.800 F7200.000
G1 X92.510 Y86.264 F7200.000
G1 Z0.200 F7200.000
G1 E0.80000 F2100.00000
G1 F900
G1 X98.677 Y86.271 E0.19336
G1 X99.964 Y86.308 E0.04037
G1 X100.788 Y86.361 E0.02588
G1 X101.602 Y86.451 E0.02569
G1 X102.412 Y86.584 E0.02572
G1 X103.224 Y86.753 E0.02602
G1 X104.419 Y87.035 E0.03850
G1 X105.362 Y87.409 E0.03181
G1 X105.984 Y87.680 E0.02127
G1 X106.881 Y88.145 E0.03169
G1 X107.437 Y88.499 E0.02065
G1 X108.266 Y89.110 E0.03229
G1 X109.052 Y89.740 E0.03157
G1 X110.035 Y90.839 E0.04622
G1 X110.752 Y91.694 E0.03500
G1 X111.194 Y92.267 E0.02270
G1 X111.602 Y92.851 E0.02232
G1 X111.969 Y93.444 E0.02188
G1 X112.287 Y94.051 E0.02150
G1 X112.555 Y94.678 E0.02137
G1 X112.776 Y95.330 E0.02158
G1 X112.957 Y96.007 E0.02197
G1 X113.102 Y96.706 E0.02240
G1 X113.219 Y97.425 E0.02284
G1 X113.313 Y98.158 E0.02316
G1 X113.487 Y100.000 E0.05802
G1 X113.284 Y102.187 E0.06886
G1 X113.127 Y103.262 E0.03405
G1 X112.989 Y103.952 E0.02208
G1 X112.817 Y104.624 E0.02175
G1 X112.487 Y105.582 E0.03178
G1 X112.203 Y106.201 E0.02135
G1 X111.873 Y106.800 E0.02144
G1 X111.499 Y107.388 E0.02184
G1 X111.088 Y107.967 E0.02227
G1 X110.649 Y108.537 E0.02255
G1 X109.230 Y110.211 E0.06882
G1 X108.451 Y110.847 E0.03151
G1 X107.624 Y111.461 E0.03231
G1 X107.065 Y111.817 E0.02077
G1 X106.481 Y112.128 E0.02074
G1 X105.539 Y112.543 E0.03227
G1 X104.586 Y112.909 E0.03201
G1 X103.370 Y113.209 E0.03926
G1 X102.551 Y113.386 E0.02628
G1 X101.315 Y113.582 E0.03925
G1 X100.064 Y113.684 E0.03936
G1 X98.791 Y113.726 E0.03993
G1 X92.506 Y113.736 E0.19705
G1 X92.502 Y113.047 E0.02161
G1 X92.432 Y112.560 E0.01541
G1 X92.363 Y112.287 E0.00883
G1 X92.195 Y111.835 E0.01515
G1 X92.068 Y111.578 E0.00898
G1 X91.800 Y111.160 E0.01558
G1 X91.475 Y110.783 E0.01558
G1 X91.268 Y110.590 E0.00888
G1 X90.884 Y110.301 E0.01508
G1 X90.640 Y110.155 E0.00890
G1 X90.195 Y109.949 E0.01538
G1 X89.696 Y109.800 E0.01632
G1 X89.019 Y109.709 E0.02143
G1 X88.606 Y109.620 E0.01323
G1 X88.437 Y109.565 E0.00557
G1 X88.067 Y109.401 E0.01270
G1 X87.731 Y109.194 E0.01239
G1 X87.425 Y108.943 E0.01239
G1 X87.157 Y108.653 E0.01239
G1 X86.925 Y108.321 E0.01270
G1 X86.838 Y108.166 E0.00557
G1 X86.677 Y107.794 E0.01270
G1 X86.569 Y107.404 E0.01270
G1 X86.539 Y107.228 E0.00557
G1 X86.510 Y106.804 E0.01333
G1 X86.510 Y105.834 E0.03042
G1 X86.517 Y105.637 E0.00620
G1 X86.571 Y105.235 E0.01270
G1 X86.680 Y104.845 E0.01270
G1 X86.745 Y104.679 E0.00557
G1 X86.930 Y104.319 E0.01270
G1 X87.157 Y103.996 E0.01240
G1 X87.425 Y103.706 E0.01236
G1 X87.566 Y103.580 E0.00594
G1 X87.903 Y103.340 E0.01299
G1 X88.058 Y103.252 E0.00557
G1 X88.428 Y103.088 E0.01270
G1 X88.805 Y102.979 E0.01230
G1 X89.477 Y102.888 E0.02125
G1 X89.952 Y102.781 E0.01527
G1 X90.426 Y102.602 E0.01590
G1 X90.867 Y102.359 E0.01579
G1 X91.094 Y102.199 E0.00871
G1 X91.465 Y101.877 E0.01540
G1 X91.800 Y101.488 E0.01608
G1 X92.078 Y101.053 E0.01619
G1 X92.282 Y100.605 E0.01545
G1 X92.369 Y100.341 E0.00870
G1 X92.475 Y99.850 E0.01576
G1 X92.510 Y99.364 E0.01528
G1 X92.510 Y86.324 E0.40888
G1 X92.133 Y85.886 F7200.000
G1 F900
G1 X98.682 Y85.894 E0.20536
G1 X99.982 Y85.931 E0.04075
G1 X100.821 Y85.986 E0.02637
G1 X101.653 Y86.077 E0.02626
G1 X102.481 Y86.213 E0.02628
G1 X103.306 Y86.384 E0.02643
G1 X104.533 Y86.674 E0.03952
G1 X105.507 Y87.061 E0.03287
G1 X106.147 Y87.339 E0.02187
G1 X107.070 Y87.818 E0.03261
G1 X107.650 Y88.188 E0.02157
G1 X108.496 Y88.811 E0.03294
G1 X109.312 Y89.465 E0.03280
G1 X110.320 Y90.592 E0.04738
G1 X111.046 Y91.457 E0.03543
G1 X111.498 Y92.044 E0.02322
G1 X111.917 Y92.643 E0.02293
G1 X112.296 Y93.257 E0.02263
G1 X112.628 Y93.889 E0.02238
G1 X112.908 Y94.543 E0.02230
G1 X113.137 Y95.221 E0.02243
G1 X113.324 Y95.920 E0.02268
G1 X113.473 Y96.638 E0.02299
G1 X113.592 Y97.371 E0.02330
G1 X113.688 Y98.116 E0.02356
G1 X113.866 Y100.000 E0.05933
G1 X113.658 Y102.232 E0.07028
G1 X113.499 Y103.326 E0.03466
G1 X113.357 Y104.036 E0.02271
G1 X113.180 Y104.729 E0.02244
G1 X112.960 Y105.405 E0.02226
G1 X112.834 Y105.729 E0.01091
G1 X112.540 Y106.371 E0.02214
G1 X112.197 Y106.993 E0.02224
G1 X111.812 Y107.598 E0.02251
G1 X111.391 Y108.192 E0.02281
G1 X110.942 Y108.774 E0.02305
G1 X109.495 Y110.481 E0.07018
G1 X108.683 Y111.144 E0.03286
G1 X107.838 Y111.772 E0.03302
G1 X107.255 Y112.143 E0.02165
G1 X106.646 Y112.467 E0.02164
G1 X105.683 Y112.891 E0.03299
G1 X104.700 Y113.270 E0.03303
G1 X103.455 Y113.576 E0.04018
G1 X102.621 Y113.757 E0.02678
G1 X101.360 Y113.957 E0.04003
G1 X100.085 Y114.061 E0.04010
G1 X98.797 Y114.103 E0.04040
G1 X92.132 Y114.114 E0.20900
G1 X92.125 Y113.075 E0.03257
G1 X92.062 Y112.634 E0.01398
G1 X92.003 Y112.400 E0.00757
G1 X91.849 Y111.985 E0.01388
G1 X91.739 Y111.764 E0.00771
G1 X91.497 Y111.386 E0.01410
G1 X91.203 Y111.045 E0.01411
G1 X91.025 Y110.879 E0.00762
G1 X90.673 Y110.614 E0.01382
G1 X90.464 Y110.489 E0.00764
G1 X90.061 Y110.303 E0.01391
G1 X89.617 Y110.170 E0.01455
G1 X88.954 Y110.081 E0.02097
G1 X88.508 Y109.984 E0.01430
G1 X88.302 Y109.917 E0.00678
G1 X87.891 Y109.735 E0.01411
G1 X87.511 Y109.501 E0.01400
G1 X87.166 Y109.218 E0.01400
G1 X86.863 Y108.890 E0.01400
G1 X86.605 Y108.522 E0.01411
G1 X86.499 Y108.333 E0.00678
G1 X86.321 Y107.920 E0.01411
G1 X86.200 Y107.486 E0.01411
G1 X86.164 Y107.273 E0.00678
G1 X86.133 Y106.817 E0.01433
G1 X86.133 Y105.828 E0.03102
G1 X86.140 Y105.605 E0.00700
G1 X86.201 Y105.159 E0.01411
G1 X86.322 Y104.725 E0.01411
G1 X86.401 Y104.524 E0.00678
G1 X86.607 Y104.124 E0.01411
G1 X86.863 Y103.758 E0.01400
G1 X87.161 Y103.436 E0.01375
G1 X87.331 Y103.285 E0.00715
G1 X87.700 Y103.022 E0.01421
G1 X87.888 Y102.915 E0.00678
G1 X88.299 Y102.733 E0.01411
G1 X88.727 Y102.609 E0.01396
G1 X89.410 Y102.516 E0.02161
G1 X89.844 Y102.419 E0.01393
G1 X90.268 Y102.259 E0.01422
G1 X90.667 Y102.038 E0.01431
G1 X90.862 Y101.902 E0.00744
G1 X91.197 Y101.610 E0.01394
G1 X91.497 Y101.263 E0.01439
G1 X91.746 Y100.873 E0.01450
G1 X91.930 Y100.467 E0.01398
G1 X92.005 Y100.242 E0.00743
G1 X92.101 Y99.797 E0.01428
G1 X92.133 Y99.351 E0.01402
G1 X92.133 Y85.946 E0.42030
G1 X92.479 Y86.087 F7200.000
G1 F5760
G1 X94.327 Y85.929 E-0.76000
G1 E-0.04000 F2100.00000
G1 Z0.800 F7200.000
G1 X101.133 Y86.513 F7200.000
G1 Z0.200 F7200.000
G1 E0.80000 F2100.00000
G1 F900
G1 X104.769 Y90.150 E0.16215
G1 X104.334 Y89.945 E0.01518
G1 X103.815 Y89.731 E0.01771
G1 X100.724 Y86.641 E0.13780
G1 X100.150 Y86.603 E0.01813
G1 X102.995 Y89.448 E0.12685
G1 X102.293 Y89.282 E0.02274
G1 X99.591 Y86.580 E0.12050
G1 X99.039 Y86.564 E0.01741
G1 X101.619 Y89.144 E0.11503
G1 X100.970 Y89.031 E0.02078
G1 X98.492 Y86.554 E0.11046
G1 X97.955 Y86.553 E0.01693
G1 X100.363 Y88.961 E0.10735
G1 X99.788 Y88.923 E0.01815
G1 X97.418 Y86.553 E0.10568
G1 X96.881 Y86.552 E0.01693
G1 X99.225 Y88.895 E0.10448
G1 X98.675 Y88.881 E0.01735
G1 X96.345 Y86.551 E0.10389
G1 X95.808 Y86.551 E0.01693
G1 X98.126 Y88.869 E0.10340
G1 X97.590 Y88.869 E0.01691
G1 X95.271 Y86.550 E0.10343
G1 X94.734 Y86.549 E0.01693
G1 X97.054 Y88.869 E0.10346
G1 X96.518 Y88.869 E0.01691
G1 X94.197 Y86.548 E0.10349
G1 X93.660 Y86.548 E0.01693
G1 X95.981 Y88.869 E0.10352
G1 X95.445 Y88.869 E0.01691
G1 X93.123 Y86.547 E0.10355
G1 X92.793 Y86.547 E0.01041
G1 X92.793 Y86.753 E0.00651
G1 X95.376 Y89.337 E0.11520
G1 X95.376 Y89.873 E0.01691
G1 X92.793 Y87.289 E0.11520
G1 X92.793 Y87.826 E0.01691
G1 X95.376 Y90.409 E0.11520
G1 X95.376 Y90.946 E0.01691
G1 X92.793 Y88.362 E0.11520
G1 X92.793 Y88.898 E0.01691
G1 X95.376 Y91.482 E0.11520
G1 X95.376 Y92.018 E0.01691
G1 X92.793 Y89.435 E0.11520
G1 X92.793 Y89.971 E0.01691
G1 X95.376 Y92.554 E0.11520
G1 X95.376 Y93.091 E0.01691
G1 X92.793 Y90.507 E0.11520
G1 X92.793 Y91.043 E0.01691
G1 X95.376 Y93.627 E0.11520
G1 X95.376 Y94.163 E0.01691
G1 X92.793 Y91.580 E0.11520
G1 X92.793 Y92.116 E0.01691
G1 X95.376 Y94.699 E0.11520
G1 X95.376 Y95.236 E0.01691
G1 X92.793 Y92.652 E0.11520
G1 X92.793 Y93.188 E0.01691
