; generated by Slic3r Prusa Edition 1.39.1-prusa3d on 2018-05-09 at 12:53:33

; 

; external perimeters extrusion width = 0.45mm
; perimeters extrusion width = 0.45mm
; infill extrusion width = 0.45mm
; solid infill extrusion width = 0.45mm
; top infill extrusion width = 0.33mm
; first layer extrusion width = 0.42mm

M107
M115 U3.1.0 ; tell printer latest fw version
M201 X9000 Y9000 Z500 E10000 ; sets maximum accelerations, mm/sec^2
M203 X500 Y500 Z12 E120 ; sets maximum feedrates, mm/sec
M204 S1500 T1500 ; sets acceleration (S) and retract acceleration (T)
M205 X10 Y10 Z0.2 E2.5 ; sets the jerk limits, mm/sec
M205 S0 T0 ; sets the minimum extruding and travel feed rate, mm/sec
M83  ; extruder relative mode
M104 S200 ; set extruder temp
M140 S65 ; set bed temp
M190 S65 ; wait for bed temp
M109 S200 ; wait for extruder temp
G28 W ; home all without mesh bed level
G80 ; mesh bed leveling
G1 Y-3.0 F1000.0 ; go outside print area
G92 E0.0
G1 E18.0 F1000.0;
G1 X60.0 E9.0  F1000.0 ; intro line
G1 X100.0 E12.5  F1000.0 ; intro line
G92 E0.0
M900 K30; Filament gcode
G21 ; set units to millimeters
G90 ; use absolute coordinates
M83 ; use relative distances for extrusion
;BEFORE_LAYER_CHANGE
;0.2


G1 E-0.80000 F2100.00000
G1 Z0.600 F7200.000
;AFTER_LAYER_CHANGE
;0.2
G1 X90.624 Y78.194 F7200.000
G1 Z0.200 F7200.000
G1 E0.80000 F2100.00000
M204 S1000
G1 F900
G1 X91.013 Y77.825 E0.01681
G1 X91.467 Y77.539 E0.01681
G1 X91.967 Y77.346 E0.01681
G1 X92.495 Y77.254 E0.01681
G1 X103.208 Y77.246 E0.33588
G1 X103.929 Y77.343 E0.02282
G1 X104.603 Y77.628 E0.02294
G1 X105.178 Y78.080 E0.02294
G1 X105.614 Y78.668 E0.02294
G1 X117.841 Y103.372 E0.86427
G1 X118.083 Y104.131 E0.02498
G1 X118.120 Y111.316 E0.22527
G1 X117.931 Y112.272 E0.03056
G1 X114.060 Y120.856 E0.29524
G1 X113.641 Y121.337 E0.02001
G1 X112.557 Y122.228 E0.04399
G1 X111.926 Y122.489 E0.02141
G1 X110.785 Y122.717 E0.03649
G1 X105.553 Y122.736 E0.16405
G1 X104.828 Y122.550 E0.02345
G1 X103.436 Y121.874 E0.04853
G1 X82.754 Y103.313 E0.87132
G1 X82.208 Y102.605 E0.02803
G1 X81.917 Y101.755 E0.02816
G1 X81.879 Y92.011 E0.30553
G1 X82.050 Y91.088 E0.02942
G1 X82.340 Y90.519 E0.02001
G1 X90.590 Y78.243 E0.46376
G1 F5760
G1 X91.013 Y77.825 E-0.20606
G1 F5760
G1 X91.467 Y77.539 E-0.18573
G1 F5760
G1 X91.967 Y77.346 E-0.18573
G1 F5760
G1 X92.486 Y77.255 E-0.18248
G1 E-0.04000 F2100.00000
G1 Z0.800 F7200.000
G1 X91.645 Y77.871 F7200.000
G1 Z0.200 F7200.000
G1 E0.80000 F2100.00000
G1 F900
G1 X92.543 Y77.628 E0.02919
G1 X103.208 Y77.623 E0.33437
G1 X103.836 Y77.709 E0.01989
G1 X104.419 Y77.957 E0.01989
G1 X104.914 Y78.349 E0.01977
G1 X105.289 Y78.860 E0.01989
G1 X117.501 Y103.535 E0.86325
G1 X117.711 Y104.189 E0.02154
G1 X117.743 Y111.305 E0.22309
G1 X117.585 Y112.119 E0.02602
G1 X113.760 Y120.626 E0.29244
G1 X113.391 Y121.055 E0.01775
G1 X112.366 Y121.903 E0.04169
G1 X111.815 Y122.129 E0.01870
G1 X110.726 Y122.344 E0.03480
G1 X105.609 Y122.363 E0.16043
G1 X104.972 Y122.202 E0.02060
G1 X103.657 Y121.568 E0.04579
G1 X83.014 Y103.040 E0.86970
G1 X82.541 Y102.428 E0.02426
G1 X82.290 Y101.697 E0.02426
G1 X82.256 Y92.017 E0.30350
G1 X82.404 Y91.219 E0.02543
G1 X82.654 Y90.728 E0.01728
G1 X90.908 Y78.441 E0.46413
G1 X91.597 Y77.908 E0.02731
G1 F5760
G1 X92.543 Y77.628 E-0.34172
G1 F5760
G1 X93.751 Y77.628 E-0.41828
G1 E-0.04000 F2100.00000
G1 Z0.800 F7200.000
G1 X106.947 Y113.310 F7200.000
G1 Z0.200 F7200.000
G1 E0.80000 F2100.00000
G1 F900
G1 X108.180 Y113.063 E0.03943
G1 X109.412 Y113.310 E0.03938
G1 X110.421 Y113.991 E0.03816
G1 X111.101 Y115.001 E0.03819
G1 X111.349 Y116.233 E0.03938
G1 X111.101 Y117.464 E0.03939
G1 X110.421 Y118.473 E0.03816
G1 X109.412 Y119.153 E0.03814
G1 X108.180 Y119.403 E0.03941
G1 X106.947 Y119.153 E0.03945
G1 X105.938 Y118.473 E0.03815
G1 X105.258 Y117.464 E0.03816
G1 X105.010 Y116.233 E0.03939
G1 X105.258 Y115.001 E0.03938
G1 X105.938 Y113.991 E0.03819
G1 X106.898 Y113.344 E0.03629
G1 X107.096 Y113.665 F7200.000
G1 F900
G1 X108.180 Y113.447 E0.03469
G1 X109.263 Y113.665 E0.03464
G1 X110.149 Y114.263 E0.03350
G1 X110.746 Y115.150 E0.03353
G1 X110.964 Y116.233 E0.03464
G1 X110.746 Y117.316 E0.03464
G1 X110.149 Y118.202 E0.03349
G1 X109.264 Y118.799 E0.03349
G1 X108.180 Y119.018 E0.03466
G1 X107.096 Y118.799 E0.03470
G1 X106.210 Y118.202 E0.03349
G1 X105.613 Y117.316 E0.03349
G1 X105.395 Y116.233 E0.03464
G1 X105.613 Y115.150 E0.03464
G1 X106.210 Y114.263 E0.03353
G1 X107.046 Y113.699 E0.03162
G1 X107.147 Y113.268 F7200.000
G1 F5760
G1 X108.180 Y113.447 E-0.40244
G1 F5760
G1 X109.192 Y113.651 E-0.35756
G1 E-0.04000 F2100.00000
G1 Z0.800 F7200.000
G1 X105.769 Y111.222 F7200.000
G1 Z0.200 F7200.000
G1 E0.80000 F2100.00000
G1 F900
G1 X102.380 Y111.222 E0.10624
G1 X102.380 Y107.832 E0.10629
G1 X105.769 Y107.832 E0.10624
G1 X105.769 Y111.162 E0.10441
G1 X105.391 Y110.845 F7200.000
G1 F900
G1 X102.757 Y110.845 E0.08259
G1 X102.757 Y108.209 E0.08264
G1 X105.391 Y108.209 E0.08259
G1 X105.391 Y110.785 E0.08076
G1 X105.495 Y111.231 F7200.000
G1 F5760
G1 X103.198 Y110.835 E-0.76000
G1 E-0.04000 F2100.00000
G1 Z0.800 F7200.000
G1 X104.991 Y112.084 F7200.000
G1 Z0.200 F7200.000
G1 E0.80000 F2100.00000
G1 F900
G1 X102.359 Y112.084 E0.08253
G1 X102.340 Y110.709 E0.04313
G1 X100.961 Y110.688 E0.04323
G1 X100.942 Y100.276 E0.32647
G1 X99.312 Y100.335 E0.05113
G1 X99.312 Y98.866 E0.04606
G1 X97.147 Y98.895 E0.06791
G1 X97.147 Y97.368 E0.04789
G1 X94.808 Y97.338 E0.07333
G1 X94.748 Y95.937 E0.04398
G1 X93.325 Y95.937 E0.04461
G1 X93.266 Y94.498 E0.04513
G1 X88.602 Y94.616 E0.14626
G1 X88.631 Y95.995 E0.04326
G1 X87.469 Y95.995 E0.03644
G1 X87.440 Y97.540 E0.04844
G1 X85.530 Y97.451 E0.05994
G1 X85.530 Y100.713 E0.10227
G1 X85.221 Y100.713 E0.00971
G1 X85.221 Y92.631 E0.25342
G1 X86.585 Y92.631 E0.04280
G1 X86.585 Y91.029 E0.05022
G1 X88.128 Y91.029 E0.04837
G1 X88.128 Y89.664 E0.04280
G1 X89.966 Y89.664 E0.05763
G1 X89.966 Y88.241 E0.04464
G1 X91.450 Y88.241 E0.04653
G1 X91.450 Y86.520 E0.05395
G1 X93.290 Y86.520 E0.05768
G1 X93.290 Y80.587 E0.18602
G1 X94.963 Y80.587 E0.05247
G1 X94.963 Y80.790 E0.00637
G1 X93.586 Y80.820 E0.04320
G1 X93.642 Y83.405 E0.08107
G1 X94.963 Y83.405 E0.04144
G1 X94.963 Y85.167 E0.05524
G1 X96.416 Y85.138 E0.04557
G1 X96.416 Y86.727 E0.04984
G1 X99.459 Y86.727 E0.09541
G1 X99.459 Y85.096 E0.05114
G1 X100.883 Y85.096 E0.04464
G1 X100.883 Y80.587 E0.14138
G1 X102.617 Y80.587 E0.05436
G1 X102.617 Y80.837 E0.00783
G1 X101.368 Y80.837 E0.03916
G1 X101.403 Y88.108 E0.22798
G1 X102.617 Y88.137 E0.03807
G1 X102.617 Y89.896 E0.05517
G1 X104.505 Y89.916 E0.05920
G1 X104.505 Y91.909 E0.06252
G1 X105.930 Y91.909 E0.04469
G1 X105.930 Y97.405 E0.17232
G1 X108.518 Y97.370 E0.08114
G1 X108.518 Y95.696 E0.05250
G1 X108.767 Y95.696 E0.00783
G1 X108.767 Y97.809 E0.06627
G1 X105.872 Y97.829 E0.09078
G1 X105.928 Y101.887 E0.12727
G1 X112.110 Y101.887 E0.19384
G1 X112.110 Y102.156 E0.00842
G1 X107.312 Y102.156 E0.15045
G1 X107.377 Y105.170 E0.09451
G1 X114.780 Y105.170 E0.23212
G1 X114.780 Y110.679 E0.17275
G1 X113.550 Y110.679 E0.03855
G1 X113.510 Y112.084 E0.04406
G1 X111.463 Y112.084 E0.06418
G1 X111.463 Y118.153 E0.19028
G1 X111.404 Y118.684 E0.01677
G1 X111.293 Y118.956 E0.00920
G1 X110.924 Y119.288 E0.01558
G1 X110.277 Y119.413 E0.02066
G1 X105.990 Y119.413 E0.13440
G1 X105.432 Y119.169 E0.01909
G1 X105.155 Y118.794 E0.01464
G1 X104.991 Y118.174 E0.02010
G1 X104.991 Y112.144 E0.18906
G1 X104.614 Y112.461 F7200.000
G1 F900
G1 X101.987 Y112.461 E0.08237
G1 X101.968 Y111.080 E0.04331
G1 X100.585 Y111.060 E0.04337
G1 X100.566 Y100.667 E0.32586
G1 X98.935 Y100.726 E0.05116
G1 X98.935 Y99.248 E0.04633
G1 X96.770 Y99.277 E0.06791
G1 X96.770 Y97.740 E0.04820
G1 X94.447 Y97.711 E0.07284
G1 X94.386 Y96.314 E0.04384
G1 X92.963 Y96.314 E0.04463
G1 X92.904 Y94.885 E0.04484
G1 X88.987 Y94.983 E0.12285
G1 X89.016 Y96.372 E0.04356
G1 X87.839 Y96.372 E0.03692
G1 X87.810 Y97.935 E0.04900
G1 X85.907 Y97.846 E0.05971
G1 X85.907 Y101.090 E0.10171
G1 X84.843 Y101.090 E0.03336
G1 X84.843 Y92.254 E0.27706
G1 X86.208 Y92.254 E0.04280
G1 X86.208 Y90.652 E0.05022
G1 X87.751 Y90.652 E0.04837
G1 X87.751 Y89.287 E0.04280
G1 X89.589 Y89.287 E0.05763
G1 X89.589 Y87.864 E0.04464
G1 X91.073 Y87.864 E0.04653
G1 X91.073 Y86.143 E0.05395
G1 X92.913 Y86.143 E0.05768
G1 X92.913 Y80.210 E0.18602
G1 X95.340 Y80.210 E0.07611
G1 X95.340 Y81.159 E0.02977
G1 X93.971 Y81.189 E0.04295
G1 X94.011 Y83.028 E0.05768
G1 X95.340 Y83.028 E0.04169
G1 X95.340 Y84.782 E0.05500
G1 X96.793 Y84.753 E0.04557
G1 X96.793 Y86.350 E0.05008
G1 X99.082 Y86.350 E0.07177
G1 X99.082 Y84.719 E0.05114
G1 X100.506 Y84.719 E0.04464
G1 X100.506 Y80.210 E0.14138
G1 X102.994 Y80.210 E0.07800
G1 X102.994 Y81.214 E0.03147
G1 X101.747 Y81.214 E0.03910
G1 X101.778 Y87.740 E0.20461
G1 X102.994 Y87.769 E0.03813
G1 X102.994 Y89.523 E0.05500
G1 X104.882 Y89.542 E0.05920
G1 X104.882 Y91.532 E0.06240
G1 X106.307 Y91.532 E0.04469
G1 X106.307 Y97.023 E0.17216
G1 X108.141 Y96.998 E0.05749
G1 X108.141 Y95.319 E0.05266
G1 X109.144 Y95.319 E0.03147
G1 X109.144 Y98.184 E0.08984
G1 X106.254 Y98.203 E0.09062
G1 X106.300 Y101.510 E0.10371
G1 X112.487 Y101.510 E0.19400
G1 X112.487 Y102.533 E0.03207
G1 X107.697 Y102.533 E0.15019
G1 X107.746 Y104.793 E0.07086
G1 X115.157 Y104.793 E0.23237
G1 X115.157 Y111.057 E0.19640
G1 X113.916 Y111.057 E0.03888
G1 X113.877 Y112.461 E0.04406
G1 X111.840 Y112.461 E0.06385
G1 X111.840 Y118.174 E0.17911
G1 X111.773 Y118.778 E0.01907
G1 X111.610 Y119.178 E0.01355
G1 X111.098 Y119.639 E0.02158
G1 X110.313 Y119.790 E0.02508
G1 X105.911 Y119.790 E0.13800
G1 X105.189 Y119.474 E0.02472
G1 X104.809 Y118.960 E0.02007
G1 X104.614 Y118.223 E0.02390
G1 X104.614 Y112.521 E0.17877
G1 X104.610 Y112.061 F7200.000
G1 F5760
G1 X102.420 Y112.471 E-0.76000
G1 E-0.04000 F2100.00000
G1 Z0.800 F7200.000
G1 X105.104 Y114.181 F7200.000
G1 Z0.200 F7200.000
G1 E0.80000 F2100.00000
G1 F900
G1 X105.323 Y114.399 E0.00976
G1 X105.539 Y114.078 E0.01224
G1 X105.274 Y113.813 E0.01184
G1 X105.274 Y113.275 E0.01699
G1 X105.765 Y113.767 E0.02195
G1 X106.086 Y113.550 E0.01224
G1 X105.274 Y112.738 E0.03630
G1 X105.274 Y112.200 E0.01699
G1 X106.530 Y113.456 E0.05611
G1 F5760
G1 X105.274 Y112.200 E-0.61493
G1 F5760
G1 X105.274 Y112.619 E-0.14507
G1 E-0.04000 F2100.00000
G1 Z0.800 F7200.000
G1 X102.895 Y111.971 F7200.000
G1 Z0.200 F7200.000
G1 E0.80000 F2100.00000
G1 F900
G1 X102.637 Y111.713 E0.01153
G1 X102.634 Y111.505 E0.00659
G1 X102.966 Y111.505 E0.01049
G1 X103.263 Y111.801 E0.01326
G1 X103.800 Y111.801 E0.01699
G1 X103.503 Y111.505 E0.01326
G1 X104.041 Y111.505 E0.01699
G1 X104.338 Y111.801 E0.01326
G1 X104.875 Y111.801 E0.01699
G1 X104.578 Y111.505 E0.01326
G1 X105.116 Y111.505 E0.01699
G1 X106.728 Y113.117 E0.07206
G1 X106.836 Y113.044 E0.00411
G1 X107.133 Y112.985 E0.00958
G1 X105.653 Y111.505 E0.06614
G1 X106.051 Y111.505 E0.01258
G1 X106.051 Y111.365 E0.00441
G1 X107.581 Y112.895 E0.06836
G1 X108.028 Y112.805 E0.01443
G1 X106.051 Y110.828 E0.08836
G1 X106.051 Y110.290 E0.01699
G1 X108.625 Y112.864 E0.11501
G1 X109.298 Y112.999 E0.02169
G1 X106.051 Y109.753 E0.14508
G1 X106.051 Y109.215 E0.01699
G1 X111.181 Y114.344 E0.22923
G1 X111.181 Y113.807 E0.01699
G1 X106.051 Y108.678 E0.22923
G1 X106.051 Y108.140 E0.01699
G1 X111.350 Y113.439 E0.23682
G1 F5760
G1 X109.799 Y111.888 E-0.76000
G1 E-0.04000 F2100.00000
G1 Z0.800 F7200.000
G1 X112.569 Y111.971 F7200.000
G1 Z0.200 F7200.000
G1 E0.80000 F2100.00000
G1 F900
G1 X101.226 Y100.627 E0.50697
G1 X101.227 Y101.166 E0.01702
G1 X111.862 Y111.801 E0.47533
G1 X111.325 Y111.801 E0.01699
G1 X101.228 Y101.704 E0.45126
G1 X101.229 Y102.243 E0.01702
G1 X111.181 Y112.194 E0.44477
G1 X111.181 Y112.732 E0.01699
G1 X101.230 Y102.781 E0.44472
G1 X101.231 Y103.320 E0.01702
G1 X105.460 Y107.549 E0.18903
G1 X104.923 Y107.549 E0.01699
G1 X101.232 Y103.858 E0.16496
G1 X101.233 Y104.397 E0.01702
G1 X104.385 Y107.549 E0.14090
G1 X103.848 Y107.549 E0.01699
G1 X101.234 Y104.935 E0.11683
G1 X101.235 Y105.473 E0.01702
G1 X103.310 Y107.549 E0.09277
G1 X102.773 Y107.549 E0.01699
G1 X101.236 Y106.012 E0.06870
G1 X101.237 Y106.550 E0.01702
G1 X102.235 Y107.549 E0.04464
G1 X102.097 Y107.549 E0.00436
G1 X102.097 Y107.949 E0.01262
G1 X101.238 Y107.089 E0.03843
G1 X101.239 Y107.627 E0.01702
G1 X102.097 Y108.486 E0.03838
G1 X102.097 Y109.024 E0.01699
G1 X101.240 Y108.166 E0.03834
G1 X101.241 Y108.704 E0.01702
G1 X102.097 Y109.561 E0.03829
G1 X102.097 Y110.099 E0.01699
G1 X101.242 Y109.243 E0.03825
G1 X101.243 Y109.781 E0.01702
G1 X101.880 Y110.419 E0.02850
G1 X101.335 Y110.411 E0.01724
G1 X101.074 Y110.150 E0.01167
G1 F5760
G1 X101.335 Y110.411 E-0.12789
G1 F5760
G1 X101.880 Y110.419 E-0.18898
G1 F5760
G1 X101.243 Y109.781 E-0.31234
G1 F5760
G1 X101.242 Y109.404 E-0.13079
G1 E-0.04000 F2100.00000
G1 Z0.800 F7200.000
G1 X107.494 Y105.283 F7200.000
G1 Z0.200 F7200.000
G1 E0.80000 F2100.00000
G1 F900
G1 X113.257 Y111.046 E0.25755
G1 X113.271 Y110.523 E0.01653
G1 X108.201 Y105.453 E0.22661
G1 X108.738 Y105.453 E0.01699
G1 X113.683 Y110.397 E0.22096
G1 X114.220 Y110.397 E0.01699
G1 X109.276 Y105.453 E0.22096
G1 X109.813 Y105.453 E0.01699
G1 X114.497 Y110.136 E0.20930
G1 X114.497 Y109.598 E0.01699
G1 X110.351 Y105.453 E0.18528
G1 X110.888 Y105.453 E0.01699
G1 X114.497 Y109.061 E0.16126
G1 X114.497 Y108.523 E0.01699
G1 X111.426 Y105.453 E0.13724
G1 X111.963 Y105.453 E0.01699
G1 X114.497 Y107.986 E0.11322
G1 X114.497 Y107.448 E0.01699
G1 X112.501 Y105.453 E0.08920
G1 X113.038 Y105.453 E0.01699
G1 X114.497 Y106.911 E0.06518
G1 X114.497 Y106.373 E0.01699
G1 X113.576 Y105.453 E0.04116
G1 X114.113 Y105.453 E0.01699
G1 X114.666 Y106.006 E0.02472
G1 F5760
G1 X114.113 Y105.453 E-0.27092
G1 F5760
G1 X113.576 Y105.453 E-0.18616
G1 F5760
G1 X114.194 Y106.071 E-0.30292
G1 E-0.04000 F2100.00000
G1 Z0.800 F7200.000
G1 X107.237 Y103.951 F7200.000
G1 Z0.200 F7200.000
G1 E0.80000 F2100.00000
G1 F900
G1 X91.733 Y88.447 E0.69290
G1 X91.733 Y88.523 E0.00241
G1 X91.272 Y88.523 E0.01458
G1 X107.075 Y104.327 E0.70629
G1 X107.087 Y104.876 E0.01736
G1 X90.734 Y88.523 E0.73084
G1 X90.249 Y88.523 E0.01533
G1 X90.249 Y88.576 E0.00165
G1 X113.242 Y111.568 E1.02759
G1 X113.235 Y111.801 E0.00736
G1 X112.937 Y111.801 E0.00942
G1 X90.249 Y89.113 E1.01398
G1 X90.249 Y89.651 E0.01699
G1 X99.183 Y98.585 E0.39928
G1 X98.653 Y98.592 E0.01676
G1 X90.008 Y89.947 E0.38634
G1 X89.471 Y89.947 E0.01699
G1 X96.602 Y97.078 E0.31869
G1 X96.057 Y97.071 E0.01721
G1 X95.035 Y96.049 E0.04566
G1 X95.060 Y96.611 E0.01777
G1 X95.685 Y97.236 E0.02793
G1 F5760
G1 X95.060 Y96.611 E-0.30608
G1 F5760
G1 X95.035 Y96.049 E-0.19475
G1 F5760
G1 X95.565 Y96.579 E-0.25918
G1 E-0.04000 F2100.00000
G1 Z0.800 F7200.000
G1 X94.810 Y95.823 F7200.000
G1 Z0.200 F7200.000
G1 E0.80000 F2100.00000
G1 F900
G1 X93.551 Y94.565 E0.05623
G1 X93.574 Y95.126 E0.01773
G1 X94.272 Y95.823 E0.03118
G1 F5760
G1 X93.574 Y95.126 E-0.34169
G1 F5760
G1 X93.551 Y94.565 E-0.19434
G1 F5760
G1 X94.009 Y95.023 E-0.22397
G1 E-0.04000 F2100.00000
G1 Z0.800 F7200.000
G1 X93.369 Y94.383 F7200.000
G1 Z0.200 F7200.000
G1 E0.80000 F2100.00000
G1 F900
G1 X88.933 Y89.947 E0.19823
G1 X88.411 Y89.947 E0.01650
G1 X92.679 Y94.230 E0.19108
G1 X92.155 Y94.244 E0.01657
G1 X88.411 Y90.500 E0.16731
G1 X88.411 Y91.037 E0.01699
G1 X91.630 Y94.257 E0.14388
G1 X91.106 Y94.270 E0.01657
G1 X88.148 Y91.312 E0.13219
G1 X87.611 Y91.312 E0.01699
G1 X90.582 Y94.283 E0.13278
G1 X90.058 Y94.296 E0.01657
G1 X87.073 Y91.312 E0.13337
G1 X86.868 Y91.312 E0.00648
G1 X86.868 Y91.645 E0.01051
G1 X89.533 Y94.310 E0.11910
G1 X89.009 Y94.323 E0.01657
G1 X86.868 Y92.182 E0.09567
G1 X86.868 Y92.720 E0.01699
G1 X88.485 Y94.336 E0.07224
G1 X88.314 Y94.340 E0.00541
G1 X88.321 Y94.710 E0.01169
G1 X86.525 Y92.914 E0.08029
G1 X85.987 Y92.914 E0.01699
G1 X88.333 Y95.259 E0.10482
G1 X88.342 Y95.713 E0.01433
G1 X88.249 Y95.713 E0.00296
G1 X85.503 Y92.967 E0.12270
G1 X85.503 Y93.504 E0.01699
G1 X87.711 Y95.713 E0.09868
G1 X87.191 Y95.713 E0.01643
G1 X87.191 Y95.730 E0.00054
G1 X85.503 Y94.042 E0.07543
G1 X85.503 Y94.579 E0.01699
G1 X87.181 Y96.257 E0.07499
G1 X87.171 Y96.785 E0.01668
