; generated by Slic3r Prusa Edition 1.39.1-prusa3d on 2018-05-09 at 07:50:45

; 

; external perimeters extrusion width = 0.45mm
; perimeters extrusion width = 0.45mm
; infill extrusion width = 0.45mm
; solid infill extrusion width = 0.45mm
; top infill extrusion width = 0.33mm
; first layer extrusion width = 0.42mm

M107
M115 U3.1.0 ; tell printer latest fw version
M201 X9000 Y9000 Z500 E10000 ; sets maximum accelerations, mm/sec^2
M203 X500 Y500 Z12 E120 ; sets maximum feedrates, mm/sec
M204 S1500 T1500 ; sets acceleration (S) and retract acceleration (T)
M205 X10 Y10 Z0.2 E2.5 ; sets the jerk limits, mm/sec
M205 S0 T0 ; sets the minimum extruding and travel feed rate, mm/sec
M83  ; extruder relative mode
M104 S200 ; set extruder temp
M140 S55 ; set bed temp
M190 S55 ; wait for bed temp
M109 S200 ; wait for extruder temp
G28 W ; home all without mesh bed level
G80 ; mesh bed leveling
G1 Y-3.0 F1000.0 ; go outside print area
G92 E0.0
G1 E18.0 F1000.0;
G1 X60.0 E9.0  F1000.0 ; intro line
G1 X100.0 E12.5  F1000.0 ; intro line
G92 E0.0
M900 K30; Filament gcode
G21 ; set units to millimeters
G90 ; use absolute coordinates
M83 ; use relative distances for extrusion
;BEFORE_LAYER_CHANGE
;0.2


G1 E-0.80000 F2100.00000
G1 Z0.600 F7200.000
;AFTER_LAYER_CHANGE
;0.2
G1 X92.636 Y84.437 F7200.000
G1 Z0.200 F7200.000
G1 E0.80000 F2100.00000
M204 S1000
G1 F900
G1 X93.027 Y83.858 E0.02192
G1 X93.555 Y83.393 E0.02205
G1 X94.179 Y83.079 E0.02192
G1 X94.867 Y82.931 E0.02205
G1 X110.908 Y82.922 E0.50297
G1 X111.913 Y83.113 E0.03208
G1 X112.779 Y83.658 E0.03208
G1 X113.386 Y84.482 E0.03208
G1 X113.651 Y85.470 E0.03208
G1 X113.658 Y114.349 E0.90547
G1 X113.581 Y114.974 E0.01975
G1 X113.365 Y115.562 E0.01963
G1 X112.963 Y116.154 E0.02243
G1 X112.422 Y116.622 E0.02243
G1 X111.779 Y116.936 E0.02243
G1 X111.077 Y117.073 E0.02243
G1 X95.051 Y117.078 E0.50250
G1 X94.438 Y116.999 E0.01937
G1 X93.858 Y116.785 E0.01937
G1 X93.164 Y116.288 E0.02676
G1 X87.720 Y110.740 E0.24374
G1 X87.137 Y109.875 E0.03269
G1 X86.768 Y109.093 E0.02712
G1 X86.464 Y108.053 E0.03397
G1 X86.351 Y107.158 E0.02828
G1 X86.354 Y105.433 E0.05408
G1 X86.547 Y104.238 E0.03796
G1 X92.618 Y84.495 E0.64765
G1 X92.975 Y84.605 F7200.000
G1 F900
G1 X93.321 Y84.095 E0.01931
G1 X93.783 Y83.694 E0.01917
G1 X94.328 Y83.426 E0.01906
G1 X94.924 Y83.305 E0.01906
G1 X110.908 Y83.299 E0.50117
G1 X111.778 Y83.465 E0.02778
G1 X112.530 Y83.942 E0.02790
G1 X113.052 Y84.657 E0.02778
G1 X113.276 Y85.519 E0.02790
G1 X113.281 Y114.343 E0.90378
G1 X113.214 Y114.886 E0.01716
G1 X113.022 Y115.403 E0.01728
G1 X112.672 Y115.913 E0.01941
G1 X112.202 Y116.316 E0.01941
G1 X111.643 Y116.584 E0.01941
G1 X111.035 Y116.698 E0.01941
G1 X95.061 Y116.701 E0.50083
G1 X94.526 Y116.632 E0.01692
G1 X94.017 Y116.442 E0.01704
G1 X93.418 Y116.008 E0.02319
G1 X88.334 Y110.870 E0.22664
G1 X87.864 Y110.310 E0.02292
G1 X87.408 Y109.585 E0.02685
G1 X87.011 Y108.654 E0.03174
G1 X86.812 Y107.864 E0.02554
G1 X86.720 Y106.913 E0.02996
G1 X86.732 Y105.441 E0.04615
G1 X86.913 Y104.329 E0.03531
G1 X92.958 Y84.662 E0.64512
G1 F5760
G1 X93.321 Y84.095 E-0.23326
G1 F5760
G1 X93.783 Y83.694 E-0.21181
G1 F5760
G1 X94.328 Y83.426 E-0.21050
G1 F5760
G1 X94.624 Y83.366 E-0.10442
G1 E-0.04000 F2100.00000
G1 Z0.800 F7200.000
G1 X95.683 Y103.737 F7200.000
G1 Z0.200 F7200.000
G1 E0.80000 F2100.00000
G1 F900
G1 X95.683 Y108.912 E0.16227
G1 X91.917 Y108.905 E0.11807
G1 X91.570 Y108.826 E0.01115
G1 X91.249 Y108.671 E0.01117
G1 X90.984 Y108.459 E0.01065
G1 X90.842 Y108.301 E0.00666
G1 X90.651 Y107.993 E0.01136
G1 X90.515 Y107.519 E0.01546
G1 X90.509 Y105.292 E0.06983
G1 X90.545 Y104.970 E0.01016
G1 X90.657 Y104.650 E0.01065
G1 X90.864 Y104.321 E0.01219
G1 X91.104 Y104.080 E0.01065
G1 X91.391 Y103.900 E0.01065
G1 X91.766 Y103.770 E0.01242
G1 X92.063 Y103.737 E0.00938
G1 X95.623 Y103.737 E0.11161
G1 X95.306 Y104.114 F7200.000
G1 F900
G1 X95.306 Y108.535 E0.13860
G1 X91.960 Y108.528 E0.10491
G1 X91.696 Y108.468 E0.00850
G1 X91.451 Y108.350 E0.00850
G1 X91.244 Y108.184 E0.00832
G1 X91.145 Y108.074 E0.00464
G1 X90.999 Y107.839 E0.00869
G1 X90.892 Y107.466 E0.01216
G1 X90.886 Y105.313 E0.06751
G1 X90.915 Y105.055 E0.00814
G1 X91.002 Y104.804 E0.00832
G1 X91.153 Y104.565 E0.00887
G1 X91.340 Y104.377 E0.00832
G1 X91.565 Y104.236 E0.00832
G1 X91.838 Y104.142 E0.00906
G1 X92.084 Y104.114 E0.00775
G1 X95.246 Y104.114 E0.09913
G1 X95.706 Y104.113 F7200.000
G1 F5760
G1 X95.275 Y106.308 E-0.76000
G1 E-0.04000 F2100.00000
G1 Z0.800 F7200.000
G1 X98.832 Y89.152 F7200.000
G1 Z0.200 F7200.000
G1 E0.80000 F2100.00000
G1 F900
G1 X98.832 Y99.901 E0.33701
G1 X109.983 Y99.901 E0.34964
G1 X109.983 Y102.790 E0.09059
G1 X98.832 Y102.790 E0.34964
G1 X98.832 Y110.848 E0.25265
G1 X110.317 Y110.848 E0.36012
G1 X110.317 Y113.737 E0.09059
G1 X95.680 Y113.737 E0.45895
G1 X95.676 Y113.063 E0.02115
G1 X95.610 Y112.579 E0.01531
G1 X95.480 Y112.111 E0.01524
G1 X95.291 Y111.674 E0.01491
G1 X95.160 Y111.438 E0.00845
G1 X94.887 Y111.050 E0.01488
G1 X94.558 Y110.694 E0.01520
G1 X94.195 Y110.396 E0.01473
G1 X93.964 Y110.242 E0.00871
G1 X93.548 Y110.024 E0.01471
G1 X93.102 Y109.861 E0.01489
G1 X92.841 Y109.795 E0.00846
G1 X92.014 Y109.677 E0.02619
G1 X91.663 Y109.583 E0.01138
G1 X91.167 Y109.362 E0.01703
G1 X90.721 Y109.052 E0.01703
G1 X90.459 Y108.802 E0.01136
G1 X90.230 Y108.522 E0.01136
G1 X89.959 Y108.061 E0.01676
G1 X89.824 Y107.716 E0.01162
G1 X89.707 Y107.195 E0.01674
G1 X89.683 Y106.808 E0.01217
G1 X89.689 Y105.636 E0.03675
G1 X89.774 Y105.107 E0.01679
G1 X89.885 Y104.762 E0.01136
G1 X90.037 Y104.434 E0.01136
G1 X90.230 Y104.127 E0.01136
G1 X90.459 Y103.846 E0.01136
G1 X90.721 Y103.596 E0.01136
G1 X91.159 Y103.291 E0.01674
G1 X91.502 Y103.125 E0.01193
G1 X92.010 Y102.972 E0.01666
G1 X92.628 Y102.891 E0.01953
G1 X93.093 Y102.790 E0.01492
G1 X93.554 Y102.622 E0.01539
G1 X93.963 Y102.407 E0.01449
G1 X94.185 Y102.260 E0.00834
G1 X94.561 Y101.950 E0.01528
G1 X94.880 Y101.606 E0.01473
G1 X95.040 Y101.394 E0.00830
G1 X95.282 Y100.992 E0.01473
G1 X95.395 Y100.752 E0.00830
G1 X95.552 Y100.308 E0.01477
G1 X95.651 Y99.828 E0.01537
G1 X95.683 Y99.363 E0.01461
G1 X95.683 Y86.263 E0.41076
G1 X110.317 Y86.263 E0.45885
G1 X110.317 Y89.152 E0.09059
G1 X98.892 Y89.152 E0.35823
G1 X99.209 Y89.529 F7200.000
G1 F900
G1 X99.209 Y99.523 E0.31336
G1 X110.360 Y99.523 E0.34964
G1 X110.360 Y103.167 E0.11424
G1 X99.209 Y103.167 E0.34964
G1 X99.209 Y110.471 E0.22901
G1 X110.694 Y110.471 E0.36012
G1 X110.694 Y114.114 E0.11424
G1 X95.305 Y114.114 E0.48253
G1 X95.299 Y113.089 E0.03214
G1 X95.240 Y112.655 E0.01374
G1 X95.123 Y112.236 E0.01363
G1 X94.953 Y111.841 E0.01350
G1 X94.840 Y111.639 E0.00724
G1 X94.593 Y111.287 E0.01348
G1 X94.298 Y110.969 E0.01360
G1 X93.970 Y110.699 E0.01332
G1 X93.771 Y110.567 E0.00750
G1 X93.395 Y110.369 E0.01331
G1 X92.991 Y110.222 E0.01349
G1 X92.768 Y110.166 E0.00723
G1 X91.938 Y110.047 E0.02629
G1 X91.542 Y109.941 E0.01284
G1 X91.160 Y109.784 E0.01293
G1 X90.982 Y109.691 E0.00632
G1 X90.810 Y109.587 E0.00632
G1 X90.478 Y109.341 E0.01293
G1 X90.182 Y109.059 E0.01283
G1 X89.923 Y108.742 E0.01283
G1 X89.709 Y108.402 E0.01260
G1 X89.615 Y108.215 E0.00655
G1 X89.464 Y107.832 E0.01292
G1 X89.332 Y107.236 E0.01913
G1 X89.306 Y106.818 E0.01312
G1 X89.312 Y105.617 E0.03767
G1 X89.331 Y105.419 E0.00623
G1 X89.408 Y105.014 E0.01293
G1 X89.533 Y104.624 E0.01283
G1 X89.706 Y104.253 E0.01283
G1 X89.923 Y103.906 E0.01283
G1 X90.182 Y103.589 E0.01283
G1 X90.478 Y103.307 E0.01283
G1 X90.979 Y102.959 E0.01913
G1 X91.353 Y102.778 E0.01304
G1 X91.936 Y102.601 E0.01910
G1 X92.564 Y102.519 E0.01983
G1 X92.988 Y102.427 E0.01361
G1 X93.401 Y102.276 E0.01379
G1 X93.771 Y102.082 E0.01311
G1 X93.961 Y101.956 E0.00713
G1 X94.302 Y101.676 E0.01386
G1 X94.591 Y101.364 E0.01333
G1 X94.727 Y101.183 E0.00710
G1 X94.949 Y100.814 E0.01351
G1 X95.046 Y100.609 E0.00710
G1 X95.188 Y100.207 E0.01337
G1 X95.277 Y99.777 E0.01376
G1 X95.306 Y99.351 E0.01340
G1 X95.306 Y85.886 E0.42218
G1 X110.694 Y85.886 E0.48250
G1 X110.694 Y89.529 E0.11424
G1 X99.269 Y89.529 E0.35823
G1 X98.811 Y89.570 F7200.000
G1 F5760
G1 X99.256 Y91.724 E-0.76000
G1 E-0.04000 F2100.00000
G1 Z0.800 F7200.000
G1 X98.719 Y99.734 F7200.000
G1 Z0.200 F7200.000
G1 E0.80000 F2100.00000
G1 F900
G1 X95.966 Y96.980 E0.12249
G1 X95.966 Y96.445 E0.01683
G1 X98.549 Y99.029 E0.11494
G1 X98.549 Y98.494 E0.01683
G1 X95.966 Y95.910 E0.11494
G1 X95.966 Y95.375 E0.01683
G1 X98.549 Y97.959 E0.11494
G1 X98.549 Y97.424 E0.01683
G1 X95.966 Y94.840 E0.11494
G1 X95.966 Y94.305 E0.01683
G1 X98.549 Y96.889 E0.11494
G1 X98.549 Y96.354 E0.01683
G1 X95.966 Y93.770 E0.11494
G1 X95.966 Y93.235 E0.01683
G1 X98.549 Y95.819 E0.11494
G1 X98.549 Y95.283 E0.01683
G1 X95.966 Y92.700 E0.11494
G1 X95.966 Y92.165 E0.01683
G1 X98.549 Y94.748 E0.11494
G1 X98.549 Y94.213 E0.01683
G1 X95.966 Y91.630 E0.11494
G1 X95.966 Y91.095 E0.01683
G1 X98.549 Y93.678 E0.11494
G1 X98.549 Y93.143 E0.01683
G1 X95.966 Y90.560 E0.11494
G1 X95.966 Y90.025 E0.01683
G1 X98.549 Y92.608 E0.11494
G1 X98.549 Y92.073 E0.01683
G1 X95.966 Y89.490 E0.11494
G1 X95.966 Y88.954 E0.01683
G1 X98.549 Y91.538 E0.11494
G1 X98.549 Y91.003 E0.01683
G1 X95.966 Y88.419 E0.11494
G1 X95.966 Y87.884 E0.01683
G1 X98.549 Y90.468 E0.11494
G1 X98.549 Y89.933 E0.01683
G1 X95.966 Y87.349 E0.11494
G1 X95.966 Y86.814 E0.01683
G1 X98.549 Y89.398 E0.11494
G1 X98.556 Y88.869 E0.01662
G1 X96.232 Y86.546 E0.10339
G1 X96.767 Y86.546 E0.01683
G1 X99.091 Y88.869 E0.10339
G1 X99.626 Y88.869 E0.01683
G1 X97.302 Y86.546 E0.10339
G1 X97.837 Y86.546 E0.01683
G1 X100.161 Y88.869 E0.10339
G1 X100.696 Y88.869 E0.01683
G1 X98.372 Y86.546 E0.10339
G1 X98.907 Y86.546 E0.01683
G1 X101.231 Y88.869 E0.10339
G1 X101.766 Y88.869 E0.01683
G1 X99.443 Y86.546 E0.10339
G1 X99.978 Y86.546 E0.01683
G1 X102.301 Y88.869 E0.10339
G1 X102.836 Y88.869 E0.01683
G1 X100.513 Y86.546 E0.10339
G1 X101.048 Y86.546 E0.01683
G1 X103.371 Y88.869 E0.10339
G1 X103.907 Y88.869 E0.01683
G1 X101.583 Y86.546 E0.10339
G1 X102.118 Y86.546 E0.01683
G1 X104.442 Y88.869 E0.10339
G1 X104.977 Y88.869 E0.01683
G1 X102.653 Y86.546 E0.10339
G1 X103.188 Y86.546 E0.01683
G1 X105.512 Y88.869 E0.10339
G1 X106.047 Y88.869 E0.01683
G1 X103.723 Y86.546 E0.10339
G1 X104.258 Y86.546 E0.01683
G1 X106.582 Y88.869 E0.10339
G1 X107.117 Y88.869 E0.01683
G1 X104.793 Y86.546 E0.10339
G1 X105.328 Y86.546 E0.01683
G1 X107.652 Y88.869 E0.10339
G1 X108.187 Y88.869 E0.01683
G1 X105.863 Y86.546 E0.10339
G1 X106.398 Y86.546 E0.01683
G1 X108.722 Y88.869 E0.10339
G1 X109.257 Y88.869 E0.01683
G1 X106.933 Y86.546 E0.10339
G1 X107.469 Y86.546 E0.01683
G1 X109.792 Y88.869 E0.10339
G1 X110.034 Y88.869 E0.00762
G1 X110.034 Y88.576 E0.00922
G1 X108.004 Y86.546 E0.09035
G1 X108.539 Y86.546 E0.01683
G1 X110.034 Y88.041 E0.06655
G1 X110.034 Y87.506 E0.01683
G1 X109.074 Y86.546 E0.04274
G1 X109.609 Y86.546 E0.01683
G1 X110.204 Y87.141 E0.02648
G1 F5760
G1 X109.609 Y86.546 E-0.29158
G1 F5760
G1 X109.074 Y86.546 E-0.18532
G1 F5760
G1 X109.652 Y87.124 E-0.28310
G1 E-0.04000 F2100.00000
G1 Z0.800 F7200.000
G1 X109.870 Y100.719 F7200.000
G1 Z0.200 F7200.000
G1 E0.80000 F2100.00000
G1 F900
G1 X109.335 Y100.183 E0.02382
G1 X108.800 Y100.183 E0.01683
G1 X109.700 Y101.084 E0.04008
G1 X109.700 Y101.619 E0.01683
G1 X108.265 Y100.183 E0.06388
G1 X107.730 Y100.183 E0.01683
G1 X109.700 Y102.154 E0.08769
G1 X109.700 Y102.507 E0.01110
G1 X109.518 Y102.507 E0.00573
G1 X107.194 Y100.183 E0.10339
G1 X106.659 Y100.183 E0.01683
G1 X108.983 Y102.507 E0.10339
G1 X108.448 Y102.507 E0.01683
G1 X106.124 Y100.183 E0.10339
G1 X105.589 Y100.183 E0.01683
G1 X107.913 Y102.507 E0.10339
G1 X107.378 Y102.507 E0.01683
G1 X105.054 Y100.183 E0.10339
G1 X104.519 Y100.183 E0.01683
G1 X106.843 Y102.507 E0.10339
G1 X106.308 Y102.507 E0.01683
G1 X103.984 Y100.183 E0.10339
G1 X103.449 Y100.183 E0.01683
G1 X105.773 Y102.507 E0.10339
G1 X105.238 Y102.507 E0.01683
G1 X102.914 Y100.183 E0.10339
G1 X102.379 Y100.183 E0.01683
G1 X104.703 Y102.507 E0.10339
G1 X104.168 Y102.507 E0.01683
G1 X101.844 Y100.183 E0.10339
G1 X101.309 Y100.183 E0.01683
G1 X103.632 Y102.507 E0.10339
G1 X103.097 Y102.507 E0.01683
G1 X100.774 Y100.183 E0.10339
G1 X100.239 Y100.183 E0.01683
G1 X102.562 Y102.507 E0.10339
G1 X102.027 Y102.507 E0.01683
G1 X99.703 Y100.183 E0.10339
G1 X99.168 Y100.183 E0.01683
G1 X101.492 Y102.507 E0.10339
G1 X100.957 Y102.507 E0.01683
G1 X95.966 Y97.516 E0.22208
G1 X95.966 Y98.051 E0.01683
G1 X100.422 Y102.507 E0.19827
G1 X99.887 Y102.507 E0.01683
G1 X95.966 Y98.586 E0.17447
G1 X95.966 Y99.121 E0.01683
G1 X99.352 Y102.507 E0.15066
G1 X98.817 Y102.507 E0.01683
G1 X95.948 Y99.638 E0.12766
G1 X95.932 Y99.867 E0.00721
G1 X95.882 Y100.108 E0.00774
G1 X98.549 Y102.774 E0.11865
G1 X98.549 Y103.309 E0.01683
G1 X95.773 Y100.533 E0.12353
G1 X95.627 Y100.923 E0.01309
G1 X98.549 Y103.845 E0.12999
G1 X98.549 Y104.380 E0.01683
G1 X95.443 Y101.273 E0.13820
G1 X95.237 Y101.602 E0.01221
G1 X98.549 Y104.915 E0.14737
G1 X98.549 Y105.450 E0.01683
G1 X94.996 Y101.897 E0.15807
G1 X94.737 Y102.172 E0.01191
G1 X98.549 Y105.985 E0.16962
G1 X98.549 Y106.520 E0.01683
G1 X95.966 Y103.936 E0.11494
G1 X95.966 Y104.471 E0.01683
G1 X98.549 Y107.055 E0.11494
G1 X98.549 Y107.590 E0.01683
G1 X95.966 Y105.007 E0.11494
G1 X95.966 Y105.542 E0.01683
G1 X98.549 Y108.125 E0.11494
G1 X98.549 Y108.660 E0.01683
G1 X95.966 Y106.077 E0.11494
G1 X95.966 Y106.612 E0.01683
G1 X98.549 Y109.195 E0.11494
G1 X98.549 Y109.730 E0.01683
G1 X95.966 Y107.147 E0.11494
G1 X95.966 Y107.682 E0.01683
G1 X98.719 Y110.435 E0.12249
G1 F5760
G1 X97.167 Y108.883 E-0.76000
G1 E-0.04000 F2100.00000
G1 Z0.800 F7200.000
G1 X97.627 Y113.624 F7200.000
G1 Z0.200 F7200.000
G1 E0.80000 F2100.00000
G1 F900
G1 X95.537 Y111.534 E0.09300
G1 X95.747 Y112.016 E0.01655
G1 X95.848 Y112.380 E0.01188
G1 X96.922 Y113.454 E0.04780
G1 X96.387 Y113.454 E0.01683
G1 X95.757 Y112.824 E0.02802
G1 F5760
G1 X96.387 Y113.454 E-0.30852
G1 F5760
G1 X96.922 Y113.454 E-0.18532
G1 F5760
G1 X96.379 Y112.911 E-0.26616
G1 E-0.04000 F2100.00000
G1 Z0.800 F7200.000
G1 X92.576 Y109.643 F7200.000
G1 Z0.200 F7200.000
G1 E0.80000 F2100.00000
G1 F900
G1 X92.127 Y109.188 E0.02012
G1 X92.657 Y109.189 E0.01667
G1 X93.016 Y109.548 E0.01596
G1 X93.185 Y109.591 E0.00549
G1 X93.663 Y109.765 E0.01599
G1 X93.884 Y109.880 E0.00784
G1 X93.193 Y109.190 E0.03071
G1 X93.730 Y109.191 E0.01687
G1 X97.993 Y113.454 E0.18967
G1 X98.528 Y113.454 E0.01683
G1 X94.266 Y109.192 E0.18962
G1 X94.802 Y109.193 E0.01687
G1 X99.063 Y113.454 E0.18957
G1 X99.598 Y113.454 E0.01683
G1 X95.338 Y109.195 E0.18952
G1 X95.874 Y109.196 E0.01687
G1 X100.133 Y113.454 E0.18947
G1 X100.668 Y113.454 E0.01683
G1 X95.966 Y108.752 E0.20921
G1 X95.966 Y108.217 E0.01683
G1 X101.203 Y113.454 E0.23302
G1 X101.738 Y113.454 E0.01683
G1 X99.414 Y111.131 E0.10339
G1 X99.949 Y111.131 E0.01683
G1 X102.273 Y113.454 E0.10339
G1 X102.808 Y113.454 E0.01683
G1 X100.484 Y111.131 E0.10339
G1 X101.020 Y111.131 E0.01683
G1 X103.343 Y113.454 E0.10339
G1 X103.878 Y113.454 E0.01683
G1 X101.555 Y111.131 E0.10339
G1 X102.090 Y111.131 E0.01683
G1 X104.413 Y113.454 E0.10339
G1 X104.948 Y113.454 E0.01683
G1 X102.625 Y111.131 E0.10339
G1 X103.160 Y111.131 E0.01683
G1 X105.484 Y113.454 E0.10339
G1 X106.019 Y113.454 E0.01683
G1 X103.695 Y111.131 E0.10339
G1 X104.230 Y111.131 E0.01683
G1 X106.554 Y113.454 E0.10339
G1 X107.089 Y113.454 E0.01683
G1 X104.765 Y111.131 E0.10339
G1 X105.300 Y111.131 E0.01683
G1 X107.624 Y113.454 E0.10339
G1 X108.159 Y113.454 E0.01683
G1 X105.835 Y111.131 E0.10339
G1 X106.370 Y111.131 E0.01683
G1 X108.694 Y113.454 E0.10339
G1 X109.229 Y113.454 E0.01683
G1 X106.905 Y111.131 E0.10339
G1 X107.440 Y111.131 E0.01683
G1 X109.764 Y113.454 E0.10339
G1 X110.034 Y113.454 E0.00851
G1 X110.034 Y113.190 E0.00833
G1 X107.975 Y111.131 E0.09161
G1 X108.510 Y111.131 E0.01683
G1 X110.034 Y112.655 E0.06780
G1 X110.034 Y112.119 E0.01683
G1 X109.046 Y111.131 E0.04400
G1 X109.581 Y111.131 E0.01683
G1 X110.204 Y111.754 E0.02774
G1 F5760
G1 X109.581 Y111.131 E-0.30540
G1 F5760
G1 X109.046 Y111.131 E-0.18532
G1 F5760
G1 X109.595 Y111.680 E-0.26927
