; generated by Slic3r Prusa Edition 1.39.1-prusa3d on 2018-04-22 at 18:17:57

; 

; external perimeters extrusion width = 0.45mm
; perimeters extrusion width = 0.45mm
; infill extrusion width = 0.45mm
; solid infill extrusion width = 0.45mm
; top infill extrusion width = 0.33mm
; first layer extrusion width = 0.42mm

M107
M115 U3.1.0 ; tell printer latest fw version
M201 X9000 Y9000 Z500 E10000 ; sets maximum accelerations, mm/sec^2
M203 X500 Y500 Z12 E120 ; sets maximum feedrates, mm/sec
M204 S1500 T1500 ; sets acceleration (S) and retract acceleration (T)
M205 X10 Y10 Z0.2 E2.5 ; sets the jerk limits, mm/sec
M205 S0 T0 ; sets the minimum extruding and travel feed rate, mm/sec
M83  ; extruder relative mode
M104 S215 ; set extruder temp
M140 S60 ; set bed temp
M190 S60 ; wait for bed temp
M109 S215 ; wait for extruder temp
G28 W ; home all without mesh bed level
G80 ; mesh bed leveling
G1 Y-3.0 F1000.0 ; go outside print area
G92 E0.0
G1 E18.0 F1000.0;
G1 X60.0 E9.0  F1000.0 ; intro line
G1 X100.0 E12.5  F1000.0 ; intro line
G92 E0.0
M900 K30; Filament gcode
G21 ; set units to millimeters
G90 ; use absolute coordinates
M83 ; use relative distances for extrusion
;BEFORE_LAYER_CHANGE
;0.2


G1 E-0.80000 F2100.00000
G1 Z0.600 F7200.000
;AFTER_LAYER_CHANGE
;0.2
G1 X117.636 Y89.437 F7200.000
G1 Z0.200 F7200.000
G1 E0.80000 F2100.00000
M204 S1000
G1 F900
G1 X118.027 Y88.858 E0.02192
G1 X118.555 Y88.393 E0.02205
G1 X119.183 Y88.077 E0.02205
G1 X119.867 Y87.931 E0.02192
G1 X135.908 Y87.922 E0.50297
G1 X136.913 Y88.113 E0.03208
G1 X137.779 Y88.658 E0.03208
G1 X138.386 Y89.482 E0.03208
G1 X138.651 Y90.470 E0.03208
G1 X138.658 Y119.349 E0.90547
G1 X138.581 Y119.974 E0.01975
G1 X138.365 Y120.562 E0.01963
G1 X137.963 Y121.154 E0.02243
G1 X137.422 Y121.622 E0.02243
G1 X136.779 Y121.936 E0.02243
G1 X136.077 Y122.073 E0.02243
G1 X120.051 Y122.078 E0.50250
G1 X119.438 Y121.999 E0.01937
G1 X118.858 Y121.785 E0.01937
G1 X118.164 Y121.288 E0.02676
G1 X112.712 Y115.731 E0.24409
G1 X112.141 Y114.881 E0.03211
G1 X111.766 Y114.089 E0.02748
G1 X111.464 Y113.053 E0.03383
G1 X111.350 Y112.147 E0.02862
G1 X111.354 Y110.433 E0.05374
G1 X111.547 Y109.238 E0.03797
G1 X117.618 Y89.495 E0.64764
G1 X117.975 Y89.605 F7200.000
G1 F900
G1 X118.321 Y89.095 E0.01931
G1 X118.783 Y88.694 E0.01917
G1 X119.328 Y88.426 E0.01906
G1 X119.924 Y88.305 E0.01906
G1 X135.908 Y88.299 E0.50117
G1 X136.778 Y88.465 E0.02778
G1 X137.530 Y88.942 E0.02790
G1 X138.052 Y89.657 E0.02778
G1 X138.276 Y90.519 E0.02790
G1 X138.281 Y119.343 E0.90378
G1 X138.214 Y119.886 E0.01716
G1 X138.022 Y120.403 E0.01728
G1 X137.672 Y120.913 E0.01941
G1 X137.202 Y121.316 E0.01941
G1 X136.643 Y121.584 E0.01941
G1 X136.035 Y121.698 E0.01941
G1 X120.061 Y121.701 E0.50083
G1 X119.526 Y121.632 E0.01692
G1 X119.017 Y121.442 E0.01704
G1 X118.423 Y121.014 E0.02296
G1 X113.013 Y115.503 E0.24214
G1 X112.468 Y114.695 E0.03055
G1 X112.119 Y113.955 E0.02566
G1 X111.832 Y112.972 E0.03210
G1 X111.727 Y112.119 E0.02695
G1 X111.730 Y110.460 E0.05203
G1 X111.911 Y109.337 E0.03566
G1 X117.958 Y89.662 E0.64537
G1 F5760
G1 X118.321 Y89.095 E-0.23326
G1 F5760
G1 X118.783 Y88.694 E-0.21181
G1 F5760
G1 X119.328 Y88.426 E-0.21050
G1 F5760
G1 X119.624 Y88.366 E-0.10442
G1 E-0.04000 F2100.00000
G1 Z0.800 F7200.000
G1 X120.683 Y108.737 F7200.000
G1 Z0.200 F7200.000
G1 E0.80000 F2100.00000
G1 F900
G1 X120.683 Y113.912 E0.16227
G1 X116.917 Y113.905 E0.11807
G1 X116.570 Y113.826 E0.01115
G1 X116.264 Y113.678 E0.01065
G1 X116.092 Y113.556 E0.00662
G1 X115.851 Y113.315 E0.01069
G1 X115.651 Y112.993 E0.01188
G1 X115.515 Y112.519 E0.01546
G1 X115.509 Y110.292 E0.06983
G1 X115.545 Y109.970 E0.01016
G1 X115.657 Y109.650 E0.01065
G1 X115.864 Y109.321 E0.01219
G1 X116.104 Y109.080 E0.01065
G1 X116.391 Y108.900 E0.01065
G1 X116.766 Y108.770 E0.01242
G1 X117.063 Y108.737 E0.00938
G1 X120.623 Y108.737 E0.11161
G1 X120.306 Y109.114 F7200.000
G1 F900
G1 X120.306 Y113.535 E0.13860
G1 X116.960 Y113.528 E0.10491
G1 X116.696 Y113.468 E0.00850
G1 X116.457 Y113.352 E0.00832
G1 X116.336 Y113.267 E0.00463
G1 X116.148 Y113.079 E0.00833
G1 X115.999 Y112.839 E0.00887
G1 X115.892 Y112.466 E0.01216
G1 X115.886 Y110.313 E0.06751
G1 X115.915 Y110.055 E0.00814
G1 X116.002 Y109.804 E0.00832
G1 X116.153 Y109.565 E0.00887
G1 X116.340 Y109.377 E0.00832
G1 X116.565 Y109.236 E0.00832
G1 X116.838 Y109.142 E0.00906
G1 X117.084 Y109.114 E0.00775
G1 X120.246 Y109.114 E0.09913
G1 X120.706 Y109.113 F7200.000
G1 F5760
G1 X120.275 Y111.308 E-0.76000
G1 E-0.04000 F2100.00000
G1 Z0.800 F7200.000
G1 X123.832 Y94.152 F7200.000
G1 Z0.200 F7200.000
G1 E0.80000 F2100.00000
G1 F900
G1 X123.832 Y104.901 E0.33701
G1 X134.983 Y104.901 E0.34964
G1 X134.983 Y107.790 E0.09059
G1 X123.832 Y107.790 E0.34964
G1 X123.832 Y115.848 E0.25265
G1 X135.317 Y115.848 E0.36012
G1 X135.317 Y118.737 E0.09059
G1 X120.680 Y118.737 E0.45895
G1 X120.676 Y118.063 E0.02115
G1 X120.610 Y117.579 E0.01531
G1 X120.480 Y117.111 E0.01524
G1 X120.291 Y116.674 E0.01491
G1 X120.160 Y116.438 E0.00845
G1 X119.887 Y116.050 E0.01488
G1 X119.558 Y115.694 E0.01520
G1 X119.195 Y115.396 E0.01473
G1 X118.964 Y115.242 E0.00871
G1 X118.548 Y115.024 E0.01471
G1 X118.102 Y114.861 E0.01489
G1 X117.841 Y114.795 E0.00846
G1 X117.014 Y114.677 E0.02619
G1 X116.663 Y114.583 E0.01139
G1 X116.166 Y114.362 E0.01704
G1 X115.721 Y114.052 E0.01701
G1 X115.459 Y113.803 E0.01133
G1 X115.129 Y113.371 E0.01704
G1 X114.956 Y113.053 E0.01136
G1 X114.824 Y112.716 E0.01136
G1 X114.707 Y112.194 E0.01676
G1 X114.683 Y111.808 E0.01214
G1 X114.689 Y110.644 E0.03647
G1 X114.771 Y110.115 E0.01681
G1 X114.885 Y109.762 E0.01162
G1 X115.037 Y109.434 E0.01136
G1 X115.230 Y109.127 E0.01136
G1 X115.465 Y108.839 E0.01164
G1 X115.863 Y108.484 E0.01674
G1 X116.167 Y108.287 E0.01136
G1 X116.494 Y108.129 E0.01136
G1 X117.001 Y107.973 E0.01666
G1 X117.628 Y107.891 E0.01982
G1 X118.093 Y107.790 E0.01492
G1 X118.554 Y107.622 E0.01539
G1 X118.963 Y107.407 E0.01449
G1 X119.185 Y107.260 E0.00834
G1 X119.561 Y106.950 E0.01528
G1 X119.880 Y106.606 E0.01473
G1 X120.040 Y106.394 E0.00830
G1 X120.282 Y105.992 E0.01473
G1 X120.395 Y105.752 E0.00830
G1 X120.552 Y105.308 E0.01477
G1 X120.651 Y104.828 E0.01537
G1 X120.683 Y104.363 E0.01461
G1 X120.683 Y91.263 E0.41076
G1 X135.317 Y91.263 E0.45885
G1 X135.317 Y94.152 E0.09059
G1 X123.892 Y94.152 E0.35823
G1 X124.209 Y94.529 F7200.000
G1 F900
G1 X124.209 Y104.523 E0.31336
G1 X135.360 Y104.523 E0.34964
G1 X135.360 Y108.167 E0.11424
G1 X124.209 Y108.167 E0.34964
G1 X124.209 Y115.471 E0.22901
G1 X135.694 Y115.471 E0.36012
G1 X135.694 Y119.114 E0.11424
G1 X120.305 Y119.114 E0.48253
G1 X120.299 Y118.089 E0.03214
G1 X120.240 Y117.655 E0.01374
G1 X120.123 Y117.236 E0.01363
G1 X119.953 Y116.841 E0.01350
G1 X119.840 Y116.639 E0.00724
G1 X119.593 Y116.287 E0.01348
G1 X119.298 Y115.969 E0.01360
G1 X118.970 Y115.699 E0.01332
G1 X118.771 Y115.567 E0.00750
G1 X118.395 Y115.369 E0.01331
G1 X117.991 Y115.222 E0.01349
G1 X117.768 Y115.166 E0.00723
G1 X116.938 Y115.047 E0.02629
G1 X116.542 Y114.941 E0.01284
G1 X116.170 Y114.789 E0.01260
G1 X115.982 Y114.691 E0.00665
G1 X115.810 Y114.587 E0.00631
G1 X115.478 Y114.341 E0.01294
G1 X115.187 Y114.064 E0.01260
G1 X115.049 Y113.907 E0.00655
G1 X114.809 Y113.572 E0.01292
G1 X114.613 Y113.213 E0.01283
G1 X114.464 Y112.831 E0.01283
G1 X114.365 Y112.442 E0.01260
G1 X114.332 Y112.236 E0.00655
G1 X114.306 Y111.818 E0.01311
G1 X114.312 Y110.620 E0.03757
G1 X114.362 Y110.221 E0.01262
G1 X114.407 Y110.016 E0.00655
G1 X114.533 Y109.624 E0.01292
G1 X114.706 Y109.253 E0.01283
G1 X114.923 Y108.906 E0.01283
G1 X115.184 Y108.587 E0.01293
G1 X115.639 Y108.180 E0.01913
G1 X115.982 Y107.958 E0.01283
G1 X116.350 Y107.779 E0.01283
G1 X116.933 Y107.602 E0.01910
G1 X117.564 Y107.519 E0.01994
G1 X117.988 Y107.427 E0.01361
G1 X118.401 Y107.276 E0.01379
G1 X118.771 Y107.082 E0.01311
G1 X118.961 Y106.956 E0.00713
G1 X119.302 Y106.676 E0.01386
G1 X119.591 Y106.364 E0.01333
G1 X119.727 Y106.183 E0.00710
G1 X119.949 Y105.814 E0.01351
G1 X120.046 Y105.609 E0.00710
G1 X120.188 Y105.207 E0.01337
G1 X120.277 Y104.777 E0.01376
G1 X120.306 Y104.351 E0.01340
G1 X120.306 Y90.886 E0.42218
G1 X135.694 Y90.886 E0.48250
G1 X135.694 Y94.529 E0.11424
G1 X124.269 Y94.529 E0.35823
G1 X123.811 Y94.570 F7200.000
G1 F5760
G1 X124.256 Y96.724 E-0.76000
G1 E-0.04000 F2100.00000
G1 Z0.800 F7200.000
G1 X123.719 Y104.734 F7200.000
G1 Z0.200 F7200.000
G1 E0.80000 F2100.00000
G1 F900
G1 X120.966 Y101.980 E0.12249
G1 X120.966 Y101.445 E0.01683
G1 X123.549 Y104.029 E0.11494
G1 X123.549 Y103.494 E0.01683
G1 X120.966 Y100.910 E0.11494
G1 X120.966 Y100.375 E0.01683
G1 X123.549 Y102.959 E0.11494
G1 X123.549 Y102.424 E0.01683
G1 X120.966 Y99.840 E0.11494
G1 X120.966 Y99.305 E0.01683
G1 X123.549 Y101.889 E0.11494
G1 X123.549 Y101.354 E0.01683
G1 X120.966 Y98.770 E0.11494
G1 X120.966 Y98.235 E0.01683
G1 X123.549 Y100.819 E0.11494
G1 X123.549 Y100.283 E0.01683
G1 X120.966 Y97.700 E0.11494
G1 X120.966 Y97.165 E0.01683
G1 X123.549 Y99.748 E0.11494
G1 X123.549 Y99.213 E0.01683
G1 X120.966 Y96.630 E0.11494
G1 X120.966 Y96.095 E0.01683
G1 X123.549 Y98.678 E0.11494
G1 X123.549 Y98.143 E0.01683
G1 X120.966 Y95.560 E0.11494
G1 X120.966 Y95.025 E0.01683
G1 X123.549 Y97.608 E0.11494
G1 X123.549 Y97.073 E0.01683
G1 X120.966 Y94.490 E0.11494
G1 X120.966 Y93.954 E0.01683
G1 X123.549 Y96.538 E0.11494
G1 X123.549 Y96.003 E0.01683
G1 X120.966 Y93.419 E0.11494
G1 X120.966 Y92.884 E0.01683
G1 X123.549 Y95.468 E0.11494
G1 X123.549 Y94.933 E0.01683
G1 X120.966 Y92.349 E0.11494
G1 X120.966 Y91.814 E0.01683
G1 X123.549 Y94.398 E0.11494
G1 X123.556 Y93.869 E0.01662
G1 X121.232 Y91.546 E0.10339
G1 X121.767 Y91.546 E0.01683
G1 X124.091 Y93.869 E0.10339
G1 X124.626 Y93.869 E0.01683
G1 X122.302 Y91.546 E0.10339
G1 X122.837 Y91.546 E0.01683
G1 X125.161 Y93.869 E0.10339
G1 X125.696 Y93.869 E0.01683
G1 X123.372 Y91.546 E0.10339
G1 X123.907 Y91.546 E0.01683
G1 X126.231 Y93.869 E0.10339
G1 X126.766 Y93.869 E0.01683
G1 X124.443 Y91.546 E0.10339
G1 X124.978 Y91.546 E0.01683
G1 X127.301 Y93.869 E0.10339
G1 X127.836 Y93.869 E0.01683
G1 X125.513 Y91.546 E0.10339
G1 X126.048 Y91.546 E0.01683
G1 X128.371 Y93.869 E0.10339
G1 X128.907 Y93.869 E0.01683
G1 X126.583 Y91.546 E0.10339
G1 X127.118 Y91.546 E0.01683
G1 X129.442 Y93.869 E0.10339
G1 X129.977 Y93.869 E0.01683
G1 X127.653 Y91.546 E0.10339
G1 X128.188 Y91.546 E0.01683
G1 X130.512 Y93.869 E0.10339
G1 X131.047 Y93.869 E0.01683
G1 X128.723 Y91.546 E0.10339
G1 X129.258 Y91.546 E0.01683
G1 X131.582 Y93.869 E0.10339
G1 X132.117 Y93.869 E0.01683
G1 X129.793 Y91.546 E0.10339
G1 X130.328 Y91.546 E0.01683
G1 X132.652 Y93.869 E0.10339
G1 X133.187 Y93.869 E0.01683
G1 X130.863 Y91.546 E0.10339
G1 X131.398 Y91.546 E0.01683
G1 X133.722 Y93.869 E0.10339
G1 X134.257 Y93.869 E0.01683
G1 X131.933 Y91.546 E0.10339
G1 X132.469 Y91.546 E0.01683
G1 X134.792 Y93.869 E0.10339
G1 X135.034 Y93.869 E0.00762
G1 X135.034 Y93.576 E0.00922
G1 X133.004 Y91.546 E0.09035
G1 X133.539 Y91.546 E0.01683
G1 X135.034 Y93.041 E0.06655
G1 X135.034 Y92.506 E0.01683
G1 X134.074 Y91.546 E0.04274
G1 X134.609 Y91.546 E0.01683
G1 X135.204 Y92.141 E0.02648
G1 F5760
G1 X134.609 Y91.546 E-0.29158
G1 F5760
G1 X134.074 Y91.546 E-0.18532
G1 F5760
G1 X134.652 Y92.124 E-0.28310
G1 E-0.04000 F2100.00000
G1 Z0.800 F7200.000
G1 X134.870 Y105.719 F7200.000
G1 Z0.200 F7200.000
G1 E0.80000 F2100.00000
G1 F900
G1 X134.335 Y105.183 E0.02382
G1 X133.800 Y105.183 E0.01683
G1 X134.700 Y106.084 E0.04008
G1 X134.700 Y106.619 E0.01683
G1 X133.265 Y105.183 E0.06388
G1 X132.730 Y105.183 E0.01683
G1 X134.700 Y107.154 E0.08769
G1 X134.700 Y107.507 E0.01110
G1 X134.518 Y107.507 E0.00573
G1 X132.194 Y105.183 E0.10339
G1 X131.659 Y105.183 E0.01683
G1 X133.983 Y107.507 E0.10339
G1 X133.448 Y107.507 E0.01683
G1 X131.124 Y105.183 E0.10339
G1 X130.589 Y105.183 E0.01683
G1 X132.913 Y107.507 E0.10339
G1 X132.378 Y107.507 E0.01683
G1 X130.054 Y105.183 E0.10339
G1 X129.519 Y105.183 E0.01683
G1 X131.843 Y107.507 E0.10339
G1 X131.308 Y107.507 E0.01683
G1 X128.984 Y105.183 E0.10339
G1 X128.449 Y105.183 E0.01683
G1 X130.773 Y107.507 E0.10339
G1 X130.238 Y107.507 E0.01683
G1 X127.914 Y105.183 E0.10339
G1 X127.379 Y105.183 E0.01683
G1 X129.703 Y107.507 E0.10339
G1 X129.168 Y107.507 E0.01683
G1 X126.844 Y105.183 E0.10339
G1 X126.309 Y105.183 E0.01683
G1 X128.632 Y107.507 E0.10339
G1 X128.097 Y107.507 E0.01683
G1 X125.774 Y105.183 E0.10339
G1 X125.239 Y105.183 E0.01683
G1 X127.562 Y107.507 E0.10339
G1 X127.027 Y107.507 E0.01683
G1 X124.703 Y105.183 E0.10339
G1 X124.168 Y105.183 E0.01683
G1 X126.492 Y107.507 E0.10339
G1 X125.957 Y107.507 E0.01683
G1 X120.966 Y102.516 E0.22208
G1 X120.966 Y103.051 E0.01683
G1 X125.422 Y107.507 E0.19827
G1 X124.887 Y107.507 E0.01683
G1 X120.966 Y103.586 E0.17447
G1 X120.966 Y104.121 E0.01683
G1 X124.352 Y107.507 E0.15066
G1 X123.817 Y107.507 E0.01683
G1 X120.948 Y104.638 E0.12765
G1 X120.932 Y104.867 E0.00721
G1 X120.882 Y105.108 E0.00774
G1 X123.549 Y107.774 E0.11865
G1 X123.549 Y108.309 E0.01683
G1 X120.773 Y105.533 E0.12353
G1 X120.627 Y105.923 E0.01309
G1 X123.549 Y108.845 E0.12999
G1 X123.549 Y109.380 E0.01683
G1 X120.443 Y106.273 E0.13820
G1 X120.237 Y106.602 E0.01221
G1 X123.549 Y109.915 E0.14737
G1 X123.549 Y110.450 E0.01683
G1 X119.996 Y106.897 E0.15807
G1 X119.737 Y107.172 E0.01191
G1 X123.549 Y110.985 E0.16962
G1 X123.549 Y111.520 E0.01683
G1 X120.966 Y108.936 E0.11494
G1 X120.966 Y109.471 E0.01683
G1 X123.549 Y112.055 E0.11494
G1 X123.549 Y112.590 E0.01683
G1 X120.966 Y110.007 E0.11494
G1 X120.966 Y110.542 E0.01683
G1 X123.549 Y113.125 E0.11494
G1 X123.549 Y113.660 E0.01683
G1 X120.966 Y111.077 E0.11494
G1 X120.966 Y111.612 E0.01683
G1 X123.549 Y114.195 E0.11494
G1 X123.549 Y114.730 E0.01683
G1 X120.966 Y112.147 E0.11494
G1 X120.966 Y112.682 E0.01683
G1 X123.719 Y115.435 E0.12249
G1 F5760
G1 X122.167 Y113.883 E-0.76000
G1 E-0.04000 F2100.00000
G1 Z0.800 F7200.000
G1 X122.627 Y118.624 F7200.000
G1 Z0.200 F7200.000
G1 E0.80000 F2100.00000
G1 F900
G1 X120.537 Y116.534 E0.09300
G1 X120.747 Y117.016 E0.01655
G1 X120.848 Y117.380 E0.01188
G1 X121.922 Y118.454 E0.04780
G1 X121.387 Y118.454 E0.01683
G1 X120.757 Y117.824 E0.02802
G1 F5760
G1 X121.387 Y118.454 E-0.30851
G1 F5760
G1 X121.922 Y118.454 E-0.18532
G1 F5760
G1 X121.379 Y117.911 E-0.26616
G1 E-0.04000 F2100.00000
G1 Z0.800 F7200.000
G1 X117.576 Y114.643 F7200.000
G1 Z0.200 F7200.000
G1 E0.80000 F2100.00000
G1 F900
G1 X117.127 Y114.188 E0.02012
G1 X117.657 Y114.189 E0.01667
G1 X118.016 Y114.548 E0.01596
G1 X118.185 Y114.591 E0.00549
G1 X118.663 Y114.765 E0.01599
G1 X118.884 Y114.880 E0.00784
G1 X118.193 Y114.190 E0.03071
G1 X118.730 Y114.191 E0.01687
G1 X122.993 Y118.454 E0.18967
G1 X123.528 Y118.454 E0.01683
G1 X119.266 Y114.192 E0.18962
G1 X119.802 Y114.193 E0.01687
G1 X124.063 Y118.454 E0.18957
G1 X124.598 Y118.454 E0.01683
G1 X120.338 Y114.195 E0.18952
G1 X120.874 Y114.196 E0.01687
G1 X125.133 Y118.454 E0.18947
G1 X125.668 Y118.454 E0.01683
G1 X120.966 Y113.752 E0.20921
G1 X120.966 Y113.217 E0.01683
G1 X126.203 Y118.454 E0.23302
G1 X126.738 Y118.454 E0.01683
G1 X124.414 Y116.131 E0.10339
G1 X124.949 Y116.131 E0.01683
G1 X127.273 Y118.454 E0.10339
G1 X127.808 Y118.454 E0.01683
G1 X125.484 Y116.131 E0.10339
G1 X126.020 Y116.131 E0.01683
G1 X128.343 Y118.454 E0.10339
G1 X128.878 Y118.454 E0.01683
G1 X126.555 Y116.131 E0.10339
G1 X127.090 Y116.131 E0.01683
G1 X129.413 Y118.454 E0.10339
G1 X129.948 Y118.454 E0.01683
G1 X127.625 Y116.131 E0.10339
G1 X128.160 Y116.131 E0.01683
G1 X130.484 Y118.454 E0.10339
G1 X131.019 Y118.454 E0.01683
G1 X128.695 Y116.131 E0.10339
G1 X129.230 Y116.131 E0.01683
G1 X131.554 Y118.454 E0.10339
G1 X132.089 Y118.454 E0.01683
G1 X129.765 Y116.131 E0.10339
G1 X130.300 Y116.131 E0.01683
G1 X132.624 Y118.454 E0.10339
G1 X133.159 Y118.454 E0.01683
G1 X130.835 Y116.131 E0.10339
G1 X131.370 Y116.131 E0.01683
G1 X133.694 Y118.454 E0.10339
G1 X134.229 Y118.454 E0.01683
G1 X131.905 Y116.131 E0.10339
G1 X132.440 Y116.131 E0.01683
G1 X134.764 Y118.454 E0.10339
G1 X135.034 Y118.454 E0.00851
