;FLAVOR:Marlin
;TIME:274
;Filament used:0.24948m
;Layer height: 0.3
;MINX:71.796
;MINY:68.376
;MINZ:0.2
;MAXX:93.204
;MAXY:96.624
;MAXZ:2.9
                                  
;Creative3D GCode Generated by CXEngineDEV
;Generated Time:2022-04-08 18:14:05
;----------Machine Config--------------
;Machine Name:Creality Ender-2 Pro
;Machine Height:180
;Machine Width:165
;Machine Depth:165
;Material name:PLA
;Number of Extruders:1
;ExtruderParams[0] Nozzle Diameter1000
;----------Profile Config---------------
;Layer Height:0.3
;Wall Thickness:0.8
;Top/Bottom Thickness:1
;Out Wall Line Width:0.4
;Inner Wall Line Width:0.4
;Inital Layer Height:200
;Wall Line Count:1
;Infill Line Distance:4
;Infill Pattern:grid
;Infill Sparse Density:20
;Infill Wipe Distance:0
;Print Temperature:200
;Bed Temperature:60
;Support Enable:false
;Support Density:30
;Support Angle:1.0472
;Adhesion Type:none
;machine is belt:false
;machine belt offset:10
;machine belt offset Y:0
;----------Shell Config----------------
;Outer Wall Wipe Distance:200
;Infill Before Walls:false
;Infill Overlap:0.16
;Fill Gaps Between Walls:everywhere
;Minimum Infill Area:1
;Top Surface Skin Layer:0
;Top Layers:2
;Z Seam Alignment:sharpest_corner
;Seam Corner Preference:z_seam_corner_inner
;Z Seam X:82.5
;Z Seam Y:82.5
;Horizontal Expansion:0
;Top/Bottom Pattern:zigzag
;Ironing Pattern:zigzag
;Vase Model:false
;----------Support Config----------------
;Support Type:everywhere
;Support Pattern:zigzag
;Support Infill Layer Thickness:0.3
;Minimum Support Area:10
;Enable Support Roof:false
;Support Roof Thickness:0.8
;Support Roof Pattern:lines
; ---------PrintSpeed & Travel----------
;Enable Print Cool:true
;Avoid Printed Parts Traveling:true
;Enable Retraction:true
;Retraction Distance:8
;Retraction Speed:100
;Retraction Prime Speed:100
;Maximum Retraction Count:100
;Minimum Extrusion Distance Window:1
;Z Hop When Retracted:false
;Z Hop Height:0.2
;Retract Before Outer Wall:true
;Print Speed:50
;Infill Speed:50

;Prime Tower Speed:50
;Travel Speed:120
;Initial Layer Speed:25
;Skirt/Brim Speed:25
;Combing Mode:off
;---------------------End of Head--------------------------
M140 S60
M104 S200
M105
M109 S200
M82 ;absolute extrusion mode
M220 S100 ;Reset Feedrate
M221 S100 ;Reset Flowrate

G28 ;Home

G92 E0 ;Reset Extruder
G1 Z2.0 F3000 ;Move Z Axis up
G1 X10.1 Y20 Z0.28 F5000.0 ;Move to start position
G1 X10.1 Y145.0 Z0.28 F1500.0 E15 ;Draw the first line
G1 X10.4 Y145.0 Z0.28 F5000.0 ;Move to side a little
G1 X10.4 Y20 Z0.28 F1500.0 E30 ;Draw the second line
G92 E0  ;Reset Extruder
G1 E-1.0000 F1800 ;Retract a bit
G1 Z2.0 F3000 ;Move Z Axis up
G1 E0.0000 F1800 

G92 E0
G92 E0
G1 F6000 E-8

;LAYER_COUNT:10

;LAYER:0
M107
;MESH:
G0 F3600 X77.685 Y86.624 Z0.2
;TYPE:WALL-OUTER
G1 F6000 E0
G1 F1500 X74.58 Y86.624 E0.1136
G1 X74.205 Y86.685 E0.1275
G1 X73.852 Y86.879 E0.14224
G1 X73.582 Y87.177 E0.15695
G1 X73.429 Y87.544 E0.1715
G1 X73.396 Y87.812 E0.18138
G1 X73.401 Y89.957 E0.25985
G1 X73.509 Y90.339 E0.27438
G1 X73.74 Y90.669 E0.28911
G1 X74.067 Y90.903 E0.30383
G1 X74.444 Y91.015 E0.31821
G1 X74.648 Y91.024 E0.32569
G1 X77.796 Y91.024 E0.44086
G1 X77.796 Y86.922 E0.59093
G1 X77.685 Y86.624 E0.60257
G0 F3600 X77.485 Y86.624
G0 X77.485 Y86.184
;;retract;;
G1 F6000 E-7.39743
G0 F3600 X81.719 Y72.039
G1 F6000 E0.60257
G1 F1500 X81.719 Y82.013 E0.96748
G1 X92.87 Y82.013 E1.37545
G1 X92.87 Y85.677 E1.5095
G1 X81.719 Y85.677 E1.91748
G1 X81.719 Y92.961 E2.18397
G1 X93.204 Y92.961 E2.60416
G1 X93.204 Y96.624 E2.73818
G1 X77.796 Y96.624 E3.3019
G1 X77.796 Y95.799 E3.33208
G1 X77.769 Y95.378 E3.34751
G1 X77.681 Y94.949 E3.36354
G1 X77.536 Y94.541 E3.37938
G1 X77.34 Y94.156 E3.39518
G1 X77.089 Y93.799 E3.41115
G1 X76.797 Y93.481 E3.42694
G1 X76.463 Y93.206 E3.44277
G1 X76.091 Y92.975 E3.45879
G1 X75.694 Y92.8 E3.47467
G1 X75.28 Y92.68 E3.49044
G1 X74.444 Y92.559 E3.52134
G1 X74.05 Y92.454 E3.53626
G1 X73.673 Y92.301 E3.55115
G1 X73.311 Y92.101 E3.56628
G1 X72.976 Y91.853 E3.58153
G1 X72.687 Y91.58 E3.59607
G1 X72.421 Y91.255 E3.61144
G1 X72.203 Y90.909 E3.6264
G1 X72.028 Y90.538 E3.64141
G1 X71.901 Y90.147 E3.65645
G1 X71.826 Y89.752 E3.67116
G1 X71.797 Y89.323 E3.68689
G1 X71.796 Y88.336 E3.723
G1 X71.82 Y87.927 E3.73799
G1 X71.896 Y87.521 E3.7531
G1 X72.021 Y87.126 E3.76826
G1 X72.188 Y86.765 E3.78281
G1 X72.408 Y86.412 E3.79803
G1 X72.669 Y86.089 E3.81322
G1 X72.965 Y85.806 E3.8282
G1 X73.29 Y85.563 E3.84305
G1 X73.65 Y85.359 E3.85819
G1 X74.028 Y85.204 E3.87314
G1 X74.425 Y85.094 E3.88821
G1 X75.268 Y84.973 E3.91937
G1 X75.68 Y84.854 E3.93506
G1 X76.082 Y84.678 E3.95111
G1 X76.45 Y84.451 E3.96693
G1 X76.786 Y84.177 E3.98279
G1 X77.081 Y83.86 E3.99864
G1 X77.332 Y83.502 E4.01463
G1 X77.531 Y83.118 E4.03046
G1 X77.677 Y82.705 E4.04648
G1 X77.766 Y82.281 E4.06233
G1 X77.795 Y81.855 E4.07795
G1 X77.796 Y68.376 E4.5711
G1 X93.204 Y68.376 E5.13482
G1 X93.204 Y72.039 E5.26883
G1 X81.719 Y72.039 E5.68903
G0 F3600 X81.719 Y72.239
G0 X81.279 Y72.239
;;retract;;
G1 F6000 E-2.31097
G0 F3600 X92.963 Y68.616
;TYPE:SKIN
G1 F6000 E5.68903
G1 F1500 X92.94 Y68.616 E5.68987
G1 X92.375 Y68.616 E5.71054
G1 X92.963 Y69.204 E5.74096
G1 X92.963 Y69.77 E5.76167
G1 X91.809 Y68.616 E5.82138
G1 X91.243 Y68.616 E5.84209
G1 X92.963 Y70.335 E5.93105
G1 X92.963 Y70.901 E5.95176
G1 X90.677 Y68.616 E6.07002
G1 X90.112 Y68.616 E6.09069
G1 X92.963 Y71.467 E6.2382
G1 X92.963 Y71.799 E6.25035
G1 X92.729 Y71.798 E6.25891
G1 X89.546 Y68.616 E6.42357
G1 X88.98 Y68.616 E6.44428
G1 X92.163 Y71.798 E6.60894
G1 X91.597 Y71.798 E6.62965
G1 X88.415 Y68.616 E6.79429
G1 X87.849 Y68.616 E6.815
G1 X91.032 Y71.798 E6.97966
G1 X90.466 Y71.798 E7.00037
G1 X87.283 Y68.616 E7.16503
G1 X86.718 Y68.616 E7.18571
G1 X89.9 Y71.798 E7.35034
G1 X89.335 Y71.798 E7.37102
G1 X86.152 Y68.616 E7.53568
G1 X85.586 Y68.616 E7.55639
G1 X88.769 Y71.798 E7.72105
G1 X88.203 Y71.798 E7.74176
G1 X85.021 Y68.616 E7.9064
G1 X84.455 Y68.616 E7.92711
G1 X87.638 Y71.798 E8.09177
G1 X87.072 Y71.798 E8.11248
G1 X83.889 Y68.616 E8.27714
G1 X83.324 Y68.616 E8.29781
G1 X86.506 Y71.798 E8.46245
G1 X85.941 Y71.798 E8.48312
G1 X82.758 Y68.616 E8.64779
G1 X82.192 Y68.616 E8.6685
G1 X85.375 Y71.798 E8.83316
G1 X84.809 Y71.798 E8.85387
G1 X81.626 Y68.616 E9.01853
G1 X81.061 Y68.616 E9.0392
G1 X84.243 Y71.798 E9.20384
G1 X83.678 Y71.798 E9.22451
G1 X80.495 Y68.616 E9.38918
G1 X79.929 Y68.616 E9.40989
G1 X83.112 Y71.798 E9.57455
G1 X82.546 Y71.798 E9.59526
G1 X79.364 Y68.616 E9.7599
G1 X78.798 Y68.616 E9.78061
G1 X81.981 Y71.798 E9.94527
G1 X81.477 Y71.798 E9.96371
G1 X81.478 Y71.861 E9.96601
G1 X78.232 Y68.616 E10.13394
G1 X78.034 Y68.616 E10.14118
G1 X78.034 Y68.983 E10.15461
G1 X81.478 Y72.427 E10.33281
G1 X81.478 Y72.993 E10.35351
G1 X78.034 Y69.549 E10.53171
G1 X78.034 Y70.115 E10.55242
G1 X81.478 Y73.558 E10.73058
G1 X81.478 Y74.124 E10.75129
G1 X78.034 Y70.68 E10.92949
G1 X78.034 Y71.246 E10.95019
G1 X81.478 Y74.69 E11.12839
G1 X81.478 Y75.255 E11.14906
G1 X78.034 Y71.812 E11.32723
G1 X78.034 Y72.378 E11.34794
G1 X81.478 Y75.821 E11.52611
G1 X81.478 Y76.387 E11.54681
G1 X78.034 Y72.943 E11.72501
G1 X78.034 Y73.509 E11.74572
G1 X81.478 Y76.953 E11.92391
G1 X81.479 Y77.519 E11.94462
G1 X78.034 Y74.075 E12.12284
G1 X78.034 Y74.64 E12.14351
G1 X81.479 Y78.085 E12.32176
G1 X81.479 Y78.65 E12.34243
G1 X78.034 Y75.206 E12.52065
G1 X78.034 Y75.772 E12.54136
G1 X81.479 Y79.216 E12.71958
G1 X81.479 Y79.782 E12.74028
G1 X78.034 Y76.337 E12.91853
G1 X78.034 Y76.903 E12.93924
G1 X81.479 Y80.347 E13.11746
G1 X81.479 Y80.913 E13.13817
G1 X78.034 Y77.469 E13.31639
G1 X78.034 Y78.034 E13.33706
G1 X81.479 Y81.479 E13.51531
G1 X81.479 Y82.044 E13.53598
G1 X81.479 Y82.252 E13.54359
G0 F3600 X81.479 Y82.044
G1 F1500 X78.034 Y78.6 E13.72181
G1 X78.034 Y79.166 E13.74251
G1 X84.304 Y85.436 E14.06693
G1 X83.739 Y85.436 E14.0876
G1 X78.034 Y79.731 E14.38278
G1 X78.034 Y80.297 E14.40349
G1 X83.173 Y85.436 E14.66938
G1 X82.607 Y85.436 E14.69009
G1 X78.034 Y80.863 E14.9267
G1 X78.034 Y81.429 E14.94741
G1 X82.042 Y85.436 E15.15476
G1 X81.479 Y85.436 E15.17536
G0 F3600 X81.479 Y85.439
G1 F1500 X78.026 Y81.986 E15.35402
G1 X78.004 Y82.312 E15.36597
G1 X77.966 Y82.491 E15.37267
G1 X81.479 Y86.004 E15.55443
G1 X81.479 Y86.57 E15.57514
G1 X77.848 Y82.939 E15.76301
G1 X77.752 Y83.213 E15.77363
G1 X77.684 Y83.341 E15.77893
G1 X81.479 Y87.136 E15.97529
G1 X81.479 Y87.701 E15.99596
G1 X77.481 Y83.704 E16.20279
G1 X77.267 Y84.01 E16.21646
G1 X77.245 Y84.033 E16.21762
G1 X81.479 Y88.267 E16.43669
G1 X81.479 Y88.833 E16.4574
G1 X76.972 Y84.326 E16.69059
G1 X76.949 Y84.351 E16.69184
G1 X76.665 Y84.584 E16.70528
G1 X81.479 Y89.398 E16.95435
G1 X81.479 Y89.964 E16.97506
G1 X76.325 Y84.811 E17.24171
G1 X76.194 Y84.891 E17.24732
G1 X75.948 Y84.999 E17.25715
G1 X77.332 Y86.383 E17.32876
G1 X76.767 Y86.383 E17.34943
G1 X75.53 Y85.146 E17.41344
G1 X75.318 Y85.207 E17.42151
G1 X75.062 Y85.244 E17.43097
G1 X76.201 Y86.383 E17.4899
G1 X75.635 Y86.383 E17.51061
G1 X74.567 Y85.315 E17.56587
G1 X74.476 Y85.328 E17.56923
G1 X74.115 Y85.429 E17.58295
G1 X75.069 Y86.383 E17.63231
G1 X74.56 Y86.383 E17.65093
G1 X74.512 Y86.391 E17.65271
G1 X73.718 Y85.597 E17.69379
G1 X73.417 Y85.766 E17.70642
G1 X73.363 Y85.808 E17.70893
G1 X74.049 Y86.494 E17.74442
G1 X73.701 Y86.687 E17.75898
G1 X73.689 Y86.7 E17.75963
G1 X73.048 Y86.059 E17.79279
G1 X72.846 Y86.25 E17.80296
G1 X72.769 Y86.346 E17.80747
G1 X73.421 Y86.997 E17.84117
G1 X73.377 Y87.045 E17.84356
G1 X73.237 Y87.38 E17.85684
G1 X72.528 Y86.67 E17.89355
G1 X72.398 Y86.88 E17.90259
G1 X72.326 Y87.034 E17.90881
G1 X73.156 Y87.864 E17.95175
G1 X73.157 Y88.431 E17.97249
G1 X72.17 Y87.444 E18.02356
G1 X72.129 Y87.579 E18.02872
G1 X72.067 Y87.906 E18.0409
G1 X73.158 Y88.997 E18.09735
G1 X73.16 Y89.564 E18.1181
G1 X72.036 Y88.441 E18.17623
G1 X72.036 Y89.007 E18.19693
G1 X73.217 Y90.187 E18.25801
G1 X73.289 Y90.442 E18.26771
G1 X73.567 Y90.84 E18.28547
G1 X73.959 Y91.119 E18.30307
;;retract;;
G1 F6000 E10.30307
G0 F3600 X72.25 Y90.445
G1 F6000 E18.30307
G1 F1500 X72.411 Y90.789 E18.31697
G1 X72.612 Y91.109 E18.33079
G1 X72.868 Y91.422 E18.34559
G1 X73.124 Y91.662 E18.35843
G1 X73.442 Y91.899 E18.37294
G1 X73.777 Y92.084 E18.38694
G1 X74.122 Y92.224 E18.40056
G1 X72.204 Y90.306 E18.4998
G1 X72.131 Y90.081 E18.50845
G1 X72.065 Y89.73 E18.52152
G1 X72.055 Y89.591 E18.52662
G1 X74.835 Y92.371 E18.67046
G1 X75.33 Y92.444 E18.68876
G1 X75.531 Y92.502 E18.69642
G1 X74.23 Y91.201 E18.76373
G1 X74.403 Y91.252 E18.77033
G1 X74.642 Y91.262 E18.77908
G1 X74.858 Y91.263 E18.78698
G1 X76.61 Y93.015 E18.87763
G0 F3600 X76.962 Y93.305
G1 F1500 X77.276 Y93.647 E18.89462
G1 X77.355 Y93.76 E18.89966
G1 X77.545 Y94.031 E18.91177
G1 X77.756 Y94.444 E18.92874
G1 X77.912 Y94.883 E18.94579
G1 X79.412 Y96.382 E19.02337
G1 X78.846 Y96.382 E19.04408
G1 X78.02 Y95.556 E19.08682
G1 X78.035 Y95.791 E19.09543
G1 X78.035 Y96.137 E19.10809
G1 X78.28 Y96.382 E19.12077
G1 X78.036 Y96.382 E19.12969
;;retract;;
G1 F6000 E11.12969
G0 F3600 X77.355 Y93.76
G1 F6000 E19.12969
G1 F1500 X79.978 Y96.382 E19.26538
G1 X80.543 Y96.382 E19.28606
G1 X75.424 Y91.263 E19.55092
G1 X75.989 Y91.263 E19.57159
G1 X81.109 Y96.382 E19.83647
G1 X81.675 Y96.382 E19.85718
G1 X76.555 Y91.263 E20.12207
G1 X77.121 Y91.263 E20.14277
G1 X82.24 Y96.382 E20.40764
G1 X82.806 Y96.382 E20.42834
G1 X77.686 Y91.263 E20.69323
G1 X78.036 Y91.263 E20.70603
G1 X78.036 Y91.047 E20.71394
G1 X83.372 Y96.382 E20.99
G1 X83.937 Y96.382 E21.01067
G1 X78.036 Y90.481 E21.31599
G1 X78.036 Y89.915 E21.3367
G1 X84.503 Y96.382 E21.67131
G1 X85.069 Y96.382 E21.69201
G1 X81.886 Y93.2 E21.85668
G1 X82.452 Y93.2 E21.87739
G1 X85.634 Y96.382 E22.04202
G1 X86.2 Y96.382 E22.06273
G1 X83.017 Y93.2 E22.2274
G1 X83.583 Y93.2 E22.2481
G1 X86.766 Y96.382 E22.41277
G1 X87.331 Y96.382 E22.43344
G1 X84.149 Y93.2 E22.59808
G1 X84.714 Y93.2 E22.61875
G1 X87.897 Y96.382 E22.78341
G1 X88.463 Y96.382 E22.80412
G1 X85.28 Y93.2 E22.96879
G1 X85.846 Y93.2 E22.98949
G1 X89.028 Y96.382 E23.15413
G1 X89.594 Y96.382 E23.17484
G1 X86.411 Y93.2 E23.33951
G1 X86.977 Y93.2 E23.36021
G1 X90.16 Y96.382 E23.52488
G1 X90.726 Y96.382 E23.54559
G1 X87.543 Y93.2 E23.71025
G1 X88.109 Y93.2 E23.73096
G1 X91.291 Y96.382 E23.8956
G1 X91.857 Y96.382 E23.9163
G1 X88.674 Y93.2 E24.08097
G1 X89.24 Y93.2 E24.10168
G1 X92.423 Y96.382 E24.26634
G1 X92.964 Y96.383 E24.28613
G1 X92.964 Y96.358 E24.28705
G1 X89.806 Y93.2 E24.45045
G1 X90.371 Y93.2 E24.47112
G1 X92.964 Y95.792 E24.60526
G1 X92.964 Y95.226 E24.62596
G1 X90.937 Y93.2 E24.73082
G1 X91.503 Y93.2 E24.75152
G1 X92.964 Y94.661 E24.82712
G1 X92.964 Y94.095 E24.84782
G1 X92.068 Y93.2 E24.89416
G1 X92.634 Y93.2 E24.91487
G1 X92.964 Y93.2 E24.92694
G0 F3600 X92.964 Y93.529
G1 F1500 X92.634 Y93.2 E24.94399
;;retract;;
G1 F6000 E16.94399
G0 F3600 X92.628 Y82.252
G1 F6000 E24.94399
G1 F1500 X92.435 Y82.252 E24.95105
G1 X92.629 Y82.447 E24.96111
G1 X92.629 Y83.012 E24.98178
G1 X91.869 Y82.252 E25.02111
G1 X91.303 Y82.252 E25.04181
G1 X92.629 Y83.578 E25.11042
G1 X92.629 Y84.144 E25.13113
G1 X90.738 Y82.252 E25.229
G1 X90.172 Y82.252 E25.2497
G1 X92.629 Y84.709 E25.37683
G1 X92.629 Y85.275 E25.39754
G1 X89.606 Y82.252 E25.55395
G1 X89.041 Y82.252 E25.57462
G1 X92.224 Y85.436 E25.73934
G1 X91.658 Y85.436 E25.76005
G1 X88.475 Y82.252 E25.92476
G1 X87.909 Y82.252 E25.94547
G1 X91.093 Y85.436 E26.11021
G1 X90.527 Y85.436 E26.13092
G1 X87.343 Y82.252 E26.29566
G1 X86.778 Y82.252 E26.31633
G1 X89.961 Y85.436 E26.48105
G1 X89.395 Y85.436 E26.50176
G1 X86.212 Y82.252 E26.66647
G1 X85.646 Y82.252 E26.68718
G1 X88.83 Y85.436 E26.85192
G1 X88.264 Y85.436 E26.87263
G1 X85.081 Y82.252 E27.03735
G1 X84.515 Y82.252 E27.05806
G1 X87.698 Y85.436 E27.22277
G1 X87.133 Y85.436 E27.24344
G1 X83.949 Y82.252 E27.40819
G1 X83.384 Y82.252 E27.42886
G1 X86.567 Y85.436 E27.59357
G1 X86.001 Y85.436 E27.61428
G1 X82.818 Y82.252 E27.779
G1 X82.252 Y82.252 E27.7997
G1 X85.436 Y85.436 E27.96445
G1 X84.87 Y85.436 E27.98515
G1 X81.687 Y82.252 E28.14987
;;retract;;
G1 F6000 E20.14987
G0 F3600 X81.479 Y93.2
G1 F6000 E28.14987
G1 F1500 X81.479 Y92.792 E28.1648
G1 X78.036 Y89.35 E28.34292
G1 X78.036 Y88.784 E28.36362
G1 X81.479 Y92.227 E28.54177
G1 X81.479 Y91.661 E28.56247
G1 X78.036 Y88.218 E28.74062
G1 X78.036 Y87.652 E28.76132
G1 X81.479 Y91.095 E28.93947
G1 X81.479 Y90.53 E28.96014
G1 X78.036 Y87.087 E29.13828
G1 X78.036 Y86.877 E29.14596
G1 X77.851 Y86.383 E29.16526
;MESH:NONMESH
G0 F600 X77.851 Y86.383 Z0.5
G0 F3600 X77.796 Y86.624
;TIME_ELAPSED:46.873673

;LAYER:1
M140 S60
M106 S127.5
;TYPE:WALL-OUTER
;MESH:
G1 F1500 X77.596 Y86.624 E29.17524
G1 X74.479 Y86.629 E29.33075
G1 X74.097 Y86.729 E29.35045
G1 X73.764 Y86.957 E29.37058
G1 X73.524 Y87.28 E29.39066
G1 X73.408 Y87.654 E29.4102
G1 X73.396 Y87.817 E29.41835
G1 X73.4 Y89.941 E29.52432
G1 X73.502 Y90.324 E29.54409
G1 X73.729 Y90.656 E29.56416
G1 X74.052 Y90.896 E29.58423
G1 X74.43 Y91.013 E29.60397
G1 X74.726 Y91.024 E29.61875
G1 X77.796 Y91.024 E29.77191
G1 X77.796 Y86.824 E29.98145
G1 X77.796 Y86.624 E29.98791
G0 F5400 X77.596 Y86.624
G0 X77.596 Y86.184
;;retract;;
G1 F6000 E21.98791
G0 F5400 X81.719 Y72.039
G1 F6000 E29.98791
G1 F1500 X81.719 Y82.013 E30.48552
G1 X92.87 Y82.013 E31.04184
G1 X92.87 Y85.677 E31.22464
G1 X81.719 Y85.677 E31.78097
G1 X81.719 Y92.961 E32.14437
G1 X93.204 Y92.961 E32.71736
G1 X93.204 Y96.624 E32.90011
G1 X77.796 Y96.624 E33.66881
G1 X77.796 Y95.799 E33.70997
G1 X77.77 Y95.393 E33.73027
G1 X77.682 Y94.955 E33.75256
G1 X77.54 Y94.549 E33.77402
G1 X77.346 Y94.168 E33.79535
G1 X77.095 Y93.806 E33.81732
G1 X76.806 Y93.491 E33.83865
G1 X76.48 Y93.22 E33.8598
G1 X76.252 Y93.067 E33.8735
G1 X75.916 Y92.891 E33.89242
G1 X75.661 Y92.788 E33.90614
G1 X75.296 Y92.683 E33.92509
G1 X74.47 Y92.563 E33.96673
G1 X74.24 Y92.511 E33.9785
G1 X73.875 Y92.389 E33.9977
G1 X73.664 Y92.297 E34.00918
G1 X73.33 Y92.112 E34.02823
G1 X73.13 Y91.975 E34.04033
G1 X72.85 Y91.74 E34.05856
G1 X72.677 Y91.569 E34.0707
G1 X72.431 Y91.269 E34.09006
G1 X72.305 Y91.083 E34.10126
G1 X72.117 Y90.74 E34.12078
G1 X72.023 Y90.527 E34.13239
