;FLAVOR:Marlin
;TIME:230
;Filament used:0.197307m
;Layer height: 0.3
;MINX:70.525
;MINY:69.099
;MINZ:0.2
;MAXX:94.475
;MAXY:95.901
;MAXZ:2.9
                                 
;Creative3D GCode Generated by CXEngineDEV
;Generated Time:2022-04-08 18:14:05
;----------Machine Config--------------
;Machine Name:Creality Ender-2 Pro
;Machine Height:180
;Machine Width:165
;Machine Depth:165
;Material name:PLA
;Number of Extruders:1
;ExtruderParams[0] Nozzle Diameter1000
;----------Profile Config---------------
;Layer Height:0.3
;Wall Thickness:0.8
;Top/Bottom Thickness:1
;Out Wall Line Width:0.4
;Inner Wall Line Width:0.4
;Inital Layer Height:200
;Wall Line Count:1
;Infill Line Distance:4
;Infill Pattern:grid
;Infill Sparse Density:20
;Infill Wipe Distance:0
;Print Temperature:200
;Bed Temperature:60
;Support Enable:false
;Support Density:30
;Support Angle:1.0472
;Adhesion Type:none
;machine is belt:false
;machine belt offset:10
;machine belt offset Y:0
;----------Shell Config----------------
;Outer Wall Wipe Distance:200
;Infill Before Walls:false
;Infill Overlap:0.16
;Fill Gaps Between Walls:everywhere
;Minimum Infill Area:1
;Top Surface Skin Layer:0
;Top Layers:2
;Z Seam Alignment:sharpest_corner
;Seam Corner Preference:z_seam_corner_inner
;Z Seam X:82.5
;Z Seam Y:82.5
;Horizontal Expansion:0
;Top/Bottom Pattern:zigzag
;Ironing Pattern:zigzag
;Vase Model:false
;----------Support Config----------------
;Support Type:everywhere
;Support Pattern:zigzag
;Support Infill Layer Thickness:0.3
;Minimum Support Area:10
;Enable Support Roof:false
;Support Roof Thickness:0.8
;Support Roof Pattern:lines
; ---------PrintSpeed & Travel----------
;Enable Print Cool:true
;Avoid Printed Parts Traveling:true
;Enable Retraction:true
;Retraction Distance:8
;Retraction Speed:100
;Retraction Prime Speed:100
;Maximum Retraction Count:100
;Minimum Extrusion Distance Window:1
;Z Hop When Retracted:false
;Z Hop Height:0.2
;Retract Before Outer Wall:true
;Print Speed:50
;Infill Speed:50

;Prime Tower Speed:50
;Travel Speed:120
;Initial Layer Speed:25
;Skirt/Brim Speed:25
;Combing Mode:off
;---------------------End of Head--------------------------
M140 S60
M104 S200
M105
M109 S200
M82 ;absolute extrusion mode
M220 S100 ;Reset Feedrate
M221 S100 ;Reset Flowrate

G28 ;Home

G92 E0 ;Reset Extruder
G1 Z2.0 F3000 ;Move Z Axis up
G1 X10.1 Y20 Z0.28 F5000.0 ;Move to start position
G1 X10.1 Y145.0 Z0.28 F1500.0 E15 ;Draw the first line
G1 X10.4 Y145.0 Z0.28 F5000.0 ;Move to side a little
G1 X10.4 Y20 Z0.28 F1500.0 E30 ;Draw the second line
G92 E0  ;Reset Extruder
G1 E-1.0000 F1800 ;Retract a bit
G1 Z2.0 F3000 ;Move Z Axis up
G1 E0.0000 F1800 

G92 E0
G92 E0
G1 F6000 E-8

;LAYER_COUNT:10

;LAYER:0
M107
;MESH:
G0 F3600 X76.52 Y85.901 Z0.2
;TYPE:WALL-OUTER
G1 F6000 E0
G1 F1500 X73.307 Y85.901 E0.11755
G1 X72.906 Y85.972 E0.13245
G1 X72.534 Y86.194 E0.1483
G1 X72.264 Y86.534 E0.16418
G1 X72.136 Y86.935 E0.17958
G1 X72.125 Y87.094 E0.18542
G1 X72.125 Y89.119 E0.2595
G1 X72.196 Y89.519 E0.27437
G1 X72.418 Y89.892 E0.29025
G1 X72.759 Y90.162 E0.30616
G1 X73.161 Y90.289 E0.32158
G1 X73.377 Y90.301 E0.3295
G1 X76.325 Y90.301 E0.43735
G1 X76.525 Y90.301 E0.44467
G1 X76.525 Y90.101 E0.44941
G1 X76.52 Y85.901 E0.60307
G0 F3600 X76.32 Y85.901
G0 X76.32 Y85.461
;;retract;;
G1 F6000 E-7.39693
G0 F3600 X79.724 Y69.099
G1 F6000 E0.60307
G1 F1500 X79.724 Y81.457 E1.0552
G1 X92.49 Y81.457 E1.52226
G1 X92.49 Y84.267 E1.62507
G1 X79.724 Y84.267 E2.09213
G1 X79.724 Y93.091 E2.41496
G1 X94.475 Y93.091 E2.95465
G1 X94.475 Y95.901 E3.05745
G1 X76.525 Y95.901 E3.71417
G1 X76.525 Y95.075 E3.7444
G1 X76.498 Y94.654 E3.75983
G1 X76.41 Y94.226 E3.77582
G1 X76.265 Y93.818 E3.79166
G1 X76.069 Y93.433 E3.80746
G1 X75.818 Y93.075 E3.82346
G1 X75.526 Y92.758 E3.83923
G1 X75.192 Y92.482 E3.85508
G1 X74.82 Y92.252 E3.87108
G1 X74.424 Y92.077 E3.88692
G1 X74.009 Y91.956 E3.90274
G1 X73.176 Y91.837 E3.93352
G1 X72.777 Y91.73 E3.94864
G1 X72.402 Y91.577 E3.96345
G1 X72.04 Y91.377 E3.97859
G1 X71.71 Y91.133 E3.9936
G1 X71.413 Y90.852 E4.00856
G1 X71.15 Y90.531 E4.02374
G1 X70.932 Y90.185 E4.0387
G1 X70.757 Y89.814 E4.05371
G1 X70.63 Y89.423 E4.06875
G1 X70.555 Y89.028 E4.08346
G1 X70.526 Y88.6 E4.09916
G1 X70.525 Y87.613 E4.13527
G1 X70.549 Y87.203 E4.15029
G1 X70.625 Y86.797 E4.16541
G1 X70.75 Y86.403 E4.18053
G1 X70.917 Y86.041 E4.19511
G1 X71.147 Y85.673 E4.21099
G1 X71.397 Y85.366 E4.22548
G1 X71.689 Y85.086 E4.24028
G1 X72.022 Y84.836 E4.25551
G1 X72.375 Y84.637 E4.27034
G1 X72.757 Y84.48 E4.28545
G1 X73.154 Y84.371 E4.30051
G1 X73.997 Y84.249 E4.33167
G1 X74.409 Y84.131 E4.34735
G1 X74.811 Y83.955 E4.36341
G1 X75.179 Y83.727 E4.37925
G1 X75.515 Y83.454 E4.39509
G1 X75.81 Y83.136 E4.41096
G1 X76.061 Y82.778 E4.42695
G1 X76.26 Y82.395 E4.44274
G1 X76.406 Y81.982 E4.45877
G1 X76.495 Y81.557 E4.47466
G1 X76.524 Y81.132 E4.49024
G1 X76.525 Y69.099 E4.93048
G1 X79.724 Y69.099 E5.04752
G0 F3600 X79.724 Y69.299
G0 X79.284 Y69.539
;;retract;;
G1 F6000 E-2.95248
G0 F3600 X92.249 Y81.696
;TYPE:SKIN
G1 F6000 E5.04752
G1 F1500 X91.879 Y81.696 E5.06106
G1 X92.249 Y82.067 E5.08023
G1 X92.249 Y82.633 E5.10094
G1 X91.313 Y81.696 E5.14939
G1 X90.747 Y81.696 E5.1701
G1 X92.249 Y83.198 E5.24781
G1 X92.249 Y83.764 E5.26852
G1 X90.182 Y81.696 E5.37549
G1 X89.616 Y81.696 E5.3962
G1 X91.945 Y84.026 E5.51673
G1 X91.38 Y84.026 E5.5374
G1 X89.05 Y81.696 E5.65796
G1 X88.485 Y81.696 E5.67863
G1 X90.814 Y84.026 E5.79916
G1 X90.248 Y84.026 E5.81987
G1 X87.919 Y81.696 E5.9404
G1 X87.353 Y81.696 E5.96111
G1 X89.683 Y84.026 E6.08166
G1 X89.117 Y84.026 E6.10237
G1 X86.788 Y81.696 E6.2229
G1 X86.222 Y81.696 E6.24361
G1 X88.551 Y84.026 E6.36414
G1 X87.986 Y84.026 E6.38481
G1 X85.656 Y81.696 E6.50536
G1 X85.091 Y81.696 E6.52603
G1 X87.42 Y84.026 E6.64656
G1 X86.854 Y84.026 E6.66727
G1 X84.525 Y81.696 E6.7878
G1 X83.959 Y81.696 E6.80851
G1 X86.288 Y84.026 E6.92904
G1 X85.723 Y84.026 E6.94971
G1 X83.394 Y81.696 E7.07024
G1 X82.828 Y81.696 E7.09095
G1 X85.157 Y84.026 E7.21148
G1 X84.591 Y84.026 E7.23219
G1 X82.262 Y81.696 E7.35271
G1 X81.696 Y81.696 E7.37342
G1 X84.026 Y84.026 E7.49398
G1 X83.46 Y84.026 E7.51469
G1 X81.131 Y81.696 E7.63522
G1 X80.565 Y81.696 E7.65592
G1 X82.894 Y84.026 E7.77645
G1 X82.329 Y84.026 E7.79712
G1 X79.999 Y81.696 E7.91768
G0 F3600 X79.484 Y81.696
G1 F1500 X79.484 Y81.181 E7.93652
G1 X79.484 Y80.615 E7.95723
G1 X76.763 Y77.894 E8.09802
G1 X76.763 Y77.329 E8.11869
G1 X79.484 Y80.05 E8.25947
G1 X79.484 Y79.484 E8.28018
G1 X76.763 Y76.763 E8.42097
G1 X76.763 Y76.197 E8.44168
G1 X79.484 Y78.918 E8.58246
G1 X79.484 Y78.353 E8.60313
G1 X76.763 Y75.632 E8.74392
G1 X76.763 Y75.066 E8.76463
G1 X79.484 Y77.787 E8.90541
G1 X79.484 Y77.221 E8.92612
G1 X76.763 Y74.5 E9.06691
G1 X76.763 Y73.935 E9.08758
G1 X79.484 Y76.656 E9.22836
G1 X79.484 Y76.09 E9.24907
G1 X76.763 Y73.369 E9.38986
G1 X76.763 Y72.803 E9.41057
G1 X79.484 Y75.524 E9.55135
G1 X79.483 Y74.958 E9.57206
G1 X76.763 Y72.238 E9.71279
G1 X76.763 Y71.672 E9.7335
G1 X79.483 Y74.392 E9.87424
G1 X79.483 Y73.826 E9.89494
G1 X76.763 Y71.106 E10.03568
G1 X76.763 Y70.54 E10.05639
G1 X79.483 Y73.261 E10.19715
G1 X79.483 Y72.695 E10.21786
G1 X76.763 Y69.975 E10.35859
G1 X76.763 Y69.409 E10.3793
G1 X79.483 Y72.129 E10.52003
G1 X79.483 Y71.564 E10.5407
G1 X77.259 Y69.339 E10.6558
G1 X77.824 Y69.339 E10.67647
G1 X79.483 Y70.998 E10.76231
G1 X79.483 Y70.432 E10.78302
G1 X78.39 Y69.339 E10.83957
G1 X78.956 Y69.339 E10.86028
G1 X79.483 Y69.338 E10.87956
G0 F3600 X79.483 Y69.867
G1 F1500 X78.956 Y69.339 E10.90685
;;retract;;
G1 F6000 E2.90685
G0 F3600 X79.484 Y81.181
G1 F6000 E10.90685
G1 F1500 X76.763 Y78.46 E11.04764
G1 X76.763 Y79.026 E11.06835
G1 X81.763 Y84.026 E11.32705
G1 X81.197 Y84.026 E11.34776
G1 X76.763 Y79.591 E11.5772
G1 X76.763 Y80.157 E11.59791
G1 X80.632 Y84.026 E11.79809
G1 X80.066 Y84.026 E11.8188
G1 X76.763 Y80.723 E11.9897
G1 X76.763 Y81.139 E12.00492
G1 X76.753 Y81.279 E12.01005
G1 X79.5 Y84.026 E12.15219
G1 X79.483 Y84.026 E12.15281
G1 X79.483 Y84.574 E12.17286
G1 X76.692 Y81.783 E12.31726
G1 X76.638 Y82.046 E12.32709
G1 X76.573 Y82.23 E12.33423
G1 X79.483 Y85.14 E12.48479
G1 X79.483 Y85.706 E12.5055
G1 X76.407 Y82.63 E12.66465
G1 X76.265 Y82.902 E12.67588
G1 X76.202 Y82.991 E12.67987
G1 X79.483 Y86.271 E12.8496
G1 X79.483 Y86.837 E12.87031
G1 X75.965 Y83.319 E13.05234
G1 X75.692 Y83.612 E13.06699
G1 X79.483 Y87.403 E13.26314
G1 X79.483 Y87.969 E13.28384
G1 X75.383 Y83.869 E13.49598
G1 X75.318 Y83.922 E13.49905
G1 X75.043 Y84.094 E13.51092
G1 X76.608 Y85.659 E13.59189
G1 X76.042 Y85.659 E13.6126
G1 X74.664 Y84.281 E13.6839
G1 X74.49 Y84.357 E13.69084
G1 X74.245 Y84.427 E13.70017
G1 X75.477 Y85.659 E13.76391
G1 X74.911 Y85.659 E13.78462
G1 X73.775 Y84.524 E13.84337
G1 X73.281 Y84.595 E13.86163
G1 X74.345 Y85.659 E13.91668
G1 X73.78 Y85.659 E13.93735
G1 X72.83 Y84.709 E13.98651
G1 X72.479 Y84.852 E14.00037
G1 X72.433 Y84.878 E14.00231
G1 X73.225 Y85.67 E14.04328
G1 X72.82 Y85.742 E14.05833
G1 X72.764 Y85.775 E14.06071
G1 X72.081 Y85.091 E14.09608
G1 X71.842 Y85.269 E14.10698
G1 X71.767 Y85.343 E14.11083
G1 X72.409 Y85.986 E14.14408
G1 X72.373 Y86.008 E14.14562
G1 X72.149 Y86.291 E14.15883
G1 X71.489 Y85.631 E14.19297
G1 X71.344 Y85.81 E14.2014
G1 X71.25 Y85.958 E14.20782
G1 X71.967 Y86.675 E14.24492
G1 X71.897 Y86.888 E14.25312
G1 X71.885 Y87.085 E14.26034
G1 X71.885 Y87.158 E14.26301
G1 X71.05 Y86.323 E14.30621
G1 X70.972 Y86.493 E14.31306
G1 X70.895 Y86.734 E14.32231
G1 X71.885 Y87.724 E14.37354
G1 X71.885 Y88.29 E14.39424
G1 X70.793 Y87.198 E14.45074
G1 X70.787 Y87.229 E14.4519
G1 X70.765 Y87.626 E14.46645
G1 X70.765 Y87.735 E14.47043
G1 X71.885 Y88.855 E14.52838
G1 X71.885 Y89.14 E14.53881
G1 X71.945 Y89.481 E14.55148
G1 X71.966 Y89.603 E14.55601
G1 X72.234 Y90.052 E14.57514
G1 X72.644 Y90.377 E14.59428
G0 F3600 X72.932 Y90.468
G1 F1500 X74.234 Y91.771 E14.66167
G1 X74.506 Y91.85 E14.67203
G1 X74.932 Y92.039 E14.68909
G1 X75.287 Y92.257 E14.70433
G1 X73.57 Y90.54 E14.79317
G1 X74.135 Y90.54 E14.81384
G1 X79.255 Y95.66 E15.07875
G1 X79.821 Y95.66 E15.09946
G1 X74.701 Y90.54 E15.36437
G1 X75.267 Y90.54 E15.38508
G1 X80.386 Y95.66 E15.64996
G1 X80.952 Y95.66 E15.67067
G1 X75.832 Y90.54 E15.93558
G1 X76.398 Y90.54 E15.95629
G1 X81.518 Y95.66 E16.2212
G1 X82.083 Y95.66 E16.24187
G1 X79.754 Y93.331 E16.36238
G1 X80.32 Y93.331 E16.38309
G1 X82.649 Y95.66 E16.50359
G1 X83.215 Y95.66 E16.5243
G1 X80.885 Y93.331 E16.64483
G1 X81.451 Y93.331 E16.66553
G1 X83.78 Y95.66 E16.78604
G1 X84.346 Y95.66 E16.80675
G1 X82.017 Y93.331 E16.92725
G1 X82.583 Y93.331 E16.94796
G1 X84.912 Y95.66 E17.06846
G1 X85.477 Y95.66 E17.08913
G1 X83.148 Y93.331 E17.20964
G1 X83.714 Y93.331 E17.23034
G1 X86.043 Y95.66 E17.35085
G1 X86.609 Y95.66 E17.37156
G1 X84.28 Y93.331 E17.49206
G1 X84.845 Y93.331 E17.51273
G1 X87.174 Y95.66 E17.63324
G1 X87.74 Y95.66 E17.65394
G1 X85.411 Y93.331 E17.77445
G1 X85.977 Y93.331 E17.79515
G1 X88.306 Y95.66 E17.91566
G1 X88.872 Y95.66 E17.93637
G1 X86.542 Y93.331 E18.0569
G1 X87.108 Y93.331 E18.0776
G1 X89.437 Y95.66 E18.19811
G1 X90.003 Y95.66 E18.21882
G1 X87.674 Y93.331 E18.33932
G1 X88.239 Y93.331 E18.35999
G1 X90.569 Y95.66 E18.48052
G1 X91.134 Y95.66 E18.50119
G1 X88.805 Y93.331 E18.6217
G1 X89.371 Y93.331 E18.6424
G1 X91.7 Y95.66 E18.76291
G1 X92.266 Y95.66 E18.78361
G1 X89.936 Y93.331 E18.90414
G1 X90.502 Y93.331 E18.92485
G1 X92.831 Y95.66 E19.04536
G1 X93.397 Y95.66 E19.06606
G1 X91.068 Y93.331 E19.18657
G1 X91.633 Y93.331 E19.20724
G1 X93.963 Y95.66 E19.32777
G1 X94.234 Y95.66 E19.33768
G1 X94.234 Y95.366 E19.34844
G1 X92.199 Y93.331 E19.45373
G1 X92.765 Y93.331 E19.47444
G1 X94.234 Y94.8 E19.55045
G1 X94.234 Y94.234 E19.57115
G1 X93.331 Y93.331 E19.61788
G1 X93.896 Y93.331 E19.63855
G1 X94.234 Y93.331 E19.65091
G0 F3600 X94.234 Y93.669
G1 F1500 X93.896 Y93.331 E19.6684
;;retract;;
G1 F6000 E11.6684
G0 F3600 X79.483 Y93.33
G1 F6000 E19.6684
G1 F1500 X79.483 Y93.06 E19.67828
G1 X76.764 Y90.34 E19.81899
G1 X76.763 Y89.774 E19.8397
G1 X79.483 Y92.494 E19.98043
G1 X79.483 Y91.928 E20.00114
G1 X76.763 Y89.208 E20.14187
G1 X76.762 Y88.642 E20.16258
G1 X79.483 Y91.363 E20.30337
G1 X79.483 Y90.797 E20.32408
G1 X76.762 Y88.075 E20.46489
G1 X76.761 Y87.509 E20.4856
G1 X79.483 Y90.231 E20.62643
G1 X79.483 Y89.666 E20.6471
G1 X76.76 Y86.943 E20.78799
G1 X76.76 Y86.377 E20.8087
G1 X79.483 Y89.1 E20.94959
G1 X79.483 Y88.534 E20.9703
G1 X76.759 Y85.81 E21.11124
G1 X76.759 Y85.659 E21.11677
;;retract;;
G1 F6000 E13.11677
G0 F3600 X71.945 Y89.481
G1 F6000 E21.11677
G1 F1500 X70.765 Y88.301 E21.17782
G1 X70.765 Y88.584 E21.18817
G1 X70.786 Y88.888 E21.19932
G1 X73.544 Y91.645 E21.342
G1 X73.22 Y91.6 E21.35396
G1 X72.852 Y91.5 E21.36792
G1 X72.819 Y91.486 E21.36923
G1 X72.503 Y91.359 E21.38169
G1 X72.172 Y91.175 E21.39554
G1 X71.858 Y90.943 E21.40983
G1 X71.593 Y90.694 E21.42313
G1 X71.341 Y90.385 E21.43772
G1 X71.141 Y90.066 E21.45149
G1 X70.978 Y89.721 E21.46545
G0 F3600 X70.942 Y89.61
G1 F1500 X72.819 Y91.486 E21.56255
;;retract;;
G1 F6000 E13.56255
G0 F3600 X75.331 Y92.285
G1 F6000 E21.56255
G1 F1500 X75.692 Y92.582 E21.57965
G1 X76.004 Y92.923 E21.59656
G1 X76.127 Y93.098 E21.60438
G1 X78.689 Y95.66 E21.73694
G1 X78.123 Y95.66 E21.75765
G1 X76.646 Y94.182 E21.8341
G1 X76.737 Y94.621 E21.8505
G1 X76.751 Y94.853 E21.859
G1 X77.558 Y95.66 E21.90076
G1 X76.992 Y95.66 E21.92147
G1 X76.764 Y95.66 E21.92981
G0 F3600 X76.764 Y95.432
G1 F1500 X76.992 Y95.66 E21.94161
;;retract;;
G1 F6000 E13.94161
;MESH:NONMESH
G0 F600 X76.992 Y95.66 Z0.5
G0 F3600 X76.525 Y85.901
;TIME_ELAPSED:39.143855

;LAYER:1
M140 S60
M106 S127.5
;TYPE:WALL-OUTER
;MESH:
G1 F6000 E21.94161
G1 F1500 X76.325 Y85.901 E21.95158
G1 X73.203 Y85.906 E22.10734
G1 X72.894 Y85.978 E22.12317
G1 X72.552 Y86.181 E22.14301
G1 X72.333 Y86.421 E22.15922
G1 X72.167 Y86.783 E22.17909
G1 X72.125 Y87.088 E22.19445
G1 X72.13 Y89.222 E22.30092
G1 X72.202 Y89.53 E22.3167
G1 X72.405 Y89.874 E22.33662
G1 X72.645 Y90.093 E22.35283
G1 X73.007 Y90.259 E22.3727
G1 X73.311 Y90.301 E22.38801
G1 X76.525 Y90.301 E22.54836
G1 X76.525 Y86.101 E22.7579
G1 X76.525 Y85.901 E22.76436
G0 F5400 X76.325 Y85.901
G0 X76.325 Y85.461
;;retract;;
G1 F6000 E14.76436
G0 F5400 X79.724 Y69.099
G1 F6000 E22.76436
G1 F1500 X79.724 Y81.457 E23.3809
G1 X92.49 Y81.457 E24.0178
G1 X92.49 Y84.267 E24.15799
G1 X79.724 Y84.267 E24.79489
G1 X79.724 Y93.091 E25.23512
G1 X94.475 Y93.091 E25.97105
G1 X94.475 Y95.901 E26.11124
G1 X76.525 Y95.901 E27.00677
G1 X76.525 Y95.075 E27.04798
G1 X76.499 Y94.669 E27.06828
G1 X76.411 Y94.232 E27.09052
G1 X76.269 Y93.826 E27.11198
G1 X76.075 Y93.445 E27.13331
G1 X75.824 Y93.082 E27.15533
G1 X75.535 Y92.768 E27.17662
G1 X75.209 Y92.496 E27.1978
G1 X74.981 Y92.343 E27.2115
G1 X74.645 Y92.167 E27.23042
G1 X74.39 Y92.065 E27.24412
G1 X74.025 Y91.959 E27.26308
G1 X73.199 Y91.84 E27.30472
G1 X72.972 Y91.789 E27.31633
G1 X72.601 Y91.664 E27.33586
G1 X72.393 Y91.573 E27.34719
G1 X72.059 Y91.388 E27.36623
G1 X71.859 Y91.251 E27.37833
G1 X71.579 Y91.017 E27.39653
G1 X71.406 Y90.845 E27.4087
G1 X71.16 Y90.545 E27.42806
G1 X71.028 Y90.352 E27.43973
G1 X70.852 Y90.03 E27.45803
G1 X70.752 Y89.803 E27.47041
G1 X70.638 Y89.45 E27.48892
G1 X70.581 Y89.205 E27.50147
G1 X70.536 Y88.848 E27.51942
G1 X70.525 Y88.602 E27.5317
G1 X70.531 Y87.399 E27.59172
G1 X70.577 Y87.023 E27.61062
G1 X70.628 Y86.787 E27.62267
G1 X70.743 Y86.421 E27.64181
G1 X70.828 Y86.218 E27.65278
G1 X71.012 Y85.877 E27.67212
G1 X71.144 Y85.676 E27.68411
G1 X71.374 Y85.392 E27.70235
G1 X71.546 Y85.214 E27.71469
G1 X71.834 Y84.97 E27.73353
G1 X72.031 Y84.83 E27.74558
G1 X72.35 Y84.651 E27.76383
G1 X72.582 Y84.544 E27.77658
G1 X72.924 Y84.428 E27.7946
G1 X73.164 Y84.367 E27.80695
G1 X73.818 Y84.28 E27.83987
G1 X74.198 Y84.199 E27.85925
G1 X74.6 Y84.055 E27.88055
G1 X74.98 Y83.86 E27.90186
G1 X75.207 Y83.707 E27.91552
G1 X75.505 Y83.463 E27.93474
G1 X75.798 Y83.15 E27.95613
G1 X76.056 Y82.787 E27.97834
G1 X76.254 Y82.409 E27.99963
G1 X76.405 Y81.987 E28.02199
G1 X76.492 Y81.566 E28.04344
G1 X76.524 Y81.142 E28.06466
G1 X76.525 Y69.099 E28.66548
