; generated by Slic3r Prusa Edition 1.39.1-prusa3d on 2018-05-09 at 12:53:30

; 

; external perimeters extrusion width = 0.45mm
; perimeters extrusion width = 0.45mm
; infill extrusion width = 0.45mm
; solid infill extrusion width = 0.45mm
; top infill extrusion width = 0.33mm
; first layer extrusion width = 0.42mm

M107
M115 U3.1.0 ; tell printer latest fw version
M201 X9000 Y9000 Z500 E10000 ; sets maximum accelerations, mm/sec^2
M203 X500 Y500 Z12 E120 ; sets maximum feedrates, mm/sec
M204 S1500 T1500 ; sets acceleration (S) and retract acceleration (T)
M205 X10 Y10 Z0.2 E2.5 ; sets the jerk limits, mm/sec
M205 S0 T0 ; sets the minimum extruding and travel feed rate, mm/sec
M83  ; extruder relative mode
M104 S200 ; set extruder temp
M140 S65 ; set bed temp
M190 S65 ; wait for bed temp
M109 S200 ; wait for extruder temp
G28 W ; home all without mesh bed level
G80 ; mesh bed leveling
G1 Y-3.0 F1000.0 ; go outside print area
G92 E0.0
G1 E18.0 F1000.0;
G1 X60.0 E9.0  F1000.0 ; intro line
G1 X100.0 E12.5  F1000.0 ; intro line
G92 E0.0
M900 K30; Filament gcode
G21 ; set units to millimeters
G90 ; use absolute coordinates
M83 ; use relative distances for extrusion
;BEFORE_LAYER_CHANGE
;0.2


G1 E-0.80000 F2100.00000
G1 Z0.600 F7200.000
;AFTER_LAYER_CHANGE
;0.2
G1 X98.422 Y83.832 F7200.000
G1 Z0.200 F7200.000
G1 E0.80000 F2100.00000
M204 S1000
G1 F900
G1 X99.281 Y84.365 E0.03170
G1 X112.123 Y96.795 E0.56037
G1 X112.661 Y97.540 E0.02879
G1 X112.901 Y98.273 E0.02422
G1 X114.927 Y110.282 E0.38183
G1 X114.929 Y113.662 E0.10599
G1 X114.838 Y114.306 E0.02039
G1 X114.628 Y114.853 E0.01835
G1 X114.306 Y115.346 E0.01848
G1 X113.889 Y115.757 E0.01835
G1 X113.391 Y116.072 E0.01848
G1 X112.810 Y116.281 E0.01937
G1 X112.201 Y116.355 E0.01924
G1 X93.812 Y116.355 E0.57655
G1 X93.127 Y116.265 E0.02167
G1 X92.454 Y115.989 E0.02282
G1 X91.876 Y115.547 E0.02282
G1 X86.734 Y110.348 E0.22926
G1 X86.203 Y109.689 E0.02653
G1 X85.686 Y108.805 E0.03212
G1 X85.275 Y107.683 E0.03746
G1 X85.088 Y106.561 E0.03566
G1 X85.081 Y104.743 E0.05703
G1 X85.251 Y103.610 E0.03591
G1 X91.329 Y85.234 E0.60688
G1 X91.645 Y84.717 E0.01899
G1 X92.062 Y84.283 E0.01886
G1 X92.563 Y83.951 E0.01886
G1 X93.129 Y83.735 E0.01899
G1 X93.765 Y83.646 E0.02014
G1 X97.428 Y83.645 E0.11487
G1 X98.363 Y83.821 E0.02982
G1 X98.288 Y84.185 F7200.000
G1 F900
G1 X99.030 Y84.647 E0.02743
G1 X111.854 Y97.060 E0.55958
G1 X112.318 Y97.697 E0.02473
G1 X112.531 Y98.343 E0.02130
G1 X114.549 Y110.271 E0.37931
G1 X114.552 Y113.639 E0.10560
G1 X114.487 Y114.155 E0.01633
G1 X114.312 Y114.642 E0.01621
G1 X114.034 Y115.082 E0.01633
G1 X113.670 Y115.449 E0.01621
G1 X113.235 Y115.729 E0.01621
G1 X112.731 Y115.912 E0.01680
G1 X112.195 Y115.978 E0.01692
G1 X93.817 Y115.978 E0.57624
G1 X93.226 Y115.901 E0.01870
G1 X92.642 Y115.663 E0.01977
G1 X92.139 Y115.276 E0.01989
G1 X87.016 Y110.097 E0.22843
G1 X86.515 Y109.478 E0.02495
G1 X86.029 Y108.647 E0.03019
G1 X85.639 Y107.587 E0.03542
G1 X85.463 Y106.524 E0.03376
G1 X85.458 Y104.763 E0.05523
G1 X85.620 Y103.690 E0.03401
G1 X91.667 Y85.402 E0.60397
G1 X91.943 Y84.947 E0.01668
G1 X92.317 Y84.562 E0.01680
G1 X92.766 Y84.271 E0.01680
G1 X93.270 Y84.088 E0.01680
G1 X93.787 Y84.023 E0.01633
G1 X97.428 Y84.022 E0.11417
G1 X98.229 Y84.174 E0.02555
G1 F5760
G1 X99.030 Y84.647 E-0.32248
G1 F5760
G1 X99.938 Y85.526 E-0.43752
G1 E-0.04000 F2100.00000
G1 Z0.800 F7200.000
G1 X94.412 Y103.014 F7200.000
G1 Z0.200 F7200.000
G1 E0.80000 F2100.00000
G1 F900
G1 X94.412 Y108.189 E0.16228
G1 X90.648 Y108.180 E0.11800
G1 X90.419 Y108.137 E0.00731
G1 X90.085 Y108.009 E0.01122
G1 X89.769 Y107.792 E0.01201
G1 X89.527 Y107.518 E0.01147
G1 X89.409 Y107.323 E0.00713
G1 X89.280 Y106.981 E0.01147
G1 X89.238 Y106.636 E0.01091
G1 X89.238 Y104.565 E0.06494
G1 X89.280 Y104.220 E0.01091
G1 X89.409 Y103.878 E0.01147
G1 X89.528 Y103.682 E0.00717
G1 X89.776 Y103.405 E0.01167
G1 X90.071 Y103.201 E0.01124
G1 X90.262 Y103.116 E0.00656
G1 X90.462 Y103.053 E0.00657
G1 X90.789 Y103.014 E0.01034
G1 X94.352 Y103.014 E0.11170
G1 X94.035 Y103.391 F7200.000
G1 F900
G1 X94.035 Y107.811 E0.13860
G1 X90.684 Y107.803 E0.10505
G1 X90.522 Y107.773 E0.00517
G1 X90.262 Y107.673 E0.00875
G1 X90.021 Y107.507 E0.00915
G1 X89.832 Y107.294 E0.00896
G1 X89.750 Y107.158 E0.00498
G1 X89.648 Y106.891 E0.00896
G1 X89.615 Y106.613 E0.00876
G1 X89.615 Y104.588 E0.06351
G1 X89.648 Y104.311 E0.00876
G1 X89.750 Y104.044 E0.00896
G1 X89.832 Y103.907 E0.00500
G1 X90.027 Y103.690 E0.00915
G1 X90.257 Y103.531 E0.00875
G1 X90.395 Y103.469 E0.00478
G1 X90.541 Y103.423 E0.00478
G1 X90.812 Y103.391 E0.00856
G1 X93.975 Y103.391 E0.09916
G1 X94.435 Y103.389 F7200.000
G1 F5760
G1 X94.004 Y105.585 E-0.76000
G1 E-0.04000 F2100.00000
G1 Z0.800 F7200.000
G1 X96.837 Y99.344 F7200.000
G1 Z0.200 F7200.000
G1 E0.80000 F2100.00000
G1 F900
G1 X109.603 Y99.344 E0.40026
G1 X109.603 Y101.380 E0.06383
G1 X96.837 Y101.380 E0.40026
G1 X96.837 Y110.978 E0.30094
G1 X111.588 Y110.978 E0.46251
G1 X111.588 Y113.014 E0.06383
G1 X94.409 Y113.014 E0.53866
G1 X94.405 Y112.339 E0.02115
G1 X94.339 Y111.855 E0.01531
G1 X94.209 Y111.387 E0.01524
G1 X94.020 Y110.950 E0.01491
G1 X93.889 Y110.715 E0.00845
G1 X93.616 Y110.326 E0.01488
G1 X93.287 Y109.971 E0.01520
G1 X92.924 Y109.672 E0.01473
G1 X92.693 Y109.518 E0.00871
G1 X92.277 Y109.300 E0.01471
G1 X91.831 Y109.138 E0.01489
G1 X91.570 Y109.072 E0.00846
G1 X90.743 Y108.954 E0.02619
G1 X90.392 Y108.859 E0.01138
G1 X89.904 Y108.643 E0.01675
G1 X89.456 Y108.334 E0.01705
G1 X89.074 Y107.949 E0.01702
G1 X88.858 Y107.648 E0.01162
G1 X88.685 Y107.329 E0.01136
G1 X88.553 Y106.992 E0.01136
G1 X88.461 Y106.632 E0.01164
G1 X88.412 Y106.084 E0.01726
G1 X88.418 Y104.912 E0.03675
G1 X88.503 Y104.383 E0.01679
G1 X88.614 Y104.038 E0.01136
G1 X88.766 Y103.710 E0.01136
G1 X88.959 Y103.403 E0.01136
G1 X89.188 Y103.122 E0.01136
G1 X89.450 Y102.872 E0.01136
G1 X89.888 Y102.567 E0.01674
G1 X90.231 Y102.401 E0.01193
G1 X90.739 Y102.248 E0.01666
G1 X91.357 Y102.168 E0.01953
G1 X91.822 Y102.067 E0.01492
G1 X92.283 Y101.898 E0.01539
G1 X92.692 Y101.683 E0.01449
G1 X92.914 Y101.536 E0.00834
G1 X93.290 Y101.227 E0.01528
G1 X93.609 Y100.882 E0.01473
G1 X93.769 Y100.671 E0.00830
G1 X94.011 Y100.268 E0.01473
G1 X94.124 Y100.029 E0.00830
G1 X94.281 Y99.585 E0.01477
G1 X94.380 Y99.105 E0.01537
G1 X94.412 Y98.640 E0.01461
G1 X94.412 Y86.986 E0.36538
G1 X96.837 Y86.986 E0.07605
G1 X96.837 Y99.284 E0.38558
G1 X97.214 Y98.967 F7200.000
G1 F900
G1 X109.980 Y98.967 E0.40026
G1 X109.980 Y101.757 E0.08748
G1 X97.214 Y101.757 E0.40026
G1 X97.214 Y110.601 E0.27729
G1 X111.965 Y110.601 E0.46251
G1 X111.965 Y113.391 E0.08748
G1 X94.034 Y113.391 E0.56224
G1 X94.028 Y112.366 E0.03214
G1 X93.969 Y111.931 E0.01374
G1 X93.852 Y111.513 E0.01363
G1 X93.682 Y111.117 E0.01350
G1 X93.569 Y110.916 E0.00724
G1 X93.322 Y110.564 E0.01348
G1 X93.027 Y110.246 E0.01360
G1 X92.699 Y109.975 E0.01332
G1 X92.500 Y109.843 E0.00750
G1 X92.124 Y109.646 E0.01331
G1 X91.720 Y109.499 E0.01349
G1 X91.497 Y109.442 E0.00723
G1 X90.667 Y109.324 E0.02629
G1 X90.271 Y109.217 E0.01284
G1 X89.714 Y108.969 E0.01913
G1 X89.374 Y108.749 E0.01271
G1 X89.209 Y108.620 E0.00655
G1 X88.916 Y108.341 E0.01270
G1 X88.778 Y108.183 E0.00655
G1 X88.538 Y107.848 E0.01292
G1 X88.342 Y107.489 E0.01283
G1 X88.193 Y107.108 E0.01283
G1 X88.091 Y106.708 E0.01293
G1 X88.061 Y106.512 E0.00621
G1 X88.035 Y106.095 E0.01312
G1 X88.041 Y104.893 E0.03767
G1 X88.060 Y104.695 E0.00623
G1 X88.137 Y104.290 E0.01293
G1 X88.262 Y103.900 E0.01283
G1 X88.435 Y103.529 E0.01283
G1 X88.652 Y103.183 E0.01283
G1 X88.911 Y102.866 E0.01283
G1 X89.207 Y102.583 E0.01283
G1 X89.708 Y102.235 E0.01913
G1 X90.082 Y102.054 E0.01304
G1 X90.665 Y101.878 E0.01910
G1 X91.293 Y101.796 E0.01983
G1 X91.717 Y101.704 E0.01361
G1 X92.130 Y101.553 E0.01379
G1 X92.500 Y101.358 E0.01311
G1 X92.690 Y101.233 E0.00713
G1 X93.031 Y100.952 E0.01386
G1 X93.320 Y100.640 E0.01333
G1 X93.456 Y100.459 E0.00710
G1 X93.678 Y100.090 E0.01351
G1 X93.775 Y99.885 E0.00710
G1 X93.917 Y99.483 E0.01337
G1 X94.006 Y99.053 E0.01376
G1 X94.035 Y98.627 E0.01340
G1 X94.035 Y86.609 E0.37680
G1 X97.214 Y86.609 E0.09969
G1 X97.214 Y98.907 E0.38558
G1 X97.248 Y99.365 F7200.000
G1 F5760
G1 X99.409 Y98.917 E-0.76000
G1 E-0.04000 F2100.00000
G1 Z0.800 F7200.000
G1 X98.168 Y101.267 F7200.000
G1 Z0.200 F7200.000
G1 E0.80000 F2100.00000
G1 F900
G1 X94.695 Y97.793 E0.15525
G1 X94.695 Y98.330 E0.01699
G1 X97.461 Y101.097 E0.12364
G1 X96.924 Y101.097 E0.01699
G1 X94.681 Y98.854 E0.10024
G1 X94.661 Y99.143 E0.00915
G1 X94.622 Y99.333 E0.00612
G1 X96.554 Y101.265 E0.08637
G1 X96.554 Y101.803 E0.01699
G1 X94.517 Y99.765 E0.09106
G1 X94.375 Y100.161 E0.01327
G1 X96.554 Y102.340 E0.09742
G1 X96.554 Y102.878 E0.01699
G1 X94.192 Y100.516 E0.10557
G1 X93.988 Y100.849 E0.01235
G1 X96.554 Y103.415 E0.11469
G1 X96.554 Y103.953 E0.01699
G1 X93.749 Y101.147 E0.12538
G1 X93.491 Y101.427 E0.01202
G1 X96.554 Y104.490 E0.13692
G1 X96.554 Y105.028 E0.01699
G1 X94.695 Y103.168 E0.08312
G1 X94.695 Y103.705 E0.01699
G1 X96.554 Y105.565 E0.08312
G1 X96.554 Y106.103 E0.01699
G1 X94.695 Y104.243 E0.08312
G1 X94.695 Y104.780 E0.01699
G1 X96.554 Y106.640 E0.08312
G1 X96.554 Y107.178 E0.01699
G1 X94.695 Y105.318 E0.08312
G1 X94.695 Y105.855 E0.01699
G1 X96.554 Y107.715 E0.08312
G1 X96.554 Y108.253 E0.01699
G1 X94.695 Y106.393 E0.08312
G1 X94.695 Y106.930 E0.01699
G1 X96.554 Y108.790 E0.08312
G1 X96.554 Y109.328 E0.01699
G1 X94.695 Y107.468 E0.08312
G1 X94.695 Y108.005 E0.01699
G1 X96.554 Y109.865 E0.08312
G1 X96.554 Y110.403 E0.01699
G1 X94.624 Y108.472 E0.08628
G1 X94.085 Y108.471 E0.01703
G1 X98.345 Y112.731 E0.19038
G1 X98.882 Y112.731 E0.01699
G1 X97.412 Y111.260 E0.06571
G1 X97.950 Y111.260 E0.01699
G1 X99.420 Y112.731 E0.06571
G1 X99.957 Y112.731 E0.01699
G1 X98.487 Y111.260 E0.06571
G1 X99.025 Y111.260 E0.01699
G1 X100.495 Y112.731 E0.06571
G1 X101.032 Y112.731 E0.01699
G1 X99.562 Y111.260 E0.06571
G1 X100.100 Y111.260 E0.01699
G1 X101.570 Y112.731 E0.06571
G1 X102.107 Y112.731 E0.01699
G1 X100.637 Y111.260 E0.06571
G1 X101.175 Y111.260 E0.01699
G1 X102.645 Y112.731 E0.06571
G1 X103.182 Y112.731 E0.01699
G1 X101.712 Y111.260 E0.06571
G1 X102.250 Y111.260 E0.01699
G1 X103.720 Y112.731 E0.06571
G1 X104.257 Y112.731 E0.01699
G1 X102.787 Y111.260 E0.06571
G1 X103.325 Y111.260 E0.01699
G1 X104.795 Y112.731 E0.06571
G1 X105.332 Y112.731 E0.01699
G1 X103.862 Y111.260 E0.06571
G1 X104.400 Y111.260 E0.01699
G1 X105.870 Y112.731 E0.06571
G1 X106.407 Y112.731 E0.01699
G1 X104.937 Y111.260 E0.06571
G1 X105.475 Y111.260 E0.01699
G1 X106.945 Y112.731 E0.06571
G1 X107.482 Y112.731 E0.01699
G1 X106.012 Y111.260 E0.06571
G1 X106.550 Y111.260 E0.01699
G1 X108.020 Y112.731 E0.06571
G1 X108.557 Y112.731 E0.01699
G1 X107.087 Y111.260 E0.06571
G1 X107.625 Y111.260 E0.01699
G1 X109.095 Y112.731 E0.06571
G1 X109.632 Y112.731 E0.01699
G1 X108.162 Y111.260 E0.06571
G1 X108.700 Y111.260 E0.01699
G1 X110.170 Y112.731 E0.06571
G1 X110.707 Y112.731 E0.01699
G1 X109.237 Y111.260 E0.06571
G1 X109.775 Y111.260 E0.01699
G1 X111.245 Y112.731 E0.06571
G1 X111.305 Y112.731 E0.00191
G1 X111.305 Y112.254 E0.01507
G1 X110.312 Y111.260 E0.04439
G1 X110.850 Y111.260 E0.01699
G1 X111.475 Y111.886 E0.02795
G1 F5760
G1 X110.850 Y111.260 E-0.30637
G1 F5760
G1 X110.312 Y111.260 E-0.18616
G1 F5760
G1 X110.858 Y111.807 E-0.26747
G1 E-0.04000 F2100.00000
G1 Z0.800 F7200.000
G1 X109.490 Y100.226 F7200.000
G1 Z0.200 F7200.000
G1 E0.80000 F2100.00000
G1 F900
G1 X108.891 Y99.627 E0.02677
G1 X108.353 Y99.627 E0.01699
G1 X109.320 Y100.593 E0.04321
G1 X109.320 Y101.097 E0.01591
G1 X109.286 Y101.097 E0.00107
G1 X107.816 Y99.627 E0.06571
G1 X107.278 Y99.627 E0.01699
G1 X108.749 Y101.097 E0.06571
G1 X108.211 Y101.097 E0.01699
G1 X106.741 Y99.627 E0.06571
G1 X106.203 Y99.627 E0.01699
G1 X107.674 Y101.097 E0.06571
G1 X107.136 Y101.097 E0.01699
G1 X105.666 Y99.627 E0.06571
G1 X105.128 Y99.627 E0.01699
G1 X106.599 Y101.097 E0.06571
G1 X106.061 Y101.097 E0.01699
G1 X104.591 Y99.627 E0.06571
G1 X104.053 Y99.627 E0.01699
G1 X105.524 Y101.097 E0.06571
G1 X104.986 Y101.097 E0.01699
G1 X103.516 Y99.627 E0.06571
G1 X102.978 Y99.627 E0.01699
G1 X104.449 Y101.097 E0.06571
G1 X103.911 Y101.097 E0.01699
G1 X102.441 Y99.627 E0.06571
G1 X101.903 Y99.627 E0.01699
G1 X103.374 Y101.097 E0.06571
G1 X102.836 Y101.097 E0.01699
G1 X101.366 Y99.627 E0.06571
G1 X100.828 Y99.627 E0.01699
G1 X102.299 Y101.097 E0.06571
G1 X101.761 Y101.097 E0.01699
G1 X100.291 Y99.627 E0.06571
G1 X99.753 Y99.627 E0.01699
G1 X101.224 Y101.097 E0.06571
G1 X100.686 Y101.097 E0.01699
G1 X99.216 Y99.627 E0.06571
G1 X98.678 Y99.627 E0.01699
G1 X100.149 Y101.097 E0.06571
G1 X99.611 Y101.097 E0.01699
G1 X98.141 Y99.627 E0.06571
G1 X97.603 Y99.627 E0.01699
G1 X99.074 Y101.097 E0.06571
G1 X98.536 Y101.097 E0.01699
G1 X97.066 Y99.627 E0.06571
G1 X96.554 Y99.627 E0.01616
G1 X96.554 Y99.115 E0.01616
G1 X94.695 Y97.255 E0.08312
G1 X94.695 Y96.718 E0.01699
G1 X96.554 Y98.578 E0.08312
G1 X96.554 Y98.040 E0.01699
G1 X94.695 Y96.180 E0.08312
G1 X94.695 Y95.643 E0.01699
G1 X96.554 Y97.503 E0.08312
G1 X96.554 Y96.965 E0.01699
G1 X94.695 Y95.105 E0.08312
G1 X94.695 Y94.568 E0.01699
G1 X96.554 Y96.428 E0.08312
G1 X96.554 Y95.890 E0.01699
G1 X94.695 Y94.030 E0.08312
G1 X94.695 Y93.493 E0.01699
G1 X96.554 Y95.353 E0.08312
G1 X96.554 Y94.815 E0.01699
G1 X94.695 Y92.955 E0.08312
G1 X94.695 Y92.418 E0.01699
G1 X96.554 Y94.278 E0.08312
G1 X96.554 Y93.740 E0.01699
G1 X94.695 Y91.880 E0.08312
G1 X94.695 Y91.343 E0.01699
G1 X96.554 Y93.203 E0.08312
G1 X96.554 Y92.665 E0.01699
G1 X94.695 Y90.805 E0.08312
G1 X94.695 Y90.268 E0.01699
G1 X96.554 Y92.128 E0.08312
G1 X96.554 Y91.590 E0.01699
G1 X94.695 Y89.730 E0.08312
G1 X94.695 Y89.193 E0.01699
G1 X96.554 Y91.053 E0.08312
G1 X96.554 Y90.515 E0.01699
G1 X94.695 Y88.655 E0.08312
G1 X94.695 Y88.118 E0.01699
G1 X96.554 Y89.978 E0.08312
G1 X96.554 Y89.440 E0.01699
G1 X94.695 Y87.580 E0.08312
G1 X94.695 Y87.269 E0.00983
G1 X94.921 Y87.269 E0.00715
G1 X96.554 Y88.903 E0.07301
G1 X96.554 Y88.365 E0.01699
G1 X95.458 Y87.269 E0.04899
G1 X95.996 Y87.269 E0.01699
G1 X96.554 Y87.828 E0.02496
G1 X96.554 Y87.290 E0.01699
G1 X96.364 Y87.100 E0.00852
G1 F5760
G1 X96.554 Y87.290 E-0.09342
G1 F5760
G1 X96.554 Y87.828 E-0.18617
G1 F5760
G1 X95.996 Y87.269 E-0.27358
G1 F5760
G1 X95.458 Y87.269 E-0.18617
G1 F5760
G1 X95.501 Y87.311 E-0.02067
G1 E-0.04000 F2100.00000
G1 Z0.800 F7200.000
G1 X94.427 Y102.900 F7200.000
G1 Z0.200 F7200.000
G1 E0.80000 F2100.00000
G1 F900
G1 X93.197 Y101.670 E0.05499
G1 X92.884 Y101.895 E0.01217
G1 X93.720 Y102.731 E0.03735
G1 X93.182 Y102.731 E0.01699
G1 X92.536 Y102.085 E0.02888
G1 X92.398 Y102.157 E0.00493
G1 X92.159 Y102.245 E0.00805
G1 X92.645 Y102.731 E0.02172
G1 X92.107 Y102.731 E0.01699
G1 X91.749 Y102.372 E0.01603
G1 X91.299 Y102.460 E0.01447
G1 X91.570 Y102.731 E0.01209
G1 X91.032 Y102.731 E0.01699
G1 X90.685 Y102.383 E0.01554
G1 X90.582 Y102.844 F7200.000
G1 F900
G1 X90.394 Y102.712 E0.00609
G1 X90.153 Y102.805 E0.00685
G1 F900
G1 X89.926 Y102.917 E0.00590
G1 F900
G1 X89.651 Y103.112 E0.00731
G1 F900
G1 X89.584 Y103.166 E0.00178
G1 F900
G1 X89.418 Y103.335 E0.00459
G1 X89.216 Y103.587 E0.00626
G1 X89.058 Y103.869 E0.00624
G1 X88.943 Y104.145 E0.00579
G1 F5760
G1 X89.058 Y103.869 E-0.10360
G1 F5760
G1 X89.216 Y103.587 E-0.11163
G1 F5760
G1 X89.418 Y103.335 E-0.11190
G1 F5760
G1 X89.584 Y103.166 E-0.08210
G1 E-0.39077 F2100.00000
G1 Z0.800 F7200.000
G1 X89.125 Y105.206 F7200.000
G1 Z0.200 F7200.000
G1 E0.80000 F2100.00000
G1 F900
G1 X88.722 Y104.803 E0.02057
G1 X88.701 Y104.935 E0.00483
G1 X88.699 Y105.394 E0.01659
G1 X88.955 Y105.650 E0.01310
G1 X88.955 Y106.265 E0.02221
G1 X88.526 Y105.837 E0.02190
G1 F5760
G1 X88.955 Y106.265 E-0.20987
G1 F5760
G1 X88.955 Y105.650 E-0.21289
G1 F5760
G1 X88.699 Y105.394 E-0.12555
G1 F5760
G1 X88.701 Y104.935 E-0.15900
G1 F5760
G1 X88.722 Y104.803 E-0.04630
G1 F5760
G1 X88.735 Y104.816 E-0.00638
G1 E-0.04000 F2100.00000
G1 Z0.800 F7200.000
G1 X88.898 Y106.870 F7200.000
G1 Z0.200 F7200.000
G1 E0.80000 F2100.00000
G1 F900
