; generated by Slic3r Prusa Edition 1.39.1-prusa3d on 2018-04-22 at 18:18:14

; 

; external perimeters extrusion width = 0.45mm
; perimeters extrusion width = 0.45mm
; infill extrusion width = 0.45mm
; solid infill extrusion width = 0.45mm
; top infill extrusion width = 0.33mm
; first layer extrusion width = 0.42mm

M107
M115 U3.1.0 ; tell printer latest fw version
M201 X9000 Y9000 Z500 E10000 ; sets maximum accelerations, mm/sec^2
M203 X500 Y500 Z12 E120 ; sets maximum feedrates, mm/sec
M204 S1500 T1500 ; sets acceleration (S) and retract acceleration (T)
M205 X10 Y10 Z0.2 E2.5 ; sets the jerk limits, mm/sec
M205 S0 T0 ; sets the minimum extruding and travel feed rate, mm/sec
M83  ; extruder relative mode
M104 S215 ; set extruder temp
M140 S60 ; set bed temp
M190 S60 ; wait for bed temp
M109 S215 ; wait for extruder temp
G28 W ; home all without mesh bed level
G80 ; mesh bed leveling
G1 Y-3.0 F1000.0 ; go outside print area
G92 E0.0
G1 E18.0 F1000.0;
G1 X60.0 E9.0  F1000.0 ; intro line
G1 X100.0 E12.5  F1000.0 ; intro line
G92 E0.0
M900 K30; Filament gcode
G21 ; set units to millimeters
G90 ; use absolute coordinates
M83 ; use relative distances for extrusion
;BEFORE_LAYER_CHANGE
;0.2


G1 E-0.80000 F2100.00000
G1 Z0.600 F7200.000
;AFTER_LAYER_CHANGE
;0.2
G1 X123.422 Y88.832 F7200.000
G1 Z0.200 F7200.000
G1 E0.80000 F2100.00000
M204 S1000
G1 F900
G1 X124.281 Y89.365 E0.03170
G1 X137.123 Y101.795 E0.56037
G1 X137.661 Y102.540 E0.02879
G1 X137.901 Y103.273 E0.02422
G1 X139.927 Y115.282 E0.38183
G1 X139.929 Y118.662 E0.10599
G1 X139.838 Y119.306 E0.02039
G1 X139.628 Y119.853 E0.01835
G1 X139.306 Y120.346 E0.01848
G1 X138.889 Y120.757 E0.01835
G1 X138.391 Y121.072 E0.01848
G1 X137.810 Y121.281 E0.01937
G1 X137.201 Y121.355 E0.01924
G1 X118.812 Y121.355 E0.57655
G1 X118.127 Y121.265 E0.02167
G1 X117.454 Y120.989 E0.02282
G1 X116.873 Y120.544 E0.02294
G1 X111.734 Y115.348 E0.22913
G1 X111.208 Y114.695 E0.02630
G1 X110.681 Y113.795 E0.03268
G1 X110.272 Y112.676 E0.03737
G1 X110.087 Y111.546 E0.03588
G1 X110.082 Y109.728 E0.05703
G1 X110.252 Y108.606 E0.03557
G1 X116.329 Y90.234 E0.60675
G1 X116.645 Y89.717 E0.01899
G1 X117.062 Y89.283 E0.01886
G1 X117.563 Y88.951 E0.01886
G1 X118.129 Y88.735 E0.01899
G1 X118.765 Y88.646 E0.02014
G1 X122.428 Y88.645 E0.11487
G1 X123.363 Y88.821 E0.02982
G1 X123.288 Y89.185 F7200.000
G1 F900
G1 X124.030 Y89.647 E0.02743
G1 X136.854 Y102.060 E0.55958
G1 X137.318 Y102.697 E0.02473
G1 X137.531 Y103.343 E0.02130
G1 X139.549 Y115.271 E0.37931
G1 X139.552 Y118.639 E0.10560
G1 X139.487 Y119.155 E0.01633
G1 X139.312 Y119.642 E0.01621
G1 X139.034 Y120.082 E0.01633
G1 X138.670 Y120.449 E0.01621
G1 X138.235 Y120.729 E0.01621
G1 X137.731 Y120.912 E0.01680
G1 X137.195 Y120.978 E0.01692
G1 X118.817 Y120.978 E0.57624
G1 X118.226 Y120.901 E0.01870
G1 X117.639 Y120.661 E0.01989
G1 X117.135 Y120.273 E0.01993
G1 X112.016 Y115.097 E0.22826
G1 X111.522 Y114.487 E0.02460
G1 X111.024 Y113.637 E0.03088
G1 X110.637 Y112.579 E0.03532
G1 X110.462 Y111.510 E0.03398
G1 X110.458 Y109.752 E0.05511
G1 X110.621 Y108.687 E0.03379
G1 X116.667 Y90.402 E0.60385
G1 X116.943 Y89.947 E0.01668
G1 X117.317 Y89.562 E0.01680
G1 X117.766 Y89.271 E0.01680
G1 X118.270 Y89.088 E0.01680
G1 X118.787 Y89.023 E0.01633
G1 X122.428 Y89.022 E0.11417
G1 X123.229 Y89.174 E0.02555
G1 F5760
G1 X124.030 Y89.647 E-0.32248
G1 F5760
G1 X124.938 Y90.526 E-0.43752
G1 E-0.04000 F2100.00000
G1 Z0.800 F7200.000
G1 X119.412 Y108.014 F7200.000
G1 Z0.200 F7200.000
G1 E0.80000 F2100.00000
G1 F900
G1 X119.412 Y113.189 E0.16228
G1 X115.632 Y113.180 E0.11851
G1 X115.260 Y113.089 E0.01201
G1 X114.921 Y112.910 E0.01203
G1 X114.647 Y112.668 E0.01147
G1 X114.517 Y112.501 E0.00663
G1 X114.406 Y112.316 E0.00677
G1 X114.280 Y111.981 E0.01122
G1 X114.238 Y111.636 E0.01089
G1 X114.238 Y109.565 E0.06494
G1 X114.280 Y109.220 E0.01091
G1 X114.409 Y108.878 E0.01147
G1 X114.519 Y108.697 E0.00663
G1 X114.653 Y108.528 E0.00677
G1 X114.909 Y108.301 E0.01072
G1 X115.109 Y108.182 E0.00732
G1 X115.444 Y108.055 E0.01122
G1 X115.789 Y108.014 E0.01089
G1 X119.352 Y108.014 E0.11170
G1 X119.035 Y108.391 F7200.000
G1 F900
G1 X119.035 Y112.811 E0.13860
G1 X115.678 Y112.803 E0.10523
G1 X115.395 Y112.733 E0.00915
G1 X115.136 Y112.598 E0.00916
G1 X114.923 Y112.408 E0.00896
G1 X114.747 Y112.151 E0.00976
G1 X114.648 Y111.890 E0.00875
G1 X114.615 Y111.613 E0.00875
G1 X114.615 Y109.588 E0.06351
G1 X114.648 Y109.311 E0.00876
G1 X114.750 Y109.044 E0.00896
G1 X114.927 Y108.788 E0.00976
G1 X115.132 Y108.607 E0.00857
G1 X115.274 Y108.523 E0.00517
G1 X115.535 Y108.424 E0.00875
G1 X115.812 Y108.391 E0.00875
G1 X118.975 Y108.391 E0.09916
G1 X119.435 Y108.389 F7200.000
G1 F5760
G1 X119.004 Y110.585 E-0.76000
G1 E-0.04000 F2100.00000
G1 Z0.800 F7200.000
G1 X121.837 Y104.344 F7200.000
G1 Z0.200 F7200.000
G1 E0.80000 F2100.00000
G1 F900
G1 X134.603 Y104.344 E0.40026
G1 X134.603 Y106.380 E0.06383
G1 X121.837 Y106.380 E0.40026
G1 X121.837 Y115.978 E0.30094
G1 X136.588 Y115.978 E0.46251
G1 X136.588 Y118.014 E0.06383
G1 X119.409 Y118.014 E0.53866
G1 X119.405 Y117.339 E0.02115
G1 X119.339 Y116.855 E0.01531
G1 X119.209 Y116.387 E0.01524
G1 X119.020 Y115.950 E0.01491
G1 X118.889 Y115.715 E0.00845
G1 X118.616 Y115.326 E0.01488
G1 X118.287 Y114.971 E0.01520
G1 X117.924 Y114.672 E0.01473
G1 X117.693 Y114.518 E0.00871
G1 X117.277 Y114.300 E0.01471
G1 X116.831 Y114.138 E0.01489
G1 X116.570 Y114.072 E0.00846
G1 X115.743 Y113.954 E0.02619
G1 X115.383 Y113.857 E0.01167
G1 X114.896 Y113.638 E0.01675
G1 X114.593 Y113.442 E0.01133
G1 X114.321 Y113.215 E0.01109
G1 X114.069 Y112.942 E0.01164
G1 X113.858 Y112.648 E0.01136
G1 X113.685 Y112.329 E0.01136
G1 X113.553 Y111.992 E0.01136
G1 X113.463 Y111.642 E0.01133
G1 X113.412 Y111.084 E0.01757
G1 X113.418 Y109.912 E0.03675
G1 X113.503 Y109.383 E0.01679
G1 X113.614 Y109.038 E0.01136
G1 X113.766 Y108.710 E0.01136
G1 X113.959 Y108.403 E0.01136
G1 X114.188 Y108.122 E0.01136
G1 X114.450 Y107.872 E0.01136
G1 X114.888 Y107.567 E0.01674
G1 X115.231 Y107.401 E0.01193
G1 X115.739 Y107.248 E0.01666
G1 X116.357 Y107.168 E0.01953
G1 X116.822 Y107.067 E0.01492
G1 X117.283 Y106.898 E0.01539
G1 X117.692 Y106.683 E0.01449
G1 X117.914 Y106.536 E0.00834
G1 X118.290 Y106.227 E0.01528
G1 X118.609 Y105.882 E0.01473
G1 X118.769 Y105.671 E0.00830
G1 X119.011 Y105.268 E0.01473
G1 X119.124 Y105.029 E0.00830
G1 X119.281 Y104.585 E0.01477
G1 X119.380 Y104.105 E0.01537
G1 X119.412 Y103.640 E0.01461
G1 X119.412 Y91.986 E0.36538
G1 X121.837 Y91.986 E0.07605
G1 X121.837 Y104.284 E0.38558
G1 X122.214 Y103.967 F7200.000
G1 F900
G1 X134.980 Y103.967 E0.40026
G1 X134.980 Y106.757 E0.08748
G1 X122.214 Y106.757 E0.40026
G1 X122.214 Y115.601 E0.27729
G1 X136.965 Y115.601 E0.46251
G1 X136.965 Y118.391 E0.08748
G1 X119.034 Y118.391 E0.56224
G1 X119.028 Y117.366 E0.03214
G1 X118.969 Y116.931 E0.01374
G1 X118.852 Y116.513 E0.01363
G1 X118.682 Y116.117 E0.01350
G1 X118.569 Y115.916 E0.00724
G1 X118.322 Y115.564 E0.01348
G1 X118.027 Y115.246 E0.01360
G1 X117.699 Y114.975 E0.01332
G1 X117.500 Y114.843 E0.00750
G1 X117.124 Y114.646 E0.01331
G1 X116.720 Y114.499 E0.01349
G1 X116.497 Y114.442 E0.00723
G1 X115.667 Y114.324 E0.02629
G1 X115.268 Y114.216 E0.01294
G1 X114.711 Y113.967 E0.01913
G1 X114.374 Y113.749 E0.01260
G1 X114.057 Y113.484 E0.01296
G1 X113.776 Y113.181 E0.01293
G1 X113.538 Y112.848 E0.01283
G1 X113.342 Y112.489 E0.01283
G1 X113.193 Y112.108 E0.01283
G1 X113.094 Y111.718 E0.01260
G1 X113.061 Y111.512 E0.00655
G1 X113.035 Y111.095 E0.01311
G1 X113.041 Y109.893 E0.03767
G1 X113.060 Y109.695 E0.00623
G1 X113.137 Y109.290 E0.01293
G1 X113.262 Y108.900 E0.01283
G1 X113.435 Y108.529 E0.01283
G1 X113.652 Y108.183 E0.01283
G1 X113.911 Y107.866 E0.01283
G1 X114.207 Y107.583 E0.01283
G1 X114.708 Y107.235 E0.01913
G1 X115.082 Y107.054 E0.01304
G1 X115.665 Y106.878 E0.01910
G1 X116.293 Y106.796 E0.01983
G1 X116.717 Y106.704 E0.01361
G1 X117.130 Y106.553 E0.01379
G1 X117.500 Y106.358 E0.01311
G1 X117.690 Y106.233 E0.00713
G1 X118.031 Y105.952 E0.01386
G1 X118.320 Y105.640 E0.01333
G1 X118.456 Y105.459 E0.00710
G1 X118.678 Y105.090 E0.01351
G1 X118.775 Y104.885 E0.00710
G1 X118.917 Y104.483 E0.01337
G1 X119.006 Y104.053 E0.01376
G1 X119.035 Y103.627 E0.01340
G1 X119.035 Y91.609 E0.37680
G1 X122.214 Y91.609 E0.09969
G1 X122.214 Y103.907 E0.38558
G1 X122.248 Y104.365 F7200.000
G1 F5760
G1 X124.409 Y103.917 E-0.76000
G1 E-0.04000 F2100.00000
G1 Z0.800 F7200.000
G1 X123.168 Y106.267 F7200.000
G1 Z0.200 F7200.000
G1 E0.80000 F2100.00000
G1 F900
G1 X119.695 Y102.793 E0.15525
G1 X119.695 Y103.330 E0.01699
G1 X122.461 Y106.097 E0.12364
G1 X121.924 Y106.097 E0.01699
G1 X119.681 Y103.854 E0.10024
G1 X119.661 Y104.143 E0.00915
G1 X119.622 Y104.333 E0.00612
G1 X121.554 Y106.265 E0.08637
G1 X121.554 Y106.803 E0.01699
G1 X119.517 Y104.765 E0.09106
G1 X119.375 Y105.161 E0.01327
G1 X121.554 Y107.340 E0.09742
G1 X121.554 Y107.878 E0.01699
G1 X119.192 Y105.516 E0.10557
G1 X118.988 Y105.849 E0.01235
G1 X121.554 Y108.415 E0.11469
G1 X121.554 Y108.953 E0.01699
G1 X118.749 Y106.147 E0.12538
G1 X118.491 Y106.427 E0.01202
G1 X121.554 Y109.490 E0.13692
G1 X121.554 Y110.028 E0.01699
G1 X119.695 Y108.168 E0.08312
G1 X119.695 Y108.705 E0.01699
G1 X121.554 Y110.565 E0.08312
G1 X121.554 Y111.103 E0.01699
G1 X119.695 Y109.243 E0.08312
G1 X119.695 Y109.780 E0.01699
G1 X121.554 Y111.640 E0.08312
G1 X121.554 Y112.178 E0.01699
G1 X119.695 Y110.318 E0.08312
G1 X119.695 Y110.855 E0.01699
G1 X121.554 Y112.715 E0.08312
G1 X121.554 Y113.253 E0.01699
G1 X119.695 Y111.393 E0.08312
G1 X119.695 Y111.930 E0.01699
G1 X121.554 Y113.790 E0.08312
G1 X121.554 Y114.328 E0.01699
G1 X119.695 Y112.468 E0.08312
G1 X119.695 Y113.005 E0.01699
G1 X121.554 Y114.865 E0.08312
G1 X121.554 Y115.403 E0.01699
G1 X119.624 Y113.472 E0.08628
G1 X119.085 Y113.471 E0.01703
G1 X123.345 Y117.731 E0.19038
G1 X123.882 Y117.731 E0.01699
G1 X122.412 Y116.260 E0.06571
G1 X122.950 Y116.260 E0.01699
G1 X124.420 Y117.731 E0.06571
G1 X124.957 Y117.731 E0.01699
G1 X123.487 Y116.260 E0.06571
G1 X124.025 Y116.260 E0.01699
G1 X125.495 Y117.731 E0.06571
G1 X126.032 Y117.731 E0.01699
G1 X124.562 Y116.260 E0.06571
G1 X125.100 Y116.260 E0.01699
G1 X126.570 Y117.731 E0.06571
G1 X127.107 Y117.731 E0.01699
G1 X125.637 Y116.260 E0.06571
G1 X126.175 Y116.260 E0.01699
G1 X127.645 Y117.731 E0.06571
G1 X128.182 Y117.731 E0.01699
G1 X126.712 Y116.260 E0.06571
G1 X127.250 Y116.260 E0.01699
G1 X128.720 Y117.731 E0.06571
G1 X129.257 Y117.731 E0.01699
G1 X127.787 Y116.260 E0.06571
G1 X128.325 Y116.260 E0.01699
G1 X129.795 Y117.731 E0.06571
G1 X130.332 Y117.731 E0.01699
G1 X128.862 Y116.260 E0.06571
G1 X129.400 Y116.260 E0.01699
G1 X130.870 Y117.731 E0.06571
G1 X131.407 Y117.731 E0.01699
G1 X129.937 Y116.260 E0.06571
G1 X130.475 Y116.260 E0.01699
G1 X131.945 Y117.731 E0.06571
G1 X132.482 Y117.731 E0.01699
G1 X131.012 Y116.260 E0.06571
G1 X131.550 Y116.260 E0.01699
G1 X133.020 Y117.731 E0.06571
G1 X133.557 Y117.731 E0.01699
G1 X132.087 Y116.260 E0.06571
G1 X132.625 Y116.260 E0.01699
G1 X134.095 Y117.731 E0.06571
G1 X134.632 Y117.731 E0.01699
G1 X133.162 Y116.260 E0.06571
G1 X133.700 Y116.260 E0.01699
G1 X135.170 Y117.731 E0.06571
G1 X135.707 Y117.731 E0.01699
G1 X134.237 Y116.260 E0.06571
G1 X134.775 Y116.260 E0.01699
G1 X136.245 Y117.731 E0.06571
G1 X136.305 Y117.731 E0.00191
G1 X136.305 Y117.254 E0.01507
G1 X135.312 Y116.260 E0.04439
G1 X135.850 Y116.260 E0.01699
G1 X136.475 Y116.886 E0.02795
G1 F5760
G1 X135.850 Y116.260 E-0.30637
G1 F5760
G1 X135.312 Y116.260 E-0.18617
G1 F5760
G1 X135.858 Y116.807 E-0.26747
G1 E-0.04000 F2100.00000
G1 Z0.800 F7200.000
G1 X134.490 Y105.226 F7200.000
G1 Z0.200 F7200.000
G1 E0.80000 F2100.00000
G1 F900
G1 X133.891 Y104.627 E0.02677
G1 X133.353 Y104.627 E0.01699
G1 X134.320 Y105.593 E0.04321
G1 X134.320 Y106.097 E0.01591
G1 X134.286 Y106.097 E0.00107
G1 X132.816 Y104.627 E0.06571
G1 X132.278 Y104.627 E0.01699
G1 X133.749 Y106.097 E0.06571
G1 X133.211 Y106.097 E0.01699
G1 X131.741 Y104.627 E0.06571
G1 X131.203 Y104.627 E0.01699
G1 X132.674 Y106.097 E0.06571
G1 X132.136 Y106.097 E0.01699
G1 X130.666 Y104.627 E0.06571
G1 X130.128 Y104.627 E0.01699
G1 X131.599 Y106.097 E0.06571
G1 X131.061 Y106.097 E0.01699
G1 X129.591 Y104.627 E0.06571
G1 X129.053 Y104.627 E0.01699
G1 X130.524 Y106.097 E0.06571
G1 X129.986 Y106.097 E0.01699
G1 X128.516 Y104.627 E0.06571
G1 X127.978 Y104.627 E0.01699
G1 X129.449 Y106.097 E0.06571
G1 X128.911 Y106.097 E0.01699
G1 X127.441 Y104.627 E0.06571
G1 X126.903 Y104.627 E0.01699
G1 X128.374 Y106.097 E0.06571
G1 X127.836 Y106.097 E0.01699
G1 X126.366 Y104.627 E0.06571
G1 X125.828 Y104.627 E0.01699
G1 X127.299 Y106.097 E0.06571
G1 X126.761 Y106.097 E0.01699
G1 X125.291 Y104.627 E0.06571
G1 X124.753 Y104.627 E0.01699
G1 X126.224 Y106.097 E0.06571
G1 X125.686 Y106.097 E0.01699
G1 X124.216 Y104.627 E0.06571
G1 X123.678 Y104.627 E0.01699
G1 X125.149 Y106.097 E0.06571
G1 X124.611 Y106.097 E0.01699
G1 X123.141 Y104.627 E0.06571
G1 X122.603 Y104.627 E0.01699
G1 X124.074 Y106.097 E0.06571
G1 X123.536 Y106.097 E0.01699
G1 X122.066 Y104.627 E0.06571
G1 X121.554 Y104.627 E0.01616
G1 X121.554 Y104.115 E0.01616
G1 X119.695 Y102.255 E0.08312
G1 X119.695 Y101.718 E0.01699
G1 X121.554 Y103.578 E0.08312
G1 X121.554 Y103.040 E0.01699
G1 X119.695 Y101.180 E0.08312
G1 X119.695 Y100.643 E0.01699
G1 X121.554 Y102.503 E0.08312
G1 X121.554 Y101.965 E0.01699
G1 X119.695 Y100.105 E0.08312
G1 X119.695 Y99.568 E0.01699
G1 X121.554 Y101.428 E0.08312
G1 X121.554 Y100.890 E0.01699
G1 X119.695 Y99.030 E0.08312
G1 X119.695 Y98.493 E0.01699
G1 X121.554 Y100.353 E0.08312
G1 X121.554 Y99.815 E0.01699
G1 X119.695 Y97.955 E0.08312
G1 X119.695 Y97.418 E0.01699
G1 X121.554 Y99.278 E0.08312
G1 X121.554 Y98.740 E0.01699
G1 X119.695 Y96.880 E0.08312
G1 X119.695 Y96.343 E0.01699
G1 X121.554 Y98.203 E0.08312
G1 X121.554 Y97.665 E0.01699
G1 X119.695 Y95.805 E0.08312
G1 X119.695 Y95.268 E0.01699
G1 X121.554 Y97.128 E0.08312
G1 X121.554 Y96.590 E0.01699
G1 X119.695 Y94.730 E0.08312
G1 X119.695 Y94.193 E0.01699
G1 X121.554 Y96.053 E0.08312
G1 X121.554 Y95.515 E0.01699
G1 X119.695 Y93.655 E0.08312
G1 X119.695 Y93.118 E0.01699
G1 X121.554 Y94.978 E0.08312
G1 X121.554 Y94.440 E0.01699
G1 X119.695 Y92.580 E0.08312
G1 X119.695 Y92.269 E0.00983
G1 X119.921 Y92.269 E0.00715
G1 X121.554 Y93.903 E0.07301
G1 X121.554 Y93.365 E0.01699
G1 X120.458 Y92.269 E0.04899
G1 X120.996 Y92.269 E0.01699
G1 X121.554 Y92.828 E0.02496
G1 X121.554 Y92.290 E0.01699
G1 X121.364 Y92.100 E0.00852
G1 F5760
G1 X121.554 Y92.290 E-0.09342
G1 F5760
G1 X121.554 Y92.828 E-0.18616
G1 F5760
G1 X120.996 Y92.269 E-0.27358
G1 F5760
G1 X120.458 Y92.269 E-0.18617
G1 F5760
G1 X120.501 Y92.311 E-0.02067
G1 E-0.04000 F2100.00000
G1 Z0.800 F7200.000
G1 X119.427 Y107.900 F7200.000
G1 Z0.200 F7200.000
G1 E0.80000 F2100.00000
G1 F900
G1 X118.197 Y106.670 E0.05499
G1 X117.884 Y106.895 E0.01217
G1 X118.720 Y107.731 E0.03735
G1 X118.182 Y107.731 E0.01699
G1 X117.536 Y107.085 E0.02888
G1 X117.398 Y107.157 E0.00493
G1 X117.159 Y107.245 E0.00805
G1 X117.645 Y107.731 E0.02172
G1 X117.107 Y107.731 E0.01699
G1 X116.749 Y107.372 E0.01603
G1 X116.299 Y107.460 E0.01447
G1 X116.570 Y107.731 E0.01209
G1 X116.032 Y107.731 E0.01699
G1 X115.685 Y107.383 E0.01554
G1 X115.549 Y107.674 F7200.000
G1 F900
G1 X115.345 Y107.727 E0.00558
G1 F900
G1 X115.045 Y107.856 E0.00836
G1 F900
G1 X114.980 Y107.887 E0.00166
G1 F900
G1 X114.736 Y108.045 E0.00644
G1 F900
G1 X114.422 Y108.324 E0.00838
G1 X114.259 Y108.526 E0.00520
G1 X114.118 Y108.749 E0.00527
G1 X113.943 Y109.145 E0.00865
G1 F5760
G1 X114.118 Y108.749 E-0.14978
G1 F5760
G1 X114.259 Y108.526 E-0.09138
G1 F5760
G1 X114.422 Y108.324 E-0.09010
G1 F5760
G1 X114.736 Y108.045 E-0.14516
G1 E-0.32358 F2100.00000
G1 Z0.800 F7200.000
G1 X114.125 Y110.206 F7200.000
G1 Z0.200 F7200.000
G1 E0.80000 F2100.00000
G1 F900
G1 X113.722 Y109.803 E0.02058
G1 X113.701 Y109.935 E0.00482
G1 X113.699 Y110.395 E0.01662
G1 X113.955 Y110.651 E0.01311
G1 X113.955 Y111.266 E0.02223
G1 X113.526 Y110.838 E0.02191
G1 F5760
G1 X113.955 Y111.266 E-0.20988
