;FLAVOR:Marlin
;TIME:345
;Filament used:0.305903m
;Layer height: 0.3
;MINX:68.702
;MINY:65.098
;MINZ:0.2
;MAXX:96.3
;MAXY:99.903
;MAXZ:2.9
                                   
;Creative3D GCode Generated by CXEngineDEV
;Generated Time:2022-04-08 18:14:05
;----------Machine Config--------------
;Machine Name:Creality Ender-2 Pro
;Machine Height:180
;Machine Width:165
;Machine Depth:165
;Material name:PLA
;Number of Extruders:1
;ExtruderParams[0] Nozzle Diameter1000
;----------Profile Config---------------
;Layer Height:0.3
;Wall Thickness:0.8
;Top/Bottom Thickness:1
;Out Wall Line Width:0.4
;Inner Wall Line Width:0.4
;Inital Layer Height:200
;Wall Line Count:1
;Infill Line Distance:4
;Infill Pattern:grid
;Infill Sparse Density:20
;Infill Wipe Distance:0
;Print Temperature:200
;Bed Temperature:60
;Support Enable:false
;Support Density:30
;Support Angle:1.0472
;Adhesion Type:none
;machine is belt:false
;machine belt offset:10
;machine belt offset Y:0
;----------Shell Config----------------
;Outer Wall Wipe Distance:200
;Infill Before Walls:false
;Infill Overlap:0.16
;Fill Gaps Between Walls:everywhere
;Minimum Infill Area:1
;Top Surface Skin Layer:0
;Top Layers:2
;Z Seam Alignment:sharpest_corner
;Seam Corner Preference:z_seam_corner_inner
;Z Seam X:82.5
;Z Seam Y:82.5
;Horizontal Expansion:0
;Top/Bottom Pattern:zigzag
;Ironing Pattern:zigzag
;Vase Model:false
;----------Support Config----------------
;Support Type:everywhere
;Support Pattern:zigzag
;Support Infill Layer Thickness:0.3
;Minimum Support Area:10
;Enable Support Roof:false
;Support Roof Thickness:0.8
;Support Roof Pattern:lines
; ---------PrintSpeed & Travel----------
;Enable Print Cool:true
;Avoid Printed Parts Traveling:true
;Enable Retraction:true
;Retraction Distance:8
;Retraction Speed:100
;Retraction Prime Speed:100
;Maximum Retraction Count:100
;Minimum Extrusion Distance Window:1
;Z Hop When Retracted:false
;Z Hop Height:0.2
;Retract Before Outer Wall:true
;Print Speed:50
;Infill Speed:50

;Prime Tower Speed:50
;Travel Speed:120
;Initial Layer Speed:25
;Skirt/Brim Speed:25
;Combing Mode:off
;---------------------End of Head--------------------------
M140 S60
M104 S200
M105
M109 S200
M82 ;absolute extrusion mode
M220 S100 ;Reset Feedrate
M221 S100 ;Reset Flowrate

G28 ;Home

G92 E0 ;Reset Extruder
G1 Z2.0 F3000 ;Move Z Axis up
G1 X10.1 Y20 Z0.28 F5000.0 ;Move to start position
G1 X10.1 Y145.0 Z0.28 F1500.0 E15 ;Draw the first line
G1 X10.4 Y145.0 Z0.28 F5000.0 ;Move to side a little
G1 X10.4 Y20 Z0.28 F1500.0 E30 ;Draw the second line
G92 E0  ;Reset Extruder
G1 E-1.0000 F1800 ;Retract a bit
G1 Z2.0 F3000 ;Move Z Axis up
G1 E0.0000 F1800 

G92 E0
G92 E0
G1 F6000 E-8

;LAYER_COUNT:10

;LAYER:0
M107
;MESH:
G0 F3600 X85.667 Y94.28 Z0.2
;TYPE:WALL-OUTER
G1 F6000 E0
G1 F1500 X85.448 Y94.301 E0.00805
G1 X84.958 Y94.348 E0.02606
G1 X83.944 Y94.416 E0.06324
G1 X83.476 Y94.439 E0.08038
G1 X81.989 Y94.298 E0.13503
G1 X81.489 Y94.239 E0.15345
G1 X81.267 Y94.214 E0.16162
G1 X81.267 Y94.437 E0.16675
G1 X81.267 Y94.438 E0.16678
G1 X81.267 Y97.116 E0.26476
G1 X81.304 Y97.406 E0.27546
G1 X81.422 Y97.696 E0.28691
G1 X81.612 Y97.946 E0.2984
G1 X81.859 Y98.138 E0.30985
G1 X82.147 Y98.26 E0.32129
G1 X82.445 Y98.302 E0.3323
G1 X84.48 Y98.303 E0.40675
G1 X84.769 Y98.266 E0.41741
G1 X85.06 Y98.148 E0.4289
G1 X85.31 Y97.958 E0.44039
G1 X85.502 Y97.711 E0.45183
G1 X85.624 Y97.423 E0.46328
G1 X85.666 Y97.124 E0.47432
G1 X85.667 Y94.5 E0.57033
G1 X85.667 Y94.28 E0.5754
G0 F3600 X85.468 Y94.299
G0 X85.427 Y93.861
;;retract;;
G1 F6000 E-7.4246
G0 F3600 X92.054 Y76.49
G1 F6000 E0.5754
G1 F1500 X92.001 Y76.248 E0.58447
G1 X91.754 Y75.129 E0.62639
G1 X91.65 Y74.739 E0.64116
G1 X91.479 Y74.197 E0.66195
G1 X91.336 Y73.832 E0.67629
G1 X91.175 Y73.483 E0.69036
G1 X90.989 Y73.146 E0.70444
G1 X90.781 Y72.825 E0.71843
G1 X90.553 Y72.513 E0.73257
G1 X90.184 Y72.068 E0.75372
G1 X89.666 Y71.512 E0.78152
G1 X89.096 Y70.942 E0.81102
G1 X88.435 Y70.469 E0.84075
G1 X87.774 Y70.027 E0.86984
G1 X87.433 Y69.821 E0.88442
G1 X86.912 Y69.542 E0.90604
G1 X86.551 Y69.378 E0.92055
G1 X86.181 Y69.239 E0.93501
G1 X85.802 Y69.123 E0.94951
G1 X85.417 Y69.028 E0.96402
G1 X84.834 Y68.921 E0.98571
G1 X84.043 Y68.819 E1.01488
G1 X83.231 Y68.741 E1.04473
G1 X82.238 Y68.857 E1.08131
G1 X81.752 Y68.923 E1.09925
G1 X81.032 Y69.049 E1.12599
G1 X80.557 Y69.155 E1.1438
G1 X80.09 Y69.285 E1.16153
G1 X79.633 Y69.442 E1.17921
G1 X79.187 Y69.629 E1.19691
G1 X78.754 Y69.846 E1.21463
G1 X78.332 Y70.086 E1.23239
G1 X77.92 Y70.346 E1.25021
G1 X77.32 Y70.765 E1.27699
G1 X76.926 Y71.059 E1.29497
G1 X76.138 Y71.671 E1.33148
G1 X75.373 Y72.532 E1.37361
G1 X74.829 Y73.182 E1.40463
G1 X74.486 Y73.628 E1.42521
G1 X74.166 Y74.085 E1.44562
G1 X73.873 Y74.557 E1.46595
G1 X73.615 Y75.046 E1.48617
G1 X73.395 Y75.555 E1.50646
G1 X73.215 Y76.078 E1.5267
G1 X73.07 Y76.614 E1.54701
G1 X72.953 Y77.16 E1.56744
G1 X72.859 Y77.715 E1.58804
G1 X72.752 Y78.556 E1.61905
G1 X72.641 Y79.703 E1.66121
G1 X72.737 Y80.806 E1.70172
G1 X72.797 Y81.348 E1.72167
G1 X72.912 Y82.149 E1.75128
G1 X73.016 Y82.679 E1.77104
G1 X73.145 Y83.199 E1.79064
G1 X73.305 Y83.708 E1.81016
G1 X73.498 Y84.196 E1.82936
G1 X73.729 Y84.676 E1.84885
G1 X73.996 Y85.153 E1.86885
G1 X74.286 Y85.608 E1.88859
G1 X74.755 Y86.268 E1.91821
G1 X75.423 Y87.126 E1.958
G1 X75.779 Y87.565 E1.97867
G1 X76.629 Y88.265 E2.01896
G1 X77.054 Y88.599 E2.03874
G1 X77.703 Y89.074 E2.06816
G1 X78.151 Y89.366 E2.08773
G1 X78.611 Y89.633 E2.10719
G1 X79.085 Y89.868 E2.12654
G1 X79.331 Y89.975 E2.13636
G1 X79.827 Y90.157 E2.15569
G1 X80.337 Y90.305 E2.17511
G1 X80.857 Y90.424 E2.19463
G1 X81.383 Y90.519 E2.21419
G1 X81.916 Y90.596 E2.23389
G1 X82.453 Y90.658 E2.25367
G1 X83.553 Y90.759 E2.29408
G1 X84.866 Y90.569 E2.34262
G1 X85.507 Y90.458 E2.36642
G1 X86.139 Y90.327 E2.39003
G1 X86.758 Y90.169 E2.41341
G1 X87.064 Y90.077 E2.4251
G1 X87.364 Y89.975 E2.43669
G1 X87.659 Y89.864 E2.44822
G1 X87.95 Y89.742 E2.45977
G1 X88.235 Y89.607 E2.4713
G1 X88.513 Y89.459 E2.48283
G1 X88.784 Y89.299 E2.49434
G1 X89.049 Y89.128 E2.50588
G1 X89.308 Y88.946 E2.51746
G1 X89.797 Y88.564 E2.54016
G1 X90.286 Y88.133 E2.56401
G1 X90.749 Y87.684 E2.58761
G1 X91.42 Y86.975 E2.62332
G1 X92.014 Y86.306 E2.65605
G1 X92.151 Y86.152 E2.66359
G1 X92.3 Y86.295 E2.66843
G1 X94.939 Y88.822 E2.8021
G1 X94.165 Y89.65 E2.84357
G1 X93.545 Y90.278 E2.87586
G1 X93.225 Y90.584 E2.89206
G1 X92.905 Y90.873 E2.90783
G1 X92.574 Y91.155 E2.92374
G1 X92.235 Y91.425 E2.9396
G1 X91.88 Y91.687 E2.95574
G1 X91.528 Y91.932 E2.97143
G1 X90.788 Y92.409 E3.00364
G1 X89.655 Y93.088 E3.05197
G1 X89.076 Y93.328 E3.0749
G1 X88.656 Y93.571 E3.09265
G1 X88.283 Y93.87 E3.11014
G1 X87.964 Y94.217 E3.12739
G1 X87.696 Y94.609 E3.14476
G1 X87.489 Y95.039 E3.16222
G1 X87.347 Y95.495 E3.17969
G1 X87.278 Y95.959 E3.19686
G1 X87.267 Y96.217 E3.2063
G1 X87.267 Y96.616 E3.2209
G1 X87.234 Y97.065 E3.23737
G1 X87.19 Y97.309 E3.24644
G1 X87.127 Y97.551 E3.25559
G1 X87.057 Y97.76 E3.26366
G1 X86.861 Y98.186 E3.28081
G1 X86.738 Y98.393 E3.28962
G1 X86.46 Y98.765 E3.30661
G1 X86.291 Y98.945 E3.31565
G1 X85.942 Y99.246 E3.33251
G1 X85.74 Y99.385 E3.34148
G1 X85.541 Y99.503 E3.34994
G1 X85.118 Y99.695 E3.36694
G1 X84.882 Y99.773 E3.37603
G1 X84.439 Y99.868 E3.39261
G1 X84.191 Y99.894 E3.40173
G1 X83.959 Y99.903 E3.41023
G1 X82.956 Y99.903 E3.44692
G1 X82.501 Y99.869 E3.46362
G1 X82.255 Y99.825 E3.47276
G1 X82.028 Y99.765 E3.48135
G1 X81.801 Y99.689 E3.49011
G1 X81.379 Y99.496 E3.50708
G1 X81.179 Y99.376 E3.51562
G1 X80.8 Y99.092 E3.53294
G1 X80.63 Y98.933 E3.54146
G1 X80.466 Y98.755 E3.55032
G1 X80.186 Y98.38 E3.56744
G1 X80.067 Y98.178 E3.57602
G1 X79.874 Y97.754 E3.59306
G1 X79.795 Y97.514 E3.6023
G1 X79.7 Y97.074 E3.61877
G1 X79.676 Y96.829 E3.62778
G1 X79.667 Y96.286 E3.64765
G1 X79.633 Y95.826 E3.66452
G1 X79.533 Y95.371 E3.68157
G1 X79.365 Y94.93 E3.69883
G1 X79.137 Y94.525 E3.71584
G1 X78.848 Y94.151 E3.73313
G1 X78.513 Y93.828 E3.75016
G1 X78.132 Y93.557 E3.76726
G1 X77.722 Y93.347 E3.78411
G1 X77.391 Y93.198 E3.79739
G1 X77.079 Y93.046 E3.81009
G1 X76.774 Y92.886 E3.82269
G1 X76.473 Y92.716 E3.83534
G1 X75.866 Y92.338 E3.8615
G1 X75.281 Y91.936 E3.88747
G1 X74.699 Y91.506 E3.91395
G1 X74.13 Y91.059 E3.94042
G1 X73.003 Y90.137 E3.99369
G1 X72.066 Y88.998 E4.04765
G1 X71.395 Y88.13 E4.08779
G1 X70.968 Y87.532 E4.11468
G1 X70.574 Y86.93 E4.141
G1 X70.392 Y86.626 E4.15396
G1 X70.219 Y86.317 E4.16692
G1 X70.06 Y86.011 E4.17953
G1 X69.906 Y85.688 E4.19263
G1 X69.767 Y85.367 E4.20542
G1 X69.642 Y85.047 E4.21799
G1 X69.524 Y84.708 E4.23113
G1 X69.42 Y84.373 E4.24396
G1 X69.24 Y83.685 E4.26998
G1 X69.095 Y82.981 E4.29627
G1 X68.977 Y82.264 E4.32286
G1 X68.841 Y81.167 E4.3633
G1 X68.702 Y79.703 E4.41711
G1 X68.841 Y78.26 E4.47014
G1 X68.974 Y77.191 E4.50956
G1 X69.094 Y76.47 E4.5363
G1 X69.234 Y75.789 E4.56173
G1 X69.414 Y75.098 E4.58786
G1 X69.518 Y74.763 E4.60069
G1 X69.633 Y74.429 E4.61361
G1 X69.757 Y74.112 E4.62607
G1 X69.894 Y73.795 E4.6387
G1 X70.045 Y73.475 E4.65165
G1 X70.365 Y72.878 E4.67643
G1 X70.74 Y72.264 E4.70275
G1 X71.145 Y71.666 E4.72918
G1 X71.567 Y71.088 E4.75536
G1 X72.013 Y70.512 E4.78201
G1 X72.931 Y69.379 E4.83536
G1 X74.032 Y68.459 E4.88786
G1 X74.88 Y67.791 E4.92735
G1 X75.46 Y67.368 E4.95361
G1 X76.038 Y66.983 E4.97902
G1 X76.634 Y66.63 E5.00437
G1 X76.938 Y66.468 E5.01697
G1 X77.252 Y66.314 E5.02976
G1 X77.557 Y66.178 E5.04198
G1 X77.881 Y66.048 E5.05475
G1 X78.204 Y65.932 E5.06731
G1 X78.531 Y65.827 E5.07988
G1 X78.856 Y65.735 E5.09223
G1 X79.542 Y65.569 E5.11806
G1 X80.228 Y65.44 E5.14359
G1 X80.941 Y65.331 E5.16998
G1 X81.651 Y65.243 E5.19616
G1 X83.085 Y65.098 E5.24889
G1 X84.519 Y65.24 E5.30161
G1 X85.228 Y65.328 E5.32775
G1 X85.939 Y65.436 E5.35406
G1 X86.626 Y65.568 E5.37966
G1 X87.282 Y65.728 E5.40436
G1 X87.948 Y65.935 E5.42988
G1 X88.275 Y66.057 E5.44265
G1 X88.581 Y66.185 E5.45478
G1 X88.888 Y66.328 E5.46717
G1 X89.197 Y66.487 E5.47989
G1 X89.488 Y66.651 E5.49211
G1 X89.779 Y66.827 E5.50455
G1 X90.364 Y67.22 E5.53033
G1 X90.925 Y67.64 E5.55597
G1 X91.472 Y68.086 E5.58179
G1 X92.022 Y68.558 E5.60831
G1 X93.086 Y69.523 E5.66086
G1 X93.85 Y70.491 E5.70598
G1 X94.21 Y70.994 E5.72861
G1 X94.377 Y71.249 E5.73976
G1 X94.539 Y71.515 E5.75116
G1 X94.684 Y71.774 E5.76202
G1 X94.823 Y72.043 E5.7731
G1 X95.082 Y72.604 E5.7957
G1 X95.323 Y73.183 E5.81865
G1 X95.548 Y73.753 E5.84107
G1 X95.881 Y75.14 E5.89325
G1 X96.022 Y75.842 E5.91945
G1 X96.132 Y76.542 E5.94538
G1 X96.206 Y77.251 E5.97146
G1 X96.253 Y77.967 E5.99771
G1 X96.3 Y79.407 E6.05042
G1 X96.3 Y80.153 E6.07771
G1 X84.862 Y80.153 E6.49619
G1 X84.862 Y76.49 E6.6302
G1 X91.806 Y76.49 E6.88426
G1 X91.807 Y76.49 E6.88429
G1 X92.054 Y76.49 E6.88981
G0 F3600 X92.012 Y76.295
G0 X92.441 Y76.202
;;retract;;
G1 F6000 E-1.11019
G0 F3600 X92.91 Y69.687
;TYPE:SKIN
G1 F6000 E6.88981
G1 F1500 X92.596 Y69.403 E6.9053
G1 X91.863 Y68.739 E6.94148
G1 X91.315 Y68.267 E6.96794
G1 X90.779 Y67.83 E6.99324
G1 X90.227 Y67.417 E7.01847
G1 X89.671 Y67.044 E7.04296
G1 X94.415 Y71.788 E7.28842
G1 X94.469 Y71.884 E7.29245
G1 X94.604 Y72.145 E7.3032
G1 X94.859 Y72.695 E7.32538
G1 X94.931 Y72.87 E7.3323
G1 X88.456 Y66.394 E7.66735
G1 X88.157 Y66.269 E7.67921
G0 F3600 X88.157 Y66.267
G1 F1500 X87.876 Y66.163 E7.69017
G1 X87.562 Y66.066 E7.70219
G1 X95.317 Y73.821 E8.10344
G0 F3600 X95.318 Y73.824
G1 F1500 X95.496 Y74.566 E8.13136
G1 X86.783 Y65.853 E8.58217
G1 X86.573 Y65.801 E8.59009
G1 X86.07 Y65.705 E8.60883
G1 X95.669 Y75.304 E9.10548
G1 X95.783 Y75.878 E9.12689
G0 F3600 X95.783 Y75.879
G1 F1500 X95.803 Y76.004 E9.13153
G1 X85.395 Y65.596 E9.67004
G1 X85.176 Y65.562 E9.67815
G1 X84.743 Y65.509 E9.69411
G1 X95.903 Y76.67 E10.27156
G1 X95.965 Y77.266 E10.29348
G1 X95.968 Y77.3 E10.29473
G1 X84.108 Y65.44 E10.90838
G1 X83.48 Y65.378 E10.93146
G1 X87.973 Y69.872 E11.16396
G1 X87.901 Y69.823 E11.16715
G1 X87.551 Y69.611 E11.18212
G1 X87.018 Y69.326 E11.20423
G1 X86.733 Y69.196 E11.21569
G1 X82.894 Y65.358 E11.4143
G1 X82.381 Y65.41 E11.43316
G1 X85.859 Y68.889 E11.61314
G1 X85.466 Y68.793 E11.62794
G1 X85.137 Y68.732 E11.64019
G1 X81.868 Y65.463 E11.80933
G1 X81.675 Y65.482 E11.81642
G1 X81.36 Y65.521 E11.82803
G1 X84.47 Y68.631 E11.98895
G1 X84.068 Y68.58 E12.00377
G1 X83.831 Y68.557 E12.01249
G1 X80.859 Y65.586 E12.16623
G1 X80.369 Y65.661 E12.18437
G1 X83.209 Y68.501 E12.33131
G1 X82.703 Y68.561 E12.34995
G1 X79.89 Y65.748 E12.4955
G1 X79.572 Y65.806 E12.50733
G1 X79.42 Y65.844 E12.51306
G1 X82.196 Y68.619 E12.65667
G1 X81.713 Y68.684 E12.6745
G1 X81.697 Y68.686 E12.67509
G1 X78.966 Y65.955 E12.81639
G1 X78.91 Y65.968 E12.81849
G1 X78.603 Y66.055 E12.83017
G1 X78.525 Y66.08 E12.83316
G1 X81.216 Y68.771 E12.9724
G1 X80.984 Y68.813 E12.98102
G1 X80.745 Y68.865 E12.98997
G1 X78.103 Y66.224 E13.12664
G1 X77.968 Y66.271 E13.13187
G1 X77.695 Y66.381 E13.14264
G1 X80.291 Y68.978 E13.27699
G1 X80.018 Y69.055 E13.28737
G1 X79.858 Y69.11 E13.29356
G1 X77.304 Y66.556 E13.4257
G1 X77.043 Y66.684 E13.43634
G1 X76.928 Y66.745 E13.4411
G1 X79.443 Y69.261 E13.57125
G1 X79.085 Y69.411 E13.58545
G1 X79.046 Y69.43 E13.58704
G1 X76.565 Y66.948 E13.71544
G1 X76.21 Y67.159 E13.73054
G1 X78.669 Y69.618 E13.85777
G1 X78.64 Y69.634 E13.85899
G1 X78.307 Y69.822 E13.87298
G1 X75.869 Y67.383 E13.99915
G1 X75.601 Y67.561 E14.01092
G1 X75.532 Y67.612 E14.01406
G1 X77.957 Y70.037 E14.13953
G1 X77.786 Y70.145 E14.14693
G1 X77.617 Y70.263 E14.15447
G1 X75.205 Y67.851 E14.27927
G1 X75.021 Y67.985 E14.28759
G1 X74.883 Y68.095 E14.29405
G1 X77.284 Y70.496 E14.41828
G1 X77.179 Y70.57 E14.42298
G1 X76.957 Y70.735 E14.4331
G1 X74.566 Y68.343 E14.55684
G1 X74.25 Y68.593 E14.57158
G1 X76.636 Y70.979 E14.69503
G1 X76.317 Y71.226 E14.70979
G1 X73.94 Y68.848 E14.83281
G1 X73.631 Y69.106 E14.84753
G1 X75.999 Y71.473 E14.97003
G1 X75.972 Y71.494 E14.97128
G1 X75.729 Y71.769 E14.98471
G1 X73.324 Y69.364 E15.10914
G1 X73.099 Y69.55 E15.11982
G1 X73.029 Y69.635 E15.12385
G1 X75.463 Y72.069 E15.24979
G1 X75.197 Y72.368 E15.26443
G1 X72.776 Y69.948 E15.38967
G1 X72.523 Y70.26 E15.40437
G1 X74.939 Y72.676 E15.52937
G1 X74.681 Y72.984 E15.54407
G1 X72.27 Y70.573 E15.66882
G1 X72.199 Y70.661 E15.67295
G1 X72.021 Y70.89 E15.68357
G1 X74.434 Y73.302 E15.80839
G1 X74.292 Y73.486 E15.81689
G1 X74.193 Y73.627 E15.8232
G1 X71.775 Y71.209 E15.94831
G1 X71.536 Y71.536 E15.96312
G1 X73.961 Y73.961 E16.0886
G1 X73.744 Y74.309 E16.1036
G1 X71.299 Y71.865 E16.23008
G1 X71.07 Y72.201 E16.24496
G1 X73.54 Y74.671 E16.37276
G1 X73.397 Y74.942 E16.38397
G1 X73.352 Y75.049 E16.38821
G1 X70.847 Y72.544 E16.51782
G1 X70.633 Y72.896 E16.53289
G1 X73.182 Y75.444 E16.66476
G1 X73.171 Y75.468 E16.66572
G1 X73.034 Y75.863 E16.68102
G1 X70.431 Y73.259 E16.81572
G1 X70.26 Y73.578 E16.82897
G1 X70.236 Y73.63 E16.83106
G1 X72.906 Y76.3 E16.96921
G1 X72.836 Y76.557 E16.97895
G1 X72.795 Y76.755 E16.98635
G1 X70.058 Y74.018 E17.12797
G1 X69.978 Y74.206 E17.13544
G1 X69.893 Y74.419 E17.14383
G1 X72.699 Y77.224 E17.28899
G1 X72.62 Y77.679 E17.30589
G1 X72.617 Y77.708 E17.30695
G1 X69.745 Y74.836 E17.45555
G0 F3600 X69.744 Y74.84
G1 F1500 X69.646 Y75.159 E17.46776
G1 X69.616 Y75.272 E17.47204
G1 X72.554 Y78.21 E17.62405
G1 X72.513 Y78.529 E17.63582
G1 X72.495 Y78.717 E17.64273
G1 X69.499 Y75.721 E17.79774
G1 X69.466 Y75.847 E17.80251
G1 X69.396 Y76.185 E17.81514
G1 X72.445 Y79.233 E17.97287
G1 X72.399 Y79.701 E17.99007
G1 X72.405 Y79.759 E17.99221
G1 X69.304 Y76.658 E18.15265
G1 X69.224 Y77.143 E18.17064
G1 X72.459 Y80.378 E18.33802
G1 X72.498 Y80.827 E18.35451
G1 X72.518 Y81.003 E18.36099
G1 X69.158 Y77.643 E18.53484
G1 X69.096 Y78.147 E18.55342
G1 X72.598 Y81.649 E18.73461
G1 X72.676 Y82.188 E18.75454
G1 X72.701 Y82.318 E18.75938
G1 X69.042 Y78.659 E18.9487
G1 X68.993 Y79.175 E18.96766
G1 X72.858 Y83.04 E19.16764
G1 X72.912 Y83.263 E19.17604
G1 X73.078 Y83.787 E19.19615
G1 X73.103 Y83.851 E19.19866
G1 X68.943 Y79.691 E19.4139
G1 X68.942 Y79.7 E19.41423
G1 X69 Y80.314 E19.4368
G1 X73.57 Y84.884 E19.67325
G1 X73.79 Y85.276 E19.6897
G1 X74.087 Y85.741 E19.70988
G1 X74.562 Y86.409 E19.73987
