; generated by Slic3r Prusa Edition 1.39.1-prusa3d on 2018-05-09 at 12:53:30

; 

; external perimeters extrusion width = 0.45mm
; perimeters extrusion width = 0.45mm
; infill extrusion width = 0.45mm
; solid infill extrusion width = 0.45mm
; top infill extrusion width = 0.33mm
; first layer extrusion width = 0.42mm

M107
M115 U3.1.0 ; tell printer latest fw version
M201 X9000 Y9000 Z500 E10000 ; sets maximum accelerations, mm/sec^2
M203 X500 Y500 Z12 E120 ; sets maximum feedrates, mm/sec
M204 S1500 T1500 ; sets acceleration (S) and retract acceleration (T)
M205 X10 Y10 Z0.2 E2.5 ; sets the jerk limits, mm/sec
M205 S0 T0 ; sets the minimum extruding and travel feed rate, mm/sec
M83  ; extruder relative mode
M104 S200 ; set extruder temp
M140 S65 ; set bed temp
M190 S65 ; wait for bed temp
M109 S200 ; wait for extruder temp
G28 W ; home all without mesh bed level
G80 ; mesh bed leveling
G1 Y-3.0 F1000.0 ; go outside print area
G92 E0.0
G1 E18.0 F1000.0;
G1 X60.0 E9.0  F1000.0 ; intro line
G1 X100.0 E12.5  F1000.0 ; intro line
G92 E0.0
M900 K30; Filament gcode
G21 ; set units to millimeters
G90 ; use absolute coordinates
M83 ; use relative distances for extrusion
;BEFORE_LAYER_CHANGE
;0.2


G1 E-0.80000 F2100.00000
G1 Z0.600 F7200.000
;AFTER_LAYER_CHANGE
;0.2
G1 X88.323 Y84.807 F7200.000
G1 Z0.200 F7200.000
G1 E0.80000 F2100.00000
M204 S1000
G1 F900
G1 X91.267 Y82.447 E0.11830
G1 X92.685 Y81.555 E0.05254
G1 X93.904 Y80.958 E0.04256
G1 X95.184 Y80.498 E0.04263
G1 X96.814 Y80.103 E0.05260
G1 X98.796 Y79.810 E0.06281
G1 X100.590 Y79.643 E0.05650
G1 X102.720 Y79.848 E0.06708
G1 X104.349 Y80.099 E0.05169
G1 X105.984 Y80.503 E0.05279
G1 X107.276 Y80.983 E0.04325
G1 X108.503 Y81.614 E0.04325
G1 X109.894 Y82.545 E0.05246
G1 X111.179 Y83.585 E0.05183
G1 X112.741 Y85.002 E0.06614
G1 X113.734 Y86.247 E0.04993
G1 X114.581 Y87.511 E0.04770
G1 X115.149 Y88.606 E0.03868
G1 X115.847 Y90.307 E0.05763
G1 X116.270 Y92.026 E0.05551
G1 X116.558 Y93.640 E0.05143
G1 X116.753 Y96.844 E0.10063
G1 X116.730 Y98.213 E0.04293
G1 X115.440 Y106.742 E0.27048
G1 X115.292 Y107.296 E0.01796
G1 X115.031 Y107.811 E0.01809
G1 X106.203 Y118.186 E0.42714
G1 X105.632 Y118.767 E0.02553
G1 X104.789 Y119.401 E0.03310
G1 X103.687 Y119.950 E0.03860
G1 X102.724 Y120.229 E0.03144
G1 X101.532 Y120.356 E0.03758
G1 X99.971 Y120.337 E0.04894
G1 X98.708 Y120.105 E0.04026
G1 X97.476 Y119.596 E0.04179
G1 X96.402 Y118.856 E0.04090
G1 X95.743 Y118.201 E0.02913
G1 X87.253 Y108.334 E0.40813
G1 X85.550 Y105.963 E0.09154
G1 X84.914 Y104.824 E0.04089
G1 X84.363 Y103.550 E0.04354
G1 X83.974 Y102.303 E0.04095
G1 X83.687 Y101.004 E0.04171
G1 X83.247 Y97.270 E0.11790
G1 X83.407 Y95.420 E0.05821
G1 X83.691 Y93.420 E0.06335
G1 X84.074 Y91.784 E0.05266
G1 X84.522 Y90.494 E0.04281
G1 X85.106 Y89.262 E0.04275
G1 X85.984 Y87.821 E0.05290
G1 X88.287 Y84.855 E0.11774
G1 X88.582 Y85.084 F7200.000
G1 F900
G1 X91.491 Y82.750 E0.11694
G1 X92.872 Y81.882 E0.05112
G1 X94.051 Y81.305 E0.04115
G1 X95.291 Y80.860 E0.04132
G1 X96.888 Y80.473 E0.05152
G1 X100.588 Y80.020 E0.11688
G1 X102.687 Y80.224 E0.06612
G1 X104.286 Y80.471 E0.05073
G1 X105.876 Y80.865 E0.05135
G1 X107.124 Y81.328 E0.04176
G1 X108.311 Y81.939 E0.04184
G1 X109.671 Y82.849 E0.05131
G1 X110.931 Y83.869 E0.05085
G1 X112.468 Y85.262 E0.06503
G1 X113.609 Y86.714 E0.05790
G1 X114.256 Y87.701 E0.03700
G1 X114.805 Y88.762 E0.03746
G1 X115.491 Y90.433 E0.05663
G1 X115.901 Y92.104 E0.05396
G1 X116.185 Y93.695 E0.05068
G1 X116.376 Y96.849 E0.09908
G1 X116.356 Y98.165 E0.04124
G1 X115.068 Y106.677 E0.26995
G1 X114.941 Y107.159 E0.01562
G1 X114.718 Y107.600 E0.01550
G1 X105.568 Y118.311 E0.44169
G1 X104.645 Y119.046 E0.03702
G1 X103.596 Y119.580 E0.03690
G1 X102.661 Y119.857 E0.03058
G1 X101.521 Y119.979 E0.03595
G1 X100.010 Y119.962 E0.04736
G1 X98.815 Y119.743 E0.03809
G1 X97.654 Y119.263 E0.03939
G1 X96.633 Y118.558 E0.03892
G1 X96.028 Y117.955 E0.02677
G1 X87.545 Y108.095 E0.40783
G1 X85.873 Y105.769 E0.08981
G1 X85.247 Y104.647 E0.04030
G1 X84.718 Y103.421 E0.04185
G1 X84.335 Y102.193 E0.04036
G1 X84.058 Y100.937 E0.04031
G1 X83.624 Y97.260 E0.11609
G1 X83.782 Y95.461 E0.05663
G1 X84.062 Y93.489 E0.06243
G1 X84.437 Y91.887 E0.05158
G1 X84.871 Y90.637 E0.04150
G1 X85.437 Y89.443 E0.04144
G1 X86.297 Y88.030 E0.05187
G1 X88.546 Y85.132 E0.11500
G1 F5760
G1 X90.252 Y83.752 E-0.76000
G1 E-0.04000 F2100.00000
G1 Z0.800 F7200.000
G1 X98.379 Y111.291 F7200.000
G1 Z0.200 F7200.000
G1 E0.80000 F2100.00000
G1 F900
G1 X100.987 Y111.552 E0.08218
G1 X101.932 Y111.500 E0.02968
G1 X103.556 Y111.360 E0.05108
G1 X103.545 Y114.812 E0.10822
G1 X103.437 Y115.212 E0.01300
G1 X103.230 Y115.572 E0.01303
G1 X102.950 Y115.852 E0.01242
G1 X102.745 Y115.989 E0.00773
G1 X102.379 Y116.141 E0.01242
G1 X102.005 Y116.190 E0.01181
G1 X99.928 Y116.190 E0.06512
G1 X99.553 Y116.141 E0.01186
G1 X99.163 Y115.977 E0.01325
G1 X98.856 Y115.740 E0.01217
G1 X98.694 Y115.555 E0.00771
G1 X98.496 Y115.212 E0.01242
G1 X98.393 Y114.829 E0.01242
G1 X98.379 Y114.622 E0.00652
G1 X98.379 Y111.351 E0.10257
G1 X98.757 Y111.707 F7200.000
G1 F900
G1 X100.979 Y111.930 E0.07003
G1 X101.959 Y111.876 E0.03078
G1 X103.177 Y111.771 E0.03834
G1 X103.168 Y114.761 E0.09376
G1 X103.086 Y115.067 E0.00991
G1 X102.928 Y115.341 E0.00992
G1 X102.709 Y115.559 E0.00970
G1 X102.566 Y115.655 E0.00540
G1 X102.280 Y115.773 E0.00970
G1 X101.980 Y115.813 E0.00948
G1 X99.953 Y115.813 E0.06357
G1 X99.652 Y115.773 E0.00950
G1 X99.355 Y115.648 E0.01013
G1 X99.115 Y115.464 E0.00948
G1 X99.002 Y115.335 E0.00539
G1 X98.847 Y115.067 E0.00970
G1 X98.767 Y114.768 E0.00970
G1 X98.757 Y111.767 E0.09408
G1 X98.780 Y111.308 F7200.000
G1 F5760
G1 X100.945 Y111.927 E-0.76000
G1 E-0.04000 F2100.00000
G1 Z0.800 F7200.000
G1 X110.031 Y94.377 F7200.000
G1 Z0.200 F7200.000
G1 E0.80000 F2100.00000
G1 F900
G1 X109.716 Y92.903 E0.04726
G1 X109.523 Y92.134 E0.02484
G1 X109.341 Y91.561 E0.01886
G1 X109.190 Y91.175 E0.01301
G1 X108.926 Y90.630 E0.01898
G1 X108.711 Y90.270 E0.01315
G1 X108.361 Y89.778 E0.01893
G1 X107.975 Y89.313 E0.01896
G1 X107.434 Y88.733 E0.02484
G1 X106.847 Y88.145 E0.02605
G1 X106.155 Y87.650 E0.02668
G1 X105.477 Y87.197 E0.02556
G1 X104.767 Y86.787 E0.02573
G1 X104.198 Y86.520 E0.01971
G1 X103.606 Y86.308 E0.01970
G1 X103.002 Y86.151 E0.01958
G1 X102.393 Y86.038 E0.01944
G1 X101.587 Y85.934 E0.02546
G1 X100.725 Y85.852 E0.02716
G1 X99.196 Y86.040 E0.04829
G1 X98.449 Y86.170 E0.02377
G1 X97.477 Y86.413 E0.03141
G1 X96.758 Y86.674 E0.02400
G1 X96.069 Y87.004 E0.02396
G1 X95.211 Y87.520 E0.03136
G1 X94.590 Y87.953 E0.02374
G1 X93.371 Y88.888 E0.04816
G1 X92.206 Y90.218 E0.05545
G1 X91.508 Y91.128 E0.03596
G1 X91.186 Y91.616 E0.01832
G1 X90.894 Y92.124 E0.01838
G1 X90.536 Y92.908 E0.02704
G1 X90.345 Y93.464 E0.01841
G1 X90.191 Y94.029 E0.01836
G1 X89.977 Y95.152 E0.03585
G1 X89.868 Y96.013 E0.02720
G1 X89.753 Y97.203 E0.03750
G1 X89.911 Y98.892 E0.05319
G1 X90.030 Y99.715 E0.02606
G1 X90.138 Y100.267 E0.01764
G1 X90.352 Y101.073 E0.02614
G1 X90.646 Y101.860 E0.02634
G1 X91.022 Y102.606 E0.02619
G1 X91.311 Y103.088 E0.01762
G1 X91.622 Y103.554 E0.01755
G1 X92.278 Y104.436 E0.03449
G1 X93.002 Y105.337 E0.03625
G1 X93.889 Y106.068 E0.03603
G1 X94.756 Y106.733 E0.03426
G1 X95.215 Y107.047 E0.01744
G1 X95.686 Y107.338 E0.01735
G1 X96.174 Y107.602 E0.01742
G1 X96.687 Y107.835 E0.01766
G1 X97.467 Y108.105 E0.02587
G1 X98.008 Y108.245 E0.01753
G1 X98.552 Y108.356 E0.01740
G1 X99.368 Y108.480 E0.02589
G1 X101.062 Y108.650 E0.05335
G1 X102.430 Y108.451 E0.04335
G1 X103.405 Y108.274 E0.03108
G1 X104.368 Y108.040 E0.03105
G1 X105.300 Y107.725 E0.03084
G1 X105.903 Y107.455 E0.02072
G1 X106.207 Y107.294 E0.01081
G1 X106.769 Y106.947 E0.02069
G1 X107.553 Y106.355 E0.03082
G1 X108.289 Y105.689 E0.03112
G1 X109.204 Y104.738 E0.04136
G1 X109.673 Y104.210 E0.02217
G1 X111.895 Y106.337 E0.09644
G1 X110.774 Y107.501 E0.05066
G1 X110.148 Y108.083 E0.02678
G1 X109.496 Y108.620 E0.02649
G1 X108.808 Y109.113 E0.02655
G1 X107.704 Y109.812 E0.04095
G1 X106.982 Y110.241 E0.02635
G1 X106.401 Y110.482 E0.01972
G1 X106.146 Y110.619 E0.00907
G1 X105.716 Y110.915 E0.01637
G1 X105.326 Y111.280 E0.01676
G1 X105.007 Y111.682 E0.01608
G1 X104.852 Y111.930 E0.00918
G1 X104.631 Y112.388 E0.01595
G1 X104.532 Y112.673 E0.00945
G1 X104.421 Y113.164 E0.01577
G1 X104.389 Y113.446 E0.00892
G1 X104.371 Y114.315 E0.02724
G1 X104.349 Y114.517 E0.00637
G1 X104.314 Y114.712 E0.00619
G1 X104.191 Y115.130 E0.01368
G1 X104.120 Y115.303 E0.00586
G1 X103.916 Y115.677 E0.01335
G1 X103.667 Y116.009 E0.01302
G1 X103.373 Y116.303 E0.01302
G1 X103.032 Y116.558 E0.01335
G1 X102.871 Y116.654 E0.00586
G1 X102.474 Y116.835 E0.01368
G1 X102.096 Y116.946 E0.01237
G1 X101.672 Y117.007 E0.01342
G1 X100.269 Y117.008 E0.04399
G1 X99.848 Y116.948 E0.01333
G1 X99.439 Y116.826 E0.01341
G1 X99.062 Y116.654 E0.01299
G1 X98.901 Y116.558 E0.00587
G1 X98.552 Y116.297 E0.01368
G1 X98.415 Y116.169 E0.00586
G1 X98.129 Y115.840 E0.01368
G1 X97.916 Y115.508 E0.01237
G1 X97.734 Y115.111 E0.01368
G1 X97.675 Y114.933 E0.00586
G1 X97.582 Y114.507 E0.01368
G1 X97.562 Y114.315 E0.00606
G1 X97.545 Y113.528 E0.02468
G1 X97.514 Y113.250 E0.00876
G1 X97.406 Y112.768 E0.01549
G1 X97.310 Y112.487 E0.00931
G1 X97.099 Y112.038 E0.01554
G1 X96.945 Y111.789 E0.00920
G1 X96.635 Y111.390 E0.01583
G1 X96.256 Y111.025 E0.01648
G1 X95.823 Y110.717 E0.01667
G1 X94.459 Y110.045 E0.04768
G1 X93.578 Y109.514 E0.03226
G1 X93.006 Y109.121 E0.02176
G1 X92.438 Y108.700 E0.02217
G1 X90.778 Y107.363 E0.06681
G1 X89.873 Y106.260 E0.04475
G1 X88.993 Y105.107 E0.04548
G1 X88.408 Y104.232 E0.03300
G1 X87.903 Y103.331 E0.03238
G1 X87.624 Y102.717 E0.02115
G1 X87.292 Y101.765 E0.03161
G1 X87.119 Y101.103 E0.02147
G1 X86.916 Y100.065 E0.03316
G1 X86.726 Y98.626 E0.04550
G1 X86.590 Y97.206 E0.04471
G1 X86.812 Y95.082 E0.06696
G1 X86.976 Y94.034 E0.03325
G1 X87.115 Y93.360 E0.02161
G1 X87.286 Y92.707 E0.02116
G1 X87.617 Y91.756 E0.03157
G1 X88.048 Y90.846 E0.03157
G1 X88.385 Y90.261 E0.02116
G1 X88.759 Y89.682 E0.02161
G1 X89.377 Y88.821 E0.03325
G1 X90.707 Y87.153 E0.06688
G1 X92.339 Y85.810 E0.06626
G1 X92.895 Y85.389 E0.02186
G1 X93.461 Y84.994 E0.02163
G1 X94.034 Y84.633 E0.02124
G1 X94.616 Y84.311 E0.02087
G1 X95.510 Y83.913 E0.03069
G1 X96.141 Y83.699 E0.02088
G1 X96.789 Y83.525 E0.02103
G1 X97.457 Y83.382 E0.02142
G1 X98.141 Y83.265 E0.02175
G1 X99.198 Y83.127 E0.03345
G1 X100.586 Y82.987 E0.04375
G1 X102.681 Y83.212 E0.06605
G1 X103.369 Y83.317 E0.02183
G1 X104.042 Y83.447 E0.02150
G1 X104.695 Y83.607 E0.02107
G1 X105.324 Y83.803 E0.02066
G1 X105.934 Y84.043 E0.02054
G1 X106.221 Y84.177 E0.00995
G1 X107.075 Y84.657 E0.03071
G1 X107.910 Y85.234 E0.03180
G1 X108.997 Y86.115 E0.04387
G1 X110.302 Y87.289 E0.05506
G1 X111.219 Y88.469 E0.04686
G1 X111.702 Y89.207 E0.02764
G1 X112.106 Y89.988 E0.02759
G1 X112.678 Y91.372 E0.04695
G1 X113.076 Y93.073 E0.05477
G1 X113.199 Y93.754 E0.02169
G1 X113.288 Y94.441 E0.02172
G1 X113.346 Y95.135 E0.02185
G1 X113.394 Y96.199 E0.03337
G1 X113.406 Y97.266 E0.03348
G1 X102.749 Y97.266 E0.33415
G1 X102.749 Y94.377 E0.09059
G1 X109.971 Y94.377 E0.22644
G1 X109.565 Y94.000 F7200.000
G1 F900
G1 X109.349 Y92.988 E0.03243
G1 X109.160 Y92.238 E0.02426
G1 X108.985 Y91.687 E0.01812
G1 X108.844 Y91.325 E0.01216
G1 X108.594 Y90.810 E0.01798
G1 X108.395 Y90.477 E0.01216
G1 X108.061 Y90.008 E0.01804
G1 X107.691 Y89.562 E0.01818
G1 X107.163 Y88.995 E0.02429
G1 X106.603 Y88.434 E0.02487
G1 X105.941 Y87.960 E0.02551
G1 X105.278 Y87.518 E0.02498
G1 X104.592 Y87.122 E0.02484
G1 X104.054 Y86.869 E0.01865
G1 X103.495 Y86.669 E0.01861
G1 X102.920 Y86.519 E0.01863
G1 X102.334 Y86.410 E0.01869
G1 X101.545 Y86.309 E0.02494
G1 X100.730 Y86.231 E0.02568
G1 X99.252 Y86.413 E0.04671
G1 X98.527 Y86.539 E0.02304
G1 X97.588 Y86.774 E0.03037
G1 X96.904 Y87.022 E0.02281
G1 X96.248 Y87.337 E0.02281
G1 X95.417 Y87.836 E0.03041
G1 X94.813 Y88.257 E0.02307
G1 X93.631 Y89.164 E0.04672
G1 X92.498 Y90.457 E0.05390
G1 X91.816 Y91.347 E0.03516
G1 X91.507 Y91.814 E0.01754
G1 X91.230 Y92.297 E0.01747
G1 X90.886 Y93.049 E0.02591
G1 X90.705 Y93.575 E0.01745
G1 X90.559 Y94.114 E0.01751
G1 X90.350 Y95.211 E0.03503
G1 X90.242 Y96.054 E0.02666
G1 X90.131 Y97.204 E0.03620
G1 X90.286 Y98.847 E0.05177
G1 X90.402 Y99.652 E0.02547
G1 X90.506 Y100.183 E0.01696
G1 X90.711 Y100.958 E0.02516
G1 X90.992 Y101.709 E0.02512
G1 X91.352 Y102.424 E0.02511
G1 X91.629 Y102.886 E0.01689
G1 X91.930 Y103.336 E0.01696
G1 X92.577 Y104.205 E0.03396
G1 X93.272 Y105.071 E0.03482
G1 X94.123 Y105.773 E0.03460
G1 X94.978 Y106.427 E0.03374
G1 X95.421 Y106.731 E0.01685
G1 X95.874 Y107.012 E0.01672
G1 X96.342 Y107.264 E0.01666
G1 X96.827 Y107.485 E0.01670
G1 X97.576 Y107.744 E0.02485
G1 X98.093 Y107.878 E0.01675
G1 X98.618 Y107.985 E0.01679
G1 X99.416 Y108.106 E0.02529
G1 X101.053 Y108.270 E0.05160
G1 X102.369 Y108.079 E0.04169
G1 X103.327 Y107.905 E0.03052
G1 X104.262 Y107.678 E0.03019
G1 X105.162 Y107.374 E0.02977
G1 X105.737 Y107.116 E0.01976
G1 X106.020 Y106.967 E0.01003
G1 X106.556 Y106.636 E0.01975
G1 X107.312 Y106.064 E0.02974
G1 X108.026 Y105.418 E0.03019
G1 X108.927 Y104.482 E0.04071
G1 X109.651 Y103.666 E0.03421
G1 X112.424 Y106.322 E0.12039
G1 X111.655 Y107.146 E0.03532
G1 X111.037 Y107.772 E0.02761
G1 X110.397 Y108.367 E0.02739
G1 X109.726 Y108.919 E0.02724
G1 X109.019 Y109.426 E0.02729
G1 X107.902 Y110.133 E0.04146
G1 X107.151 Y110.579 E0.02736
G1 X106.563 Y110.824 E0.01998
G1 X106.343 Y110.941 E0.00782
G1 X105.953 Y111.209 E0.01482
G1 X105.604 Y111.536 E0.01500
G1 X105.316 Y111.900 E0.01456
G1 X105.182 Y112.113 E0.00786
G1 X104.980 Y112.533 E0.01461
G1 X104.895 Y112.777 E0.00812
G1 X104.793 Y113.227 E0.01446
G1 X104.765 Y113.472 E0.00772
G1 X104.748 Y114.339 E0.02721
G1 X104.723 Y114.571 E0.00731
G1 X104.682 Y114.798 E0.00725
G1 X104.548 Y115.256 E0.01495
G1 X104.461 Y115.466 E0.00713
G1 X104.234 Y115.881 E0.01483
G1 X103.953 Y116.257 E0.01472
G1 X103.621 Y116.589 E0.01472
G1 X103.242 Y116.872 E0.01483
G1 X103.046 Y116.988 E0.00713
G1 X102.613 Y117.186 E0.01495
G1 X102.169 Y117.317 E0.01448
G1 X101.700 Y117.384 E0.01486
G1 X100.236 Y117.384 E0.04593
G1 X99.768 Y117.317 E0.01482
G1 X99.306 Y117.180 E0.01510
G1 X98.887 Y116.988 E0.01445
G1 X98.691 Y116.872 E0.00713
G1 X98.309 Y116.587 E0.01495
G1 X98.143 Y116.432 E0.00713
G1 X97.831 Y116.071 E0.01495
G1 X97.581 Y115.683 E0.01448
G1 X97.383 Y115.249 E0.01495
G1 X97.311 Y115.033 E0.00713
G1 X97.210 Y114.567 E0.01495
G1 X97.185 Y114.339 E0.00720
G1 X97.168 Y113.553 E0.02465
G1 X97.141 Y113.312 E0.00759
G1 X97.043 Y112.870 E0.01419
G1 X96.960 Y112.629 E0.00801
G1 X96.766 Y112.218 E0.01423
G1 X96.634 Y112.004 E0.00790
G1 X96.354 Y111.642 E0.01433
G1 X96.015 Y111.317 E0.01475
G1 X95.629 Y111.042 E0.01485
G1 X94.278 Y110.376 E0.04723
G1 X93.374 Y109.831 E0.03311
G1 X92.787 Y109.428 E0.02232
G1 X92.208 Y108.999 E0.02259
G1 X90.510 Y107.631 E0.06837
G1 X89.577 Y106.494 E0.04611
G1 X88.686 Y105.326 E0.04607
G1 X88.086 Y104.429 E0.03383
G1 X87.567 Y103.502 E0.03333
G1 X87.276 Y102.864 E0.02197
G1 X87.151 Y102.541 E0.01085
G1 X86.930 Y101.872 E0.02210
G1 X86.751 Y101.187 E0.02221
G1 X86.544 Y100.126 E0.03389
G1 X86.351 Y98.668 E0.04608
G1 X86.212 Y97.205 E0.04610
G1 X86.438 Y95.034 E0.06844
G1 X86.605 Y93.967 E0.03384
G1 X86.748 Y93.274 E0.02221
G1 X86.925 Y92.597 E0.02193
G1 X87.268 Y91.613 E0.03267
G1 X87.714 Y90.671 E0.03267
G1 X88.063 Y90.065 E0.02193
G1 X88.447 Y89.470 E0.02221
G1 X89.077 Y88.593 E0.03385
G1 X90.437 Y86.887 E0.06841
G1 X92.105 Y85.513 E0.06775
G1 X92.674 Y85.084 E0.02233
G1 X93.252 Y84.680 E0.02212
G1 X93.842 Y84.308 E0.02186
G1 X94.445 Y83.975 E0.02161
G1 X95.066 Y83.684 E0.02151
G1 X96.031 Y83.338 E0.03215
G1 X96.700 Y83.158 E0.02172
G1 X97.386 Y83.011 E0.02198
G1 X98.085 Y82.892 E0.02223
G1 X99.155 Y82.753 E0.03385
G1 X100.585 Y82.608 E0.04507
G1 X101.267 Y82.672 E0.02147
G1 X102.731 Y82.838 E0.04618
G1 X103.433 Y82.945 E0.02229
G1 X104.123 Y83.078 E0.02203
G1 X104.796 Y83.244 E0.02173
G1 X105.449 Y83.447 E0.02145
G1 X106.082 Y83.697 E0.02133
G1 X106.387 Y83.838 E0.01055
