; generated by Slic3r Prusa Edition 1.39.1-prusa3d on 2018-04-22 at 18:19:18

; 

; external perimeters extrusion width = 0.45mm
; perimeters extrusion width = 0.45mm
; infill extrusion width = 0.45mm
; solid infill extrusion width = 0.45mm
; top infill extrusion width = 0.33mm
; first layer extrusion width = 0.42mm

M107
M115 U3.1.0 ; tell printer latest fw version
M201 X9000 Y9000 Z500 E10000 ; sets maximum accelerations, mm/sec^2
M203 X500 Y500 Z12 E120 ; sets maximum feedrates, mm/sec
M204 S1500 T1500 ; sets acceleration (S) and retract acceleration (T)
M205 X10 Y10 Z0.2 E2.5 ; sets the jerk limits, mm/sec
M205 S0 T0 ; sets the minimum extruding and travel feed rate, mm/sec
M83  ; extruder relative mode
M104 S215 ; set extruder temp
M140 S60 ; set bed temp
M190 S60 ; wait for bed temp
M109 S215 ; wait for extruder temp
G28 W ; home all without mesh bed level
G80 ; mesh bed leveling
G1 Y-3.0 F1000.0 ; go outside print area
G92 E0.0
G1 E18.0 F1000.0;
G1 X60.0 E9.0  F1000.0 ; intro line
G1 X100.0 E12.5  F1000.0 ; intro line
G92 E0.0
M900 K30; Filament gcode
G21 ; set units to millimeters
G90 ; use absolute coordinates
M83 ; use relative distances for extrusion
;BEFORE_LAYER_CHANGE
;0.2


G1 E-0.80000 F2100.00000
G1 Z0.600 F7200.000
;AFTER_LAYER_CHANGE
;0.2
G1 X113.323 Y89.807 F7200.000
G1 Z0.200 F7200.000
G1 E0.80000 F2100.00000
M204 S1000
G1 F900
G1 X116.268 Y87.446 E0.11835
G1 X117.687 Y86.553 E0.05257
G1 X118.905 Y85.957 E0.04251
G1 X120.183 Y85.498 E0.04258
G1 X121.814 Y85.103 E0.05263
G1 X123.800 Y84.810 E0.06294
G1 X125.590 Y84.643 E0.05637
G1 X127.720 Y84.848 E0.06708
G1 X129.361 Y85.101 E0.05206
G1 X130.984 Y85.503 E0.05242
G1 X132.277 Y85.984 E0.04326
G1 X133.492 Y86.608 E0.04284
G1 X134.894 Y87.545 E0.05285
G1 X136.176 Y88.582 E0.05170
G1 X137.741 Y90.002 E0.06627
G1 X138.734 Y91.247 E0.04993
G1 X139.581 Y92.510 E0.04767
G1 X140.149 Y93.606 E0.03872
G1 X140.847 Y95.307 E0.05763
G1 X141.270 Y97.026 E0.05551
G1 X141.558 Y98.640 E0.05143
G1 X141.753 Y101.844 E0.10063
G1 X141.730 Y103.217 E0.04306
G1 X140.440 Y111.742 E0.27035
G1 X140.292 Y112.296 E0.01796
G1 X140.031 Y112.811 E0.01809
G1 X130.807 Y123.605 E0.44520
G1 X129.842 Y124.368 E0.03856
G1 X128.727 Y124.933 E0.03918
G1 X127.729 Y125.228 E0.03265
G1 X126.531 Y125.356 E0.03775
G1 X124.990 Y125.339 E0.04835
G1 X123.753 Y125.118 E0.03939
G1 X122.560 Y124.640 E0.04030
G1 X121.466 Y123.909 E0.04125
G1 X120.804 Y123.271 E0.02882
G1 X112.253 Y113.334 E0.41105
G1 X110.551 Y110.965 E0.09148
G1 X109.909 Y109.814 E0.04132
G1 X109.368 Y108.561 E0.04277
G1 X108.972 Y107.295 E0.04159
G1 X108.690 Y106.016 E0.04107
G1 X108.247 Y102.269 E0.11829
G1 X108.407 Y100.420 E0.05821
G1 X108.689 Y98.434 E0.06289
G1 X109.071 Y96.796 E0.05274
G1 X109.522 Y95.494 E0.04319
G1 X110.106 Y94.262 E0.04275
G1 X110.982 Y92.822 E0.05284
G1 X113.287 Y89.855 E0.11781
G1 X113.583 Y90.084 F7200.000
G1 F900
G1 X116.491 Y87.750 E0.11694
G1 X117.871 Y86.883 E0.05107
G1 X119.051 Y86.305 E0.04123
G1 X120.290 Y85.860 E0.04126
G1 X121.888 Y85.473 E0.05156
G1 X125.588 Y85.020 E0.11688
G1 X127.687 Y85.224 E0.06612
G1 X129.286 Y85.471 E0.05073
G1 X130.876 Y85.865 E0.05135
G1 X132.125 Y86.329 E0.04178
G1 X133.300 Y86.932 E0.04142
G1 X134.671 Y87.849 E0.05170
G1 X135.931 Y88.869 E0.05085
G1 X137.468 Y90.262 E0.06503
G1 X138.609 Y91.714 E0.05791
G1 X139.257 Y92.703 E0.03708
G1 X139.805 Y93.762 E0.03738
G1 X140.491 Y95.433 E0.05663
G1 X140.901 Y97.104 E0.05396
G1 X141.185 Y98.695 E0.05068
G1 X141.376 Y101.849 E0.09908
G1 X141.356 Y103.165 E0.04124
G1 X140.068 Y111.677 E0.26995
G1 X139.943 Y112.155 E0.01550
G1 X139.718 Y112.600 E0.01562
G1 X130.557 Y123.322 E0.44217
G1 X129.631 Y124.055 E0.03704
G1 X128.584 Y124.584 E0.03679
G1 X127.653 Y124.858 E0.03043
G1 X126.520 Y124.979 E0.03573
G1 X125.024 Y124.963 E0.04692
G1 X123.860 Y124.756 E0.03705
G1 X122.721 Y124.299 E0.03848
G1 X121.690 Y123.606 E0.03896
G1 X121.087 Y123.021 E0.02635
G1 X112.545 Y113.095 E0.41060
G1 X110.873 Y110.769 E0.08981
G1 X110.247 Y109.647 E0.04030
G1 X109.718 Y108.421 E0.04185
G1 X109.335 Y107.193 E0.04035
G1 X109.058 Y105.937 E0.04032
G1 X108.624 Y102.260 E0.11610
G1 X108.782 Y100.461 E0.05663
G1 X109.062 Y98.489 E0.06244
G1 X109.434 Y96.899 E0.05120
G1 X109.871 Y95.637 E0.04187
G1 X110.437 Y94.443 E0.04144
G1 X111.297 Y93.030 E0.05187
G1 X113.546 Y90.132 E0.11500
G1 F5760
G1 X115.252 Y88.752 E-0.76000
G1 E-0.04000 F2100.00000
G1 Z0.800 F7200.000
G1 X123.379 Y116.291 F7200.000
G1 Z0.200 F7200.000
G1 E0.80000 F2100.00000
G1 F900
G1 X125.987 Y116.552 E0.08218
G1 X126.932 Y116.500 E0.02968
G1 X128.556 Y116.360 E0.05108
G1 X128.545 Y119.812 E0.10822
G1 X128.442 Y120.195 E0.01245
G1 X128.329 Y120.422 E0.00795
G1 X128.092 Y120.729 E0.01216
G1 X127.763 Y120.982 E0.01302
G1 X127.379 Y121.141 E0.01303
G1 X127.005 Y121.190 E0.01181
G1 X124.928 Y121.190 E0.06512
G1 X124.572 Y121.143 E0.01126
G1 X124.332 Y121.060 E0.00795
G1 X123.997 Y120.866 E0.01216
G1 X123.716 Y120.585 E0.01246
G1 X123.576 Y120.373 E0.00795
G1 X123.429 Y120.014 E0.01216
G1 X123.379 Y119.641 E0.01180
G1 X123.379 Y116.351 E0.10318
G1 X123.757 Y116.707 F7200.000
G1 F900
G1 X125.979 Y116.930 E0.07003
G1 X126.959 Y116.876 E0.03078
G1 X128.177 Y116.771 E0.03834
G1 X128.168 Y119.761 E0.09376
G1 X128.088 Y120.060 E0.00971
G1 X128.008 Y120.220 E0.00561
G1 X127.823 Y120.460 E0.00948
G1 X127.572 Y120.652 E0.00991
G1 X127.280 Y120.773 E0.00992
G1 X126.980 Y120.813 E0.00948
G1 X124.953 Y120.813 E0.06357
G1 X124.659 Y120.774 E0.00929
G1 X124.490 Y120.716 E0.00561
G1 X124.229 Y120.564 E0.00948
G1 X124.010 Y120.345 E0.00972
G1 X123.911 Y120.196 E0.00561
G1 X123.796 Y119.916 E0.00948
G1 X123.757 Y119.617 E0.00948
G1 X123.757 Y116.767 E0.08934
G1 X123.781 Y116.308 F7200.000
G1 F5760
G1 X125.945 Y116.927 E-0.76000
G1 E-0.04000 F2100.00000
G1 Z0.800 F7200.000
G1 X135.031 Y99.377 F7200.000
G1 Z0.200 F7200.000
G1 E0.80000 F2100.00000
G1 F900
G1 X134.716 Y97.903 E0.04726
G1 X134.523 Y97.134 E0.02484
G1 X134.341 Y96.561 E0.01886
G1 X134.190 Y96.175 E0.01301
G1 X133.926 Y95.630 E0.01898
G1 X133.711 Y95.270 E0.01315
G1 X133.361 Y94.778 E0.01893
G1 X132.975 Y94.313 E0.01896
G1 X132.434 Y93.733 E0.02484
G1 X131.847 Y93.145 E0.02605
G1 X131.155 Y92.650 E0.02668
G1 X130.477 Y92.197 E0.02556
G1 X129.767 Y91.787 E0.02573
G1 X129.198 Y91.520 E0.01971
G1 X128.606 Y91.308 E0.01970
G1 X128.002 Y91.151 E0.01958
G1 X127.393 Y91.038 E0.01944
G1 X126.587 Y90.934 E0.02546
G1 X125.725 Y90.852 E0.02716
G1 X124.196 Y91.040 E0.04829
G1 X123.449 Y91.170 E0.02377
G1 X122.477 Y91.413 E0.03141
G1 X121.758 Y91.674 E0.02400
G1 X121.069 Y92.004 E0.02396
G1 X120.211 Y92.520 E0.03136
G1 X119.590 Y92.953 E0.02374
G1 X118.371 Y93.888 E0.04816
G1 X117.206 Y95.218 E0.05545
G1 X116.508 Y96.128 E0.03596
G1 X116.186 Y96.616 E0.01832
G1 X115.894 Y97.124 E0.01838
G1 X115.536 Y97.908 E0.02704
G1 X115.345 Y98.464 E0.01841
G1 X115.191 Y99.029 E0.01836
G1 X114.977 Y100.152 E0.03585
G1 X114.868 Y101.013 E0.02720
G1 X114.753 Y102.203 E0.03750
G1 X114.911 Y103.892 E0.05319
G1 X115.030 Y104.715 E0.02606
G1 X115.138 Y105.267 E0.01764
G1 X115.352 Y106.073 E0.02614
G1 X115.646 Y106.860 E0.02634
G1 X116.022 Y107.606 E0.02619
G1 X116.311 Y108.088 E0.01762
G1 X116.622 Y108.554 E0.01755
G1 X117.278 Y109.436 E0.03449
G1 X118.002 Y110.337 E0.03625
G1 X118.889 Y111.068 E0.03603
G1 X119.756 Y111.733 E0.03426
G1 X120.215 Y112.047 E0.01744
G1 X120.686 Y112.338 E0.01735
G1 X121.174 Y112.602 E0.01742
G1 X121.687 Y112.835 E0.01766
G1 X122.467 Y113.105 E0.02587
G1 X123.008 Y113.245 E0.01753
G1 X123.552 Y113.356 E0.01740
G1 X124.368 Y113.480 E0.02589
G1 X126.062 Y113.650 E0.05335
G1 X127.430 Y113.451 E0.04335
G1 X128.405 Y113.274 E0.03108
G1 X129.368 Y113.040 E0.03105
G1 X130.300 Y112.725 E0.03084
G1 X130.903 Y112.455 E0.02072
G1 X131.207 Y112.294 E0.01081
G1 X131.769 Y111.947 E0.02069
G1 X132.553 Y111.355 E0.03082
G1 X133.289 Y110.689 E0.03112
G1 X134.204 Y109.738 E0.04136
G1 X134.673 Y109.210 E0.02217
G1 X136.895 Y111.337 E0.09644
G1 X135.774 Y112.501 E0.05066
G1 X134.826 Y113.358 E0.04005
G1 X134.500 Y113.617 E0.01306
G1 X133.806 Y114.115 E0.02679
G1 X133.081 Y114.582 E0.02705
G1 X131.879 Y115.302 E0.04392
G1 X131.283 Y115.910 E0.02671
G1 X130.797 Y116.505 E0.02407
G1 X130.552 Y116.852 E0.01333
G1 X130.153 Y117.509 E0.02409
G1 X129.963 Y117.877 E0.01300
G1 X129.648 Y118.606 E0.02490
G1 X129.406 Y119.352 E0.02458
G1 X129.254 Y119.946 E0.01923
G1 X129.192 Y120.130 E0.00609
G1 X129.009 Y120.523 E0.01361
G1 X128.913 Y120.683 E0.00584
G1 X128.665 Y121.011 E0.01291
G1 X128.363 Y121.312 E0.01334
G1 X128.033 Y121.557 E0.01290
G1 X127.679 Y121.750 E0.01265
G1 X127.272 Y121.901 E0.01361
G1 X127.092 Y121.947 E0.00583
G1 X126.671 Y122.007 E0.01334
G1 X125.275 Y122.009 E0.04378
G1 X124.877 Y121.954 E0.01261
G1 X124.477 Y121.841 E0.01302
G1 X124.109 Y121.679 E0.01259
G1 X123.774 Y121.473 E0.01235
G1 X123.456 Y121.208 E0.01297
G1 X123.184 Y120.911 E0.01261
G1 X123.069 Y120.756 E0.00606
G1 X122.860 Y120.401 E0.01293
G1 X122.701 Y120.016 E0.01306
G1 X122.403 Y119.049 E0.03171
G1 X122.097 Y118.318 E0.02486
G1 X121.900 Y117.928 E0.01368
G1 X121.488 Y117.241 E0.02511
G1 X121.246 Y116.896 E0.01324
G1 X120.875 Y116.427 E0.01873
G1 X120.463 Y115.977 E0.01915
G1 X120.165 Y115.687 E0.01304
G1 X119.555 Y115.174 E0.02500
G1 X119.211 Y114.924 E0.01333
G1 X118.477 Y114.447 E0.02744
G1 X117.684 Y113.886 E0.03046
G1 X116.904 Y113.283 E0.03091
G1 X115.778 Y112.362 E0.04562
G1 X114.873 Y111.260 E0.04471
G1 X113.993 Y110.107 E0.04548
G1 X113.408 Y109.232 E0.03300
G1 X112.903 Y108.331 E0.03238
G1 X112.624 Y107.717 E0.02115
G1 X112.292 Y106.765 E0.03161
G1 X112.119 Y106.103 E0.02147
G1 X111.916 Y105.065 E0.03316
G1 X111.726 Y103.626 E0.04550
G1 X111.590 Y102.206 E0.04471
G1 X111.812 Y100.082 E0.06696
G1 X111.976 Y99.034 E0.03325
G1 X112.115 Y98.360 E0.02161
G1 X112.286 Y97.707 E0.02116
G1 X112.617 Y96.756 E0.03157
G1 X113.048 Y95.846 E0.03157
G1 X113.385 Y95.261 E0.02116
G1 X113.759 Y94.682 E0.02161
G1 X114.377 Y93.821 E0.03325
G1 X115.707 Y92.153 E0.06688
G1 X117.339 Y90.810 E0.06626
G1 X117.895 Y90.389 E0.02186
G1 X118.461 Y89.994 E0.02163
G1 X119.034 Y89.633 E0.02124
G1 X119.616 Y89.311 E0.02087
G1 X120.510 Y88.913 E0.03069
G1 X121.141 Y88.699 E0.02088
G1 X121.789 Y88.525 E0.02103
G1 X122.457 Y88.382 E0.02142
G1 X123.141 Y88.265 E0.02175
G1 X124.198 Y88.127 E0.03345
G1 X125.586 Y87.987 E0.04375
G1 X127.681 Y88.212 E0.06605
G1 X128.369 Y88.317 E0.02183
G1 X129.042 Y88.447 E0.02150
G1 X129.695 Y88.607 E0.02107
G1 X130.324 Y88.803 E0.02066
G1 X130.934 Y89.043 E0.02054
G1 X131.221 Y89.177 E0.00995
G1 X132.075 Y89.657 E0.03071
G1 X132.910 Y90.234 E0.03180
G1 X133.997 Y91.115 E0.04387
G1 X135.302 Y92.289 E0.05506
G1 X136.219 Y93.469 E0.04686
G1 X136.702 Y94.207 E0.02764
G1 X137.106 Y94.988 E0.02759
G1 X137.678 Y96.372 E0.04695
G1 X138.076 Y98.073 E0.05477
G1 X138.199 Y98.754 E0.02169
G1 X138.288 Y99.441 E0.02172
G1 X138.346 Y100.135 E0.02185
G1 X138.394 Y101.199 E0.03337
G1 X138.406 Y102.266 E0.03348
G1 X127.749 Y102.266 E0.33415
G1 X127.749 Y99.377 E0.09059
G1 X134.971 Y99.377 E0.22644
G1 X134.565 Y99.000 F7200.000
G1 F900
G1 X134.349 Y97.988 E0.03243
G1 X134.160 Y97.238 E0.02426
G1 X133.985 Y96.687 E0.01812
G1 X133.844 Y96.325 E0.01216
G1 X133.594 Y95.810 E0.01798
G1 X133.395 Y95.477 E0.01216
G1 X133.061 Y95.008 E0.01804
G1 X132.691 Y94.562 E0.01818
G1 X132.163 Y93.995 E0.02429
G1 X131.603 Y93.434 E0.02487
G1 X130.941 Y92.960 E0.02551
G1 X130.278 Y92.518 E0.02498
G1 X129.592 Y92.122 E0.02484
G1 X129.054 Y91.869 E0.01865
G1 X128.495 Y91.669 E0.01861
G1 X127.920 Y91.519 E0.01863
G1 X127.334 Y91.410 E0.01869
G1 X126.545 Y91.309 E0.02494
G1 X125.730 Y91.231 E0.02568
G1 X124.252 Y91.413 E0.04671
G1 X123.527 Y91.539 E0.02304
G1 X122.588 Y91.774 E0.03037
G1 X121.904 Y92.022 E0.02281
G1 X121.248 Y92.337 E0.02281
G1 X120.417 Y92.836 E0.03041
G1 X119.813 Y93.257 E0.02307
G1 X118.631 Y94.164 E0.04672
G1 X117.498 Y95.457 E0.05390
G1 X116.816 Y96.347 E0.03516
G1 X116.507 Y96.814 E0.01754
G1 X116.230 Y97.297 E0.01747
G1 X115.886 Y98.049 E0.02591
G1 X115.705 Y98.575 E0.01745
G1 X115.559 Y99.114 E0.01751
G1 X115.350 Y100.211 E0.03503
G1 X115.242 Y101.054 E0.02666
G1 X115.131 Y102.204 E0.03620
G1 X115.286 Y103.847 E0.05177
G1 X115.402 Y104.652 E0.02547
G1 X115.506 Y105.183 E0.01696
G1 X115.711 Y105.958 E0.02516
G1 X115.992 Y106.709 E0.02512
G1 X116.352 Y107.424 E0.02511
G1 X116.629 Y107.886 E0.01689
G1 X116.930 Y108.336 E0.01696
G1 X117.577 Y109.205 E0.03396
G1 X118.272 Y110.071 E0.03482
G1 X119.123 Y110.773 E0.03460
G1 X119.978 Y111.427 E0.03374
G1 X120.421 Y111.731 E0.01685
G1 X120.874 Y112.012 E0.01672
G1 X121.342 Y112.264 E0.01666
G1 X121.827 Y112.485 E0.01670
G1 X122.576 Y112.744 E0.02485
G1 X123.093 Y112.878 E0.01675
G1 X123.618 Y112.985 E0.01679
G1 X124.416 Y113.106 E0.02529
G1 X126.053 Y113.270 E0.05160
G1 X127.369 Y113.079 E0.04169
G1 X128.327 Y112.905 E0.03052
G1 X129.262 Y112.678 E0.03019
G1 X130.162 Y112.374 E0.02977
G1 X130.737 Y112.116 E0.01976
G1 X131.020 Y111.967 E0.01003
G1 X131.556 Y111.636 E0.01975
G1 X132.312 Y111.064 E0.02974
G1 X133.026 Y110.418 E0.03019
G1 X133.927 Y109.482 E0.04071
G1 X134.651 Y108.666 E0.03421
G1 X137.424 Y111.322 E0.12039
G1 X136.655 Y112.146 E0.03532
G1 X136.037 Y112.772 E0.02761
G1 X135.066 Y113.649 E0.04102
G1 X134.727 Y113.918 E0.01355
G1 X134.018 Y114.426 E0.02737
G1 X133.280 Y114.902 E0.02753
G1 X132.115 Y115.601 E0.04260
G1 X131.564 Y116.162 E0.02465
G1 X131.098 Y116.733 E0.02312
G1 X130.867 Y117.059 E0.01251
G1 X130.482 Y117.693 E0.02327
G1 X130.304 Y118.038 E0.01217
G1 X130.002 Y118.739 E0.02394
G1 X129.768 Y119.457 E0.02365
G1 X129.616 Y120.053 E0.01931
G1 X129.542 Y120.270 E0.00718
G1 X129.342 Y120.700 E0.01487
G1 X129.226 Y120.894 E0.00709
G1 X128.950 Y121.260 E0.01437
G1 X128.610 Y121.598 E0.01502
G1 X128.243 Y121.871 E0.01436
G1 X127.829 Y122.097 E0.01477
G1 X127.385 Y122.262 E0.01487
G1 X127.166 Y122.317 E0.00709
G1 X126.699 Y122.384 E0.01477
G1 X125.242 Y122.385 E0.04568
G1 X124.799 Y122.324 E0.01403
G1 X124.349 Y122.197 E0.01466
G1 X123.940 Y122.016 E0.01402
G1 X123.548 Y121.775 E0.01442
G1 X123.195 Y121.482 E0.01440
G1 X122.893 Y121.151 E0.01403
G1 X122.754 Y120.965 E0.00729
G1 X122.522 Y120.569 E0.01439
G1 X122.346 Y120.144 E0.01443
G1 X122.048 Y119.178 E0.03168
G1 X121.754 Y118.476 E0.02386
G1 X121.570 Y118.111 E0.01284
G1 X121.172 Y117.447 E0.02426
G1 X120.944 Y117.121 E0.01247
G1 X120.588 Y116.672 E0.01796
G1 X120.192 Y116.240 E0.01837
G1 X119.912 Y115.967 E0.01227
G1 X119.322 Y115.471 E0.02416
G1 X118.997 Y115.235 E0.01260
G1 X118.265 Y114.759 E0.02737
G1 X117.460 Y114.189 E0.03095
G1 X116.669 Y113.578 E0.03132
G1 X115.510 Y112.631 E0.04695
G1 X114.577 Y111.494 E0.04610
G1 X113.686 Y110.326 E0.04607
G1 X113.086 Y109.429 E0.03383
G1 X112.567 Y108.502 E0.03333
G1 X112.276 Y107.864 E0.02197
G1 X112.151 Y107.541 E0.01085
G1 X111.930 Y106.872 E0.02210
G1 X111.751 Y106.187 E0.02221
G1 X111.544 Y105.126 E0.03389
G1 X111.351 Y103.668 E0.04608
G1 X111.212 Y102.205 E0.04610
G1 X111.438 Y100.034 E0.06844
G1 X111.605 Y98.967 E0.03384
G1 X111.748 Y98.274 E0.02221
G1 X111.925 Y97.597 E0.02193
G1 X112.268 Y96.613 E0.03267
G1 X112.714 Y95.671 E0.03267
G1 X113.063 Y95.065 E0.02193
G1 X113.447 Y94.470 E0.02221
G1 X114.077 Y93.593 E0.03385
G1 X115.437 Y91.887 E0.06841
G1 X117.105 Y90.513 E0.06775
G1 X117.674 Y90.084 E0.02233
G1 X118.252 Y89.680 E0.02212
G1 X118.842 Y89.308 E0.02186
G1 X119.445 Y88.975 E0.02161
G1 X120.066 Y88.684 E0.02151
G1 X121.031 Y88.338 E0.03215
G1 X121.700 Y88.158 E0.02172
G1 X122.386 Y88.011 E0.02198
G1 X123.085 Y87.893 E0.02223
G1 X124.155 Y87.753 E0.03385
G1 X125.585 Y87.608 E0.04507
G1 X126.267 Y87.672 E0.02147
G1 X127.731 Y87.838 E0.04618
G1 X128.433 Y87.945 E0.02229
G1 X129.123 Y88.078 E0.02203
G1 X129.796 Y88.244 E0.02173
G1 X130.449 Y88.447 E0.02145
G1 X131.082 Y88.697 E0.02133
G1 X131.387 Y88.838 E0.01055
G1 X132.278 Y89.338 E0.03203
G1 X133.136 Y89.932 E0.03270
G1 X134.242 Y90.828 E0.04463
G1 X135.580 Y92.031 E0.05642
G1 X136.527 Y93.250 E0.04840
G1 X137.028 Y94.017 E0.02872
G1 X137.449 Y94.829 E0.02869
