; generated by Slic3r Prusa Edition 1.39.1-prusa3d on 2018-04-22 at 18:19:35

; 

; external perimeters extrusion width = 0.45mm
; perimeters extrusion width = 0.45mm
; infill extrusion width = 0.45mm
; solid infill extrusion width = 0.45mm
; top infill extrusion width = 0.33mm
; first layer extrusion width = 0.42mm

M107
M115 U3.1.0 ; tell printer latest fw version
M201 X9000 Y9000 Z500 E10000 ; sets maximum accelerations, mm/sec^2
M203 X500 Y500 Z12 E120 ; sets maximum feedrates, mm/sec
M204 S1500 T1500 ; sets acceleration (S) and retract acceleration (T)
M205 X10 Y10 Z0.2 E2.5 ; sets the jerk limits, mm/sec
M205 S0 T0 ; sets the minimum extruding and travel feed rate, mm/sec
M83  ; extruder relative mode
M104 S215 ; set extruder temp
M140 S60 ; set bed temp
M190 S60 ; wait for bed temp
M109 S215 ; wait for extruder temp
G28 W ; home all without mesh bed level
G80 ; mesh bed leveling
G1 Y-3.0 F1000.0 ; go outside print area
G92 E0.0
G1 E18.0 F1000.0;
G1 X60.0 E9.0  F1000.0 ; intro line
G1 X100.0 E12.5  F1000.0 ; intro line
G92 E0.0
M900 K30; Filament gcode
G21 ; set units to millimeters
G90 ; use absolute coordinates
M83 ; use relative distances for extrusion
;BEFORE_LAYER_CHANGE
;0.2


G1 E-0.80000 F2100.00000
G1 Z0.600 F7200.000
;AFTER_LAYER_CHANGE
;0.2
G1 X115.209 Y89.144 F7200.000
G1 Z0.200 F7200.000
G1 E0.80000 F2100.00000
M204 S1000
G1 F900
G1 X115.623 Y88.658 E0.02001
G1 X116.138 Y88.281 E0.02001
G1 X116.726 Y88.032 E0.02001
G1 X117.355 Y87.925 E0.02001
G1 X138.506 Y87.922 E0.66318
G1 X139.515 Y88.115 E0.03221
G1 X140.383 Y88.664 E0.03221
G1 X140.989 Y89.493 E0.03221
G1 X141.250 Y90.487 E0.03221
G1 X141.256 Y119.365 E0.90547
G1 X141.131 Y120.144 E0.02473
G1 X140.791 Y120.855 E0.02473
G1 X140.365 Y121.352 E0.02052
G1 X139.834 Y121.735 E0.02052
G1 X139.232 Y121.980 E0.02039
G1 X138.585 Y122.077 E0.02052
G1 X117.441 Y122.078 E0.66296
G1 X116.671 Y121.951 E0.02447
G1 X115.967 Y121.614 E0.02447
G1 X115.555 Y121.276 E0.01669
G1 X110.551 Y116.222 E0.22301
G1 X110.002 Y115.586 E0.02633
G1 X109.420 Y114.650 E0.03456
G1 X109.079 Y113.842 E0.02751
G1 X108.853 Y112.981 E0.02791
G1 X108.745 Y111.901 E0.03402
G1 X108.760 Y110.388 E0.04745
G1 X108.966 Y109.174 E0.03862
G1 X114.869 Y89.855 E0.63337
G1 X115.183 Y89.198 E0.02284
G1 X115.521 Y89.360 F7200.000
G1 F900
G1 X115.889 Y88.926 E0.01782
G1 X116.335 Y88.603 E0.01728
G1 X116.847 Y88.390 E0.01740
G1 X117.391 Y88.301 E0.01728
G1 X138.506 Y88.299 E0.66204
G1 X139.380 Y88.467 E0.02790
G1 X140.130 Y88.944 E0.02790
G1 X140.653 Y89.664 E0.02790
G1 X140.875 Y90.530 E0.02802
G1 X140.879 Y119.355 E0.90378
G1 X140.771 Y120.033 E0.02154
G1 X140.471 Y120.656 E0.02166
G1 X140.103 Y121.081 E0.01763
G1 X139.646 Y121.408 E0.01763
G1 X139.121 Y121.619 E0.01775
G1 X138.564 Y121.700 E0.01763
G1 X117.456 Y121.701 E0.66182
G1 X116.782 Y121.591 E0.02142
G1 X116.167 Y121.293 E0.02142
G1 X110.819 Y115.957 E0.23689
G1 X110.307 Y115.364 E0.02456
G1 X109.859 Y114.675 E0.02577
G1 X109.435 Y113.718 E0.03281
G1 X109.224 Y112.914 E0.02606
G1 X109.122 Y111.882 E0.03251
G1 X109.135 Y110.421 E0.04582
G1 X109.329 Y109.275 E0.03645
G1 X115.228 Y89.970 E0.63292
G1 X115.495 Y89.414 E0.01933
G1 F5760
G1 X115.889 Y88.926 E-0.21704
G1 F5760
G1 X116.335 Y88.603 E-0.19086
G1 F5760
G1 X116.847 Y88.390 E-0.19217
G1 F5760
G1 X117.303 Y88.315 E-0.15992
G1 E-0.04000 F2100.00000
G1 Z0.800 F7200.000
G1 X118.085 Y108.737 F7200.000
G1 Z0.200 F7200.000
G1 E0.80000 F2100.00000
G1 F900
G1 X118.085 Y113.913 E0.16228
G1 X114.306 Y113.904 E0.11851
G1 X113.934 Y113.812 E0.01201
G1 X113.594 Y113.634 E0.01203
G1 X113.320 Y113.391 E0.01147
G1 X113.179 Y113.211 E0.00717
G1 X113.008 Y112.881 E0.01167
G1 X112.923 Y112.533 E0.01124
G1 X112.911 Y110.289 E0.07037
G1 X112.951 Y109.959 E0.01040
G1 X113.022 Y109.737 E0.00733
G1 X113.181 Y109.434 E0.01072
G1 X113.326 Y109.251 E0.00732
G1 X113.595 Y109.013 E0.01127
G1 X113.941 Y108.834 E0.01222
G1 X114.289 Y108.749 E0.01124
G1 X118.025 Y108.737 E0.11714
G1 X117.708 Y109.114 F7200.000
G1 F900
G1 X117.708 Y113.535 E0.13860
G1 X114.352 Y113.527 E0.10523
G1 X114.068 Y113.457 E0.00915
G1 X113.810 Y113.321 E0.00916
G1 X113.596 Y113.132 E0.00896
G1 X113.498 Y113.006 E0.00500
G1 X113.363 Y112.747 E0.00915
G1 X113.297 Y112.476 E0.00875
G1 X113.288 Y110.312 E0.06788
G1 X113.321 Y110.040 E0.00857
G1 X113.371 Y109.883 E0.00518
G1 X113.498 Y109.641 E0.00857
G1 X113.601 Y109.512 E0.00517
G1 X113.810 Y109.327 E0.00876
G1 X114.075 Y109.189 E0.00934
G1 X114.346 Y109.123 E0.00875
G1 X117.648 Y109.114 E0.10354
G1 X118.108 Y109.111 F7200.000
G1 F5760
G1 X117.678 Y111.308 E-0.76000
G1 E-0.04000 F2100.00000
G1 Z0.800 F7200.000
G1 X121.234 Y104.641 F7200.000
G1 Z0.200 F7200.000
G1 E0.80000 F2100.00000
G1 F900
G1 X134.766 Y104.641 E0.42427
G1 X134.766 Y91.263 E0.41946
G1 X137.915 Y91.263 E0.09874
G1 X137.915 Y118.737 E0.86144
G1 X134.766 Y118.737 E0.09874
G1 X134.766 Y107.530 E0.35139
G1 X121.234 Y107.530 E0.42427
G1 X121.234 Y118.737 E0.35139
G1 X118.082 Y118.737 E0.09885
G1 X118.077 Y118.051 E0.02150
G1 X118.007 Y117.556 E0.01570
G1 X117.937 Y117.282 E0.00885
G1 X117.765 Y116.821 E0.01545
G1 X117.528 Y116.384 E0.01559
G1 X117.365 Y116.148 E0.00898
G1 X117.044 Y115.776 E0.01541
G1 X116.670 Y115.449 E0.01558
G1 X116.437 Y115.286 E0.00890
G1 X116.016 Y115.054 E0.01507
G1 X115.755 Y114.944 E0.00889
G1 X115.284 Y114.803 E0.01542
G1 X114.401 Y114.674 E0.02797
G1 X114.036 Y114.572 E0.01188
G1 X113.679 Y114.421 E0.01215
G1 X113.210 Y114.122 E0.01744
G1 X113.063 Y114.001 E0.00598
G1 X112.679 Y113.585 E0.01773
G1 X112.386 Y113.112 E0.01746
G1 X112.238 Y112.753 E0.01216
G1 X112.111 Y112.210 E0.01748
G1 X112.085 Y111.807 E0.01267
G1 X112.092 Y110.627 E0.03698
G1 X112.109 Y110.456 E0.00539
G1 X112.184 Y110.076 E0.01215
G1 X112.305 Y109.718 E0.01186
G1 X112.565 Y109.224 E0.01748
G1 X112.804 Y108.909 E0.01242
G1 X113.209 Y108.527 E0.01746
G1 X113.522 Y108.314 E0.01185
G1 X113.868 Y108.140 E0.01215
G1 X114.397 Y107.975 E0.01738
G1 X115.042 Y107.889 E0.02040
G1 X115.527 Y107.781 E0.01558
G1 X116.001 Y107.602 E0.01591
G1 X116.442 Y107.359 E0.01579
G1 X116.670 Y107.199 E0.00871
G1 X117.040 Y106.877 E0.01540
G1 X117.375 Y106.488 E0.01608
G1 X117.653 Y106.053 E0.01619
G1 X117.857 Y105.605 E0.01545
G1 X117.944 Y105.341 E0.00870
G1 X118.051 Y104.850 E0.01576
G1 X118.085 Y104.364 E0.01528
G1 X118.085 Y91.263 E0.41079
G1 X121.234 Y91.263 E0.09874
G1 X121.234 Y104.581 E0.41757
G1 X121.611 Y104.264 F7200.000
G1 F900
G1 X134.389 Y104.264 E0.40063
G1 X134.389 Y90.886 E0.41946
G1 X138.292 Y90.886 E0.12238
G1 X138.292 Y119.114 E0.88508
G1 X134.389 Y119.114 E0.12238
G1 X134.389 Y107.907 E0.35139
G1 X121.611 Y107.907 E0.40063
G1 X121.611 Y119.114 E0.35139
G1 X117.707 Y119.114 E0.12242
G1 X117.701 Y118.079 E0.03245
G1 X117.636 Y117.629 E0.01425
G1 X117.577 Y117.395 E0.00758
G1 X117.421 Y116.977 E0.01399
G1 X117.206 Y116.581 E0.01411
G1 X117.066 Y116.379 E0.00771
G1 X116.776 Y116.042 E0.01395
G1 X116.437 Y115.746 E0.01411
G1 X116.237 Y115.607 E0.00763
G1 X115.852 Y115.394 E0.01381
G1 X115.627 Y115.300 E0.00763
G1 X115.202 Y115.173 E0.01393
G1 X114.323 Y115.044 E0.02786
G1 X113.911 Y114.929 E0.01340
G1 X113.515 Y114.761 E0.01350
G1 X113.333 Y114.662 E0.00649
G1 X112.983 Y114.424 E0.01326
G1 X112.813 Y114.283 E0.00694
G1 X112.660 Y114.139 E0.00658
G1 X112.378 Y113.814 E0.01350
G1 X112.141 Y113.455 E0.01350
G1 X112.044 Y113.272 E0.00648
G1 X111.880 Y112.874 E0.01350
G1 X111.772 Y112.468 E0.01315
G1 X111.736 Y112.253 E0.00684
G1 X111.708 Y111.818 E0.01368
G1 X111.715 Y110.608 E0.03794
G1 X111.736 Y110.401 E0.00650
G1 X111.819 Y109.979 E0.01350
G1 X111.955 Y109.574 E0.01339
G1 X112.139 Y109.197 E0.01315
G1 X112.253 Y109.011 E0.00684
G1 X112.515 Y108.666 E0.01359
G1 X112.655 Y108.514 E0.00648
G1 X112.977 Y108.229 E0.01350
G1 X113.330 Y107.989 E0.01339
G1 X113.715 Y107.795 E0.01350
G1 X113.908 Y107.720 E0.00648
G1 X114.321 Y107.605 E0.01346
G1 X114.976 Y107.518 E0.02071
G1 X115.419 Y107.419 E0.01422
G1 X115.843 Y107.259 E0.01422
G1 X116.242 Y107.038 E0.01431
G1 X116.437 Y106.902 E0.00744
G1 X116.772 Y106.610 E0.01394
G1 X117.072 Y106.263 E0.01439
G1 X117.321 Y105.873 E0.01450
G1 X117.505 Y105.467 E0.01398
G1 X117.580 Y105.242 E0.00743
G1 X117.676 Y104.797 E0.01428
G1 X117.708 Y104.351 E0.01402
G1 X117.708 Y90.886 E0.42219
G1 X121.611 Y90.886 E0.12238
G1 X121.611 Y104.204 E0.41757
G1 X121.649 Y104.662 F7200.000
G1 X121.121 Y104.256 F7200.000
G1 F900
G1 X118.368 Y101.503 E0.12209
G1 X118.368 Y100.970 E0.01672
G1 X120.951 Y103.553 E0.11456
G1 X120.951 Y103.020 E0.01672
G1 X118.368 Y100.436 E0.11456
G1 X118.368 Y99.903 E0.01672
G1 X120.951 Y102.487 E0.11456
G1 X120.951 Y101.953 E0.01672
G1 X118.368 Y99.370 E0.11456
G1 X118.368 Y98.836 E0.01672
G1 X120.951 Y101.420 E0.11456
G1 X120.951 Y100.887 E0.01672
G1 X118.368 Y98.303 E0.11456
G1 X118.368 Y97.770 E0.01672
G1 X120.951 Y100.353 E0.11456
G1 X120.951 Y99.820 E0.01672
G1 X118.368 Y97.237 E0.11456
G1 X118.368 Y96.703 E0.01672
G1 X120.951 Y99.287 E0.11456
G1 X120.951 Y98.753 E0.01672
G1 X118.368 Y96.170 E0.11456
G1 X118.368 Y95.637 E0.01672
G1 X120.951 Y98.220 E0.11456
G1 X120.951 Y97.687 E0.01672
G1 X118.368 Y95.103 E0.11456
G1 X118.368 Y94.570 E0.01672
G1 X120.951 Y97.154 E0.11456
G1 X120.951 Y96.620 E0.01672
G1 X118.368 Y94.037 E0.11456
G1 X118.368 Y93.503 E0.01672
G1 X120.951 Y96.087 E0.11456
G1 X120.951 Y95.554 E0.01672
G1 X118.368 Y92.970 E0.11456
G1 X118.368 Y92.437 E0.01672
G1 X120.951 Y95.020 E0.11456
G1 X120.951 Y94.487 E0.01672
G1 X118.368 Y91.903 E0.11456
G1 X118.368 Y91.546 E0.01122
G1 X118.543 Y91.546 E0.00550
G1 X120.951 Y93.954 E0.10678
G1 X120.951 Y93.420 E0.01672
G1 X119.077 Y91.546 E0.08313
G1 X119.610 Y91.546 E0.01672
G1 X120.951 Y92.887 E0.05948
G1 X120.951 Y92.354 E0.01672
G1 X120.143 Y91.546 E0.03584
G1 X120.677 Y91.546 E0.01672
G1 X121.121 Y91.990 E0.01971
G1 F5760
G1 X120.677 Y91.546 E-0.21772
G1 F5760
G1 X120.143 Y91.546 E-0.18471
G1 F5760
G1 X120.873 Y92.276 E-0.35757
G1 E-0.04000 F2100.00000
G1 Z0.800 F7200.000
G1 X121.619 Y104.754 F7200.000
G1 Z0.200 F7200.000
G1 E0.80000 F2100.00000
G1 F900
G1 X124.112 Y107.247 E0.11057
G1 X124.646 Y107.247 E0.01672
G1 X122.322 Y104.924 E0.10305
G1 X122.855 Y104.924 E0.01672
G1 X125.179 Y107.247 E0.10305
G1 X125.712 Y107.247 E0.01672
G1 X123.388 Y104.924 E0.10305
G1 X123.922 Y104.924 E0.01672
G1 X126.245 Y107.247 E0.10305
G1 X126.779 Y107.247 E0.01672
G1 X124.455 Y104.924 E0.10305
G1 X124.988 Y104.924 E0.01672
G1 X127.312 Y107.247 E0.10305
G1 X127.845 Y107.247 E0.01672
G1 X125.522 Y104.924 E0.10305
G1 X126.055 Y104.924 E0.01672
G1 X128.379 Y107.247 E0.10305
G1 X128.912 Y107.247 E0.01672
G1 X126.588 Y104.924 E0.10305
G1 X127.122 Y104.924 E0.01672
G1 X129.445 Y107.247 E0.10305
G1 X129.979 Y107.247 E0.01672
G1 X127.655 Y104.924 E0.10305
G1 X128.188 Y104.924 E0.01672
G1 X130.512 Y107.247 E0.10305
G1 X131.045 Y107.247 E0.01672
G1 X128.721 Y104.924 E0.10305
G1 X129.255 Y104.924 E0.01672
G1 X131.579 Y107.247 E0.10305
G1 X132.112 Y107.247 E0.01672
G1 X129.788 Y104.924 E0.10305
G1 X130.321 Y104.924 E0.01672
G1 X132.645 Y107.247 E0.10305
G1 X133.178 Y107.247 E0.01672
G1 X130.855 Y104.924 E0.10305
G1 X131.388 Y104.924 E0.01672
G1 X133.712 Y107.247 E0.10305
G1 X134.245 Y107.247 E0.01672
G1 X131.921 Y104.924 E0.10305
G1 X132.455 Y104.924 E0.01672
G1 X137.632 Y110.101 E0.22959
G1 X137.632 Y109.568 E0.01672
G1 X132.988 Y104.924 E0.20594
G1 X133.521 Y104.924 E0.01672
G1 X137.632 Y109.034 E0.18229
G1 X137.632 Y108.501 E0.01672
G1 X134.055 Y104.924 E0.15864
G1 X134.588 Y104.924 E0.01672
G1 X137.632 Y107.968 E0.13500
G1 X137.632 Y107.435 E0.01672
G1 X135.049 Y104.851 E0.11456
G1 X135.049 Y104.318 E0.01672
G1 X137.632 Y106.901 E0.11456
G1 X137.632 Y106.368 E0.01672
G1 X135.049 Y103.784 E0.11456
G1 X135.049 Y103.251 E0.01672
G1 X137.632 Y105.835 E0.11456
G1 X137.632 Y105.301 E0.01672
G1 X135.049 Y102.718 E0.11456
G1 X135.049 Y102.184 E0.01672
G1 X137.632 Y104.768 E0.11456
G1 X137.632 Y104.235 E0.01672
G1 X135.049 Y101.651 E0.11456
G1 X135.049 Y101.118 E0.01672
G1 X137.632 Y103.701 E0.11456
G1 X137.632 Y103.168 E0.01672
G1 X135.049 Y100.585 E0.11456
G1 X135.049 Y100.051 E0.01672
G1 X137.632 Y102.635 E0.11456
G1 X137.632 Y102.101 E0.01672
G1 X135.049 Y99.518 E0.11456
G1 X135.049 Y98.985 E0.01672
G1 X137.632 Y101.568 E0.11456
G1 X137.632 Y101.035 E0.01672
G1 X135.049 Y98.451 E0.11456
G1 X135.049 Y97.918 E0.01672
G1 X137.632 Y100.502 E0.11456
G1 X137.632 Y99.968 E0.01672
G1 X135.049 Y97.385 E0.11456
G1 X135.049 Y96.851 E0.01672
G1 X137.632 Y99.435 E0.11456
G1 X137.632 Y98.902 E0.01672
G1 X135.049 Y96.318 E0.11456
G1 X135.049 Y95.785 E0.01672
G1 X137.632 Y98.368 E0.11456
G1 X137.632 Y97.835 E0.01672
G1 X135.049 Y95.251 E0.11456
G1 X135.049 Y94.718 E0.01672
G1 X137.632 Y97.302 E0.11456
G1 X137.632 Y96.768 E0.01672
G1 X135.049 Y94.185 E0.11456
G1 X135.049 Y93.652 E0.01672
G1 X137.632 Y96.235 E0.11456
G1 X137.632 Y95.702 E0.01672
G1 X135.049 Y93.118 E0.11456
G1 X135.049 Y92.585 E0.01672
G1 X137.632 Y95.168 E0.11456
G1 X137.632 Y94.635 E0.01672
G1 X135.049 Y92.052 E0.11456
G1 X135.049 Y91.546 E0.01587
G1 X135.076 Y91.546 E0.00086
G1 X137.632 Y94.102 E0.11335
G1 X137.632 Y93.569 E0.01672
G1 X135.609 Y91.546 E0.08970
G1 X136.143 Y91.546 E0.01672
G1 X137.632 Y93.035 E0.06605
G1 X137.632 Y92.502 E0.01672
G1 X136.676 Y91.546 E0.04241
G1 X137.209 Y91.546 E0.01672
G1 X137.802 Y92.138 E0.02628
G1 F5760
G1 X137.209 Y91.546 E-0.29029
G1 F5760
G1 X136.676 Y91.546 E-0.18471
G1 F5760
G1 X137.258 Y92.127 E-0.28500
G1 E-0.04000 F2100.00000
G1 Z0.800 F7200.000
G1 X137.802 Y110.804 F7200.000
G1 Z0.200 F7200.000
G1 E0.80000 F2100.00000
G1 F900
G1 X135.049 Y108.051 E0.12209
G1 X135.049 Y108.584 E0.01672
G1 X137.632 Y111.168 E0.11456
G1 X137.632 Y111.701 E0.01672
G1 X135.049 Y109.117 E0.11456
G1 X135.049 Y109.651 E0.01672
G1 X137.632 Y112.234 E0.11456
G1 X137.632 Y112.768 E0.01672
G1 X135.049 Y110.184 E0.11456
G1 X135.049 Y110.717 E0.01672
G1 X137.632 Y113.301 E0.11456
G1 X137.632 Y113.834 E0.01672
G1 X135.049 Y111.251 E0.11456
G1 X135.049 Y111.784 E0.01672
G1 X137.632 Y114.367 E0.11456
G1 X137.632 Y114.901 E0.01672
G1 X135.049 Y112.317 E0.11456
G1 X135.049 Y112.851 E0.01672
G1 X137.632 Y115.434 E0.11456
G1 X137.632 Y115.967 E0.01672
G1 X135.049 Y113.384 E0.11456
G1 X135.049 Y113.917 E0.01672
G1 X137.632 Y116.501 E0.11456
G1 X137.632 Y117.034 E0.01672
G1 X135.049 Y114.451 E0.11456
G1 X135.049 Y114.984 E0.01672
G1 X137.632 Y117.567 E0.11456
G1 X137.632 Y118.101 E0.01672
G1 X135.049 Y115.517 E0.11456
G1 X135.049 Y116.050 E0.01672
G1 X137.452 Y118.454 E0.10660
G1 X136.919 Y118.454 E0.01672
G1 X135.049 Y116.584 E0.08295
G1 X135.049 Y117.117 E0.01672
G1 X136.386 Y118.454 E0.05930
G1 X135.853 Y118.454 E0.01672
G1 X135.049 Y117.650 E0.03565
G1 X135.049 Y118.184 E0.01672
G1 X135.489 Y118.624 E0.01953
G1 F5760
G1 X135.049 Y118.184 E-0.21570
G1 F5760
G1 X135.049 Y117.650 E-0.18471
G1 F5760
G1 X135.783 Y118.384 E-0.35959
G1 E-0.04000 F2100.00000
G1 Z0.800 F7200.000
G1 X120.023 Y118.624 F7200.000
G1 Z0.200 F7200.000
G1 E0.80000 F2100.00000
G1 F900
G1 X117.929 Y116.530 E0.09284
G1 X118.023 Y116.703 E0.00616
G1 X118.207 Y117.198 E0.01655
G1 X118.257 Y117.391 E0.00625
G1 X119.320 Y118.454 E0.04716
G1 X118.787 Y118.454 E0.01672
G1 X118.160 Y117.827 E0.02780
G1 F5760
G1 X118.787 Y118.454 E-0.30710
G1 F5760
G1 X119.320 Y118.454 E-0.18471
G1 F5760
G1 X118.773 Y117.907 E-0.26819
G1 E-0.04000 F2100.00000
G1 Z0.800 F7200.000
G1 X114.977 Y114.644 F7200.000
G1 Z0.200 F7200.000
G1 E0.80000 F2100.00000
G1 F900
G1 X114.529 Y114.187 E0.02006
G1 X115.054 Y114.188 E0.01646
G1 X115.413 Y114.547 E0.01590
G1 X115.850 Y114.678 E0.01432
G1 X116.271 Y114.872 E0.01451
G1 X115.589 Y114.190 E0.03024
G1 X116.123 Y114.191 E0.01676
G1 X120.387 Y118.454 E0.18906
G1 X120.920 Y118.454 E0.01672
G1 X116.658 Y114.192 E0.18901
G1 X117.192 Y114.193 E0.01676
G1 X120.951 Y117.953 E0.16670
G1 X120.951 Y117.419 E0.01672
G1 X117.727 Y114.195 E0.14299
G1 X118.261 Y114.196 E0.01676
G1 X120.951 Y116.886 E0.11929
G1 X120.951 Y116.353 E0.01672
G1 X118.368 Y113.769 E0.11456
G1 X118.368 Y113.236 E0.01672
