;FLAVOR:Marlin
;TIME:307
;Filament used:0.27805m
;Layer height: 0.3
;MINX:69.198
;MINY:68.376
;MINZ:0.2
;MAXX:95.802
;MAXY:96.624
;MAXZ:2.9
                                  
;Creative3D GCode Generated by CXEngineDEV
;Generated Time:2022-04-08 18:14:05
;----------Machine Config--------------
;Machine Name:Creality Ender-2 Pro
;Machine Height:180
;Machine Width:165
;Machine Depth:165
;Material name:PLA
;Number of Extruders:1
;ExtruderParams[0] Nozzle Diameter1000
;----------Profile Config---------------
;Layer Height:0.3
;Wall Thickness:0.8
;Top/Bottom Thickness:1
;Out Wall Line Width:0.4
;Inner Wall Line Width:0.4
;Inital Layer Height:200
;Wall Line Count:1
;Infill Line Distance:4
;Infill Pattern:grid
;Infill Sparse Density:20
;Infill Wipe Distance:0
;Print Temperature:200
;Bed Temperature:60
;Support Enable:false
;Support Density:30
;Support Angle:1.0472
;Adhesion Type:none
;machine is belt:false
;machine belt offset:10
;machine belt offset Y:0
;----------Shell Config----------------
;Outer Wall Wipe Distance:200
;Infill Before Walls:false
;Infill Overlap:0.16
;Fill Gaps Between Walls:everywhere
;Minimum Infill Area:1
;Top Surface Skin Layer:0
;Top Layers:2
;Z Seam Alignment:sharpest_corner
;Seam Corner Preference:z_seam_corner_inner
;Z Seam X:82.5
;Z Seam Y:82.5
;Horizontal Expansion:0
;Top/Bottom Pattern:zigzag
;Ironing Pattern:zigzag
;Vase Model:false
;----------Support Config----------------
;Support Type:everywhere
;Support Pattern:zigzag
;Support Infill Layer Thickness:0.3
;Minimum Support Area:10
;Enable Support Roof:false
;Support Roof Thickness:0.8
;Support Roof Pattern:lines
; ---------PrintSpeed & Travel----------
;Enable Print Cool:true
;Avoid Printed Parts Traveling:true
;Enable Retraction:true
;Retraction Distance:8
;Retraction Speed:100
;Retraction Prime Speed:100
;Maximum Retraction Count:100
;Minimum Extrusion Distance Window:1
;Z Hop When Retracted:false
;Z Hop Height:0.2
;Retract Before Outer Wall:true
;Print Speed:50
;Infill Speed:50

;Prime Tower Speed:50
;Travel Speed:120
;Initial Layer Speed:25
;Skirt/Brim Speed:25
;Combing Mode:off
;---------------------End of Head--------------------------
M140 S60
M104 S200
M105
M109 S200
M82 ;absolute extrusion mode
M220 S100 ;Reset Feedrate
M221 S100 ;Reset Flowrate

G28 ;Home

G92 E0 ;Reset Extruder
G1 Z2.0 F3000 ;Move Z Axis up
G1 X10.1 Y20 Z0.28 F5000.0 ;Move to start position
G1 X10.1 Y145.0 Z0.28 F1500.0 E15 ;Draw the first line
G1 X10.4 Y145.0 Z0.28 F5000.0 ;Move to side a little
G1 X10.4 Y20 Z0.28 F1500.0 E30 ;Draw the second line
G92 E0  ;Reset Extruder
G1 E-1.0000 F1800 ;Retract a bit
G1 Z2.0 F3000 ;Move Z Axis up
G1 E0.0000 F1800 

G92 E0
G92 E0
G1 F6000 E-8

;LAYER_COUNT:10

;LAYER:0
M107
;MESH:
G0 F3600 X75.198 Y91.024 Z0.2
;TYPE:WALL-OUTER
G1 F6000 E0
G1 F1500 X75.198 Y86.925 E0.14997
G1 X75.097 Y86.624 E0.16158
G1 X71.98 Y86.624 E0.27562
G1 X71.579 Y86.696 E0.29053
G1 X71.207 Y86.918 E0.30638
G1 X70.938 Y87.257 E0.32221
G1 X70.809 Y87.659 E0.33766
G1 X70.798 Y87.817 E0.34345
G1 X70.798 Y89.842 E0.41754
G1 X70.87 Y90.243 E0.43244
G1 X71.092 Y90.615 E0.44829
G1 X71.431 Y90.885 E0.46415
G1 X71.835 Y91.014 E0.47966
G1 X72.051 Y91.024 E0.48758
G1 X75.198 Y91.024 E0.60271
G0 F3600 X75.198 Y90.824
G0 X75.638 Y90.824
;;retract;;
G1 F6000 E-7.39729
G0 F3600 X91.879 Y81.754
G1 F6000 E0.60271
G1 F1500 X91.879 Y68.376 E1.09216
G1 X95.802 Y68.376 E1.23569
G1 X95.802 Y96.624 E2.26917
G1 X91.879 Y96.624 E2.4127
G1 X91.879 Y85.417 E2.82272
G1 X79.121 Y85.417 E3.28949
G1 X79.121 Y96.624 E3.69951
G1 X75.198 Y96.624 E3.84304
G1 X75.198 Y95.798 E3.87326
G1 X75.168 Y95.355 E3.8895
G1 X75.071 Y94.911 E3.90613
G1 X74.915 Y94.486 E3.92269
G1 X74.697 Y94.084 E3.93942
G1 X74.425 Y93.718 E3.95611
G1 X74.107 Y93.397 E3.97264
G1 X73.741 Y93.121 E3.98941
G1 X73.345 Y92.902 E4.00597
G1 X72.923 Y92.742 E4.02248
G1 X72.482 Y92.643 E4.03901
G1 X72.032 Y92.591 E4.05559
G1 X71.624 Y92.507 E4.07083
G1 X71.22 Y92.367 E4.08647
G1 X70.831 Y92.171 E4.10241
G1 X70.481 Y91.936 E4.11783
G1 X70.16 Y91.652 E4.13351
G1 X69.877 Y91.328 E4.14925
G1 X69.743 Y91.139 E4.15773
G1 X69.541 Y90.785 E4.17264
G1 X69.375 Y90.385 E4.18848
G1 X69.264 Y89.974 E4.20406
G1 X69.207 Y89.549 E4.21975
G1 X69.198 Y89.325 E4.22795
G1 X69.204 Y88.119 E4.27207
G1 X69.257 Y87.698 E4.2876
G1 X69.367 Y87.283 E4.3033
G1 X69.525 Y86.892 E4.31873
G1 X69.643 Y86.67 E4.32793
G1 X69.869 Y86.331 E4.34284
G1 X70.143 Y86.012 E4.35822
G1 X70.46 Y85.73 E4.37375
G1 X70.818 Y85.484 E4.38964
G1 X71.196 Y85.293 E4.40513
G1 X71.594 Y85.152 E4.42058
G1 X72.025 Y85.06 E4.43671
G1 X72.481 Y85.008 E4.4535
G1 X72.908 Y84.912 E4.46951
G1 X73.332 Y84.753 E4.48608
G1 X73.734 Y84.532 E4.50286
G1 X74.095 Y84.26 E4.5194
G1 X74.42 Y83.936 E4.53619
G1 X74.69 Y83.573 E4.55274
G1 X74.909 Y83.172 E4.56945
G1 X75.066 Y82.749 E4.58596
G1 X75.165 Y82.301 E4.60275
G1 X75.197 Y81.855 E4.61911
G1 X75.198 Y68.376 E5.11225
G1 X79.121 Y68.376 E5.25578
G1 X79.121 Y81.754 E5.74523
G1 X91.879 Y81.754 E6.212
G0 F3600 X91.879 Y81.554
G0 X92.319 Y81.554
;;retract;;
G1 F6000 E-1.788
G0 F3600 X95.561 Y68.616
;TYPE:SKIN
G1 F6000 E6.212
G1 F1500 X95.203 Y68.616 E6.22509
G1 X94.637 Y68.616 E6.2458
G1 X95.561 Y69.54 E6.29361
G1 X95.561 Y70.106 E6.31432
G1 X94.072 Y68.616 E6.39138
G1 X93.506 Y68.616 E6.41209
G1 X95.561 Y70.671 E6.51842
G1 X95.561 Y71.237 E6.53913
G1 X92.94 Y68.616 E6.67474
G1 X92.375 Y68.616 E6.69541
G1 X95.561 Y71.803 E6.86028
G1 X95.561 Y72.368 E6.88095
G1 X92.118 Y68.925 E7.0591
G1 X92.118 Y69.49 E7.07977
G1 X95.561 Y72.934 E7.25794
G1 X95.561 Y73.5 E7.27864
G1 X92.118 Y70.056 E7.45681
G1 X92.118 Y70.622 E7.47752
G1 X95.561 Y74.065 E7.65566
G1 X95.561 Y74.631 E7.67637
G1 X92.118 Y71.187 E7.85454
G1 X92.118 Y71.753 E7.87525
G1 X95.561 Y75.197 E8.05342
G1 X95.561 Y75.762 E8.07409
G1 X92.118 Y72.319 E8.25223
G1 X92.118 Y72.885 E8.27294
G1 X95.561 Y76.328 E8.45108
G1 X95.561 Y76.894 E8.47179
G1 X92.118 Y73.45 E8.64996
G1 X92.118 Y74.016 E8.67067
G1 X95.561 Y77.46 E8.84883
G1 X95.561 Y78.025 E8.86951
G1 X92.118 Y74.582 E9.04765
G1 X92.118 Y75.147 E9.06832
G1 X95.561 Y78.591 E9.24649
G1 X95.561 Y79.157 E9.2672
G1 X92.118 Y75.713 E9.44537
G1 X92.118 Y76.279 E9.46607
G1 X95.561 Y79.722 E9.64422
G1 X95.561 Y80.288 E9.66492
G1 X92.118 Y76.844 E9.84309
G1 X92.118 Y77.41 E9.8638
G1 X95.561 Y80.854 E10.04197
G1 X95.561 Y81.419 E10.06264
G1 X92.118 Y77.976 E10.24078
G1 X92.118 Y78.541 E10.26146
G1 X95.561 Y81.985 E10.43962
G1 X95.561 Y82.551 E10.46033
G1 X92.118 Y79.107 E10.6385
G1 X92.118 Y79.673 E10.65921
G1 X95.561 Y83.116 E10.83735
G1 X95.561 Y83.682 E10.85806
G1 X92.118 Y80.238 E11.03623
G1 X92.118 Y80.804 E11.05694
G1 X95.561 Y84.248 E11.2351
G1 X95.561 Y84.813 E11.25578
G1 X92.118 Y81.37 E11.43392
G1 X92.118 Y81.935 E11.45459
G1 X95.561 Y85.379 E11.63276
G1 X95.561 Y85.945 E11.65347
G1 X91.61 Y81.993 E11.85792
G1 X91.044 Y81.993 E11.87863
G1 X95.561 Y86.51 E12.11234
G1 X95.561 Y87.076 E12.13305
G1 X90.479 Y81.993 E12.39602
G1 X89.913 Y81.993 E12.41673
G1 X95.561 Y87.642 E12.70898
G1 X95.561 Y88.208 E12.72969
G1 X89.347 Y81.993 E13.05123
G1 X88.782 Y81.993 E13.0719
G1 X91.964 Y85.176 E13.23657
G1 X91.399 Y85.176 E13.25724
G1 X88.216 Y81.993 E13.42193
G1 X87.65 Y81.993 E13.44264
G1 X90.833 Y85.176 E13.60733
G1 X90.267 Y85.176 E13.62804
G1 X87.085 Y81.993 E13.7927
G1 X86.519 Y81.993 E13.81341
G1 X89.702 Y85.176 E13.9781
G1 X89.136 Y85.176 E13.99881
G1 X85.953 Y81.993 E14.1635
G1 X85.388 Y81.993 E14.18417
G1 X88.57 Y85.176 E14.34883
G1 X88.005 Y85.176 E14.3695
G1 X84.822 Y81.993 E14.5342
G1 X84.256 Y81.993 E14.5549
G1 X87.439 Y85.176 E14.71959
G1 X86.873 Y85.176 E14.7403
G1 X83.691 Y81.993 E14.90497
G1 X83.125 Y81.993 E14.92567
G1 X86.308 Y85.176 E15.09036
G1 X85.742 Y85.176 E15.11107
G1 X82.559 Y81.993 E15.27576
G1 X81.993 Y81.993 E15.29647
G1 X85.175 Y85.175 E15.46111
G1 X84.61 Y85.175 E15.48178
G1 X81.428 Y81.993 E15.64642
G1 X80.862 Y81.993 E15.66713
G1 X84.044 Y85.175 E15.83176
G1 X83.478 Y85.175 E15.85247
G1 X80.296 Y81.993 E16.01711
G1 X79.731 Y81.993 E16.03778
G1 X82.913 Y85.175 E16.20242
G1 X82.347 Y85.175 E16.22313
G1 X79.165 Y81.993 E16.38777
G0 F3600 X78.88 Y81.993
G1 F1500 X78.88 Y81.709 E16.39816
G1 X78.88 Y81.143 E16.41887
G1 X75.436 Y77.699 E16.59706
G1 X75.436 Y77.134 E16.61773
G1 X78.88 Y80.577 E16.7959
G1 X78.88 Y80.011 E16.81661
G1 X75.436 Y76.568 E16.99478
G1 X75.436 Y76.002 E17.01548
G1 X78.88 Y79.446 E17.19368
G1 X78.88 Y78.88 E17.21439
G1 X75.436 Y75.436 E17.39258
G1 X75.436 Y74.871 E17.41325
G1 X78.88 Y78.314 E17.59142
G1 X78.88 Y77.749 E17.61209
G1 X75.436 Y74.305 E17.79029
G1 X75.436 Y73.739 E17.811
G1 X78.88 Y77.183 E17.98919
G1 X78.88 Y76.617 E18.0099
G1 X75.436 Y73.174 E18.18807
G1 X75.436 Y72.608 E18.20877
G1 X78.88 Y76.052 E18.38697
G1 X78.88 Y75.486 E18.40768
G1 X75.436 Y72.042 E18.58587
G1 X75.436 Y71.477 E18.60654
G1 X78.88 Y74.92 E18.78471
G1 X78.88 Y74.355 E18.80538
G1 X75.436 Y70.911 E18.98358
G1 X75.436 Y70.345 E19.00429
G1 X78.88 Y73.789 E19.18248
G1 X78.88 Y73.223 E19.20319
G1 X75.436 Y69.78 E19.38136
G1 X75.436 Y69.214 E19.40206
G1 X78.88 Y72.658 E19.58026
G1 X78.88 Y72.092 E19.60097
G1 X75.436 Y68.648 E19.77916
G1 X75.436 Y68.616 E19.78033
G1 X75.97 Y68.616 E19.79987
G1 X78.88 Y71.526 E19.95043
G1 X78.88 Y70.96 E19.97114
G1 X76.535 Y68.616 E20.09245
G1 X77.101 Y68.616 E20.11316
G1 X78.88 Y70.395 E20.2052
G1 X78.88 Y69.829 E20.22591
G1 X77.667 Y68.616 E20.28867
G1 X78.232 Y68.616 E20.30934
G1 X78.88 Y69.263 E20.34285
G1 X78.88 Y68.698 E20.36352
G1 X78.798 Y68.616 E20.36776
G1 X78.88 Y68.616 E20.37076
;;retract;;
G1 F6000 E12.37076
G0 F3600 X78.88 Y81.709
G1 F6000 E20.37076
G1 F1500 X75.436 Y78.265 E20.54895
G1 X75.436 Y78.831 E20.56966
G1 X81.781 Y85.175 E20.89793
G1 X81.216 Y85.175 E20.9186
G1 X75.436 Y79.396 E21.21764
G1 X75.436 Y79.962 E21.23834
G1 X80.65 Y85.175 E21.50809
G1 X80.084 Y85.175 E21.5288
G1 X75.436 Y80.528 E21.76927
G1 X75.436 Y81.093 E21.78994
G1 X79.519 Y85.175 E22.00117
G1 X78.953 Y85.175 E22.02188
G1 X75.436 Y81.659 E22.20382
G1 X75.436 Y81.861 E22.21121
G1 X75.412 Y82.2 E22.22365
G1 X78.881 Y85.669 E22.40313
G1 X78.881 Y86.235 E22.42384
G1 X75.325 Y82.679 E22.60783
G1 X75.295 Y82.816 E22.61296
G1 X75.187 Y83.106 E22.62428
G1 X78.881 Y86.8 E22.81541
G1 X78.881 Y87.366 E22.83612
G1 X75.007 Y83.492 E23.03657
G1 X74.893 Y83.702 E23.04531
G1 X74.789 Y83.84 E23.05163
G1 X78.881 Y87.932 E23.26335
G1 X78.881 Y88.497 E23.28402
G1 X74.538 Y84.155 E23.50871
G1 X74.255 Y84.437 E23.52332
G1 X78.881 Y89.063 E23.76268
G1 X78.881 Y89.629 E23.78338
G1 X73.933 Y84.681 E24.0394
G1 X73.865 Y84.733 E24.04253
G1 X73.577 Y84.891 E24.05455
G1 X75.069 Y86.382 E24.13172
G1 X74.503 Y86.382 E24.15243
G1 X73.184 Y85.063 E24.22067
G1 X72.976 Y85.141 E24.2288
G1 X72.747 Y85.192 E24.23738
G1 X73.937 Y86.382 E24.29895
G1 X73.372 Y86.382 E24.31963
G1 X72.262 Y85.273 E24.37703
G1 X72.064 Y85.296 E24.38432
G1 X71.781 Y85.357 E24.39492
G1 X72.806 Y86.382 E24.44795
G1 X72.24 Y86.382 E24.46866
G1 X71.35 Y85.492 E24.51471
G1 X71.289 Y85.513 E24.51707
G1 X70.968 Y85.676 E24.53024
G1 X71.718 Y86.426 E24.56904
G1 X71.494 Y86.467 E24.57738
G1 X71.305 Y86.578 E24.58539
G1 X70.63 Y85.904 E24.62029
G1 X70.609 Y85.918 E24.62122
G1 X70.328 Y86.168 E24.63498
G1 X70.979 Y86.818 E24.66864
G1 X70.729 Y87.133 E24.68335
G1 X70.065 Y86.469 E24.7177
G1 X70.057 Y86.479 E24.71817
G1 X69.852 Y86.787 E24.73171
G1 X69.839 Y86.81 E24.73268
G1 X70.588 Y87.558 E24.7714
G1 X70.57 Y87.611 E24.77345
G1 X70.557 Y87.808 E24.78067
G1 X70.557 Y88.094 E24.79114
G1 X69.659 Y87.195 E24.83763
G1 X69.595 Y87.355 E24.84393
G1 X69.523 Y87.625 E24.85416
G1 X70.557 Y88.659 E24.90765
G1 X70.557 Y89.225 E24.92836
G1 X69.445 Y88.113 E24.9859
G1 X69.443 Y88.132 E24.9866
G1 X69.44 Y88.674 E25.00643
G1 X70.557 Y89.791 E25.06422
G1 X70.557 Y89.863 E25.06686
G1 X70.641 Y90.327 E25.08411
G1 X70.808 Y90.607 E25.09604
G1 X70.907 Y90.774 E25.10314
G0 F3600 X70.808 Y90.607
G1 F1500 X69.438 Y89.237 E25.17402
G1 X69.438 Y89.325 E25.17724
G1 X69.447 Y89.528 E25.18468
G1 X69.49 Y89.854 E25.19671
G1 X71.967 Y92.331 E25.32487
G1 X71.689 Y92.274 E25.33525
G1 X71.318 Y92.146 E25.34961
G1 X71.111 Y92.041 E25.3581
G1 X70.946 Y91.958 E25.36486
G1 X70.635 Y91.75 E25.37855
G1 X70.329 Y91.48 E25.39348
G1 X70.063 Y91.176 E25.40826
G1 X69.946 Y91.008 E25.41575
G0 F3600 X69.769 Y90.699
G1 F1500 X71.111 Y92.041 E25.48518
;;retract;;
G1 F6000 E17.48518
G0 F3600 X71.24 Y91.039
G1 F6000 E25.48518
G1 F1500 X72.631 Y92.43 E25.55715
G1 X72.992 Y92.511 E25.57069
G1 X73.445 Y92.683 E25.58842
G1 X73.454 Y92.688 E25.58879
G1 X72.029 Y91.262 E25.66255
G1 X72.044 Y91.262 E25.6631
G1 X72.595 Y91.263 E25.68326
G1 X77.715 Y96.383 E25.94817
G1 X78.281 Y96.383 E25.96888
G1 X73.161 Y91.263 E26.23379
G1 X73.727 Y91.263 E26.2545
G1 X78.847 Y96.383 E26.51941
G1 X78.881 Y96.383 E26.52065
G1 X78.881 Y95.851 E26.54012
G1 X74.292 Y91.263 E26.77753
G1 X74.858 Y91.263 E26.79824
G1 X78.881 Y95.286 E27.00639
G1 X78.881 Y94.72 E27.0271
G1 X75.424 Y91.263 E27.20597
G1 X75.438 Y91.263 E27.20648
G1 X75.437 Y90.711 E27.22667
G1 X78.881 Y94.154 E27.40484
G1 X78.881 Y93.589 E27.42551
G1 X75.437 Y90.145 E27.60371
G1 X75.437 Y89.579 E27.62442
G1 X78.881 Y93.023 E27.80261
G1 X78.881 Y92.457 E27.82332
G1 X75.437 Y89.014 E28.00149
G1 X75.437 Y88.448 E28.02219
G1 X78.881 Y91.892 E28.20039
G1 X78.881 Y91.326 E28.2211
G1 X75.437 Y87.882 E28.39929
G1 X75.437 Y87.317 E28.41996
G1 X78.881 Y90.76 E28.59813
G1 X78.881 Y90.195 E28.6188
G1 X75.37 Y86.684 E28.80046
G1 X75.27 Y86.382 E28.8121
;;retract;;
G1 F6000 E20.8121
G0 F3600 X73.872 Y92.918
G1 F6000 E28.8121
G1 F1500 X74.264 Y93.215 E28.8301
G1 X74.606 Y93.56 E28.84787
G1 X74.899 Y93.953 E28.8658
G1 X75.113 Y94.346 E28.88218
G1 X77.15 Y96.383 E28.98757
G1 X76.584 Y96.383 E29.00828
G1 X75.374 Y95.173 E29.07089
G1 X75.406 Y95.32 E29.07639
G1 X75.437 Y95.789 E29.09359
G1 X75.437 Y95.802 E29.09406
G1 X76.018 Y96.383 E29.12412
G1 X75.453 Y96.383 E29.14479
G1 X75.437 Y96.383 E29.14538
;;retract;;
G1 F6000 E21.14538
G0 F3600 X92.119 Y96.382
G1 F6000 E29.14538
G1 F1500 X92.423 Y96.382 E29.1565
G1 X92.988 Y96.382 E29.17717
G1 X92.118 Y95.512 E29.22219
G1 X92.118 Y94.946 E29.2429
G1 X93.554 Y96.382 E29.3172
G1 X94.12 Y96.382 E29.3379
G1 X92.118 Y94.381 E29.44146
G1 X92.118 Y93.815 E29.46217
G1 X94.685 Y96.382 E29.59499
G1 X95.251 Y96.382 E29.6157
G1 X92.118 Y93.249 E29.7778
G1 X92.118 Y92.684 E29.79847
G1 X95.561 Y96.127 E29.97661
G1 X95.561 Y95.561 E29.99732
G1 X92.118 Y92.118 E30.17546
G1 X92.118 Y91.552 E30.19617
G1 X95.561 Y94.996 E30.37434
G1 X95.561 Y94.43 E30.39505
G1 X92.118 Y90.986 E30.57322
G1 X92.118 Y90.421 E30.59389
G1 X95.561 Y93.864 E30.77203
G1 X95.561 Y93.299 E30.7927
G1 X92.118 Y89.855 E30.97087
G1 X92.118 Y89.289 E30.99158
G1 X95.561 Y92.733 E31.16975
G1 X95.561 Y92.167 E31.19046
G1 X92.118 Y88.724 E31.3686
G1 X92.118 Y88.158 E31.38931
G1 X95.561 Y91.602 E31.56748
G1 X95.561 Y91.036 E31.58818
G1 X92.118 Y87.592 E31.76635
G1 X92.118 Y87.027 E31.78702
G1 X95.561 Y90.47 E31.96517
G1 X95.561 Y89.905 E31.98584
G1 X92.118 Y86.461 E32.16401
G1 X92.118 Y85.895 E32.18471
G1 X95.561 Y89.339 E32.36288
G1 X95.561 Y88.773 E32.38359
G1 X92.118 Y85.33 E32.56173
G1 X92.118 Y85.177 E32.56733
;;retract;;
G1 F6000 E24.56733
G0 F3600 X92.118 Y96.078
G1 F6000 E32.56733
G1 F1500 X92.423 Y96.382 E32.58309
;;retract;;
G1 F6000 E24.58309
G0 F3600 X95.561 Y68.974
G1 F6000 E32.58309
G1 F1500 X95.203 Y68.616 E32.60161
;;retract;;
G1 F6000 E24.60161
;MESH:NONMESH
G0 F600 X95.203 Y68.616 Z0.5
G0 F3600 X75.198 Y86.624
;TIME_ELAPSED:53.967171

;LAYER:1
M140 S60
M106 S127.5
;TYPE:WALL-OUTER
;MESH:
G1 F6000 E32.60161
G1 F1500 X71.981 Y86.624 E32.76211
G1 X71.6 Y86.69 E32.7814
G1 X71.312 Y86.837 E32.79753
G1 X71.027 Y87.116 E32.81743
G1 X70.872 Y87.402 E32.83366
G1 X70.8 Y87.783 E32.853
G1 X70.798 Y89.841 E32.95567
G1 X70.864 Y90.222 E32.97497
G1 X71.011 Y90.51 E32.9911
G1 X71.29 Y90.794 E33.01096
G1 X71.575 Y90.95 E33.02717
G1 X71.957 Y91.022 E33.04656
G1 X74.998 Y91.024 E33.19828
G1 X75.198 Y91.024 E33.20826
G1 X75.198 Y90.824 E33.21472
G1 X75.198 Y86.624 E33.42426
G0 F5400 X74.998 Y86.624
