; generated by Slic3r Prusa Edition 1.39.1-prusa3d on 2018-05-09 at 07:50:45

; 

; external perimeters extrusion width = 0.45mm
; perimeters extrusion width = 0.45mm
; infill extrusion width = 0.45mm
; solid infill extrusion width = 0.45mm
; top infill extrusion width = 0.33mm
; first layer extrusion width = 0.42mm

M107
M115 U3.1.0 ; tell printer latest fw version
M201 X9000 Y9000 Z500 E10000 ; sets maximum accelerations, mm/sec^2
M203 X500 Y500 Z12 E120 ; sets maximum feedrates, mm/sec
M204 S1500 T1500 ; sets acceleration (S) and retract acceleration (T)
M205 X10 Y10 Z0.2 E2.5 ; sets the jerk limits, mm/sec
M205 S0 T0 ; sets the minimum extruding and travel feed rate, mm/sec
M83  ; extruder relative mode
M104 S200 ; set extruder temp
M140 S55 ; set bed temp
M190 S55 ; wait for bed temp
M109 S200 ; wait for extruder temp
G28 W ; home all without mesh bed level
G80 ; mesh bed leveling
G1 Y-3.0 F1000.0 ; go outside print area
G92 E0.0
G1 E18.0 F1000.0;
G1 X60.0 E9.0  F1000.0 ; intro line
G1 X100.0 E12.5  F1000.0 ; intro line
G92 E0.0
M900 K30; Filament gcode
G21 ; set units to millimeters
G90 ; use absolute coordinates
M83 ; use relative distances for extrusion
;BEFORE_LAYER_CHANGE
;0.2


G1 E-0.80000 F2100.00000
G1 Z0.600 F7200.000
;AFTER_LAYER_CHANGE
;0.2
G1 X90.209 Y84.144 F7200.000
G1 Z0.200 F7200.000
G1 E0.80000 F2100.00000
M204 S1000
G1 F900
G1 X90.623 Y83.658 E0.02001
G1 X91.138 Y83.281 E0.02001
G1 X91.726 Y83.032 E0.02001
G1 X92.355 Y82.925 E0.02001
G1 X113.506 Y82.922 E0.66318
G1 X114.515 Y83.115 E0.03221
G1 X115.383 Y83.664 E0.03221
G1 X115.989 Y84.493 E0.03221
G1 X116.250 Y85.487 E0.03221
G1 X116.256 Y114.365 E0.90547
G1 X116.131 Y115.144 E0.02473
G1 X115.791 Y115.855 E0.02473
G1 X115.365 Y116.352 E0.02052
G1 X114.834 Y116.735 E0.02052
G1 X114.232 Y116.980 E0.02039
G1 X113.585 Y117.077 E0.02052
G1 X92.441 Y117.078 E0.66296
G1 X91.671 Y116.951 E0.02447
G1 X90.967 Y116.614 E0.02447
G1 X90.555 Y116.276 E0.01669
G1 X85.551 Y111.222 E0.22301
G1 X85.002 Y110.586 E0.02633
G1 X84.425 Y109.660 E0.03421
G1 X84.079 Y108.842 E0.02786
G1 X83.853 Y107.981 E0.02791
G1 X83.745 Y106.901 E0.03402
G1 X83.760 Y105.388 E0.04744
G1 X83.966 Y104.174 E0.03862
G1 X89.869 Y84.855 E0.63337
G1 X90.183 Y84.198 E0.02284
G1 X90.521 Y84.360 F7200.000
G1 F900
G1 X90.889 Y83.926 E0.01782
G1 X91.335 Y83.603 E0.01728
G1 X91.847 Y83.390 E0.01740
G1 X92.391 Y83.301 E0.01728
G1 X113.506 Y83.299 E0.66204
G1 X114.380 Y83.467 E0.02790
G1 X115.130 Y83.944 E0.02790
G1 X115.653 Y84.664 E0.02790
G1 X115.875 Y85.530 E0.02802
G1 X115.879 Y114.355 E0.90378
G1 X115.771 Y115.033 E0.02154
G1 X115.471 Y115.656 E0.02166
G1 X115.103 Y116.081 E0.01763
G1 X114.646 Y116.408 E0.01763
G1 X114.121 Y116.619 E0.01775
G1 X113.564 Y116.700 E0.01763
G1 X92.456 Y116.701 E0.66182
G1 X91.782 Y116.591 E0.02142
G1 X91.167 Y116.293 E0.02142
G1 X85.816 Y110.954 E0.23701
G1 X85.307 Y110.364 E0.02444
G1 X84.859 Y109.675 E0.02577
G1 X84.435 Y108.718 E0.03281
G1 X84.224 Y107.914 E0.02606
G1 X84.122 Y106.882 E0.03251
G1 X84.135 Y105.421 E0.04582
G1 X84.329 Y104.275 E0.03645
G1 X90.228 Y84.970 E0.63292
G1 X90.495 Y84.414 E0.01933
G1 F5760
G1 X90.889 Y83.926 E-0.21704
G1 F5760
G1 X91.335 Y83.603 E-0.19086
G1 F5760
G1 X91.847 Y83.390 E-0.19217
G1 F5760
G1 X92.303 Y83.315 E-0.15992
G1 E-0.04000 F2100.00000
G1 Z0.800 F7200.000
G1 X93.085 Y103.737 F7200.000
G1 Z0.200 F7200.000
G1 E0.80000 F2100.00000
G1 F900
G1 X93.085 Y108.913 E0.16228
G1 X89.322 Y108.904 E0.11800
G1 X89.093 Y108.861 E0.00731
G1 X88.758 Y108.733 E0.01122
G1 X88.443 Y108.515 E0.01201
G1 X88.187 Y108.227 E0.01207
G1 X88.008 Y107.881 E0.01223
G1 X87.923 Y107.533 E0.01124
G1 X87.911 Y107.342 E0.00600
G1 X87.911 Y105.289 E0.06438
G1 X87.953 Y104.943 E0.01091
G1 X88.083 Y104.601 E0.01147
G1 X88.192 Y104.421 E0.00663
G1 X88.326 Y104.251 E0.00677
G1 X88.594 Y104.014 E0.01122
G1 X88.934 Y103.836 E0.01201
G1 X89.289 Y103.749 E0.01147
G1 X93.025 Y103.737 E0.11715
G1 X92.708 Y104.114 F7200.000
G1 F900
G1 X92.708 Y108.535 E0.13860
G1 X89.358 Y108.527 E0.10505
G1 X89.196 Y108.496 E0.00517
G1 X88.935 Y108.397 E0.00875
G1 X88.695 Y108.231 E0.00915
G1 X88.501 Y108.012 E0.00917
G1 X88.363 Y107.747 E0.00935
G1 X88.297 Y107.476 E0.00875
G1 X88.288 Y107.331 E0.00458
G1 X88.288 Y105.312 E0.06331
G1 X88.322 Y105.034 E0.00876
G1 X88.423 Y104.767 E0.00896
G1 X88.601 Y104.512 E0.00976
G1 X88.810 Y104.327 E0.00875
G1 X89.068 Y104.191 E0.00915
G1 X89.346 Y104.123 E0.00896
G1 X92.648 Y104.114 E0.10354
G1 X93.108 Y104.111 F7200.000
G1 F5760
G1 X92.678 Y106.308 E-0.76000
G1 E-0.04000 F2100.00000
G1 Z0.800 F7200.000
G1 X96.234 Y99.641 F7200.000
G1 Z0.200 F7200.000
G1 E0.80000 F2100.00000
G1 F900
G1 X109.766 Y99.641 E0.42427
G1 X109.766 Y86.263 E0.41946
G1 X112.915 Y86.263 E0.09874
G1 X112.915 Y113.737 E0.86144
G1 X109.766 Y113.737 E0.09874
G1 X109.766 Y102.530 E0.35139
G1 X96.234 Y102.530 E0.42427
G1 X96.234 Y113.737 E0.35139
G1 X93.082 Y113.737 E0.09885
G1 X93.077 Y113.051 E0.02150
G1 X93.007 Y112.556 E0.01570
G1 X92.937 Y112.282 E0.00885
G1 X92.765 Y111.821 E0.01545
G1 X92.528 Y111.384 E0.01559
G1 X92.365 Y111.148 E0.00898
G1 X92.044 Y110.776 E0.01541
G1 X91.670 Y110.449 E0.01558
G1 X91.437 Y110.286 E0.00890
G1 X91.016 Y110.054 E0.01507
G1 X90.755 Y109.944 E0.00889
G1 X90.284 Y109.803 E0.01542
G1 X89.401 Y109.674 E0.02797
G1 X88.868 Y109.508 E0.01750
G1 X88.522 Y109.334 E0.01216
G1 X88.210 Y109.122 E0.01182
G1 X87.933 Y108.878 E0.01157
G1 X87.673 Y108.578 E0.01245
G1 X87.382 Y108.103 E0.01747
G1 X87.238 Y107.754 E0.01182
G1 X87.111 Y107.201 E0.01778
G1 X87.085 Y106.807 E0.01239
G1 X87.092 Y105.627 E0.03698
G1 X87.109 Y105.456 E0.00539
G1 X87.184 Y105.076 E0.01215
G1 X87.305 Y104.718 E0.01186
G1 X87.565 Y104.224 E0.01748
G1 X87.799 Y103.916 E0.01213
G1 X88.202 Y103.532 E0.01748
G1 X88.522 Y103.314 E0.01212
G1 X88.868 Y103.140 E0.01215
G1 X89.397 Y102.975 E0.01738
G1 X90.042 Y102.889 E0.02040
G1 X90.527 Y102.781 E0.01558
G1 X91.001 Y102.602 E0.01591
G1 X91.442 Y102.359 E0.01579
G1 X91.670 Y102.199 E0.00871
G1 X92.040 Y101.877 E0.01540
G1 X92.375 Y101.488 E0.01608
G1 X92.653 Y101.053 E0.01619
G1 X92.857 Y100.605 E0.01545
G1 X92.944 Y100.341 E0.00870
G1 X93.051 Y99.850 E0.01576
G1 X93.085 Y99.364 E0.01528
G1 X93.085 Y86.263 E0.41079
G1 X96.234 Y86.263 E0.09874
G1 X96.234 Y99.581 E0.41757
G1 X96.611 Y99.264 F7200.000
G1 F900
G1 X109.389 Y99.264 E0.40063
G1 X109.389 Y85.886 E0.41946
G1 X113.292 Y85.886 E0.12238
G1 X113.292 Y114.114 E0.88508
G1 X109.389 Y114.114 E0.12238
G1 X109.389 Y102.907 E0.35139
G1 X96.611 Y102.907 E0.40063
G1 X96.611 Y114.114 E0.35139
G1 X92.707 Y114.114 E0.12242
G1 X92.701 Y113.079 E0.03245
G1 X92.636 Y112.629 E0.01425
G1 X92.577 Y112.395 E0.00758
G1 X92.421 Y111.977 E0.01399
G1 X92.206 Y111.581 E0.01411
G1 X92.066 Y111.379 E0.00771
G1 X91.776 Y111.042 E0.01395
G1 X91.437 Y110.746 E0.01411
G1 X91.237 Y110.607 E0.00763
G1 X90.852 Y110.394 E0.01381
G1 X90.627 Y110.300 E0.00763
G1 X90.202 Y110.173 E0.01393
G1 X89.323 Y110.044 E0.02786
G1 X88.908 Y109.928 E0.01351
G1 X88.715 Y109.853 E0.00648
G1 X88.330 Y109.660 E0.01350
G1 X87.983 Y109.424 E0.01315
G1 X87.813 Y109.283 E0.00694
G1 X87.660 Y109.139 E0.00658
G1 X87.376 Y108.811 E0.01360
G1 X87.256 Y108.642 E0.00648
G1 X87.043 Y108.269 E0.01350
G1 X86.883 Y107.881 E0.01315
G1 X86.819 Y107.672 E0.00684
G1 X86.736 Y107.250 E0.01349
G1 X86.708 Y106.818 E0.01358
G1 X86.715 Y105.608 E0.03794
G1 X86.736 Y105.401 E0.00650
G1 X86.819 Y104.979 E0.01350
G1 X86.955 Y104.574 E0.01339
G1 X87.139 Y104.197 E0.01315
G1 X87.253 Y104.011 E0.00684
G1 X87.513 Y103.669 E0.01349
G1 X87.807 Y103.370 E0.01315
G1 X87.975 Y103.230 E0.00684
G1 X88.330 Y102.989 E0.01349
G1 X88.715 Y102.795 E0.01350
G1 X88.908 Y102.720 E0.00648
G1 X89.321 Y102.605 E0.01346
G1 X89.976 Y102.518 E0.02071
G1 X90.419 Y102.419 E0.01422
G1 X90.843 Y102.259 E0.01422
G1 X91.242 Y102.038 E0.01431
G1 X91.437 Y101.902 E0.00744
G1 X91.772 Y101.610 E0.01394
G1 X92.072 Y101.263 E0.01439
G1 X92.321 Y100.873 E0.01450
G1 X92.505 Y100.467 E0.01398
G1 X92.580 Y100.242 E0.00743
G1 X92.676 Y99.797 E0.01428
G1 X92.708 Y99.351 E0.01402
G1 X92.708 Y85.886 E0.42219
G1 X96.611 Y85.886 E0.12238
G1 X96.611 Y99.204 E0.41757
G1 X96.649 Y99.662 F7200.000
G1 X96.121 Y99.256 F7200.000
G1 F900
G1 X93.368 Y96.503 E0.12209
G1 X93.368 Y95.970 E0.01672
G1 X95.951 Y98.553 E0.11456
G1 X95.951 Y98.020 E0.01672
G1 X93.368 Y95.436 E0.11456
G1 X93.368 Y94.903 E0.01672
G1 X95.951 Y97.487 E0.11456
G1 X95.951 Y96.953 E0.01672
G1 X93.368 Y94.370 E0.11456
G1 X93.368 Y93.836 E0.01672
G1 X95.951 Y96.420 E0.11456
G1 X95.951 Y95.887 E0.01672
G1 X93.368 Y93.303 E0.11456
G1 X93.368 Y92.770 E0.01672
G1 X95.951 Y95.353 E0.11456
G1 X95.951 Y94.820 E0.01672
G1 X93.368 Y92.237 E0.11456
G1 X93.368 Y91.703 E0.01672
G1 X95.951 Y94.287 E0.11456
G1 X95.951 Y93.753 E0.01672
G1 X93.368 Y91.170 E0.11456
G1 X93.368 Y90.637 E0.01672
G1 X95.951 Y93.220 E0.11456
G1 X95.951 Y92.687 E0.01672
G1 X93.368 Y90.103 E0.11456
G1 X93.368 Y89.570 E0.01672
G1 X95.951 Y92.154 E0.11456
G1 X95.951 Y91.620 E0.01672
G1 X93.368 Y89.037 E0.11456
G1 X93.368 Y88.503 E0.01672
G1 X95.951 Y91.087 E0.11456
G1 X95.951 Y90.554 E0.01672
G1 X93.368 Y87.970 E0.11456
G1 X93.368 Y87.437 E0.01672
G1 X95.951 Y90.020 E0.11456
G1 X95.951 Y89.487 E0.01672
G1 X93.368 Y86.903 E0.11456
G1 X93.368 Y86.546 E0.01122
G1 X93.543 Y86.546 E0.00550
G1 X95.951 Y88.954 E0.10678
G1 X95.951 Y88.420 E0.01672
G1 X94.077 Y86.546 E0.08313
G1 X94.610 Y86.546 E0.01672
G1 X95.951 Y87.887 E0.05948
G1 X95.951 Y87.354 E0.01672
G1 X95.143 Y86.546 E0.03584
G1 X95.677 Y86.546 E0.01672
G1 X96.121 Y86.990 E0.01971
G1 F5760
G1 X95.677 Y86.546 E-0.21772
G1 F5760
G1 X95.143 Y86.546 E-0.18471
G1 F5760
G1 X95.873 Y87.276 E-0.35757
G1 E-0.04000 F2100.00000
G1 Z0.800 F7200.000
G1 X96.619 Y99.754 F7200.000
G1 Z0.200 F7200.000
G1 E0.80000 F2100.00000
G1 F900
G1 X99.112 Y102.247 E0.11057
G1 X99.646 Y102.247 E0.01672
G1 X97.322 Y99.924 E0.10305
G1 X97.855 Y99.924 E0.01672
G1 X100.179 Y102.247 E0.10305
G1 X100.712 Y102.247 E0.01672
G1 X98.388 Y99.924 E0.10305
G1 X98.922 Y99.924 E0.01672
G1 X101.245 Y102.247 E0.10305
G1 X101.779 Y102.247 E0.01672
G1 X99.455 Y99.924 E0.10305
G1 X99.988 Y99.924 E0.01672
G1 X102.312 Y102.247 E0.10305
G1 X102.845 Y102.247 E0.01672
G1 X100.522 Y99.924 E0.10305
G1 X101.055 Y99.924 E0.01672
G1 X103.379 Y102.247 E0.10305
G1 X103.912 Y102.247 E0.01672
G1 X101.588 Y99.924 E0.10305
G1 X102.122 Y99.924 E0.01672
G1 X104.445 Y102.247 E0.10305
G1 X104.979 Y102.247 E0.01672
G1 X102.655 Y99.924 E0.10305
G1 X103.188 Y99.924 E0.01672
G1 X105.512 Y102.247 E0.10305
G1 X106.045 Y102.247 E0.01672
G1 X103.721 Y99.924 E0.10305
G1 X104.255 Y99.924 E0.01672
G1 X106.579 Y102.247 E0.10305
G1 X107.112 Y102.247 E0.01672
G1 X104.788 Y99.924 E0.10305
G1 X105.321 Y99.924 E0.01672
G1 X107.645 Y102.247 E0.10305
G1 X108.178 Y102.247 E0.01672
G1 X105.855 Y99.924 E0.10305
G1 X106.388 Y99.924 E0.01672
G1 X108.712 Y102.247 E0.10305
G1 X109.245 Y102.247 E0.01672
G1 X106.921 Y99.924 E0.10305
G1 X107.455 Y99.924 E0.01672
G1 X112.632 Y105.101 E0.22959
G1 X112.632 Y104.568 E0.01672
G1 X107.988 Y99.924 E0.20594
G1 X108.521 Y99.924 E0.01672
G1 X112.632 Y104.034 E0.18229
G1 X112.632 Y103.501 E0.01672
G1 X109.055 Y99.924 E0.15864
G1 X109.588 Y99.924 E0.01672
G1 X112.632 Y102.968 E0.13500
G1 X112.632 Y102.435 E0.01672
G1 X110.049 Y99.851 E0.11456
G1 X110.049 Y99.318 E0.01672
G1 X112.632 Y101.901 E0.11456
G1 X112.632 Y101.368 E0.01672
G1 X110.049 Y98.784 E0.11456
G1 X110.049 Y98.251 E0.01672
G1 X112.632 Y100.835 E0.11456
G1 X112.632 Y100.301 E0.01672
G1 X110.049 Y97.718 E0.11456
G1 X110.049 Y97.184 E0.01672
G1 X112.632 Y99.768 E0.11456
G1 X112.632 Y99.235 E0.01672
G1 X110.049 Y96.651 E0.11456
G1 X110.049 Y96.118 E0.01672
G1 X112.632 Y98.701 E0.11456
G1 X112.632 Y98.168 E0.01672
G1 X110.049 Y95.585 E0.11456
G1 X110.049 Y95.051 E0.01672
G1 X112.632 Y97.635 E0.11456
G1 X112.632 Y97.101 E0.01672
G1 X110.049 Y94.518 E0.11456
G1 X110.049 Y93.985 E0.01672
G1 X112.632 Y96.568 E0.11456
G1 X112.632 Y96.035 E0.01672
G1 X110.049 Y93.451 E0.11456
G1 X110.049 Y92.918 E0.01672
G1 X112.632 Y95.502 E0.11456
G1 X112.632 Y94.968 E0.01672
G1 X110.049 Y92.385 E0.11456
G1 X110.049 Y91.851 E0.01672
G1 X112.632 Y94.435 E0.11456
G1 X112.632 Y93.902 E0.01672
G1 X110.049 Y91.318 E0.11456
G1 X110.049 Y90.785 E0.01672
G1 X112.632 Y93.368 E0.11456
G1 X112.632 Y92.835 E0.01672
G1 X110.049 Y90.251 E0.11456
G1 X110.049 Y89.718 E0.01672
G1 X112.632 Y92.302 E0.11456
G1 X112.632 Y91.768 E0.01672
G1 X110.049 Y89.185 E0.11456
G1 X110.049 Y88.652 E0.01672
G1 X112.632 Y91.235 E0.11456
G1 X112.632 Y90.702 E0.01672
G1 X110.049 Y88.118 E0.11456
G1 X110.049 Y87.585 E0.01672
G1 X112.632 Y90.168 E0.11456
G1 X112.632 Y89.635 E0.01672
G1 X110.049 Y87.052 E0.11456
G1 X110.049 Y86.546 E0.01587
G1 X110.076 Y86.546 E0.00086
G1 X112.632 Y89.102 E0.11335
G1 X112.632 Y88.569 E0.01672
G1 X110.609 Y86.546 E0.08970
G1 X111.143 Y86.546 E0.01672
G1 X112.632 Y88.035 E0.06605
G1 X112.632 Y87.502 E0.01672
G1 X111.676 Y86.546 E0.04241
G1 X112.209 Y86.546 E0.01672
G1 X112.802 Y87.138 E0.02628
G1 F5760
G1 X112.209 Y86.546 E-0.29029
G1 F5760
G1 X111.676 Y86.546 E-0.18471
G1 F5760
G1 X112.258 Y87.127 E-0.28500
G1 E-0.04000 F2100.00000
G1 Z0.800 F7200.000
G1 X112.802 Y105.804 F7200.000
G1 Z0.200 F7200.000
G1 E0.80000 F2100.00000
G1 F900
G1 X110.049 Y103.051 E0.12209
G1 X110.049 Y103.584 E0.01672
G1 X112.632 Y106.168 E0.11456
G1 X112.632 Y106.701 E0.01672
G1 X110.049 Y104.117 E0.11456
G1 X110.049 Y104.651 E0.01672
G1 X112.632 Y107.234 E0.11456
G1 X112.632 Y107.768 E0.01672
G1 X110.049 Y105.184 E0.11456
G1 X110.049 Y105.717 E0.01672
G1 X112.632 Y108.301 E0.11456
G1 X112.632 Y108.834 E0.01672
G1 X110.049 Y106.251 E0.11456
G1 X110.049 Y106.784 E0.01672
G1 X112.632 Y109.367 E0.11456
G1 X112.632 Y109.901 E0.01672
G1 X110.049 Y107.317 E0.11456
G1 X110.049 Y107.851 E0.01672
G1 X112.632 Y110.434 E0.11456
G1 X112.632 Y110.967 E0.01672
G1 X110.049 Y108.384 E0.11456
G1 X110.049 Y108.917 E0.01672
G1 X112.632 Y111.501 E0.11456
G1 X112.632 Y112.034 E0.01672
G1 X110.049 Y109.451 E0.11456
G1 X110.049 Y109.984 E0.01672
G1 X112.632 Y112.567 E0.11456
G1 X112.632 Y113.101 E0.01672
G1 X110.049 Y110.517 E0.11456
G1 X110.049 Y111.050 E0.01672
G1 X112.452 Y113.454 E0.10660
G1 X111.919 Y113.454 E0.01672
G1 X110.049 Y111.584 E0.08295
G1 X110.049 Y112.117 E0.01672
G1 X111.386 Y113.454 E0.05930
G1 X110.853 Y113.454 E0.01672
G1 X110.049 Y112.650 E0.03565
G1 X110.049 Y113.184 E0.01672
G1 X110.489 Y113.624 E0.01953
G1 F5760
G1 X110.049 Y113.184 E-0.21570
G1 F5760
G1 X110.049 Y112.650 E-0.18471
G1 F5760
G1 X110.783 Y113.384 E-0.35959
G1 E-0.04000 F2100.00000
G1 Z0.800 F7200.000
G1 X95.023 Y113.624 F7200.000
G1 Z0.200 F7200.000
G1 E0.80000 F2100.00000
G1 F900
G1 X92.929 Y111.530 E0.09284
G1 X93.023 Y111.703 E0.00616
G1 X93.207 Y112.198 E0.01655
G1 X93.257 Y112.391 E0.00625
G1 X94.320 Y113.454 E0.04716
G1 X93.787 Y113.454 E0.01672
G1 X93.160 Y112.827 E0.02780
G1 F5760
G1 X93.787 Y113.454 E-0.30710
G1 F5760
G1 X94.320 Y113.454 E-0.18471
G1 F5760
G1 X93.773 Y112.907 E-0.26818
G1 E-0.04000 F2100.00000
G1 Z0.800 F7200.000
G1 X89.977 Y109.644 F7200.000
G1 Z0.200 F7200.000
G1 E0.80000 F2100.00000
G1 F900
G1 X89.522 Y109.187 E0.02022
G1 X90.054 Y109.188 E0.01669
G1 X90.413 Y109.547 E0.01590
G1 X90.850 Y109.678 E0.01432
G1 X91.271 Y109.872 E0.01451
G1 X90.589 Y109.190 E0.03024
G1 X91.123 Y109.191 E0.01676
G1 X95.387 Y113.454 E0.18906
G1 X95.920 Y113.454 E0.01672
G1 X91.658 Y109.192 E0.18901
G1 X92.192 Y109.193 E0.01676
G1 X95.951 Y112.952 E0.16670
G1 X95.951 Y112.419 E0.01672
G1 X92.727 Y109.195 E0.14299
G1 X93.261 Y109.196 E0.01676
G1 X95.951 Y111.886 E0.11929
G1 X95.951 Y111.353 E0.01672
G1 X93.368 Y108.769 E0.11456
G1 X93.368 Y108.236 E0.01672
G1 X95.951 Y110.819 E0.11456
G1 X95.951 Y110.286 E0.01672
G1 X93.368 Y107.702 E0.11456
G1 X93.368 Y107.169 E0.01672
G1 X95.951 Y109.753 E0.11456
G1 X95.951 Y109.219 E0.01672
G1 X93.368 Y106.636 E0.11456
G1 X93.368 Y106.103 E0.01672
G1 X95.951 Y108.686 E0.11456
G1 X95.951 Y108.153 E0.01672
G1 X93.368 Y105.569 E0.11456
