;FLAVOR:Marlin
;TIME:151
;Filament used:0.134869m
;Layer height: 0.3
;MINX:80.038
;MINY:66.376
;MINZ:0.2
;MAXX:84.962
;MAXY:98.624
;MAXZ:2.9
                                 
;Creative3D GCode Generated by CXEngineDEV
;Generated Time:2022-04-08 18:14:05
;----------Machine Config--------------
;Machine Name:Creality Ender-2 Pro
;Machine Height:180
;Machine Width:165
;Machine Depth:165
;Material name:PLA
;Number of Extruders:1
;ExtruderParams[0] Nozzle Diameter1000
;----------Profile Config---------------
;Layer Height:0.3
;Wall Thickness:0.8
;Top/Bottom Thickness:1
;Out Wall Line Width:0.4
;Inner Wall Line Width:0.4
;Inital Layer Height:200
;Wall Line Count:1
;Infill Line Distance:4
;Infill Pattern:grid
;Infill Sparse Density:20
;Infill Wipe Distance:0
;Print Temperature:200
;Bed Temperature:60
;Support Enable:false
;Support Density:30
;Support Angle:1.0472
;Adhesion Type:none
;machine is belt:false
;machine belt offset:10
;machine belt offset Y:0
;----------Shell Config----------------
;Outer Wall Wipe Distance:200
;Infill Before Walls:false
;Infill Overlap:0.16
;Fill Gaps Between Walls:everywhere
;Minimum Infill Area:1
;Top Surface Skin Layer:0
;Top Layers:2
;Z Seam Alignment:sharpest_corner
;Seam Corner Preference:z_seam_corner_inner
;Z Seam X:82.5
;Z Seam Y:82.5
;Horizontal Expansion:0
;Top/Bottom Pattern:zigzag
;Ironing Pattern:zigzag
;Vase Model:false
;----------Support Config----------------
;Support Type:everywhere
;Support Pattern:zigzag
;Support Infill Layer Thickness:0.3
;Minimum Support Area:10
;Enable Support Roof:false
;Support Roof Thickness:0.8
;Support Roof Pattern:lines
; ---------PrintSpeed & Travel----------
;Enable Print Cool:true
;Avoid Printed Parts Traveling:true
;Enable Retraction:true
;Retraction Distance:8
;Retraction Speed:100
;Retraction Prime Speed:100
;Maximum Retraction Count:100
;Minimum Extrusion Distance Window:1
;Z Hop When Retracted:false
;Z Hop Height:0.2
;Retract Before Outer Wall:true
;Print Speed:50
;Infill Speed:50

;Prime Tower Speed:50
;Travel Speed:120
;Initial Layer Speed:25
;Skirt/Brim Speed:25
;Combing Mode:off
;---------------------End of Head--------------------------
M140 S60
M104 S200
M105
M109 S200
M82 ;absolute extrusion mode
M220 S100 ;Reset Feedrate
M221 S100 ;Reset Flowrate

G28 ;Home

G92 E0 ;Reset Extruder
G1 Z2.0 F3000 ;Move Z Axis up
G1 X10.1 Y20 Z0.28 F5000.0 ;Move to start position
G1 X10.1 Y145.0 Z0.28 F1500.0 E15 ;Draw the first line
G1 X10.4 Y145.0 Z0.28 F5000.0 ;Move to side a little
G1 X10.4 Y20 Z0.28 F1500.0 E30 ;Draw the second line
G92 E0  ;Reset Extruder
G1 E-1.0000 F1800 ;Retract a bit
G1 Z2.0 F3000 ;Move Z Axis up
G1 E0.0000 F1800 

G92 E0
G92 E0
G1 F6000 E-8

;LAYER_COUNT:10

;LAYER:0
M107
;MESH:
G0 F3600 X83.862 Y94.624 Z0.2
;TYPE:WALL-OUTER
G1 F6000 E0
G1 F1500 X83.662 Y94.624 E0.00732
G1 X81.138 Y94.629 E0.09966
G1 X81.138 Y96.346 E0.16248
G1 X81.201 Y96.719 E0.17632
G1 X81.395 Y97.071 E0.19102
G1 X81.693 Y97.339 E0.20569
G1 X82.059 Y97.492 E0.2202
G1 X82.327 Y97.524 E0.23008
G1 X82.803 Y97.519 E0.24749
G1 X83.182 Y97.409 E0.26193
G1 X83.51 Y97.177 E0.27663
G1 X83.743 Y96.85 E0.29132
G1 X83.851 Y96.476 E0.30556
G1 X83.862 Y96.306 E0.31179
G1 X83.862 Y94.824 E0.36601
G1 X83.862 Y94.624 E0.37075
G0 F3600 X83.662 Y94.624
G0 X83.662 Y94.184
;;retract;;
G1 F6000 E-7.62925
G0 F3600 X84.962 Y96.328
G1 F6000 E0.37075
G1 F1500 X84.94 Y96.64 E0.3822
G1 X84.869 Y96.97 E0.39454
G1 X84.756 Y97.274 E0.40641
G1 X84.601 Y97.561 E0.41834
G1 X84.406 Y97.823 E0.43029
G1 X84.174 Y98.057 E0.44235
G1 X83.91 Y98.254 E0.4544
G1 X83.627 Y98.41 E0.46622
G1 X83.315 Y98.528 E0.47843
G1 X82.997 Y98.598 E0.49034
G1 X82.671 Y98.623 E0.5023
G1 X82.176 Y98.618 E0.52041
G1 X81.851 Y98.572 E0.53242
G1 X81.539 Y98.481 E0.54431
G1 X81.234 Y98.34 E0.55661
G1 X80.963 Y98.167 E0.56837
G1 X80.715 Y97.952 E0.58038
G1 X80.499 Y97.703 E0.59244
G1 X80.323 Y97.43 E0.60432
G1 X80.187 Y97.131 E0.61634
G1 X80.094 Y96.819 E0.62825
G1 X80.046 Y96.491 E0.64038
G1 X80.038 Y96.324 E0.6465
G1 X80.038 Y66.376 E1.74218
G1 X84.962 Y66.376 E1.92233
G1 X84.962 Y96.328 E3.01816
G0 F3600 X84.948 Y96.528
G0 X84.508 Y96.497
;;retract;;
G1 F6000 E-4.98184
G0 F3600 X80.533 Y97.313
;TYPE:SKIN
G1 F6000 E3.01816
G1 F1500 X80.692 Y97.559 E3.02887
G1 X80.885 Y97.78 E3.03961
G1 X81.1 Y97.968 E3.05006
G1 X81.352 Y98.129 E3.061
G1 X81.627 Y98.256 E3.07208
G1 X81.899 Y98.336 E3.08245
G0 F3600 X81.899 Y98.335
G1 F1500 X81.935 Y98.34 E3.08378
G1 X82.196 Y98.376 E3.09342
G1 X82.541 Y98.38 E3.10604
G1 X81.806 Y97.645 E3.14407
G1 X81.998 Y97.725 E3.15168
G1 X82.314 Y97.763 E3.16333
G1 X82.488 Y97.761 E3.16969
G1 X83.063 Y98.337 E3.19947
G1 X83.246 Y98.297 E3.20632
G1 X83.495 Y98.202 E3.21607
G1 X83.003 Y97.71 E3.24153
G1 X83.287 Y97.628 E3.25235
G1 X83.403 Y97.546 E3.25754
G1 X83.852 Y97.995 E3.28078
G1 X84.018 Y97.873 E3.28831
G1 X84.157 Y97.733 E3.29553
G1 X83.719 Y97.295 E3.31819
G1 X83.955 Y96.966 E3.33301
G1 X84.405 Y97.416 E3.35629
G1 X84.536 Y97.174 E3.36636
G1 X84.589 Y97.034 E3.37183
G1 X84.084 Y96.529 E3.39796
G1 X84.089 Y96.517 E3.39844
G1 X84.101 Y96.312 E3.40595
G1 X84.101 Y95.981 E3.41806
G1 X84.702 Y96.582 E3.44916
G1 X84.721 Y96.31 E3.45913
G1 X84.721 Y96.035 E3.46919
G1 X84.101 Y95.415 E3.50127
G1 X84.101 Y94.849 E3.52198
G1 X84.101 Y94.383 E3.53903
G0 F3600 X83.635 Y94.383
G1 F1500 X80.277 Y91.025 E3.71278
G1 X80.277 Y91.59 E3.73345
G1 X83.07 Y94.384 E3.87798
G1 X82.505 Y94.385 E3.89866
G1 X80.277 Y92.156 E4.01396
G1 X80.277 Y92.722 E4.03467
G1 X81.94 Y94.386 E4.12074
G1 X81.375 Y94.386 E4.14141
G1 X80.277 Y93.287 E4.19825
G1 X80.277 Y93.853 E4.21895
G1 X80.897 Y94.474 E4.25106
G1 X80.897 Y95.04 E4.27177
G1 X80.277 Y94.419 E4.30387
G1 X80.277 Y94.984 E4.32454
G1 X80.897 Y95.605 E4.35665
G1 X80.897 Y96.171 E4.37736
G1 X80.277 Y95.55 E4.40946
G1 X80.277 Y96.116 E4.43017
G1 X80.984 Y96.824 E4.46677
G1 X81.204 Y97.221 E4.48338
G1 X81.562 Y97.543 E4.501
;;retract;;
G1 F6000 E-3.499
G0 F3600 X80.533 Y97.312
G1 F6000 E4.501
G1 F1500 X80.412 Y97.048 E4.51162
G1 X80.329 Y96.768 E4.52231
G0 F3600 X80.323 Y96.728
G1 F1500 X81.935 Y98.34 E4.60571
;;retract;;
G1 F6000 E-3.39429
G0 F3600 X84.101 Y94.849
G1 F6000 E4.60571
G1 F1500 X84.721 Y95.47 E4.63782
G1 X84.721 Y94.904 E4.65853
G1 X80.277 Y90.459 E4.88849
G1 X80.277 Y89.893 E4.90919
G1 X84.721 Y94.338 E5.13916
G1 X84.721 Y93.772 E5.15986
G1 X80.277 Y89.328 E5.3898
G1 X80.277 Y88.762 E5.41051
G1 X84.721 Y93.207 E5.64047
G1 X84.721 Y92.641 E5.66118
G1 X80.277 Y88.196 E5.89114
G1 X80.277 Y87.631 E5.91181
G1 X84.721 Y92.075 E6.14174
G1 X84.721 Y91.51 E6.16241
G1 X80.277 Y87.065 E6.39238
G1 X80.277 Y86.499 E6.41308
G1 X84.721 Y90.944 E6.64304
G1 X84.721 Y90.378 E6.66375
G1 X80.277 Y85.933 E6.89371
G1 X80.277 Y85.368 E6.91438
G1 X84.721 Y89.813 E7.14435
G1 X84.721 Y89.247 E7.16505
G1 X80.277 Y84.802 E7.39502
G1 X80.277 Y84.236 E7.41572
G1 X84.721 Y88.681 E7.64568
G1 X84.721 Y88.116 E7.66636
G1 X80.277 Y83.671 E7.89632
G1 X80.277 Y83.105 E7.91702
G1 X84.721 Y87.55 E8.14699
G1 X84.721 Y86.984 E8.16769
G1 X80.277 Y82.539 E8.39765
G1 X80.277 Y81.974 E8.41833
G1 X84.721 Y86.419 E8.64829
G1 X84.721 Y85.853 E8.66899
G1 X80.277 Y81.408 E8.89896
G1 X80.277 Y80.842 E8.91966
G1 X84.721 Y85.287 E9.14962
G1 X84.721 Y84.721 E9.17033
G1 X80.277 Y80.277 E9.40027
G1 X80.277 Y79.711 E9.42098
G1 X84.721 Y84.156 E9.65094
G1 X84.721 Y83.59 E9.67164
G1 X80.277 Y79.145 E9.90161
G1 X80.277 Y78.58 E9.92228
G1 X84.721 Y83.024 E10.15221
G1 X84.721 Y82.459 E10.17288
G1 X80.277 Y78.014 E10.40284
G1 X80.277 Y77.448 E10.42355
G1 X84.721 Y81.893 E10.65351
G1 X84.721 Y81.327 E10.67422
G1 X80.277 Y76.883 E10.90416
G1 X80.277 Y76.317 E10.92486
G1 X84.721 Y80.762 E11.15483
G1 X84.721 Y80.196 E11.17553
G1 X80.277 Y75.751 E11.40549
G1 X80.277 Y75.185 E11.4262
G1 X84.721 Y79.63 E11.65616
G1 X84.721 Y79.065 E11.67683
G1 X80.277 Y74.62 E11.9068
G1 X80.277 Y74.054 E11.9275
G1 X84.721 Y78.499 E12.15747
G1 X84.721 Y77.933 E12.17817
G1 X80.277 Y73.488 E12.40813
G1 X80.277 Y72.923 E12.42881
G1 X84.721 Y77.368 E12.65877
G1 X84.721 Y76.802 E12.67947
G1 X80.277 Y72.357 E12.90944
G1 X80.277 Y71.791 E12.93014
G1 X84.721 Y76.236 E13.1601
G1 X84.721 Y75.671 E13.18078
G1 X80.277 Y71.226 E13.41074
G1 X80.277 Y70.66 E13.43144
G1 X84.721 Y75.105 E13.66141
G1 X84.721 Y74.539 E13.68211
G1 X80.277 Y70.094 E13.91207
G1 X80.277 Y69.529 E13.93275
G1 X84.721 Y73.973 E14.16268
G1 X84.721 Y73.408 E14.18335
G1 X80.277 Y68.963 E14.41331
G1 X80.277 Y68.397 E14.43402
G1 X84.721 Y72.842 E14.66398
G1 X84.721 Y72.276 E14.68469
G1 X80.277 Y67.832 E14.91463
G1 X80.277 Y67.266 E14.93533
G1 X84.721 Y71.711 E15.16529
G1 X84.721 Y71.145 E15.186
G1 X80.277 Y66.7 E15.41596
G1 X80.277 Y66.615 E15.41907
G1 X80.758 Y66.616 E15.43667
G1 X84.721 Y70.579 E15.64172
G1 X84.721 Y70.014 E15.66239
G1 X81.324 Y66.616 E15.83818
G1 X81.89 Y66.616 E15.85889
G1 X84.721 Y69.448 E16.00539
G1 X84.721 Y68.882 E16.0261
G1 X82.455 Y66.616 E16.14334
G1 X83.021 Y66.616 E16.16405
G1 X84.721 Y68.317 E16.25204
G1 X84.721 Y67.751 E16.27274
G1 X83.587 Y66.616 E16.33144
G1 X84.152 Y66.616 E16.35211
G1 X84.721 Y67.185 E16.38155
G1 X84.721 Y66.62 E16.40223
;;retract;;
G1 F6000 E8.40223
;MESH:NONMESH
G0 F600 X84.721 Y66.62 Z0.5
G0 F3600 X81.138 Y94.624
;TIME_ELAPSED:29.121774

;LAYER:1
M140 S60
M106 S127.5
;TYPE:WALL-OUTER
;MESH:
G1 F6000 E16.40223
G1 F1500 X81.138 Y94.824 E16.4122
G1 X81.139 Y96.358 E16.48874
G1 X81.199 Y96.715 E16.5068
G1 X81.392 Y97.065 E16.52674
G1 X81.684 Y97.332 E16.54648
G1 X82.046 Y97.489 E16.56616
G1 X82.327 Y97.524 E16.58029
G1 X82.801 Y97.519 E16.60394
G1 X83.178 Y97.411 E16.6235
G1 X83.505 Y97.181 E16.64345
G1 X83.738 Y96.86 E16.66324
G1 X83.851 Y96.486 E16.68273
G1 X83.862 Y96.244 E16.69482
G1 X83.862 Y94.624 E16.77564
G1 X81.338 Y94.624 E16.90156
G1 X81.138 Y94.624 E16.90802
G0 F5400 X81.138 Y94.824
G0 X80.698 Y94.824
;;retract;;
G1 F6000 E8.90802
G0 F5400 X84.957 Y96.473
G1 F6000 E16.90802
G1 F1500 X84.911 Y96.803 E16.92465
G1 X84.826 Y97.102 E16.94015
G1 X84.692 Y97.404 E16.95664
G1 X84.518 Y97.68 E16.97291
G1 X84.303 Y97.933 E16.98948
G1 X84.06 Y98.15 E17.00573
G1 X83.794 Y98.324 E17.02159
G1 X83.487 Y98.469 E17.03853
G1 X83.182 Y98.563 E17.05445
G1 X82.849 Y98.615 E17.07127
G1 X82.308 Y98.623 E17.09826
G1 X82.02 Y98.601 E17.11267
G1 X81.687 Y98.53 E17.12966
G1 X81.391 Y98.42 E17.14541
G1 X81.097 Y98.259 E17.16213
G1 X80.835 Y98.065 E17.1784
G1 X80.603 Y97.832 E17.1948
G1 X80.405 Y97.571 E17.21115
G1 X80.249 Y97.286 E17.22736
G1 X80.135 Y96.98 E17.24365
G1 X80.066 Y96.668 E17.25959
G1 X80.039 Y96.341 E17.27596
G1 X80.038 Y66.576 E18.76094
G1 X80.038 Y66.376 E18.77092
G1 X80.238 Y66.376 E18.77738
G1 X84.762 Y66.376 E19.00308
G1 X84.962 Y66.376 E19.01306
G1 X84.962 Y66.576 E19.01952
G1 X84.957 Y96.473 E20.51109
G0 F5400 X84.93 Y96.671
G0 X84.494 Y96.61
;;retract;;
G1 F6000 E12.51109
G0 F5400 X83.674 Y97.353
;TYPE:SKIN
G1 F6000 E20.51109
G1 F1500 X83.645 Y97.373 E20.51285
G1 X82.642 Y98.376 E20.58361
G1 X82.31 Y98.381 E20.60018
G1 X82.087 Y98.366 E20.61133
G1 X82.694 Y97.758 E20.65419
G1 X82.314 Y97.763 E20.67315
G1 X82.146 Y97.741 E20.68161
G1 X81.633 Y98.254 E20.7178
G1 X81.491 Y98.202 E20.72535
G1 X81.251 Y98.07 E20.73901
G1 X81.716 Y97.606 E20.77178
G1 X81.552 Y97.535 E20.7807
G1 X81.379 Y97.377 E20.79239
G1 X80.933 Y97.823 E20.82386
G1 X80.784 Y97.674 E20.83437
G1 X80.669 Y97.521 E20.84392
G1 X81.12 Y97.07 E20.87574
G1 X80.969 Y96.794 E20.89143
G1 X80.948 Y96.676 E20.89741
G1 X80.459 Y97.165 E20.93192
G1 X80.365 Y96.913 E20.94533
G1 X80.325 Y96.733 E20.95453
G1 X80.897 Y96.161 E20.99489
G1 X80.897 Y95.595 E21.02313
G1 X80.279 Y96.214 E21.06677
G1 X80.279 Y95.648 E21.095
G1 X80.897 Y95.03 E21.13861
G1 X80.897 Y94.464 E21.16685
G1 X80.279 Y95.083 E21.21048
G1 X80.279 Y94.517 E21.23872
G1 X84.717 Y90.079 E21.55185
G1 X84.717 Y89.513 E21.58009
G1 X80.279 Y93.951 E21.89321
G1 X80.279 Y93.386 E21.9214
G1 X84.717 Y88.947 E22.23456
G1 X84.717 Y88.381 E22.2628
G1 X80.279 Y92.82 E22.57596
G1 X80.279 Y92.254 E22.60419
G1 X84.717 Y87.816 E22.91732
G1 X84.717 Y87.25 E22.94556
G1 X80.279 Y91.689 E23.25872
G1 X80.279 Y91.123 E23.28695
G1 X84.717 Y86.684 E23.60011
G1 X84.718 Y86.118 E23.62835
G1 X80.279 Y90.557 E23.94155
G1 X80.279 Y89.992 E23.96974
G1 X84.718 Y85.552 E24.28297
G1 X84.718 Y84.987 E24.31115
G1 X80.279 Y89.426 E24.62435
G1 X80.279 Y88.86 E24.65259
G1 X84.718 Y84.421 E24.96578
G1 X84.718 Y83.855 E24.99402
G1 X80.279 Y88.295 E25.30725
G1 X80.279 Y87.729 E25.33549
G1 X84.718 Y83.29 E25.64869
G1 X84.718 Y82.724 E25.67692
G1 X80.279 Y87.163 E25.99012
G1 X80.279 Y86.597 E26.01836
G1 X84.718 Y82.158 E26.33155
G1 X84.718 Y81.593 E26.35974
G1 X80.278 Y86.032 E26.67297
G1 X80.278 Y85.467 E26.70116
G1 X84.719 Y81.026 E27.0145
G1 X84.719 Y80.46 E27.04273
G1 X80.278 Y84.901 E27.35607
G1 X80.278 Y84.335 E27.38431
G1 X84.719 Y79.895 E27.69761
G1 X84.719 Y79.329 E27.72585
G1 X80.278 Y83.77 E28.03918
G1 X80.278 Y83.204 E28.06742
G1 X84.719 Y78.763 E28.38076
G1 X84.719 Y78.198 E28.40895
G1 X80.278 Y82.638 E28.72225
G1 X80.278 Y82.073 E28.75043
G1 X84.719 Y77.632 E29.06377
G1 X84.719 Y77.066 E29.09201
G1 X80.278 Y81.507 E29.40535
G1 X80.278 Y80.941 E29.43358
G1 X84.719 Y76.5 E29.74692
G1 X84.719 Y75.934 E29.77516
G1 X80.278 Y80.376 E30.08853
G1 X80.278 Y79.81 E30.11677
G1 X84.719 Y75.369 E30.4301
G1 X84.719 Y74.803 E30.45834
G1 X80.278 Y79.244 E30.77168
G1 X80.278 Y78.679 E30.79987
G1 X84.719 Y74.237 E31.11324
G1 X84.719 Y73.672 E31.14143
G1 X80.278 Y78.113 E31.45476
G1 X80.278 Y77.547 E31.483
G1 X84.719 Y73.106 E31.79634
G1 X84.719 Y72.54 E31.82457
G1 X80.278 Y76.982 E32.13795
G1 X80.277 Y76.417 E32.16613
G1 X84.719 Y71.974 E32.47958
G1 X84.72 Y71.408 E32.50781
G1 X80.277 Y75.851 E32.82129
G1 X80.277 Y75.285 E32.84953
G1 X84.72 Y70.842 E33.16301
G1 X84.72 Y70.277 E33.1912
G1 X80.277 Y74.719 E33.50464
G1 X80.277 Y74.154 E33.53283
G1 X84.72 Y69.711 E33.8463
G1 X84.72 Y69.145 E33.87454
G1 X80.277 Y73.588 E34.18802
G1 X80.277 Y73.022 E34.21626
G1 X84.72 Y68.58 E34.5297
G1 X84.72 Y68.014 E34.55794
G1 X80.277 Y72.457 E34.87142
G1 X80.277 Y71.891 E34.89965
G1 X84.72 Y67.448 E35.21313
G1 X84.72 Y66.883 E35.24132
G1 X80.277 Y71.325 E35.55476
G1 X80.277 Y70.76 E35.58295
G1 X84.422 Y66.615 E35.8754
G1 X83.856 Y66.615 E35.90364
G1 X80.277 Y70.194 E36.15616
G1 X80.277 Y69.628 E36.18439
G1 X83.29 Y66.615 E36.39698
G1 X82.725 Y66.615 E36.42517
G1 X80.277 Y69.063 E36.59789
G1 X80.277 Y68.497 E36.62612
G1 X82.159 Y66.615 E36.75891
G1 X81.593 Y66.615 E36.78715
G1 X80.277 Y67.931 E36.88
G1 X80.277 Y67.366 E36.90819
G1 X81.028 Y66.615 E36.96117
G1 X80.462 Y66.615 E36.98941
G1 X80.277 Y66.8 E37.00246
G1 X80.277 Y66.615 E37.01169
;;retract;;
G1 F6000 E29.01169
G0 F5400 X80.897 Y94.383
G1 F6000 E37.01169
G1 F1500 X80.978 Y94.383 E37.01573
G1 X84.717 Y90.644 E37.27954
G1 X84.717 Y91.21 E37.30778
G1 X81.544 Y94.383 E37.53165
G1 X82.109 Y94.383 E37.55984
G1 X84.717 Y91.776 E37.74381
G1 X84.717 Y92.342 E37.77205
G1 X82.675 Y94.383 E37.91609
G1 X83.241 Y94.383 E37.94433
G1 X84.717 Y92.908 E38.04843
G1 X84.717 Y93.473 E38.07662
G1 X83.807 Y94.383 E38.14082
G1 X84.101 Y94.383 E38.15549
G1 X84.102 Y94.654 E38.16901
G1 X84.717 Y94.039 E38.2124
G1 X84.717 Y94.605 E38.24064
G1 X84.102 Y95.219 E38.284
G1 X84.102 Y95.785 E38.31224
G1 X84.717 Y95.17 E38.35563
G1 X84.717 Y95.736 E38.38387
G1 X84.098 Y96.355 E38.42754
G1 X84.089 Y96.526 E38.43608
G1 X83.956 Y96.966 E38.45901
G1 X83.698 Y97.321 E38.48091
G1 X84.717 Y96.302 E38.55281
G1 X84.717 Y96.453 E38.56034
G1 X84.675 Y96.756 E38.5756
G1 X84.613 Y96.971 E38.58676
G1 X84.601 Y97.014 E38.58899
G1 X84.478 Y97.292 E38.60416
G1 X84.325 Y97.534 E38.61844
G1 X84.128 Y97.766 E38.63363
G1 X83.909 Y97.961 E38.64825
G1 X83.682 Y98.11 E38.6618
G1 X83.399 Y98.244 E38.67742
G0 F5400 X83.313 Y98.271
G1 F1500 X84.613 Y96.971 E38.76915
;;retract;;
G1 F6000 E30.76915
;MESH:NONMESH
G0 F600 X84.613 Y96.971 Z0.8
G0 F5400 X81.137 Y94.624
;TIME_ELAPSED:53.177858

;LAYER:2
M106 S255
;TYPE:WALL-OUTER
;MESH:
G1 F6000 E38.76915
G1 F1500 X81.137 Y94.824 E38.77912
G1 X81.143 Y96.455 E38.8605
G1 X81.215 Y96.751 E38.87569
G1 X81.385 Y97.055 E38.89307
