; generated by Slic3r Prusa Edition 1.39.1-prusa3d on 2018-05-09 at 12:53:30

; 

; external perimeters extrusion width = 0.45mm
; perimeters extrusion width = 0.45mm
; infill extrusion width = 0.45mm
; solid infill extrusion width = 0.45mm
; top infill extrusion width = 0.33mm
; first layer extrusion width = 0.42mm

M107
M115 U3.1.0 ; tell printer latest fw version
M201 X9000 Y9000 Z500 E10000 ; sets maximum accelerations, mm/sec^2
M203 X500 Y500 Z12 E120 ; sets maximum feedrates, mm/sec
M204 S1500 T1500 ; sets acceleration (S) and retract acceleration (T)
M205 X10 Y10 Z0.2 E2.5 ; sets the jerk limits, mm/sec
M205 S0 T0 ; sets the minimum extruding and travel feed rate, mm/sec
M83  ; extruder relative mode
M104 S200 ; set extruder temp
M140 S65 ; set bed temp
M190 S65 ; wait for bed temp
M109 S200 ; wait for extruder temp
G28 W ; home all without mesh bed level
G80 ; mesh bed leveling
G1 Y-3.0 F1000.0 ; go outside print area
G92 E0.0
G1 E18.0 F1000.0;
G1 X60.0 E9.0  F1000.0 ; intro line
G1 X100.0 E12.5  F1000.0 ; intro line
G92 E0.0
M900 K30; Filament gcode
G21 ; set units to millimeters
G90 ; use absolute coordinates
M83 ; use relative distances for extrusion
;BEFORE_LAYER_CHANGE
;0.2


G1 E-0.80000 F2100.00000
G1 Z0.600 F7200.000
;AFTER_LAYER_CHANGE
;0.2
G1 X95.192 Y81.950 F7200.000
G1 Z0.200 F7200.000
G1 E0.80000 F2100.00000
M204 S1000
G1 F900
G1 X95.786 Y81.401 E0.02536
G1 X96.518 Y81.047 E0.02549
G1 X97.280 Y80.922 E0.02422
G1 X102.666 Y80.922 E0.16886
G1 X103.667 Y81.112 E0.03195
G1 X104.528 Y81.650 E0.03183
G1 X105.136 Y82.467 E0.03195
G1 X105.406 Y83.450 E0.03195
G1 X105.400 Y114.231 E0.96511
G1 X105.204 Y115.302 E0.03415
G1 X104.786 Y116.318 E0.03443
G1 X104.161 Y117.231 E0.03469
G1 X103.398 Y117.962 E0.03315
G1 X102.618 Y118.468 E0.02913
G1 X101.607 Y118.875 E0.03418
G1 X100.583 Y119.061 E0.03264
G1 X99.427 Y119.062 E0.03626
G1 X98.446 Y118.890 E0.03123
G1 X97.668 Y118.609 E0.02593
G1 X96.937 Y118.204 E0.02618
G1 X96.183 Y117.598 E0.03034
G1 X95.634 Y116.975 E0.02606
G1 X95.190 Y116.272 E0.02605
G1 X94.820 Y115.378 E0.03034
G1 X94.636 Y114.555 E0.02644
G1 X94.584 Y113.834 E0.02267
G1 X94.594 Y83.442 E0.95291
G1 X94.782 Y82.651 E0.02549
G1 X95.162 Y82.001 E0.02361
G1 X95.486 Y82.195 F7200.000
G1 F900
G1 X96.038 Y81.686 E0.02353
G1 X96.690 Y81.389 E0.02249
G1 X97.303 Y81.299 E0.01941
G1 X102.665 Y81.299 E0.16813
G1 X103.532 Y81.464 E0.02767
G1 X104.282 Y81.936 E0.02778
G1 X104.806 Y82.651 E0.02778
G1 X105.033 Y83.507 E0.02778
G1 X105.024 Y114.200 E0.96235
G1 X104.842 Y115.195 E0.03171
G1 X104.453 Y116.141 E0.03208
G1 X103.870 Y116.991 E0.03232
G1 X103.158 Y117.672 E0.03089
G1 X102.443 Y118.134 E0.02668
G1 X101.501 Y118.513 E0.03184
G1 X100.550 Y118.685 E0.03030
G1 X99.457 Y118.686 E0.03426
G1 X98.539 Y118.524 E0.02923
G1 X97.821 Y118.265 E0.02395
G1 X97.147 Y117.891 E0.02419
G1 X96.441 Y117.323 E0.02839
G1 X95.934 Y116.747 E0.02407
G1 X95.524 Y116.097 E0.02407
G1 X95.177 Y115.257 E0.02851
G1 X95.007 Y114.485 E0.02478
G1 X94.970 Y83.474 E0.97232
G1 X95.136 Y82.780 E0.02237
G1 X95.455 Y82.246 E0.01951
G1 F5760
G1 X96.038 Y81.686 E-0.27996
G1 F5760
G1 X96.690 Y81.389 E-0.24839
G1 F5760
G1 X97.303 Y81.299 E-0.21443
G1 F5760
G1 X97.353 Y81.299 E-0.01723
G1 E-0.04000 F2100.00000
G1 Z0.800 F7200.000
G1 X98.249 Y111.737 F7200.000
G1 Z0.200 F7200.000
G1 E0.80000 F2100.00000
G1 F900
G1 X101.751 Y111.737 E0.10981
G1 X101.741 Y114.008 E0.07120
G1 X101.664 Y114.348 E0.01093
G1 X101.517 Y114.653 E0.01062
G1 X101.392 Y114.830 E0.00679
G1 X101.157 Y115.065 E0.01044
G1 X100.851 Y115.258 E0.01133
G1 X100.515 Y115.375 E0.01117
G1 X100.190 Y115.412 E0.01024
G1 X99.657 Y115.404 E0.01674
G1 X99.329 Y115.330 E0.01052
G1 X99.130 Y115.246 E0.00679
G1 X98.848 Y115.069 E0.01042
G1 X98.597 Y114.819 E0.01113
G1 X98.404 Y114.513 E0.01132
G1 X98.294 Y114.199 E0.01044
G1 X98.258 Y113.987 E0.00674
G1 X98.249 Y111.797 E0.06866
G1 X98.628 Y112.114 F7200.000
G1 F900
G1 X101.373 Y112.114 E0.08607
G1 X101.365 Y113.965 E0.05802
G1 X101.305 Y114.223 E0.00830
G1 X101.191 Y114.461 E0.00830
G1 X101.103 Y114.586 E0.00478
G1 X100.920 Y114.769 E0.00812
G1 X100.686 Y114.916 E0.00865
G1 X100.430 Y115.005 E0.00849
G1 X100.172 Y115.034 E0.00816
G1 X99.702 Y115.028 E0.01475
G1 X99.445 Y114.969 E0.00826
G1 X99.304 Y114.910 E0.00479
G1 X99.085 Y114.772 E0.00812
G1 X98.893 Y114.582 E0.00847
G1 X98.746 Y114.348 E0.00865
G1 X98.661 Y114.104 E0.00813
G1 X98.635 Y113.954 E0.00476
G1 X98.628 Y112.174 E0.05580
G1 X98.625 Y111.714 F7200.000
G1 F5760
G1 X100.822 Y112.126 E-0.76000
G1 E-0.04000 F2100.00000
G1 Z0.800 F7200.000
G1 X97.925 Y84.263 F7200.000
G1 Z0.200 F7200.000
G1 E0.80000 F2100.00000
G1 F900
G1 X102.075 Y84.263 E0.13009
G1 X102.069 Y113.955 E0.93096
G1 X102.030 Y114.227 E0.00864
G1 X101.952 Y114.494 E0.00871
G1 X101.838 Y114.744 E0.00862
G1 X101.780 Y114.842 E0.00357
G1 X101.510 Y115.178 E0.01351
G1 X101.306 Y115.355 E0.00849
G1 X100.973 Y115.555 E0.01216
G1 X100.565 Y115.692 E0.01351
G1 X100.297 Y115.731 E0.00848
G1 X99.702 Y115.731 E0.01866
G1 X99.423 Y115.691 E0.00885
G1 X99.036 Y115.560 E0.01280
G1 X98.686 Y115.350 E0.01281
G1 X98.395 Y115.077 E0.01249
G1 X98.233 Y114.860 E0.00849
G1 X98.040 Y114.474 E0.01352
G1 X97.947 Y114.101 E0.01206
G1 X97.925 Y113.803 E0.00938
G1 X97.925 Y84.323 E0.92432
G1 X97.548 Y83.886 F7200.000
G1 F900
G1 X102.452 Y83.886 E0.15374
G1 X102.445 Y113.989 E0.94385
G1 X102.399 Y114.308 E0.01011
G1 X102.306 Y114.626 E0.01040
G1 X102.173 Y114.918 E0.01008
G1 X102.091 Y115.057 E0.00505
G1 X101.783 Y115.440 E0.01541
G1 X101.533 Y115.658 E0.01039
G1 X101.119 Y115.904 E0.01511
G1 X100.652 Y116.060 E0.01541
G1 X100.325 Y116.108 E0.01039
G1 X99.675 Y116.108 E0.02036
G1 X99.349 Y116.061 E0.01034
G1 X98.885 Y115.906 E0.01534
G1 X98.464 Y115.656 E0.01534
G1 X98.109 Y115.325 E0.01522
G1 X97.911 Y115.059 E0.01039
G1 X97.691 Y114.619 E0.01542
G1 X97.573 Y114.155 E0.01500
G1 X97.548 Y113.817 E0.01065
G1 X97.548 Y83.946 E0.93658
G1 X97.895 Y84.086 F7200.000
G1 F5760
G1 X99.742 Y83.919 E-0.76000
G1 E-0.04000 F2100.00000
G1 Z0.800 F7200.000
G1 X101.961 Y85.146 F7200.000
G1 Z0.200 F7200.000
G1 E0.80000 F2100.00000
G1 F900
G1 X101.361 Y84.546 E0.02691
G1 X100.822 Y84.546 E0.01706
G1 X101.792 Y85.515 E0.04344
G1 X101.792 Y86.054 E0.01706
G1 X100.283 Y84.546 E0.06758
G1 X99.744 Y84.546 E0.01706
G1 X101.792 Y86.593 E0.09171
G1 X101.792 Y87.132 E0.01706
G1 X99.206 Y84.546 E0.11584
G1 X98.667 Y84.546 E0.01706
G1 X101.792 Y87.670 E0.13997
G1 X101.792 Y88.209 E0.01706
G1 X98.208 Y84.626 E0.16053
G1 X98.208 Y85.164 E0.01706
G1 X101.792 Y88.748 E0.16053
G1 X101.792 Y89.287 E0.01706
G1 X98.208 Y85.703 E0.16053
G1 X98.208 Y86.242 E0.01706
G1 X101.792 Y89.825 E0.16053
G1 X101.792 Y90.364 E0.01706
G1 X98.208 Y86.781 E0.16053
G1 X98.208 Y87.319 E0.01706
G1 X101.792 Y90.903 E0.16053
G1 X101.792 Y91.442 E0.01706
G1 X98.208 Y87.858 E0.16053
G1 X98.208 Y88.397 E0.01706
G1 X101.792 Y91.980 E0.16053
G1 X101.792 Y92.519 E0.01706
G1 X98.208 Y88.935 E0.16053
G1 X98.208 Y89.474 E0.01706
G1 X101.792 Y93.058 E0.16053
G1 X101.792 Y93.596 E0.01706
G1 X98.208 Y90.013 E0.16053
G1 X98.208 Y90.552 E0.01706
G1 X101.792 Y94.135 E0.16053
G1 X101.792 Y94.674 E0.01706
G1 X98.208 Y91.090 E0.16053
G1 X98.208 Y91.629 E0.01706
G1 X101.792 Y95.213 E0.16053
G1 X101.792 Y95.751 E0.01706
G1 X98.208 Y92.168 E0.16053
G1 X98.208 Y92.707 E0.01706
G1 X101.792 Y96.290 E0.16053
G1 X101.792 Y96.829 E0.01706
G1 X98.208 Y93.245 E0.16053
G1 X98.208 Y93.784 E0.01706
G1 X101.792 Y97.368 E0.16053
G1 X101.792 Y97.906 E0.01706
G1 X98.208 Y94.323 E0.16053
G1 X98.208 Y94.861 E0.01706
G1 X101.792 Y98.445 E0.16053
G1 X101.792 Y98.984 E0.01706
G1 X98.208 Y95.400 E0.16053
G1 X98.208 Y95.939 E0.01706
G1 X101.792 Y99.522 E0.16053
G1 X101.792 Y100.061 E0.01706
G1 X98.208 Y96.478 E0.16053
G1 X98.208 Y97.016 E0.01706
G1 X101.792 Y100.600 E0.16053
G1 X101.792 Y101.139 E0.01706
G1 X98.208 Y97.555 E0.16053
G1 X98.208 Y98.094 E0.01706
G1 X101.792 Y101.677 E0.16053
G1 X101.792 Y102.216 E0.01706
G1 X98.208 Y98.633 E0.16053
G1 X98.208 Y99.171 E0.01706
G1 X101.792 Y102.755 E0.16053
G1 X101.792 Y103.294 E0.01706
G1 X98.208 Y99.710 E0.16053
G1 X98.208 Y100.249 E0.01706
G1 X101.792 Y103.832 E0.16053
G1 X101.792 Y104.371 E0.01706
G1 X98.208 Y100.788 E0.16053
G1 X98.208 Y101.326 E0.01706
G1 X101.792 Y104.910 E0.16053
G1 X101.792 Y105.448 E0.01706
G1 X98.208 Y101.865 E0.16053
G1 X98.208 Y102.404 E0.01706
G1 X101.792 Y105.987 E0.16053
G1 X101.792 Y106.526 E0.01706
G1 X98.208 Y102.942 E0.16053
G1 X98.208 Y103.481 E0.01706
G1 X101.792 Y107.065 E0.16053
G1 X101.792 Y107.603 E0.01706
G1 X98.208 Y104.020 E0.16053
G1 X98.208 Y104.559 E0.01706
G1 X101.792 Y108.142 E0.16053
G1 X101.792 Y108.681 E0.01706
G1 X98.208 Y105.097 E0.16053
G1 X98.208 Y105.636 E0.01706
G1 X101.792 Y109.220 E0.16053
G1 X101.792 Y109.758 E0.01706
G1 X98.208 Y106.175 E0.16053
G1 X98.208 Y106.714 E0.01706
G1 X101.792 Y110.297 E0.16053
G1 X101.792 Y110.836 E0.01706
G1 X98.208 Y107.252 E0.16053
G1 X98.208 Y107.791 E0.01706
G1 X101.792 Y111.375 E0.16053
G1 X101.792 Y111.454 E0.00253
G1 X101.333 Y111.454 E0.01454
G1 X98.208 Y108.330 E0.13997
G1 X98.208 Y108.868 E0.01706
G1 X100.794 Y111.454 E0.11584
G1 X100.255 Y111.454 E0.01706
G1 X98.208 Y109.407 E0.09170
G1 X98.208 Y109.946 E0.01706
G1 X99.717 Y111.454 E0.06757
G1 X99.178 Y111.454 E0.01706
G1 X98.208 Y110.485 E0.04344
G1 X98.208 Y111.023 E0.01706
G1 X98.809 Y111.624 E0.02691
M106 S255
;BEFORE_LAYER_CHANGE
;0.5


G1 F5760
G1 X98.208 Y111.023 E-0.29420
G1 F5760
G1 X98.208 Y110.485 E-0.18659
G1 F5760
G1 X98.778 Y111.055 E-0.27921
G1 E-0.04000 F2100.00000
G1 Z0.800 F7200.000
;AFTER_LAYER_CHANGE
;0.5
G1 X98.225 Y111.714 F7200.000
G1 Z0.500 F7200.000
G1 E0.80000 F2100.00000
M204 S800
G1 F1185
G1 X101.776 Y111.714 E0.17075
G1 X101.763 Y114.022 E0.11105
G1 X101.687 Y114.351 E0.01623
G1 X101.541 Y114.660 E0.01642
G1 X101.406 Y114.850 E0.01123
G1 X101.179 Y115.077 E0.01543
G1 X100.859 Y115.281 E0.01823
G1 X100.518 Y115.399 E0.01738
G1 X100.191 Y115.435 E0.01579
G1 X99.655 Y115.428 E0.02580
G1 X99.323 Y115.353 E0.01638
G1 X99.108 Y115.261 E0.01125
G1 X98.838 Y115.091 E0.01532
G1 X98.584 Y114.840 E0.01719
G1 X98.382 Y114.520 E0.01821
G1 X98.275 Y114.217 E0.01546
G1 X98.234 Y113.990 E0.01110
G1 X98.226 Y111.774 E0.10658
M204 S1000
G1 X98.613 Y112.099 F7200.000
M204 S800
G1 F4800
G1 X101.388 Y112.099 E0.13348
G1 X101.378 Y113.978 E0.09034
G1 X101.321 Y114.224 E0.01216
G1 X101.207 Y114.464 E0.01278
G1 X101.110 Y114.600 E0.00805
G1 X100.936 Y114.775 E0.01183
G1 X100.690 Y114.931 E0.01402
G1 X100.432 Y115.020 E0.01314
G1 X100.173 Y115.049 E0.01256
G1 X99.701 Y115.043 E0.02269
G1 X99.442 Y114.984 E0.01277
G1 X99.287 Y114.918 E0.00808
G1 X99.079 Y114.787 E0.01182
G1 X98.886 Y114.597 E0.01304
G1 X98.731 Y114.351 E0.01398
G1 X98.649 Y114.118 E0.01188
G1 X98.620 Y113.954 E0.00799
G1 X98.613 Y112.159 E0.08635
M204 S1000
G1 X98.610 Y111.699 F7200.000
G1 F5760
G1 X100.807 Y112.112 E-0.76000
G1 E-0.04000 F2100.00000
G1 Z1.100 F7200.000
G1 X97.949 Y84.286 F7200.000
G1 Z0.500 F7200.000
G1 E0.80000 F2100.00000
M204 S800
G1 F1185
G1 X102.051 Y84.286 E0.19729
G1 X102.045 Y113.964 E1.42737
G1 X102.009 Y114.214 E0.01218
G1 X101.928 Y114.490 E0.01383
G1 X101.825 Y114.718 E0.01205
G1 X101.758 Y114.833 E0.00639
G1 X101.505 Y115.149 E0.01944
G1 X101.288 Y115.339 E0.01387
G1 X100.960 Y115.535 E0.01837
G1 X100.578 Y115.664 E0.01944
G1 X100.293 Y115.707 E0.01382
G1 X99.704 Y115.707 E0.02835
G1 X99.430 Y115.668 E0.01331
G1 X99.049 Y115.540 E0.01933
G1 X98.703 Y115.333 E0.01938
G1 X98.416 Y115.065 E0.01888
G1 X98.245 Y114.833 E0.01387
G1 X98.064 Y114.470 E0.01952
G1 X97.973 Y114.110 E0.01786
G1 X97.949 Y113.801 E0.01491
G1 X97.949 Y84.346 E1.41666
M204 S1000
G1 X97.563 Y83.901 F7200.000
M204 S800
G1 F3600
G1 X102.437 Y83.901 E0.23439
G1 X102.429 Y113.999 E1.44763
G1 X102.386 Y114.296 E0.01444
G1 X102.291 Y114.625 E0.01645
G1 X102.168 Y114.896 E0.01432
G1 X102.076 Y115.052 E0.00870
G1 X101.785 Y115.416 E0.02243
G1 X101.521 Y115.647 E0.01686
G1 X101.111 Y115.891 E0.02297
G1 X100.669 Y116.040 E0.02243
G1 X100.323 Y116.093 E0.01684
G1 X99.676 Y116.093 E0.03108
G1 X99.353 Y116.046 E0.01572
G1 X98.893 Y115.893 E0.02333
G1 X98.475 Y115.645 E0.02335
G1 X98.123 Y115.317 E0.02316
G1 X97.914 Y115.035 E0.01686
G1 X97.707 Y114.617 E0.02246
G1 X97.590 Y114.166 E0.02240
G1 X97.563 Y113.816 E0.01691
G1 X97.563 Y83.961 E1.43592
M204 S1000
G1 X97.910 Y84.101 F7200.000
G1 F5760
G1 X99.757 Y83.934 E-0.76000
G1 E-0.04000 F2100.00000
G1 Z1.100 F7200.000
G1 X98.846 Y84.402 F7200.000
G1 Z0.500 F7200.000
G1 E0.80000 F2100.00000
M204 S2000
G1 F1185
G1 X98.238 Y85.010 E0.04140
G1 X98.238 Y85.556 E0.02633
G1 X99.219 Y84.576 E0.06681
G1 X99.765 Y84.576 E0.02633
G1 X98.238 Y86.102 E0.10404
G1 X98.238 Y86.649 E0.02633
G1 X100.311 Y84.576 E0.14127
G1 X100.858 Y84.576 E0.02633
G1 X98.238 Y87.195 E0.17851
G1 X98.238 Y87.741 E0.02633
G1 X101.404 Y84.576 E0.21574
G1 X101.762 Y84.576 E0.01724
G1 X101.762 Y84.764 E0.00909
G1 X98.238 Y88.288 E0.24012
G1 X98.238 Y88.834 E0.02633
G1 X101.762 Y85.311 E0.24012
G1 X101.762 Y85.857 E0.02633
G1 X98.238 Y89.381 E0.24012
G1 X98.238 Y89.927 E0.02633
G1 X101.762 Y86.403 E0.24012
G1 X101.762 Y86.950 E0.02633
G1 X98.238 Y90.473 E0.24012
G1 X98.238 Y91.020 E0.02633
G1 X101.762 Y87.496 E0.24012
G1 X101.762 Y88.042 E0.02633
G1 X98.238 Y91.566 E0.24012
G1 X98.238 Y92.112 E0.02633
G1 X101.762 Y88.589 E0.24012
G1 X101.762 Y89.135 E0.02633
G1 X98.238 Y92.659 E0.24012
G1 X98.238 Y93.205 E0.02633
G1 X101.762 Y89.682 E0.24012
G1 X101.762 Y90.228 E0.02633
G1 X98.238 Y93.752 E0.24012
G1 X98.238 Y94.298 E0.02633
G1 X101.762 Y90.774 E0.24012
G1 X101.762 Y91.321 E0.02633
G1 X98.238 Y94.844 E0.24012
G1 X98.238 Y95.391 E0.02633
G1 X101.762 Y91.867 E0.24012
G1 X101.762 Y92.414 E0.02633
G1 X98.238 Y95.937 E0.24012
G1 X98.238 Y96.483 E0.02633
G1 X101.762 Y92.960 E0.24012
G1 X101.762 Y93.506 E0.02633
G1 X98.238 Y97.030 E0.24012
G1 X98.238 Y97.576 E0.02633
G1 X101.762 Y94.053 E0.24012
G1 X101.762 Y94.599 E0.02633
G1 X98.238 Y98.123 E0.24012
G1 X98.238 Y98.669 E0.02633
G1 X101.762 Y95.145 E0.24012
G1 X101.762 Y95.692 E0.02633
G1 X98.238 Y99.215 E0.24012
G1 X98.238 Y99.762 E0.02633
G1 X101.762 Y96.238 E0.24012
G1 X101.762 Y96.785 E0.02633
G1 X98.238 Y100.308 E0.24012
G1 X98.238 Y100.855 E0.02633
G1 X101.762 Y97.331 E0.24012
G1 X101.762 Y97.877 E0.02633
G1 X98.238 Y101.401 E0.24012
G1 X98.238 Y101.947 E0.02633
G1 X101.762 Y98.424 E0.24012
G1 X101.762 Y98.970 E0.02633
G1 X98.238 Y102.494 E0.24012
G1 X98.238 Y103.040 E0.02633
G1 X101.762 Y99.516 E0.24012
G1 X101.762 Y100.063 E0.02633
G1 X98.238 Y103.586 E0.24012
G1 X98.238 Y104.133 E0.02633
G1 X101.762 Y100.609 E0.24012
G1 X101.762 Y101.156 E0.02633
G1 X98.238 Y104.679 E0.24012
G1 X98.238 Y105.226 E0.02633
G1 X101.762 Y101.702 E0.24012
G1 X101.762 Y102.248 E0.02633
G1 X98.238 Y105.772 E0.24012
G1 X98.238 Y106.318 E0.02633
G1 X101.762 Y102.795 E0.24012
G1 X101.762 Y103.341 E0.02633
G1 X98.238 Y106.865 E0.24012
G1 X98.238 Y107.411 E0.02633
G1 X101.762 Y103.887 E0.24012
G1 X101.762 Y104.434 E0.02633
G1 X98.238 Y107.957 E0.24012
G1 X98.238 Y108.504 E0.02633
G1 X101.762 Y104.980 E0.24012
G1 X101.762 Y105.527 E0.02633
G1 X98.238 Y109.050 E0.24012
G1 X98.238 Y109.597 E0.02633
G1 X101.762 Y106.073 E0.24012
G1 X101.762 Y106.619 E0.02633
G1 X98.238 Y110.143 E0.24012
G1 X98.238 Y110.689 E0.02633
G1 X101.762 Y107.166 E0.24012
G1 X101.762 Y107.712 E0.02633
G1 X98.238 Y111.236 E0.24012
G1 X98.238 Y111.424 E0.00909
G1 X98.596 Y111.424 E0.01724
G1 X101.762 Y108.258 E0.21575
G1 X101.762 Y108.805 E0.02633
G1 X99.142 Y111.424 E0.17851
G1 X99.689 Y111.424 E0.02633
G1 X101.762 Y109.351 E0.14128
G1 X101.762 Y109.898 E0.02633
G1 X100.235 Y111.424 E0.10405
G1 X100.781 Y111.424 E0.02633
G1 X101.762 Y110.444 E0.06681
G1 X101.762 Y110.990 E0.02633
G1 X101.154 Y111.598 E0.04140
M204 S1000
;BEFORE_LAYER_CHANGE
;0.8


G1 F5760
G1 X101.762 Y110.990 E-0.29759
G1 F5760
G1 X101.762 Y110.444 E-0.18924
G1 F5760
G1 X101.204 Y111.002 E-0.27317
G1 E-0.04000 F2100.00000
G1 Z1.100 F7200.000
;AFTER_LAYER_CHANGE
;0.8
G1 X98.226 Y111.714 F7200.000
