; generated by Slic3r Prusa Edition 1.39.1-prusa3d on 2018-04-22 at 18:19:46

; 

; external perimeters extrusion width = 0.45mm
; perimeters extrusion width = 0.45mm
; infill extrusion width = 0.45mm
; solid infill extrusion width = 0.45mm
; top infill extrusion width = 0.33mm
; first layer extrusion width = 0.42mm

M107
M115 U3.1.0 ; tell printer latest fw version
M201 X9000 Y9000 Z500 E10000 ; sets maximum accelerations, mm/sec^2
M203 X500 Y500 Z12 E120 ; sets maximum feedrates, mm/sec
M204 S1500 T1500 ; sets acceleration (S) and retract acceleration (T)
M205 X10 Y10 Z0.2 E2.5 ; sets the jerk limits, mm/sec
M205 S0 T0 ; sets the minimum extruding and travel feed rate, mm/sec
M83  ; extruder relative mode
M104 S215 ; set extruder temp
M140 S60 ; set bed temp
M190 S60 ; wait for bed temp
M109 S215 ; wait for extruder temp
G28 W ; home all without mesh bed level
G80 ; mesh bed leveling
G1 Y-3.0 F1000.0 ; go outside print area
G92 E0.0
G1 E18.0 F1000.0;
G1 X60.0 E9.0  F1000.0 ; intro line
G1 X100.0 E12.5  F1000.0 ; intro line
G92 E0.0
M900 K30; Filament gcode
G21 ; set units to millimeters
G90 ; use absolute coordinates
M83 ; use relative distances for extrusion
;BEFORE_LAYER_CHANGE
;0.2


G1 E-0.80000 F2100.00000
G1 Z0.600 F7200.000
;AFTER_LAYER_CHANGE
;0.2
G1 X120.192 Y86.950 F7200.000
G1 Z0.200 F7200.000
G1 E0.80000 F2100.00000
M204 S1000
G1 F900
G1 X120.786 Y86.401 E0.02536
G1 X121.518 Y86.047 E0.02549
G1 X122.280 Y85.922 E0.02422
G1 X127.666 Y85.922 E0.16886
G1 X128.667 Y86.112 E0.03195
G1 X129.528 Y86.650 E0.03183
G1 X130.136 Y87.467 E0.03195
G1 X130.406 Y88.450 E0.03195
G1 X130.400 Y119.231 E0.96511
G1 X130.204 Y120.302 E0.03415
G1 X129.786 Y121.318 E0.03443
G1 X129.161 Y122.231 E0.03469
G1 X128.398 Y122.962 E0.03315
G1 X127.618 Y123.468 E0.02913
G1 X126.607 Y123.875 E0.03417
G1 X125.583 Y124.061 E0.03264
G1 X124.427 Y124.062 E0.03626
G1 X123.450 Y123.891 E0.03111
G1 X122.668 Y123.609 E0.02605
G1 X121.937 Y123.204 E0.02619
G1 X121.183 Y122.598 E0.03034
G1 X120.634 Y121.975 E0.02606
G1 X120.190 Y121.272 E0.02605
G1 X119.820 Y120.378 E0.03034
G1 X119.636 Y119.555 E0.02644
G1 X119.584 Y118.834 E0.02267
G1 X119.594 Y88.442 E0.95291
G1 X119.782 Y87.651 E0.02549
G1 X120.162 Y87.001 E0.02361
G1 X120.486 Y87.195 F7200.000
G1 F900
G1 X121.038 Y86.686 E0.02353
G1 X121.690 Y86.389 E0.02249
G1 X122.303 Y86.299 E0.01941
G1 X127.665 Y86.299 E0.16813
G1 X128.532 Y86.464 E0.02767
G1 X129.282 Y86.936 E0.02778
G1 X129.806 Y87.651 E0.02778
G1 X130.033 Y88.507 E0.02778
G1 X130.024 Y119.200 E0.96235
G1 X129.842 Y120.195 E0.03171
G1 X129.453 Y121.141 E0.03208
G1 X128.870 Y121.991 E0.03232
G1 X128.157 Y122.672 E0.03089
G1 X127.443 Y123.134 E0.02668
G1 X126.505 Y123.512 E0.03172
G1 X125.550 Y123.685 E0.03041
G1 X124.457 Y123.686 E0.03427
G1 X123.543 Y123.525 E0.02911
G1 X122.821 Y123.265 E0.02407
G1 X122.147 Y122.891 E0.02419
G1 X121.438 Y122.320 E0.02851
G1 X120.934 Y121.747 E0.02395
G1 X120.522 Y121.094 E0.02419
G1 X120.177 Y120.257 E0.02839
G1 X120.007 Y119.485 E0.02478
G1 X119.970 Y88.474 E0.97232
G1 X120.136 Y87.780 E0.02237
G1 X120.455 Y87.246 E0.01951
G1 F5760
G1 X121.038 Y86.686 E-0.27996
G1 F5760
G1 X121.690 Y86.389 E-0.24839
G1 F5760
G1 X122.303 Y86.299 E-0.21443
G1 F5760
G1 X122.353 Y86.299 E-0.01723
G1 E-0.04000 F2100.00000
G1 Z0.800 F7200.000
G1 X123.249 Y116.737 F7200.000
G1 Z0.200 F7200.000
G1 E0.80000 F2100.00000
G1 F900
G1 X126.751 Y116.737 E0.10981
G1 X126.741 Y119.008 E0.07120
G1 X126.664 Y119.348 E0.01093
G1 X126.517 Y119.653 E0.01062
G1 X126.392 Y119.830 E0.00679
G1 X126.157 Y120.065 E0.01044
G1 X125.851 Y120.258 E0.01133
G1 X125.515 Y120.375 E0.01117
G1 X125.190 Y120.412 E0.01024
G1 X124.657 Y120.404 E0.01674
G1 X124.329 Y120.330 E0.01052
G1 X124.130 Y120.246 E0.00679
G1 X123.848 Y120.069 E0.01042
G1 X123.597 Y119.819 E0.01113
G1 X123.404 Y119.513 E0.01132
G1 X123.294 Y119.199 E0.01044
G1 X123.258 Y118.987 E0.00674
G1 X123.249 Y116.797 E0.06866
G1 X123.628 Y117.114 F7200.000
G1 F900
G1 X126.373 Y117.114 E0.08607
G1 X126.365 Y118.965 E0.05802
G1 X126.305 Y119.223 E0.00830
G1 X126.191 Y119.461 E0.00830
G1 X126.103 Y119.586 E0.00478
G1 X125.920 Y119.769 E0.00812
G1 X125.686 Y119.916 E0.00865
G1 X125.430 Y120.005 E0.00849
G1 X125.172 Y120.034 E0.00816
G1 X124.702 Y120.028 E0.01475
G1 X124.445 Y119.969 E0.00826
G1 X124.304 Y119.910 E0.00479
G1 X124.085 Y119.772 E0.00812
G1 X123.893 Y119.582 E0.00847
G1 X123.746 Y119.348 E0.00865
G1 X123.661 Y119.104 E0.00813
G1 X123.635 Y118.954 E0.00476
G1 X123.628 Y117.174 E0.05580
G1 X123.625 Y116.714 F7200.000
G1 F5760
G1 X125.822 Y117.126 E-0.76000
G1 E-0.04000 F2100.00000
G1 Z0.800 F7200.000
G1 X122.925 Y89.263 F7200.000
G1 Z0.200 F7200.000
G1 E0.80000 F2100.00000
G1 F900
G1 X127.075 Y89.263 E0.13009
G1 X127.069 Y118.955 E0.93096
G1 X127.030 Y119.227 E0.00864
G1 X126.952 Y119.494 E0.00871
G1 X126.838 Y119.744 E0.00862
G1 X126.780 Y119.842 E0.00357
G1 X126.510 Y120.178 E0.01351
G1 X126.306 Y120.355 E0.00849
G1 X125.973 Y120.555 E0.01216
G1 X125.565 Y120.692 E0.01351
G1 X125.297 Y120.731 E0.00848
G1 X124.702 Y120.731 E0.01866
G1 X124.423 Y120.691 E0.00885
G1 X124.036 Y120.560 E0.01280
G1 X123.686 Y120.350 E0.01281
G1 X123.395 Y120.077 E0.01249
G1 X123.233 Y119.860 E0.00849
G1 X123.040 Y119.474 E0.01352
G1 X122.947 Y119.101 E0.01206
G1 X122.925 Y118.803 E0.00938
G1 X122.925 Y89.323 E0.92432
G1 X122.548 Y88.886 F7200.000
G1 F900
G1 X127.452 Y88.886 E0.15374
G1 X127.445 Y118.989 E0.94385
G1 X127.399 Y119.308 E0.01011
G1 X127.306 Y119.626 E0.01040
G1 X127.173 Y119.919 E0.01008
G1 X127.091 Y120.057 E0.00505
G1 X126.783 Y120.440 E0.01541
G1 X126.533 Y120.658 E0.01039
G1 X126.119 Y120.904 E0.01511
G1 X125.652 Y121.060 E0.01541
G1 X125.325 Y121.108 E0.01039
G1 X124.675 Y121.108 E0.02036
G1 X124.349 Y121.061 E0.01034
G1 X123.885 Y120.906 E0.01534
G1 X123.464 Y120.656 E0.01534
G1 X123.109 Y120.325 E0.01522
G1 X122.911 Y120.059 E0.01039
G1 X122.691 Y119.619 E0.01542
G1 X122.573 Y119.155 E0.01500
G1 X122.548 Y118.817 E0.01065
G1 X122.548 Y88.946 E0.93658
G1 X122.895 Y89.086 F7200.000
G1 F5760
G1 X124.742 Y88.919 E-0.76000
G1 E-0.04000 F2100.00000
G1 Z0.800 F7200.000
G1 X126.961 Y90.146 F7200.000
G1 Z0.200 F7200.000
G1 E0.80000 F2100.00000
G1 F900
G1 X126.361 Y89.546 E0.02691
G1 X125.822 Y89.546 E0.01706
G1 X126.792 Y90.515 E0.04344
G1 X126.792 Y91.054 E0.01706
G1 X125.283 Y89.546 E0.06758
G1 X124.744 Y89.546 E0.01706
G1 X126.792 Y91.593 E0.09171
G1 X126.792 Y92.132 E0.01706
G1 X124.206 Y89.546 E0.11584
G1 X123.667 Y89.546 E0.01706
G1 X126.792 Y92.670 E0.13997
G1 X126.792 Y93.209 E0.01706
G1 X123.208 Y89.626 E0.16053
G1 X123.208 Y90.164 E0.01706
G1 X126.792 Y93.748 E0.16053
G1 X126.792 Y94.287 E0.01706
G1 X123.208 Y90.703 E0.16053
G1 X123.208 Y91.242 E0.01706
G1 X126.792 Y94.825 E0.16053
G1 X126.792 Y95.364 E0.01706
G1 X123.208 Y91.781 E0.16053
G1 X123.208 Y92.319 E0.01706
G1 X126.792 Y95.903 E0.16053
G1 X126.792 Y96.441 E0.01706
G1 X123.208 Y92.858 E0.16053
G1 X123.208 Y93.397 E0.01706
G1 X126.792 Y96.980 E0.16053
G1 X126.792 Y97.519 E0.01706
G1 X123.208 Y93.935 E0.16053
G1 X123.208 Y94.474 E0.01706
G1 X126.792 Y98.058 E0.16053
G1 X126.792 Y98.596 E0.01706
G1 X123.208 Y95.013 E0.16053
G1 X123.208 Y95.552 E0.01706
G1 X126.792 Y99.135 E0.16053
G1 X126.792 Y99.674 E0.01706
G1 X123.208 Y96.090 E0.16053
G1 X123.208 Y96.629 E0.01706
G1 X126.792 Y100.213 E0.16053
G1 X126.792 Y100.751 E0.01706
G1 X123.208 Y97.168 E0.16053
G1 X123.208 Y97.707 E0.01706
G1 X126.792 Y101.290 E0.16053
G1 X126.792 Y101.829 E0.01706
G1 X123.208 Y98.245 E0.16053
G1 X123.208 Y98.784 E0.01706
G1 X126.792 Y102.368 E0.16053
G1 X126.792 Y102.906 E0.01706
G1 X123.208 Y99.323 E0.16053
G1 X123.208 Y99.861 E0.01706
G1 X126.792 Y103.445 E0.16053
G1 X126.792 Y103.984 E0.01706
G1 X123.208 Y100.400 E0.16053
G1 X123.208 Y100.939 E0.01706
G1 X126.792 Y104.522 E0.16053
G1 X126.792 Y105.061 E0.01706
G1 X123.208 Y101.478 E0.16053
G1 X123.208 Y102.016 E0.01706
G1 X126.792 Y105.600 E0.16053
G1 X126.792 Y106.139 E0.01706
G1 X123.208 Y102.555 E0.16053
G1 X123.208 Y103.094 E0.01706
G1 X126.792 Y106.677 E0.16053
G1 X126.792 Y107.216 E0.01706
G1 X123.208 Y103.633 E0.16053
G1 X123.208 Y104.171 E0.01706
G1 X126.792 Y107.755 E0.16053
G1 X126.792 Y108.294 E0.01706
G1 X123.208 Y104.710 E0.16053
G1 X123.208 Y105.249 E0.01706
G1 X126.792 Y108.832 E0.16053
G1 X126.792 Y109.371 E0.01706
G1 X123.208 Y105.787 E0.16053
G1 X123.208 Y106.326 E0.01706
G1 X126.792 Y109.910 E0.16053
G1 X126.792 Y110.448 E0.01706
G1 X123.208 Y106.865 E0.16053
G1 X123.208 Y107.404 E0.01706
G1 X126.792 Y110.987 E0.16053
G1 X126.792 Y111.526 E0.01706
G1 X123.208 Y107.942 E0.16053
G1 X123.208 Y108.481 E0.01706
G1 X126.792 Y112.065 E0.16053
G1 X126.792 Y112.603 E0.01706
G1 X123.208 Y109.020 E0.16053
G1 X123.208 Y109.559 E0.01706
G1 X126.792 Y113.142 E0.16053
G1 X126.792 Y113.681 E0.01706
G1 X123.208 Y110.097 E0.16053
G1 X123.208 Y110.636 E0.01706
G1 X126.792 Y114.220 E0.16053
G1 X126.792 Y114.758 E0.01706
G1 X123.208 Y111.175 E0.16053
G1 X123.208 Y111.713 E0.01706
G1 X126.792 Y115.297 E0.16053
G1 X126.792 Y115.836 E0.01706
G1 X123.208 Y112.252 E0.16053
G1 X123.208 Y112.791 E0.01706
G1 X126.792 Y116.374 E0.16053
G1 X126.792 Y116.454 E0.00253
G1 X126.333 Y116.454 E0.01453
G1 X123.208 Y113.330 E0.13997
G1 X123.208 Y113.868 E0.01706
G1 X125.794 Y116.454 E0.11584
G1 X125.255 Y116.454 E0.01706
G1 X123.208 Y114.407 E0.09171
G1 X123.208 Y114.946 E0.01706
G1 X124.717 Y116.454 E0.06757
G1 X124.178 Y116.454 E0.01706
G1 X123.208 Y115.485 E0.04344
G1 X123.208 Y116.023 E0.01706
G1 X123.809 Y116.624 E0.02691
M106 S255
;BEFORE_LAYER_CHANGE
;0.5


G1 F5760
G1 X123.208 Y116.023 E-0.29424
G1 F5760
G1 X123.208 Y115.485 E-0.18659
G1 F5760
G1 X123.778 Y116.055 E-0.27917
G1 E-0.04000 F2100.00000
G1 Z0.800 F7200.000
;AFTER_LAYER_CHANGE
;0.5
M104 S210 ; set temperature
G1 X123.225 Y116.714 F7200.000
G1 Z0.500 F7200.000
G1 E0.80000 F2100.00000
M204 S800
G1 F4800
G1 X126.776 Y116.714 E0.17075
G1 X126.763 Y119.022 E0.11105
G1 X126.687 Y119.351 E0.01623
G1 X126.541 Y119.660 E0.01642
G1 X126.406 Y119.850 E0.01123
G1 X126.179 Y120.077 E0.01543
G1 X125.859 Y120.281 E0.01823
G1 X125.518 Y120.399 E0.01738
G1 X125.191 Y120.435 E0.01579
G1 X124.655 Y120.428 E0.02580
G1 X124.323 Y120.353 E0.01638
G1 X124.108 Y120.261 E0.01125
G1 X123.838 Y120.091 E0.01532
G1 X123.584 Y119.840 E0.01719
G1 X123.382 Y119.520 E0.01821
G1 X123.275 Y119.217 E0.01546
G1 X123.234 Y118.990 E0.01110
G1 X123.226 Y116.774 E0.10658
M204 S1000
G1 X123.613 Y117.099 F7200.000
M204 S800
G1 F4800
G1 X126.388 Y117.099 E0.13348
G1 X126.378 Y118.978 E0.09034
G1 X126.321 Y119.224 E0.01216
G1 X126.207 Y119.464 E0.01278
G1 X126.110 Y119.600 E0.00805
G1 X125.936 Y119.775 E0.01183
G1 X125.690 Y119.931 E0.01402
G1 X125.432 Y120.020 E0.01314
G1 X125.173 Y120.049 E0.01256
G1 X124.701 Y120.043 E0.02269
G1 X124.442 Y119.984 E0.01277
G1 X124.287 Y119.918 E0.00808
G1 X124.079 Y119.787 E0.01182
G1 X123.886 Y119.597 E0.01304
G1 X123.731 Y119.351 E0.01398
G1 X123.649 Y119.118 E0.01188
G1 X123.620 Y118.954 E0.00799
G1 X123.613 Y117.159 E0.08635
M204 S1000
G1 X123.610 Y116.699 F7200.000
G1 F5760
G1 X125.807 Y117.112 E-0.76000
G1 E-0.04000 F2100.00000
G1 Z1.100 F7200.000
G1 X122.949 Y89.286 F7200.000
G1 Z0.500 F7200.000
G1 E0.80000 F2100.00000
M204 S800
G1 F4800
G1 X127.051 Y89.286 E0.19729
G1 X127.045 Y118.964 E1.42737
G1 X127.009 Y119.214 E0.01218
G1 X126.928 Y119.490 E0.01383
G1 X126.825 Y119.718 E0.01205
G1 X126.758 Y119.833 E0.00639
G1 X126.505 Y120.149 E0.01944
G1 X126.288 Y120.339 E0.01387
G1 X125.960 Y120.535 E0.01837
G1 X125.578 Y120.664 E0.01944
G1 X125.293 Y120.707 E0.01382
G1 X124.704 Y120.707 E0.02835
G1 X124.430 Y120.668 E0.01331
G1 X124.049 Y120.540 E0.01933
G1 X123.703 Y120.333 E0.01938
G1 X123.416 Y120.065 E0.01888
G1 X123.245 Y119.833 E0.01387
G1 X123.064 Y119.470 E0.01952
G1 X122.973 Y119.110 E0.01786
G1 X122.949 Y118.801 E0.01491
G1 X122.949 Y89.346 E1.41666
M204 S1000
G1 X122.563 Y88.901 F7200.000
M204 S800
G1 F3600
G1 X127.437 Y88.901 E0.23439
G1 X127.429 Y118.999 E1.44763
G1 X127.386 Y119.296 E0.01444
G1 X127.291 Y119.625 E0.01645
G1 X127.168 Y119.896 E0.01432
G1 X127.076 Y120.052 E0.00870
G1 X126.785 Y120.416 E0.02243
G1 X126.521 Y120.647 E0.01686
G1 X126.111 Y120.891 E0.02297
G1 X125.669 Y121.040 E0.02243
G1 X125.323 Y121.093 E0.01684
G1 X124.676 Y121.093 E0.03108
G1 X124.353 Y121.046 E0.01572
G1 X123.893 Y120.893 E0.02333
G1 X123.475 Y120.645 E0.02335
G1 X123.123 Y120.317 E0.02316
G1 X122.914 Y120.035 E0.01686
G1 X122.707 Y119.617 E0.02246
G1 X122.590 Y119.166 E0.02240
G1 X122.563 Y118.816 E0.01691
G1 X122.563 Y88.961 E1.43592
M204 S1000
G1 X122.910 Y89.101 F7200.000
G1 F5760
G1 X124.757 Y88.934 E-0.76000
G1 E-0.04000 F2100.00000
G1 Z1.100 F7200.000
G1 X123.846 Y89.402 F7200.000
G1 Z0.500 F7200.000
G1 E0.80000 F2100.00000
M204 S2000
G1 F4800
G1 X123.238 Y90.010 E0.04140
G1 X123.238 Y90.556 E0.02633
G1 X124.219 Y89.576 E0.06681
G1 X124.765 Y89.576 E0.02633
G1 X123.238 Y91.102 E0.10404
G1 X123.238 Y91.649 E0.02633
G1 X125.311 Y89.576 E0.14127
G1 X125.858 Y89.576 E0.02633
G1 X123.238 Y92.195 E0.17851
G1 X123.238 Y92.741 E0.02633
G1 X126.404 Y89.576 E0.21574
G1 X126.762 Y89.576 E0.01724
G1 X126.762 Y89.764 E0.00909
G1 X123.238 Y93.288 E0.24012
G1 X123.238 Y93.834 E0.02633
G1 X126.762 Y90.311 E0.24012
G1 X126.762 Y90.857 E0.02633
G1 X123.238 Y94.381 E0.24012
G1 X123.238 Y94.927 E0.02633
G1 X126.762 Y91.403 E0.24012
G1 X126.762 Y91.950 E0.02633
G1 X123.238 Y95.473 E0.24012
G1 X123.238 Y96.020 E0.02633
G1 X126.762 Y92.496 E0.24012
G1 X126.762 Y93.042 E0.02633
G1 X123.238 Y96.566 E0.24012
G1 X123.238 Y97.112 E0.02633
G1 X126.762 Y93.589 E0.24012
G1 X126.762 Y94.135 E0.02633
G1 X123.238 Y97.659 E0.24012
G1 X123.238 Y98.205 E0.02633
G1 X126.762 Y94.682 E0.24012
G1 X126.762 Y95.228 E0.02633
G1 X123.238 Y98.752 E0.24012
G1 X123.238 Y99.298 E0.02633
G1 X126.762 Y95.774 E0.24012
G1 X126.762 Y96.321 E0.02633
G1 X123.238 Y99.844 E0.24012
G1 X123.238 Y100.391 E0.02633
G1 X126.762 Y96.867 E0.24012
G1 X126.762 Y97.414 E0.02633
G1 X123.238 Y100.937 E0.24012
G1 X123.238 Y101.483 E0.02633
G1 X126.762 Y97.960 E0.24012
G1 X126.762 Y98.506 E0.02633
G1 X123.238 Y102.030 E0.24012
G1 X123.238 Y102.576 E0.02633
G1 X126.762 Y99.053 E0.24012
G1 X126.762 Y99.599 E0.02633
G1 X123.238 Y103.123 E0.24012
G1 X123.238 Y103.669 E0.02633
G1 X126.762 Y100.145 E0.24012
G1 X126.762 Y100.692 E0.02633
G1 X123.238 Y104.215 E0.24012
G1 X123.238 Y104.762 E0.02633
G1 X126.762 Y101.238 E0.24012
G1 X126.762 Y101.785 E0.02633
G1 X123.238 Y105.308 E0.24012
G1 X123.238 Y105.855 E0.02633
G1 X126.762 Y102.331 E0.24012
G1 X126.762 Y102.877 E0.02633
G1 X123.238 Y106.401 E0.24012
G1 X123.238 Y106.947 E0.02633
G1 X126.762 Y103.424 E0.24012
G1 X126.762 Y103.970 E0.02633
G1 X123.238 Y107.494 E0.24012
G1 X123.238 Y108.040 E0.02633
G1 X126.762 Y104.516 E0.24012
G1 X126.762 Y105.063 E0.02633
G1 X123.238 Y108.586 E0.24012
G1 X123.238 Y109.133 E0.02633
G1 X126.762 Y105.609 E0.24012
G1 X126.762 Y106.156 E0.02633
G1 X123.238 Y109.679 E0.24012
G1 X123.238 Y110.226 E0.02633
G1 X126.762 Y106.702 E0.24012
G1 X126.762 Y107.248 E0.02633
G1 X123.238 Y110.772 E0.24012
G1 X123.238 Y111.318 E0.02633
G1 X126.762 Y107.795 E0.24012
G1 X126.762 Y108.341 E0.02633
G1 X123.238 Y111.865 E0.24012
G1 X123.238 Y112.411 E0.02633
G1 X126.762 Y108.887 E0.24012
G1 X126.762 Y109.434 E0.02633
G1 X123.238 Y112.957 E0.24012
G1 X123.238 Y113.504 E0.02633
G1 X126.762 Y109.980 E0.24012
G1 X126.762 Y110.527 E0.02633
G1 X123.238 Y114.050 E0.24012
G1 X123.238 Y114.597 E0.02633
G1 X126.762 Y111.073 E0.24012
G1 X126.762 Y111.619 E0.02633
G1 X123.238 Y115.143 E0.24012
G1 X123.238 Y115.689 E0.02633
G1 X126.762 Y112.166 E0.24012
G1 X126.762 Y112.712 E0.02633
G1 X123.238 Y116.236 E0.24012
G1 X123.238 Y116.424 E0.00909
G1 X123.596 Y116.424 E0.01724
G1 X126.762 Y113.258 E0.21575
G1 X126.762 Y113.805 E0.02633
G1 X124.142 Y116.424 E0.17851
G1 X124.689 Y116.424 E0.02633
G1 X126.762 Y114.351 E0.14128
G1 X126.762 Y114.898 E0.02633
G1 X125.235 Y116.424 E0.10405
G1 X125.781 Y116.424 E0.02633
G1 X126.762 Y115.444 E0.06681
