; generated by Slic3r Prusa Edition 1.39.1-prusa3d on 2018-05-09 at 12:53:30

; 

; external perimeters extrusion width = 0.45mm
; perimeters extrusion width = 0.45mm
; infill extrusion width = 0.45mm
; solid infill extrusion width = 0.45mm
; top infill extrusion width = 0.33mm
; first layer extrusion width = 0.42mm

M107
M115 U3.1.0 ; tell printer latest fw version
M201 X9000 Y9000 Z500 E10000 ; sets maximum accelerations, mm/sec^2
M203 X500 Y500 Z12 E120 ; sets maximum feedrates, mm/sec
M204 S1500 T1500 ; sets acceleration (S) and retract acceleration (T)
M205 X10 Y10 Z0.2 E2.5 ; sets the jerk limits, mm/sec
M205 S0 T0 ; sets the minimum extruding and travel feed rate, mm/sec
M83  ; extruder relative mode
M104 S200 ; set extruder temp
M140 S65 ; set bed temp
M190 S65 ; wait for bed temp
M109 S200 ; wait for extruder temp
G28 W ; home all without mesh bed level
G80 ; mesh bed leveling
G1 Y-3.0 F1000.0 ; go outside print area
G92 E0.0
G1 E18.0 F1000.0;
G1 X60.0 E9.0  F1000.0 ; intro line
G1 X100.0 E12.5  F1000.0 ; intro line
G92 E0.0
M900 K30; Filament gcode
G21 ; set units to millimeters
G90 ; use absolute coordinates
M83 ; use relative distances for extrusion
;BEFORE_LAYER_CHANGE
;0.2


G1 E-0.80000 F2100.00000
G1 Z0.600 F7200.000
;AFTER_LAYER_CHANGE
;0.2
G1 X88.464 Y85.053 F7200.000
G1 Z0.200 F7200.000
G1 E0.80000 F2100.00000
M204 S1000
G1 F900
G1 X89.115 Y84.488 E0.02701
G1 X90.965 Y83.579 E0.06464
G1 X92.264 Y83.119 E0.04322
G1 X93.594 Y82.844 E0.04256
G1 X95.642 Y82.662 E0.06446
G1 X98.249 Y82.981 E0.08237
G1 X99.318 Y83.273 E0.03473
G1 X100.188 Y83.631 E0.02951
G1 X101.181 Y84.206 E0.03598
G1 X102.067 Y84.871 E0.03473
G1 X103.336 Y86.010 E0.05346
G1 X103.861 Y86.666 E0.02635
G1 X104.504 Y87.614 E0.03591
G1 X104.965 Y88.489 E0.03102
G1 X111.625 Y103.501 E0.51493
G1 X111.994 Y104.557 E0.03506
G1 X112.174 Y105.749 E0.03780
G1 X112.134 Y107.862 E0.06628
G1 X111.857 Y109.077 E0.03908
G1 X111.232 Y110.400 E0.04589
G1 X110.490 Y111.363 E0.03810
G1 X105.337 Y116.570 E0.22969
G1 X104.758 Y116.997 E0.02256
G1 X104.083 Y117.259 E0.02269
G1 X103.446 Y117.338 E0.02014
G1 X98.590 Y117.293 E0.15226
G1 X98.006 Y117.117 E0.01912
G1 X97.472 Y116.815 E0.01924
G1 X97.018 Y116.402 E0.01924
G1 X96.667 Y115.898 E0.01924
G1 X96.456 Y115.397 E0.01707
G1 X87.895 Y87.480 E0.91554
G1 X87.824 Y86.625 E0.02689
G1 X88.020 Y85.787 E0.02701
G1 X88.433 Y85.104 E0.02501
G1 X88.778 Y85.265 F7200.000
G1 F900
G1 X89.362 Y84.780 E0.02378
G1 X91.123 Y83.922 E0.06143
G1 X92.372 Y83.480 E0.04153
G1 X93.646 Y83.217 E0.04079
G1 X95.639 Y83.039 E0.06274
G1 X98.166 Y83.348 E0.07982
G1 X99.196 Y83.629 E0.03349
G1 X100.019 Y83.968 E0.02792
G1 X100.974 Y84.521 E0.03459
G1 X101.828 Y85.163 E0.03350
G1 X103.071 Y86.279 E0.05237
G1 X103.566 Y86.901 E0.02493
G1 X104.181 Y87.808 E0.03436
G1 X104.621 Y88.644 E0.02963
G1 X111.280 Y103.653 E0.51483
G1 X111.626 Y104.642 E0.03286
G1 X111.797 Y105.766 E0.03565
G1 X111.761 Y107.809 E0.06405
G1 X111.501 Y108.951 E0.03673
G1 X110.913 Y110.199 E0.04327
G1 X110.216 Y111.104 E0.03578
G1 X105.084 Y116.291 E0.22881
G1 X104.583 Y116.662 E0.01953
G1 X104.000 Y116.891 E0.01965
G1 X103.446 Y116.961 E0.01752
G1 X98.689 Y116.927 E0.14914
G1 X98.171 Y116.777 E0.01692
G1 X97.700 Y116.514 E0.01692
G1 X97.298 Y116.148 E0.01704
G1 X96.991 Y115.704 E0.01692
G1 X88.263 Y87.395 E0.92885
G1 X88.201 Y86.643 E0.02367
G1 X88.379 Y85.905 E0.02378
G1 X88.747 Y85.316 E0.02178
G1 F5760
G1 X89.362 Y84.780 E-0.28253
G1 F5760
G1 X90.601 Y84.176 E-0.47747
G1 E-0.04000 F2100.00000
G1 Z0.800 F7200.000
G1 X102.842 Y103.996 F7200.000
G1 Z0.200 F7200.000
G1 E0.80000 F2100.00000
G1 F900
G1 X106.608 Y104.003 E0.11807
G1 X106.938 Y104.079 E0.01063
G1 X107.134 Y104.160 E0.00662
G1 X107.407 Y104.331 E0.01013
G1 X107.564 Y104.472 E0.00662
G1 X107.766 Y104.725 E0.01013
G1 X107.861 Y104.896 E0.00615
G1 X107.936 Y105.082 E0.00629
G1 X108.010 Y105.405 E0.01040
G1 X108.016 Y107.616 E0.06931
G1 X107.980 Y107.938 E0.01016
G1 X107.868 Y108.259 E0.01065
G1 X107.766 Y108.443 E0.00662
G1 X107.564 Y108.696 E0.01013
G1 X107.407 Y108.837 E0.00662
G1 X107.133 Y109.008 E0.01013
G1 X106.938 Y109.089 E0.00662
G1 X106.608 Y109.165 E0.01063
G1 X102.842 Y109.172 E0.11807
G1 X102.842 Y104.056 E0.16043
G1 X103.219 Y104.374 F7200.000
G1 F900
G1 X106.565 Y104.380 E0.10491
G1 X106.823 Y104.439 E0.00831
G1 X106.960 Y104.496 E0.00463
G1 X107.179 Y104.634 E0.00813
G1 X107.289 Y104.732 E0.00463
G1 X107.451 Y104.935 E0.00813
G1 X107.520 Y105.059 E0.00446
G1 X107.576 Y105.196 E0.00462
G1 X107.633 Y105.448 E0.00812
G1 X107.639 Y107.595 E0.06733
G1 X107.610 Y107.854 E0.00814
G1 X107.523 Y108.104 E0.00832
G1 X107.451 Y108.233 E0.00463
G1 X107.289 Y108.436 E0.00813
G1 X107.179 Y108.534 E0.00463
G1 X106.960 Y108.672 E0.00813
G1 X106.823 Y108.729 E0.00463
G1 X106.565 Y108.788 E0.00831
G1 X103.219 Y108.794 E0.10491
G1 X103.219 Y104.434 E0.13673
G1 X103.134 Y103.983 F7200.000
G1 F5760
G1 X105.413 Y104.399 E-0.76000
G1 E-0.04000 F2100.00000
G1 Z0.800 F7200.000
G1 X102.845 Y113.997 F7200.000
G1 Z0.200 F7200.000
G1 E0.80000 F2100.00000
G1 F900
G1 X99.674 Y113.997 E0.09943
G1 X99.662 Y94.717 E0.60451
G1 X99.597 Y93.697 E0.03204
G1 X99.439 Y92.680 E0.03226
G1 X99.177 Y91.692 E0.03206
G1 X98.835 Y90.650 E0.03438
G1 X98.384 Y90.056 E0.02338
G1 X98.074 Y89.715 E0.01447
G1 X97.795 Y89.473 E0.01156
G1 X97.479 Y89.270 E0.01176
G1 X97.139 Y89.122 E0.01166
G1 X96.790 Y89.021 E0.01137
G1 X96.339 Y88.940 E0.01437
G1 X95.621 Y88.870 E0.02261
G1 X94.527 Y89.033 E0.03471
G1 X93.883 Y89.217 E0.02098
G1 X93.277 Y89.490 E0.02084
G1 X92.900 Y89.711 E0.01372
G1 X91.388 Y87.072 E0.09537
G1 X92.299 Y86.643 E0.03158
G1 X92.878 Y86.424 E0.01940
G1 X93.304 Y86.300 E0.01391
G1 X94.065 Y86.151 E0.02431
G1 X94.691 Y86.077 E0.01978
G1 X95.633 Y86.005 E0.02961
G1 X96.988 Y86.149 E0.04272
G1 X97.738 Y86.291 E0.02393
G1 X98.406 Y86.497 E0.02194
G1 X98.889 Y86.719 E0.01667
G1 X99.186 Y86.893 E0.01078
G1 X99.638 Y87.209 E0.01729
G1 X100.391 Y87.837 E0.03076
G1 X100.948 Y88.351 E0.02374
G1 X101.428 Y89.009 E0.02554
G1 X101.647 Y89.348 E0.01267
G1 X101.838 Y89.694 E0.01237
G1 X102.001 Y90.055 E0.01242
G1 X102.143 Y90.436 E0.01276
G1 X102.394 Y91.235 E0.02625
G1 X102.663 Y92.715 E0.04717
G1 X102.768 Y93.604 E0.02807
G1 X102.830 Y94.815 E0.03800
G1 X102.849 Y99.845 E0.15774
G1 X102.916 Y100.334 E0.01547
G1 X103.041 Y100.784 E0.01463
G1 X103.139 Y101.035 E0.00846
G1 X103.359 Y101.462 E0.01505
G1 X103.629 Y101.846 E0.01472
G1 X103.802 Y102.046 E0.00830
G1 X104.152 Y102.377 E0.01510
G1 X104.553 Y102.662 E0.01542
G1 X104.977 Y102.885 E0.01502
G1 X105.439 Y103.052 E0.01541
G1 X105.897 Y103.151 E0.01470
G1 X106.514 Y103.232 E0.01952
G1 X106.862 Y103.326 E0.01127
G1 X107.350 Y103.542 E0.01674
G1 X107.669 Y103.749 E0.01193
G1 X108.072 Y104.112 E0.01703
G1 X108.390 Y104.529 E0.01643
G1 X108.569 Y104.856 E0.01170
G1 X108.701 Y105.192 E0.01131
G1 X108.789 Y105.534 E0.01109
G1 X108.836 Y105.904 E0.01170
G1 X108.842 Y107.067 E0.03646
G1 X108.818 Y107.455 E0.01217
G1 X108.701 Y107.976 E0.01674
G1 X108.569 Y108.313 E0.01136
G1 X108.396 Y108.631 E0.01136
G1 X108.185 Y108.925 E0.01136
G1 X107.939 Y109.191 E0.01136
G1 X107.661 Y109.424 E0.01136
G1 X107.357 Y109.621 E0.01136
G1 X107.031 Y109.779 E0.01136
G1 X106.688 Y109.895 E0.01136
G1 X106.318 Y109.971 E0.01186
G1 X105.687 Y110.054 E0.01994
G1 X105.423 Y110.121 E0.00854
G1 X104.992 Y110.278 E0.01438
G1 X104.747 Y110.396 E0.00853
G1 X104.350 Y110.641 E0.01461
G1 X104.140 Y110.802 E0.00832
G1 X103.799 Y111.124 E0.01471
G1 X103.500 Y111.494 E0.01490
G1 X103.350 Y111.723 E0.00860
G1 X103.135 Y112.142 E0.01476
G1 X102.972 Y112.604 E0.01536
G1 X102.876 Y113.066 E0.01478
G1 X102.849 Y113.332 E0.00839
G1 X102.846 Y113.937 E0.01896
G1 X103.220 Y114.374 F7200.000
G1 F900
G1 X99.297 Y114.374 E0.12301
G1 X99.285 Y94.729 E0.61596
G1 X99.222 Y93.738 E0.03113
G1 X99.070 Y92.758 E0.03110
G1 X98.815 Y91.799 E0.03110
G1 X98.497 Y90.828 E0.03206
G1 X98.094 Y90.297 E0.02088
G1 X97.810 Y89.985 E0.01325
G1 X97.569 Y89.776 E0.01000
G1 X97.301 Y89.604 E0.00997
G1 X97.010 Y89.477 E0.00996
G1 X96.704 Y89.388 E0.00998
G1 X96.287 Y89.314 E0.01328
G1 X95.631 Y89.249 E0.02068
G1 X94.607 Y89.402 E0.03247
G1 X94.013 Y89.572 E0.01935
G1 X93.451 Y89.825 E0.01934
G1 X92.763 Y90.230 E0.02503
G1 X90.863 Y86.914 E0.11981
G1 X91.559 Y86.564 E0.02442
G1 X92.155 Y86.294 E0.02051
G1 X92.759 Y86.067 E0.02023
G1 X93.215 Y85.933 E0.01490
G1 X94.006 Y85.779 E0.02529
G1 X94.655 Y85.702 E0.02047
G1 X95.635 Y85.627 E0.03083
G1 X97.044 Y85.776 E0.04442
G1 X97.822 Y85.923 E0.02484
G1 X98.191 Y86.023 E0.01199
G1 X98.548 Y86.146 E0.01182
G1 X99.064 Y86.385 E0.01784
G1 X99.389 Y86.576 E0.01182
G1 X99.867 Y86.909 E0.01827
G1 X100.640 Y87.554 E0.03156
G1 X101.231 Y88.098 E0.02519
G1 X101.739 Y88.795 E0.02704
G1 X101.971 Y89.154 E0.01342
G1 X102.176 Y89.525 E0.01327
G1 X102.350 Y89.911 E0.01329
G1 X102.500 Y90.313 E0.01345
G1 X102.761 Y91.144 E0.02731
G1 X103.036 Y92.659 E0.04828
G1 X103.144 Y93.572 E0.02883
G1 X103.207 Y94.804 E0.03868
G1 X103.226 Y99.819 E0.15723
G1 X103.286 Y100.257 E0.01388
G1 X103.399 Y100.664 E0.01324
G1 X103.484 Y100.879 E0.00725
G1 X103.683 Y101.266 E0.01364
G1 X103.927 Y101.614 E0.01332
G1 X104.075 Y101.785 E0.00710
G1 X104.392 Y102.085 E0.01367
G1 X104.751 Y102.340 E0.01381
G1 X105.130 Y102.539 E0.01342
G1 X105.543 Y102.689 E0.01380
G1 X105.961 Y102.779 E0.01341
G1 X106.588 Y102.861 E0.01983
G1 X106.983 Y102.968 E0.01280
G1 X107.540 Y103.216 E0.01913
G1 X107.889 Y103.442 E0.01304
G1 X108.045 Y103.564 E0.00621
G1 X108.345 Y103.851 E0.01304
G1 X108.710 Y104.327 E0.01880
G1 X108.912 Y104.696 E0.01317
G1 X109.058 Y105.070 E0.01260
G1 X109.161 Y105.470 E0.01295
G1 X109.212 Y105.880 E0.01295
G1 X109.219 Y107.078 E0.03757
G1 X109.193 Y107.496 E0.01312
G1 X109.061 Y108.091 E0.01913
G1 X108.911 Y108.472 E0.01283
G1 X108.716 Y108.832 E0.01283
G1 X108.477 Y109.164 E0.01283
G1 X108.199 Y109.465 E0.01283
G1 X107.886 Y109.728 E0.01283
G1 X107.543 Y109.951 E0.01283
G1 X107.174 Y110.129 E0.01283
G1 X106.787 Y110.260 E0.01283
G1 X106.380 Y110.343 E0.01301
G1 X105.758 Y110.425 E0.01967
G1 X105.534 Y110.482 E0.00726
G1 X105.139 Y110.625 E0.01318
G1 X104.928 Y110.727 E0.00732
G1 X104.565 Y110.951 E0.01339
G1 X104.385 Y111.090 E0.00712
G1 X104.076 Y111.381 E0.01332
G1 X103.805 Y111.716 E0.01349
G1 X103.677 Y111.913 E0.00738
G1 X103.482 Y112.292 E0.01335
G1 X103.336 Y112.706 E0.01376
G1 X103.249 Y113.123 E0.01338
G1 X103.226 Y113.353 E0.00722
G1 X103.221 Y114.314 E0.03015
G1 X102.876 Y114.171 F7200.000
G1 F5760
G1 X101.027 Y114.348 E-0.76000
G1 E-0.04000 F2100.00000
G1 Z0.800 F7200.000
G1 X99.787 Y113.107 F7200.000
G1 Z0.200 F7200.000
G1 E0.80000 F2100.00000
G1 F900
G1 X100.394 Y113.714 E0.02741
G1 X100.937 Y113.714 E0.01732
G1 X99.956 Y112.733 E0.04426
G1 X99.956 Y112.190 E0.01733
G1 X101.480 Y113.714 E0.06878
G1 X102.022 Y113.714 E0.01732
G1 X99.955 Y111.647 E0.09329
G1 X99.955 Y111.104 E0.01733
G1 X102.564 Y113.713 E0.11776
G1 X102.580 Y113.186 E0.01683
G1 X99.955 Y110.561 E0.11848
G1 X99.954 Y110.018 E0.01733
G1 X102.659 Y112.722 E0.12205
G1 X102.699 Y112.528 E0.00631
G1 X102.779 Y112.300 E0.00773
G1 X99.954 Y109.475 E0.12751
G1 X99.954 Y108.931 E0.01733
G1 X102.935 Y111.913 E0.13455
G1 X103.121 Y111.556 E0.01283
G1 X99.954 Y108.388 E0.14299
G1 X99.953 Y107.845 E0.01733
G1 X103.344 Y111.236 E0.15305
G1 X103.587 Y110.936 E0.01232
G1 X99.953 Y107.302 E0.16403
G1 X99.953 Y106.759 E0.01733
G1 X103.866 Y110.672 E0.17663
G1 X104.164 Y110.427 E0.01231
G1 X103.191 Y109.454 E0.04392
G1 X103.732 Y109.453 E0.01729
G1 X104.497 Y110.218 E0.03451
G1 X104.853 Y110.031 E0.01283
G1 X104.274 Y109.452 E0.02611
G1 X104.816 Y109.451 E0.01729
G1 X105.248 Y109.884 E0.01952
G1 X105.678 Y109.770 E0.01418
G1 X105.358 Y109.450 E0.01446
G1 X105.899 Y109.449 E0.01729
G1 X106.308 Y109.857 E0.01844
G1 X106.719 Y109.507 F7200.000
G1 F900
G1 X107.028 Y109.411 E0.00629
G1 X107.270 Y109.297 E0.00520
G1 X107.584 Y109.088 E0.00733
G1 X107.793 Y108.899 E0.00549
G1 F900
G1 X108.030 Y108.608 E0.00763
G1 F900
G1 X108.166 Y108.380 E0.00588
G1 F900
G1 X108.260 Y108.169 E0.00582
G1 F900
G1 X108.319 Y108.007 E0.00447
G1 X108.187 Y107.825 E0.00583
G1 X108.127 Y106.876 F7200.000
G1 F900
G1 X108.545 Y107.293 E0.02090
G1 X108.557 Y106.704 E0.02089
G1 X108.296 Y106.442 E0.01310
G1 X108.294 Y105.838 E0.02140
G1 X108.724 Y106.269 E0.02157
G1 F5760
G1 X108.294 Y105.838 E-0.21091
G1 F5760
G1 X108.296 Y106.442 E-0.20926
G1 F5760
G1 X108.557 Y106.704 E-0.12810
G1 F5760
G1 X108.545 Y107.293 E-0.20431
G1 F5760
G1 X108.529 Y107.278 E-0.00741
G1 E-0.04000 F2100.00000
G1 Z0.800 F7200.000
G1 X108.349 Y105.277 F7200.000
G1 Z0.200 F7200.000
G1 E0.80000 F2100.00000
G1 F900
G1 X108.263 Y104.999 E0.00765
G1 F900
G1 X108.154 Y104.765 E0.00639
G1 F900
G1 X108.030 Y104.560 E0.00526
G1 F900
G1 X107.794 Y104.269 E0.00764
G1 F900
G1 X107.594 Y104.084 E0.00532
G1 X107.270 Y103.871 E0.00756
G1 X107.052 Y103.764 E0.00475
G1 X106.714 Y103.656 E0.00691
G1 X106.311 Y103.890 F7200.000
G1 F900
G1 X105.852 Y103.430 E0.02074
G1 X105.360 Y103.325 E0.01604
G1 X105.114 Y103.235 E0.00837
G1 X105.597 Y103.718 E0.02182
G1 X105.053 Y103.717 E0.01736
G1 X99.948 Y98.612 E0.23044
G1 X99.947 Y98.069 E0.01733
G1 X102.786 Y100.907 E0.12813
G1 X102.639 Y100.391 E0.01713
G1 X102.611 Y100.189 E0.00651
G1 X99.947 Y97.525 E0.12024
G1 X99.947 Y96.982 E0.01733
G1 X102.565 Y99.601 E0.11820
G1 X102.563 Y99.056 E0.01739
G1 X99.946 Y96.439 E0.11812
G1 X99.946 Y95.896 E0.01733
G1 X102.561 Y98.511 E0.11804
G1 X102.559 Y97.966 E0.01739
G1 X99.946 Y95.353 E0.11796
G1 X99.945 Y94.810 E0.01733
G1 X102.557 Y97.422 E0.11788
G1 X102.555 Y96.877 E0.01739
G1 X99.915 Y94.237 E0.11915
G1 X99.877 Y93.656 E0.01858
G1 X102.553 Y96.332 E0.12077
G1 X102.551 Y95.787 E0.01739
G1 X99.777 Y93.013 E0.12518
G1 X99.717 Y92.622 E0.01263
G1 X99.640 Y92.333 E0.00956
G1 X102.549 Y95.242 E0.13130
G1 X102.540 Y94.691 E0.01759
G1 X99.442 Y91.592 E0.13987
G1 X99.177 Y90.784 E0.02712
G1 X102.511 Y94.119 E0.15050
G1 X102.476 Y93.541 E0.01849
G1 X95.253 Y86.318 E0.32602
G1 X95.631 Y86.289 E0.01211
G1 X95.780 Y86.302 E0.00476
G1 X102.403 Y92.925 E0.29893
G1 X102.295 Y92.275 E0.02103
G1 X96.387 Y86.366 E0.26668
G1 X97.004 Y86.440 E0.01983
G1 X102.175 Y91.612 E0.23341
G1 X102.119 Y91.303 E0.01002
G1 X101.986 Y90.880 E0.01415
G1 X97.673 Y86.567 E0.19467
G1 X98.305 Y86.761 E0.02110
G1 X98.501 Y86.852 E0.00689
G1 X101.985 Y90.336 E0.15725
G1 F5760
G1 X100.433 Y88.784 E-0.76000
G1 E-0.04000 F2100.00000
G1 Z0.800 F7200.000
G1 X101.463 Y89.271 F7200.000
G1 Z0.200 F7200.000
G1 E0.80000 F2100.00000
G1 F900
G1 X99.310 Y87.118 E0.09716
G1 F5760
G1 X100.862 Y88.670 E-0.76000
G1 E-0.04000 F2100.00000
G1 Z0.800 F7200.000
G1 X97.616 Y89.224 F7200.000
G1 Z0.200 F7200.000
G1 E0.80000 F2100.00000
G1 F900
G1 X94.749 Y86.356 E0.12942
G1 X94.262 Y86.413 E0.01562
G1 X96.538 Y88.688 E0.10272
G1 X95.922 Y88.615 E0.01981
G1 X93.798 Y86.492 E0.09584
G1 X93.346 Y86.582 E0.01472
G1 X95.383 Y88.619 E0.09194
G1 X94.911 Y88.690 E0.01524
G1 X92.929 Y86.708 E0.08947
G1 X92.535 Y86.856 E0.01344
G1 X94.442 Y88.763 E0.08607
G1 X94.019 Y88.884 E0.01401
G1 X92.158 Y87.022 E0.08403
G1 X91.789 Y87.196 E0.01302
G1 X93.619 Y89.026 E0.08260
G1 X93.244 Y89.194 E0.01310
G1 X92.051 Y88.001 E0.05388
G1 F5760
G1 X93.244 Y89.194 E-0.58471
G1 F5760
G1 X93.619 Y89.026 E-0.14219
G1 F5760
G1 X93.551 Y88.958 E-0.03310
G1 E-0.04000 F2100.00000
G1 Z0.800 F7200.000
G1 X104.679 Y103.886 F7200.000
G1 Z0.200 F7200.000
G1 E0.80000 F2100.00000
G1 F900
G1 X99.948 Y99.155 E0.21355
G1 X99.948 Y99.698 E0.01733
G1 X103.965 Y103.715 E0.18132
G1 X103.421 Y103.714 E0.01736
G1 X99.949 Y100.241 E0.15675
G1 X99.949 Y100.784 E0.01733
G1 X102.878 Y103.713 E0.13219
G1 X102.559 Y103.712 E0.01016
G1 X102.559 Y103.938 E0.00719
G1 X99.949 Y101.327 E0.11781
G1 X99.950 Y101.871 E0.01733
G1 X102.559 Y104.480 E0.11779
G1 X102.559 Y105.023 E0.01732
G1 X99.950 Y102.414 E0.11778
G1 X99.950 Y102.957 E0.01733
G1 X102.559 Y105.566 E0.11776
G1 X102.559 Y106.109 E0.01732
G1 X99.951 Y103.500 E0.11775
G1 X99.951 Y104.043 E0.01733
G1 X102.559 Y106.652 E0.11773
