;FLAVOR:Marlin
;TIME:183
;Filament used:0.154364m
;Layer height: 0.3
;MINX:73.507
;MINY:68.117
;MINZ:0.2
;MAXX:91.886
;MAXY:96.885
;MAXZ:2.9
                                 
;Creative3D GCode Generated by CXEngineDEV
;Generated Time:2022-04-08 18:14:05
;----------Machine Config--------------
;Machine Name:Creality Ender-2 Pro
;Machine Height:180
;Machine Width:165
;Machine Depth:165
;Material name:PLA
;Number of Extruders:1
;ExtruderParams[0] Nozzle Diameter1000
;----------Profile Config---------------
;Layer Height:0.3
;Wall Thickness:0.8
;Top/Bottom Thickness:1
;Out Wall Line Width:0.4
;Inner Wall Line Width:0.4
;Inital Layer Height:200
;Wall Line Count:1
;Infill Line Distance:4
;Infill Pattern:grid
;Infill Sparse Density:20
;Infill Wipe Distance:0
;Print Temperature:200
;Bed Temperature:60
;Support Enable:false
;Support Density:30
;Support Angle:1.0472
;Adhesion Type:none
;machine is belt:false
;machine belt offset:10
;machine belt offset Y:0
;----------Shell Config----------------
;Outer Wall Wipe Distance:200
;Infill Before Walls:false
;Infill Overlap:0.16
;Fill Gaps Between Walls:everywhere
;Minimum Infill Area:1
;Top Surface Skin Layer:0
;Top Layers:2
;Z Seam Alignment:sharpest_corner
;Seam Corner Preference:z_seam_corner_inner
;Z Seam X:82.5
;Z Seam Y:82.5
;Horizontal Expansion:0
;Top/Bottom Pattern:zigzag
;Ironing Pattern:zigzag
;Vase Model:false
;----------Support Config----------------
;Support Type:everywhere
;Support Pattern:zigzag
;Support Infill Layer Thickness:0.3
;Minimum Support Area:10
;Enable Support Roof:false
;Support Roof Thickness:0.8
;Support Roof Pattern:lines
; ---------PrintSpeed & Travel----------
;Enable Print Cool:true
;Avoid Printed Parts Traveling:true
;Enable Retraction:true
;Retraction Distance:8
;Retraction Speed:100
;Retraction Prime Speed:100
;Maximum Retraction Count:100
;Minimum Extrusion Distance Window:1
;Z Hop When Retracted:false
;Z Hop Height:0.2
;Retract Before Outer Wall:true
;Print Speed:50
;Infill Speed:50

;Prime Tower Speed:50
;Travel Speed:120
;Initial Layer Speed:25
;Skirt/Brim Speed:25
;Combing Mode:off
;---------------------End of Head--------------------------
M140 S60
M104 S200
M105
M109 S200
M82 ;absolute extrusion mode
M220 S100 ;Reset Feedrate
M221 S100 ;Reset Flowrate

G28 ;Home

G92 E0 ;Reset Extruder
G1 Z2.0 F3000 ;Move Z Axis up
G1 X10.1 Y20 Z0.28 F5000.0 ;Move to start position
G1 X10.1 Y145.0 Z0.28 F1500.0 E15 ;Draw the first line
G1 X10.4 Y145.0 Z0.28 F5000.0 ;Move to side a little
G1 X10.4 Y20 Z0.28 F1500.0 E30 ;Draw the second line
G92 E0  ;Reset Extruder
G1 E-1.0000 F1800 ;Retract a bit
G1 Z2.0 F3000 ;Move Z Axis up
G1 E0.0000 F1800 

G92 E0
G92 E0
G1 F6000 E-8

;LAYER_COUNT:10

;LAYER:0
M107
;MESH:
G0 F3600 X85.891 Y91.285 Z0.2
;TYPE:WALL-OUTER
G1 F6000 E0
G1 F1500 X89.102 Y91.285 E0.11748
G1 X89.477 Y91.224 E0.13138
G1 X89.83 Y91.03 E0.14612
G1 X90.1 Y90.732 E0.16083
G1 X90.253 Y90.365 E0.17537
G1 X90.286 Y90.097 E0.18525
G1 X90.281 Y87.952 E0.26373
G1 X90.173 Y87.57 E0.27825
G1 X89.937 Y87.235 E0.29325
G1 X89.615 Y87.006 E0.3077
G1 X89.238 Y86.894 E0.32209
G1 X89.034 Y86.885 E0.32956
G1 X86.086 Y86.885 E0.43742
G1 X85.886 Y86.885 E0.44474
G1 X85.886 Y87.085 E0.44947
G1 X85.891 Y91.285 E0.60314
G0 F3600 X86.091 Y91.285
G0 X86.091 Y91.725
;;retract;;
G1 F6000 E-7.39686
G0 F3600 X86.005 Y95.204
G1 F6000 E0.60314
G1 F1500 X85.916 Y95.628 E0.61899
G1 X85.887 Y96.053 E0.63457
G1 X85.886 Y96.885 E0.66501
G1 X81.944 Y96.885 E0.80923
G1 X81.94 Y77.561 E1.51622
G1 X81.919 Y76.899 E1.54046
G1 X81.871 Y76.253 E1.56416
G1 X81.783 Y75.599 E1.5883
G1 X81.716 Y75.259 E1.60098
G1 X81.56 Y74.629 E1.62472
G1 X81.362 Y73.987 E1.6493
G1 X81.144 Y73.332 E1.67456
G1 X80.743 Y72.805 E1.69879
G1 X80.466 Y72.499 E1.71389
G1 X80.223 Y72.288 E1.72566
G1 X79.958 Y72.117 E1.7372
G1 X79.669 Y71.99 E1.74875
G1 X79.36 Y71.899 E1.76054
G1 X78.943 Y71.825 E1.77603
G1 X78.29 Y71.761 E1.80004
G1 X77.667 Y71.841 E1.82302
G1 X77.265 Y71.913 E1.83796
G1 X76.868 Y72.016 E1.85296
G1 X76.489 Y72.156 E1.86775
G1 X76.112 Y72.335 E1.88301
G1 X75.756 Y72.533 E1.89792
G1 X75.589 Y72.635 E1.90508
G1 X75.588 Y72.636 E1.90513
G1 X75.414 Y72.741 E1.91256
G1 X75.313 Y72.564 E1.91735
G1 X73.611 Y69.593 E2.04262
G1 X73.507 Y69.411 E2.05029
G1 X73.694 Y69.317 E2.05516
G1 X74.216 Y69.053 E2.07656
G1 X74.806 Y68.787 E2.10024
G1 X75.113 Y68.664 E2.11234
G1 X75.564 Y68.509 E2.12979
G1 X76.025 Y68.386 E2.14724
G1 X76.338 Y68.322 E2.15893
G1 X76.989 Y68.226 E2.18301
G1 X77.638 Y68.164 E2.20686
G1 X78.295 Y68.118 E2.23096
G1 X79.102 Y68.192 E2.26061
G1 X79.703 Y68.267 E2.28276
G1 X80.091 Y68.331 E2.29715
G1 X80.484 Y68.415 E2.31185
G1 X80.851 Y68.514 E2.32576
G1 X81.212 Y68.639 E2.33974
G1 X81.552 Y68.787 E2.35331
G1 X81.889 Y68.969 E2.36732
G1 X82.219 Y69.177 E2.38159
G1 X82.528 Y69.399 E2.39551
G1 X82.846 Y69.651 E2.41035
G1 X83.3 Y70.044 E2.43232
G1 X83.896 Y70.594 E2.46199
G1 X84.277 Y71.108 E2.4854
G1 X84.527 Y71.474 E2.50162
G1 X84.74 Y71.826 E2.51667
G1 X84.936 Y72.219 E2.53274
G1 X85.092 Y72.604 E2.54794
G1 X85.235 Y73.015 E2.56386
G1 X85.429 Y73.645 E2.58798
G1 X85.545 Y74.241 E2.61019
G1 X85.703 Y75.155 E2.64413
G1 X85.782 Y75.763 E2.66656
G1 X85.834 Y76.375 E2.68903
G1 X85.865 Y76.992 E2.71163
G1 X85.883 Y77.924 E2.74574
G1 X85.886 Y82.111 E2.89892
G1 X85.913 Y82.531 E2.91432
G1 X86.001 Y82.96 E2.93034
G1 X86.146 Y83.368 E2.94618
G1 X86.342 Y83.753 E2.96199
G1 X86.593 Y84.11 E2.97796
G1 X86.885 Y84.428 E2.99375
G1 X87.219 Y84.703 E3.00958
G1 X87.591 Y84.934 E3.0256
G1 X87.988 Y85.109 E3.04147
G1 X88.402 Y85.229 E3.05724
G1 X89.235 Y85.348 E3.08803
G1 X89.634 Y85.455 E3.10314
G1 X90.009 Y85.608 E3.11796
G1 X90.371 Y85.808 E3.13309
G1 X90.701 Y86.052 E3.14811
G1 X90.998 Y86.333 E3.16307
G1 X91.261 Y86.654 E3.17825
G1 X91.479 Y87 E3.19321
G1 X91.654 Y87.371 E3.20822
G1 X91.781 Y87.762 E3.22326
G1 X91.856 Y88.157 E3.23797
G1 X91.885 Y88.586 E3.2537
G1 X91.886 Y89.573 E3.28981
G1 X91.862 Y89.982 E3.3048
G1 X91.786 Y90.388 E3.31991
G1 X91.661 Y90.783 E3.33507
G1 X91.494 Y91.144 E3.34962
G1 X91.271 Y91.503 E3.36508
G1 X91.014 Y91.819 E3.37999
G1 X90.722 Y92.099 E3.39479
G1 X90.392 Y92.346 E3.40987
G1 X90.032 Y92.55 E3.42501
G1 X89.654 Y92.705 E3.43995
G1 X89.257 Y92.815 E3.45503
G1 X88.414 Y92.936 E3.48618
G1 X88.002 Y93.055 E3.50187
G1 X87.6 Y93.231 E3.51793
G1 X87.232 Y93.458 E3.53375
G1 X86.896 Y93.732 E3.54961
G1 X86.601 Y94.049 E3.56545
G1 X86.35 Y94.407 E3.58145
G1 X86.151 Y94.791 E3.59727
G1 X86.005 Y95.204 E3.6133
G0 F3600 X85.964 Y95.399
G0 X85.535 Y95.308
;;retract;;
G1 F6000 E-4.3867
G0 F3600 X82.184 Y96.644
;TYPE:SKIN
G1 F6000 E3.6133
G1 F1500 X82.502 Y96.644 E3.62493
G1 X83.068 Y96.644 E3.64564
G1 X82.183 Y95.759 E3.69143
G1 X82.183 Y95.194 E3.7121
G1 X83.633 Y96.644 E3.78713
G1 X84.199 Y96.644 E3.80784
G1 X82.183 Y94.628 E3.91214
G1 X82.183 Y94.062 E3.93285
G1 X84.765 Y96.644 E4.06645
G1 X85.33 Y96.644 E4.08712
G1 X82.182 Y93.496 E4.25
G1 X82.182 Y92.93 E4.2707
G1 X85.646 Y96.394 E4.44993
G1 X85.646 Y96.044 E4.46274
G1 X85.661 Y95.843 E4.47011
G1 X82.182 Y92.365 E4.65009
G1 X82.182 Y91.799 E4.6708
G1 X85.73 Y95.346 E4.85435
G1 X85.773 Y95.138 E4.86212
G1 X85.855 Y94.906 E4.87112
G1 X82.182 Y91.233 E5.06117
G1 X82.182 Y90.667 E5.08188
G1 X86.025 Y94.511 E5.28074
G1 X86.145 Y94.281 E5.29023
G1 X86.234 Y94.154 E5.29591
G1 X82.182 Y90.101 E5.50558
G1 X82.182 Y89.535 E5.52629
G1 X86.476 Y93.83 E5.74849
G1 X86.731 Y93.556 E5.76219
G1 X86.751 Y93.539 E5.76315
G1 X82.182 Y88.97 E5.99955
G1 X82.181 Y88.403 E6.02029
G1 X87.063 Y93.285 E6.27289
G1 X87.092 Y93.261 E6.27427
G1 X87.408 Y93.065 E6.28787
G1 X85.867 Y91.524 E6.36761
G1 X86.433 Y91.524 E6.38831
G1 X87.792 Y92.883 E6.45863
G1 X87.919 Y92.828 E6.46369
G1 X88.216 Y92.742 E6.47501
G1 X86.998 Y91.524 E6.53803
G1 X87.564 Y91.524 E6.55873
G1 X88.692 Y92.652 E6.6171
G1 X89.186 Y92.58 E6.63536
G1 X88.13 Y91.524 E6.69
G1 X88.695 Y91.524 E6.71067
G1 X89.627 Y92.455 E6.75887
G1 X89.922 Y92.334 E6.77053
G1 X90.017 Y92.28 E6.77453
G1 X89.242 Y91.505 E6.81463
G1 X89.555 Y91.453 E6.82624
G1 X89.685 Y91.382 E6.83166
G1 X90.366 Y92.063 E6.86689
G1 X90.568 Y91.913 E6.8761
G1 X90.677 Y91.808 E6.88164
G1 X90.032 Y91.163 E6.91501
G1 X90.301 Y90.866 E6.92967
G1 X90.95 Y91.516 E6.96327
G1 X91.071 Y91.367 E6.9703
G1 X91.185 Y91.185 E6.97815
G1 X90.468 Y90.468 E7.01525
G1 X90.486 Y90.426 E7.01692
G1 X90.525 Y90.11 E7.02857
G1 X90.524 Y89.958 E7.03413
G1 X91.381 Y90.815 E7.07848
G1 X91.438 Y90.692 E7.08343
G1 X91.53 Y90.399 E7.09467
G1 X90.523 Y89.391 E7.1468
G1 X90.521 Y88.824 E7.16754
G1 X91.624 Y89.927 E7.22461
G1 X91.645 Y89.559 E7.2381
G1 X91.645 Y89.382 E7.24458
G1 X90.52 Y88.258 E7.30276
G1 X90.52 Y87.918 E7.3152
G1 X90.43 Y87.602 E7.32722
G1 X90.392 Y87.466 E7.33238
G1 X90.109 Y87.063 E7.3504
G1 X89.721 Y86.788 E7.3678
G0 F3600 X89.571 Y86.742
G1 F1500 X88.268 Y85.44 E7.43519
G1 X87.904 Y85.335 E7.44905
G1 X87.476 Y85.146 E7.46617
G1 X87.297 Y85.035 E7.47388
G1 X88.907 Y86.644 E7.55715
G1 X88.341 Y86.644 E7.57786
G1 X82.179 Y80.482 E7.89669
G1 X82.179 Y81.048 E7.91739
G1 X87.775 Y86.644 E8.20693
G1 X87.21 Y86.644 E8.22761
G1 X82.179 Y81.614 E8.48789
G1 X82.179 Y82.179 E8.50856
G1 X86.644 Y86.644 E8.73958
G1 X86.078 Y86.644 E8.76029
G1 X82.179 Y82.745 E8.96202
G1 X82.18 Y83.312 E8.98277
G1 X85.646 Y86.778 E9.1621
G1 X85.647 Y87.344 E9.18281
G1 X82.18 Y83.877 E9.36219
G1 X82.18 Y84.443 E9.3829
G1 X85.647 Y87.91 E9.56229
G1 X85.648 Y88.476 E9.58299
G1 X82.18 Y85.009 E9.76241
G1 X82.18 Y85.574 E9.78308
G1 X85.649 Y89.043 E9.96256
G1 X85.649 Y89.609 E9.98327
G1 X82.181 Y86.141 E10.16271
G1 X82.181 Y86.706 E10.18338
G1 X85.65 Y90.175 E10.36287
G1 X85.65 Y90.741 E10.38358
G1 X82.181 Y87.272 E10.56306
G1 X82.181 Y87.838 E10.58377
G1 X85.651 Y91.307 E10.76329
G1 X85.651 Y91.524 E10.77123
;;retract;;
G1 F6000 E2.77123
G0 F3600 X82.183 Y96.325
G1 F6000 E10.77123
G1 F1500 X82.502 Y96.644 E10.78773
;;retract;;
G1 F6000 E2.78773
G0 F3600 X90.43 Y87.602
G1 F6000 E10.78773
G1 F1500 X91.644 Y88.816 E10.85054
G1 X91.643 Y88.599 E10.85848
G1 X91.619 Y88.225 E10.87219
G1 X88.943 Y85.549 E11.01065
G1 X89.188 Y85.583 E11.0197
G1 X89.558 Y85.683 E11.03372
G1 X89.702 Y85.742 E11.03942
G1 X89.906 Y85.825 E11.04748
G1 X90.237 Y86.007 E11.0613
G1 X90.552 Y86.24 E11.07563
G1 X90.815 Y86.489 E11.08888
G1 X91.065 Y86.794 E11.10331
G1 X91.266 Y87.112 E11.11707
G1 X91.428 Y87.457 E11.13102
G0 F3600 X91.434 Y87.474
G1 F1500 X89.702 Y85.742 E11.22063
;;retract;;
G1 F6000 E3.22063
G0 F3600 X87.078 Y84.898
G1 F6000 E11.22063
G1 F1500 X86.718 Y84.602 E11.23768
G1 X86.404 Y84.26 E11.25467
G1 X86.135 Y83.877 E11.27179
G1 X86.131 Y83.868 E11.27215
G1 X82.179 Y79.916 E11.47663
G1 X82.179 Y79.35 E11.49734
G1 X85.746 Y82.918 E11.68192
G1 X85.673 Y82.563 E11.69518
G1 X85.653 Y82.259 E11.70633
G1 X82.179 Y78.785 E11.88608
G1 X82.179 Y78.219 E11.90679
G1 X85.644 Y81.684 E12.08607
G1 X85.644 Y81.119 E12.10674
G1 X82.179 Y77.653 E12.28605
G1 X82.179 Y77.557 E12.28956
G1 X82.163 Y77.072 E12.30731
G1 X85.644 Y80.552 E12.48739
G1 X85.644 Y79.987 E12.50807
G1 X82.126 Y76.47 E12.69006
G1 X82.109 Y76.227 E12.69898
G1 X82.054 Y75.832 E12.71357
G1 X85.644 Y79.421 E12.89929
G1 X85.643 Y78.855 E12.92
G1 X81.934 Y75.146 E13.1119
G1 X81.791 Y74.564 E13.13383
G1 X81.733 Y74.379 E13.14092
G1 X85.643 Y78.289 E13.34323
G1 X85.642 Y77.925 E13.35655
G1 X85.639 Y77.719 E13.36408
G1 X81.467 Y73.547 E13.57995
G1 X81.358 Y73.218 E13.59263
G1 X80.926 Y72.65 E13.61873
G1 X80.632 Y72.327 E13.63471
G1 X80.366 Y72.095 E13.64763
G1 X80.07 Y71.904 E13.66052
G1 X79.751 Y71.763 E13.67328
;;retract;;
G1 F6000 E5.67328
G0 F3600 X75.499 Y72.407
G1 F6000 E13.67328
G1 F1500 X75.634 Y72.325 E13.67906
G1 X75.688 Y72.294 E13.68133
G1 X75.095 Y71.701 E13.71202
G1 X74.336 Y70.376 E13.76788
G1 X76.054 Y72.094 E13.85677
G1 X76.394 Y71.933 E13.87054
G1 X76.441 Y71.916 E13.87236
G1 X73.971 Y69.446 E14.00016
G1 X74.323 Y69.267 E14.01461
G1 X74.348 Y69.256 E14.01561
G1 X76.861 Y71.769 E14.14564
G1 X77.211 Y71.678 E14.15887
G1 X77.315 Y71.658 E14.16274
G1 X74.738 Y69.081 E14.29608
G1 X74.894 Y69.01 E14.30235
G1 X75.136 Y68.913 E14.31189
G1 X77.802 Y71.58 E14.44985
G1 X78.285 Y71.519 E14.46766
G1 X78.309 Y71.521 E14.46854
G1 X75.553 Y68.765 E14.61114
G1 X75.631 Y68.738 E14.61416
G1 X75.995 Y68.641 E14.62794
G1 X78.936 Y71.582 E14.78011
G1 X78.974 Y71.586 E14.78151
G1 X79.414 Y71.664 E14.79786
G1 X79.654 Y71.735 E14.80702
G1 X76.465 Y68.546 E14.97202
G1 X76.959 Y68.474 E14.99028
G1 X85.627 Y77.142 E15.43877
G1 X85.624 Y76.997 E15.44408
G1 X85.601 Y76.55 E15.46045
G1 X77.472 Y68.421 E15.88105
G1 X77.619 Y68.406 E15.88646
G1 X77.996 Y68.38 E15.90028
G1 X85.555 Y75.939 E16.29139
G1 X85.542 Y75.782 E16.29715
G1 X85.479 Y75.296 E16.31508
G1 X78.566 Y68.384 E16.67274
G1 X79.078 Y68.43 E16.69155
G1 X79.193 Y68.445 E16.69579
G1 X85.366 Y74.618 E17.01519
G1 X85.308 Y74.282 E17.02766
G1 X85.238 Y73.925 E17.04097
G1 X79.847 Y68.534 E17.3199
G1 X80.04 Y68.566 E17.32706
G1 X80.431 Y68.649 E17.34169
G1 X80.564 Y68.685 E17.34673
G1 X85.023 Y73.143 E17.57741
G1 X85.004 Y73.085 E17.57965
G1 X84.864 Y72.683 E17.59522
G1 X84.719 Y72.322 E17.60945
G1 X84.671 Y72.226 E17.61338
G1 X81.45 Y69.005 E17.78004
G1 X81.766 Y69.175 E17.79316
G1 X82.09 Y69.379 E17.80717
G1 X82.378 Y69.587 E17.82017
G1 X82.694 Y69.838 E17.83493
G1 X83.135 Y70.219 E17.85626
G1 X83.714 Y70.753 E17.88507
G1 X84.077 Y71.243 E17.90738
G1 X84.321 Y71.598 E17.92314
G1 X84.529 Y71.943 E17.93788
;;retract;;
G1 F6000 E9.93788
;MESH:NONMESH
G0 F600 X84.529 Y71.943 Z0.5
G0 F3600 X85.886 Y86.885
;TIME_ELAPSED:32.369138

;LAYER:1
M140 S60
M106 S127.5
;TYPE:WALL-OUTER
;MESH:
G1 F6000 E17.93788
G1 F1500 X85.886 Y91.085 E18.14742
G1 X85.886 Y91.285 E18.1574
G1 X86.086 Y91.285 E18.16386
G1 X89.203 Y91.28 E18.31937
G1 X89.582 Y91.181 E18.33891
G1 X89.856 Y91.008 E18.35508
G1 X90.092 Y90.743 E18.37278
G1 X90.25 Y90.381 E18.39249
G1 X90.286 Y90.098 E18.40672
G1 X90.282 Y87.968 E18.51299
G1 X90.181 Y87.589 E18.53255
G1 X90.009 Y87.315 E18.54869
G1 X89.744 Y87.08 E18.56637
G1 X89.379 Y86.919 E18.58627
G1 X88.96 Y86.885 E18.60724
G1 X85.886 Y86.885 E18.7606
G0 F5400 X85.886 Y87.085
G0 X85.446 Y87.085
;;retract;;
G1 F6000 E10.7606
G0 F5400 X86.006 Y95.199
G1 F6000 E18.7606
G1 F1500 X85.919 Y95.619 E18.782
G1 X85.887 Y96.042 E18.80317
G1 X85.886 Y96.885 E18.84522
G1 X81.944 Y96.885 E19.04189
G1 X81.94 Y77.561 E20.00597
G1 X81.919 Y76.899 E20.03901
G1 X81.873 Y76.282 E20.06988
G1 X81.83 Y75.913 E20.08841
G1 X81.78 Y75.586 E20.10492
G1 X81.716 Y75.259 E20.12154
G1 X81.567 Y74.657 E20.15248
G1 X81.363 Y73.987 E20.18742
G1 X81.144 Y73.332 E20.22188
G1 X80.759 Y72.826 E20.2536
G1 X80.478 Y72.512 E20.27462
G1 X80.231 Y72.293 E20.29109
G1 X79.965 Y72.121 E20.3069
G1 X79.676 Y71.993 E20.32266
G1 X79.372 Y71.903 E20.33848
G1 X78.97 Y71.83 E20.35887
G1 X78.731 Y71.8 E20.37088
G1 X78.289 Y71.761 E20.39302
G1 X77.667 Y71.841 E20.42431
G1 X77.265 Y71.913 E20.44468
G1 X76.869 Y72.016 E20.4651
G1 X76.505 Y72.148 E20.48441
G1 X76.112 Y72.335 E20.50613
G1 X75.756 Y72.533 E20.52645
G1 X75.589 Y72.635 E20.53621
G1 X75.588 Y72.636 E20.53628
G1 X75.414 Y72.741 E20.54642
G1 X75.313 Y72.564 E20.55295
G1 X73.611 Y69.593 E20.72377
G1 X73.507 Y69.411 E20.73423
G1 X73.694 Y69.317 E20.74087
G1 X74.216 Y69.053 E20.77006
G1 X74.806 Y68.787 E20.80234
G1 X75.113 Y68.664 E20.81884
G1 X75.56 Y68.511 E20.84242
G1 X75.876 Y68.422 E20.85879
G1 X76.334 Y68.323 E20.88217
G1 X76.989 Y68.226 E20.91521
G1 X77.638 Y68.164 E20.94773
G1 X78.295 Y68.118 E20.98059
G1 X79.102 Y68.192 E21.02102
G1 X79.703 Y68.267 E21.05124
G1 X80.091 Y68.331 E21.07086
G1 X80.484 Y68.415 E21.09091
G1 X80.851 Y68.514 E21.10987
G1 X81.212 Y68.639 E21.12893
G1 X81.552 Y68.787 E21.14743
G1 X81.889 Y68.969 E21.16654
G1 X82.219 Y69.177 E21.186
G1 X82.528 Y69.399 E21.20498
G1 X82.846 Y69.651 E21.22522
G1 X83.3 Y70.044 E21.25518
G1 X83.896 Y70.594 E21.29564
G1 X84.277 Y71.108 E21.32756
G1 X84.527 Y71.474 E21.34968
G1 X84.74 Y71.826 E21.3702
G1 X84.936 Y72.219 E21.39211
G1 X85.092 Y72.604 E21.41284
G1 X85.235 Y73.015 E21.43455
G1 X85.429 Y73.645 E21.46743
