; generated by Slic3r Prusa Edition 1.39.1-prusa3d on 2018-04-22 at 18:20:04

; 

; external perimeters extrusion width = 0.45mm
; perimeters extrusion width = 0.45mm
; infill extrusion width = 0.45mm
; solid infill extrusion width = 0.45mm
; top infill extrusion width = 0.33mm
; first layer extrusion width = 0.42mm

M107
M115 U3.1.0 ; tell printer latest fw version
M201 X9000 Y9000 Z500 E10000 ; sets maximum accelerations, mm/sec^2
M203 X500 Y500 Z12 E120 ; sets maximum feedrates, mm/sec
M204 S1500 T1500 ; sets acceleration (S) and retract acceleration (T)
M205 X10 Y10 Z0.2 E2.5 ; sets the jerk limits, mm/sec
M205 S0 T0 ; sets the minimum extruding and travel feed rate, mm/sec
M83  ; extruder relative mode
M104 S215 ; set extruder temp
M140 S60 ; set bed temp
M190 S60 ; wait for bed temp
M109 S215 ; wait for extruder temp
G28 W ; home all without mesh bed level
G80 ; mesh bed leveling
G1 Y-3.0 F1000.0 ; go outside print area
G92 E0.0
G1 E18.0 F1000.0;
G1 X60.0 E9.0  F1000.0 ; intro line
G1 X100.0 E12.5  F1000.0 ; intro line
G92 E0.0
M900 K30; Filament gcode
G21 ; set units to millimeters
G90 ; use absolute coordinates
M83 ; use relative distances for extrusion
;BEFORE_LAYER_CHANGE
;0.2


G1 E-0.80000 F2100.00000
G1 Z0.600 F7200.000
;AFTER_LAYER_CHANGE
;0.2
G1 X113.464 Y90.053 F7200.000
G1 Z0.200 F7200.000
G1 E0.80000 F2100.00000
M204 S1000
G1 F900
G1 X114.115 Y89.488 E0.02701
G1 X115.965 Y88.579 E0.06464
G1 X117.262 Y88.119 E0.04315
G1 X118.593 Y87.844 E0.04261
G1 X120.642 Y87.662 E0.06448
G1 X123.241 Y87.979 E0.08209
G1 X124.308 Y88.269 E0.03467
G1 X125.188 Y88.631 E0.02984
G1 X126.186 Y89.209 E0.03616
G1 X127.067 Y89.871 E0.03456
G1 X128.336 Y91.010 E0.05346
G1 X128.861 Y91.666 E0.02635
G1 X129.505 Y92.615 E0.03595
G1 X129.965 Y93.489 E0.03097
G1 X136.625 Y108.501 E0.51493
G1 X136.994 Y109.557 E0.03506
G1 X137.174 Y110.749 E0.03780
G1 X137.134 Y112.862 E0.06628
G1 X136.857 Y114.077 E0.03908
G1 X136.232 Y115.400 E0.04589
G1 X135.490 Y116.363 E0.03810
G1 X130.337 Y121.570 E0.22969
G1 X129.754 Y121.999 E0.02269
G1 X129.083 Y122.259 E0.02256
G1 X128.446 Y122.338 E0.02014
G1 X123.590 Y122.293 E0.15226
G1 X123.006 Y122.117 E0.01912
G1 X122.472 Y121.815 E0.01924
G1 X122.018 Y121.402 E0.01924
G1 X121.667 Y120.898 E0.01924
G1 X121.456 Y120.397 E0.01707
G1 X112.895 Y92.480 E0.91554
G1 X112.824 Y91.625 E0.02689
G1 X113.020 Y90.787 E0.02701
G1 X113.433 Y90.104 E0.02501
G1 X113.778 Y90.265 F7200.000
G1 F900
G1 X114.362 Y89.780 E0.02378
G1 X116.123 Y88.922 E0.06143
G1 X117.370 Y88.481 E0.04147
G1 X118.645 Y88.217 E0.04083
G1 X120.639 Y88.039 E0.06276
G1 X123.161 Y88.347 E0.07966
G1 X124.190 Y88.627 E0.03343
G1 X125.019 Y88.968 E0.02813
G1 X125.979 Y89.524 E0.03476
G1 X126.828 Y90.163 E0.03333
G1 X128.071 Y91.279 E0.05237
G1 X128.566 Y91.901 E0.02493
G1 X129.181 Y92.810 E0.03441
G1 X129.621 Y93.644 E0.02958
G1 X136.280 Y108.653 E0.51483
G1 X136.626 Y109.642 E0.03286
G1 X136.797 Y110.766 E0.03565
G1 X136.761 Y112.809 E0.06405
G1 X136.501 Y113.951 E0.03673
G1 X135.913 Y115.199 E0.04327
G1 X135.216 Y116.104 E0.03578
G1 X130.084 Y121.291 E0.22880
G1 X129.583 Y121.662 E0.01953
G1 X129.000 Y121.891 E0.01965
G1 X128.446 Y121.961 E0.01752
G1 X123.689 Y121.927 E0.14914
G1 X123.171 Y121.777 E0.01692
G1 X122.700 Y121.514 E0.01692
G1 X122.298 Y121.148 E0.01704
G1 X121.991 Y120.704 E0.01692
G1 X113.263 Y92.395 E0.92885
G1 X113.201 Y91.643 E0.02367
G1 X113.379 Y90.905 E0.02378
G1 X113.747 Y90.316 E0.02178
G1 F5760
G1 X114.362 Y89.780 E-0.28253
G1 F5760
G1 X115.601 Y89.176 E-0.47747
G1 E-0.04000 F2100.00000
G1 Z0.800 F7200.000
G1 X127.842 Y108.996 F7200.000
G1 Z0.200 F7200.000
G1 E0.80000 F2100.00000
G1 F900
G1 X131.608 Y109.003 E0.11807
G1 X131.938 Y109.079 E0.01063
G1 X132.120 Y109.154 E0.00615
G1 X132.295 Y109.252 E0.00629
G1 X132.554 Y109.459 E0.01042
G1 X132.766 Y109.725 E0.01063
G1 X132.861 Y109.896 E0.00615
G1 X132.936 Y110.082 E0.00629
G1 X133.010 Y110.405 E0.01040
G1 X133.016 Y112.616 E0.06931
G1 X132.980 Y112.938 E0.01016
G1 X132.868 Y113.259 E0.01065
G1 X132.766 Y113.443 E0.00662
G1 X132.564 Y113.696 E0.01013
G1 X132.407 Y113.837 E0.00662
G1 X132.119 Y114.017 E0.01065
G1 X131.799 Y114.129 E0.01065
G1 X131.591 Y114.165 E0.00660
G1 X127.842 Y114.172 E0.11755
G1 X127.842 Y109.056 E0.16043
G1 X128.219 Y109.374 F7200.000
G1 F900
G1 X131.565 Y109.380 E0.10491
G1 X131.823 Y109.439 E0.00831
G1 X131.955 Y109.494 E0.00446
G1 X132.083 Y109.566 E0.00462
G1 X132.286 Y109.728 E0.00813
G1 X132.451 Y109.935 E0.00831
G1 X132.520 Y110.059 E0.00446
G1 X132.576 Y110.196 E0.00462
G1 X132.633 Y110.448 E0.00812
G1 X132.639 Y112.595 E0.06733
G1 X132.610 Y112.854 E0.00814
G1 X132.523 Y113.104 E0.00832
G1 X132.451 Y113.233 E0.00463
G1 X132.289 Y113.436 E0.00813
G1 X132.179 Y113.534 E0.00463
G1 X131.955 Y113.675 E0.00832
G1 X131.704 Y113.763 E0.00832
G1 X131.559 Y113.788 E0.00462
G1 X128.219 Y113.794 E0.10472
G1 X128.219 Y109.434 E0.13673
G1 X128.134 Y108.983 F7200.000
G1 F5760
G1 X130.413 Y109.399 E-0.76000
G1 E-0.04000 F2100.00000
G1 Z0.800 F7200.000
G1 X127.845 Y118.997 F7200.000
G1 Z0.200 F7200.000
G1 E0.80000 F2100.00000
G1 F900
G1 X124.674 Y118.997 E0.09943
G1 X124.662 Y99.717 E0.60451
G1 X124.597 Y98.697 E0.03204
G1 X124.439 Y97.680 E0.03226
G1 X124.177 Y96.692 E0.03206
G1 X123.835 Y95.650 E0.03438
G1 X123.384 Y95.056 E0.02338
G1 X123.074 Y94.715 E0.01447
G1 X122.795 Y94.473 E0.01156
G1 X122.479 Y94.270 E0.01176
G1 X122.139 Y94.122 E0.01166
G1 X121.790 Y94.021 E0.01137
G1 X121.339 Y93.940 E0.01437
G1 X120.621 Y93.870 E0.02261
G1 X119.527 Y94.033 E0.03471
G1 X118.883 Y94.217 E0.02098
G1 X118.277 Y94.490 E0.02084
G1 X117.900 Y94.711 E0.01372
G1 X116.388 Y92.072 E0.09537
G1 X117.299 Y91.643 E0.03158
G1 X117.878 Y91.424 E0.01940
G1 X118.304 Y91.300 E0.01391
G1 X119.065 Y91.151 E0.02431
G1 X119.691 Y91.077 E0.01978
G1 X120.633 Y91.005 E0.02961
G1 X121.988 Y91.149 E0.04272
G1 X122.738 Y91.291 E0.02393
G1 X123.406 Y91.497 E0.02194
G1 X123.889 Y91.719 E0.01667
G1 X124.186 Y91.893 E0.01078
G1 X124.638 Y92.209 E0.01729
G1 X125.391 Y92.837 E0.03076
G1 X125.948 Y93.351 E0.02374
G1 X126.428 Y94.009 E0.02554
G1 X126.647 Y94.348 E0.01267
G1 X126.838 Y94.694 E0.01237
G1 X127.001 Y95.055 E0.01242
G1 X127.143 Y95.436 E0.01276
G1 X127.394 Y96.235 E0.02625
G1 X127.663 Y97.715 E0.04717
G1 X127.768 Y98.604 E0.02807
G1 X127.830 Y99.815 E0.03800
G1 X127.849 Y104.845 E0.15774
G1 X127.916 Y105.334 E0.01547
G1 X128.041 Y105.784 E0.01463
G1 X128.139 Y106.035 E0.00846
G1 X128.359 Y106.462 E0.01505
G1 X128.629 Y106.846 E0.01472
G1 X128.802 Y107.046 E0.00830
G1 X129.152 Y107.377 E0.01510
G1 X129.553 Y107.662 E0.01542
G1 X129.977 Y107.885 E0.01502
G1 X130.439 Y108.052 E0.01541
G1 X130.897 Y108.151 E0.01470
G1 X131.514 Y108.232 E0.01952
G1 X131.862 Y108.326 E0.01127
G1 X132.350 Y108.542 E0.01674
G1 X132.797 Y108.850 E0.01703
G1 X133.072 Y109.112 E0.01193
G1 X133.390 Y109.529 E0.01643
G1 X133.637 Y110.013 E0.01705
G1 X133.754 Y110.375 E0.01193
G1 X133.836 Y110.904 E0.01679
G1 X133.842 Y112.067 E0.03646
G1 X133.818 Y112.455 E0.01217
G1 X133.701 Y112.976 E0.01674
G1 X133.569 Y113.313 E0.01136
G1 X133.396 Y113.631 E0.01136
G1 X133.185 Y113.925 E0.01136
G1 X132.939 Y114.191 E0.01136
G1 X132.661 Y114.424 E0.01136
G1 X132.357 Y114.621 E0.01136
G1 X132.031 Y114.779 E0.01136
G1 X131.688 Y114.895 E0.01136
G1 X131.318 Y114.971 E0.01186
G1 X130.687 Y115.054 E0.01994
G1 X130.423 Y115.121 E0.00854
G1 X129.992 Y115.278 E0.01438
G1 X129.747 Y115.396 E0.00853
G1 X129.350 Y115.641 E0.01461
G1 X129.140 Y115.802 E0.00832
G1 X128.799 Y116.124 E0.01471
G1 X128.500 Y116.494 E0.01490
G1 X128.350 Y116.723 E0.00860
G1 X128.135 Y117.142 E0.01476
G1 X127.972 Y117.604 E0.01536
G1 X127.876 Y118.066 E0.01478
G1 X127.849 Y118.332 E0.00839
G1 X127.846 Y118.937 E0.01896
G1 X128.220 Y119.374 F7200.000
G1 F900
G1 X124.297 Y119.374 E0.12301
G1 X124.285 Y99.729 E0.61596
G1 X124.222 Y98.738 E0.03113
G1 X124.070 Y97.758 E0.03110
G1 X123.815 Y96.799 E0.03110
G1 X123.497 Y95.828 E0.03206
G1 X123.094 Y95.297 E0.02088
G1 X122.810 Y94.985 E0.01325
G1 X122.569 Y94.776 E0.01000
G1 X122.301 Y94.604 E0.00997
G1 X122.010 Y94.477 E0.00996
G1 X121.704 Y94.388 E0.00998
G1 X121.287 Y94.314 E0.01328
G1 X120.631 Y94.249 E0.02068
G1 X119.607 Y94.402 E0.03247
G1 X119.013 Y94.572 E0.01935
G1 X118.451 Y94.825 E0.01934
G1 X117.763 Y95.230 E0.02503
G1 X115.863 Y91.914 E0.11981
G1 X116.559 Y91.564 E0.02442
G1 X117.155 Y91.294 E0.02051
G1 X117.759 Y91.067 E0.02023
G1 X118.215 Y90.933 E0.01490
G1 X119.006 Y90.779 E0.02529
G1 X119.655 Y90.702 E0.02047
G1 X120.635 Y90.627 E0.03083
G1 X122.044 Y90.776 E0.04442
G1 X122.822 Y90.923 E0.02484
G1 X123.191 Y91.023 E0.01199
G1 X123.548 Y91.146 E0.01182
G1 X124.064 Y91.385 E0.01784
G1 X124.389 Y91.576 E0.01182
G1 X124.867 Y91.909 E0.01827
G1 X125.640 Y92.554 E0.03156
G1 X126.231 Y93.098 E0.02519
G1 X126.739 Y93.795 E0.02704
G1 X126.971 Y94.154 E0.01342
G1 X127.176 Y94.525 E0.01327
G1 X127.350 Y94.911 E0.01329
G1 X127.500 Y95.313 E0.01345
G1 X127.761 Y96.144 E0.02731
G1 X128.036 Y97.659 E0.04828
G1 X128.144 Y98.572 E0.02883
G1 X128.207 Y99.804 E0.03868
G1 X128.226 Y104.819 E0.15723
G1 X128.286 Y105.257 E0.01388
G1 X128.399 Y105.664 E0.01324
G1 X128.484 Y105.879 E0.00725
G1 X128.683 Y106.266 E0.01364
G1 X128.927 Y106.614 E0.01332
G1 X129.075 Y106.785 E0.00710
G1 X129.392 Y107.085 E0.01367
G1 X129.751 Y107.340 E0.01381
G1 X130.130 Y107.539 E0.01342
G1 X130.543 Y107.689 E0.01380
G1 X130.961 Y107.779 E0.01341
G1 X131.588 Y107.861 E0.01983
G1 X131.983 Y107.968 E0.01280
G1 X132.540 Y108.216 E0.01913
G1 X132.889 Y108.442 E0.01304
G1 X133.045 Y108.564 E0.00621
G1 X133.345 Y108.851 E0.01304
G1 X133.476 Y109.001 E0.00622
G1 X133.710 Y109.327 E0.01260
G1 X133.913 Y109.699 E0.01327
G1 X133.991 Y109.881 E0.00621
G1 X134.118 Y110.277 E0.01304
G1 X134.212 Y110.880 E0.01915
G1 X134.219 Y112.078 E0.03757
G1 X134.193 Y112.496 E0.01312
G1 X134.061 Y113.091 E0.01913
G1 X133.911 Y113.472 E0.01283
G1 X133.716 Y113.832 E0.01283
G1 X133.477 Y114.164 E0.01283
G1 X133.199 Y114.465 E0.01283
G1 X132.886 Y114.728 E0.01283
G1 X132.543 Y114.951 E0.01283
G1 X132.174 Y115.129 E0.01283
G1 X131.787 Y115.260 E0.01283
G1 X131.380 Y115.343 E0.01301
G1 X130.758 Y115.425 E0.01967
G1 X130.534 Y115.482 E0.00726
G1 X130.139 Y115.625 E0.01318
G1 X129.928 Y115.727 E0.00732
G1 X129.565 Y115.951 E0.01339
G1 X129.385 Y116.090 E0.00712
G1 X129.076 Y116.381 E0.01332
G1 X128.805 Y116.716 E0.01349
G1 X128.677 Y116.913 E0.00738
G1 X128.482 Y117.292 E0.01335
G1 X128.336 Y117.706 E0.01376
G1 X128.249 Y118.123 E0.01338
G1 X128.226 Y118.353 E0.00722
G1 X128.221 Y119.314 E0.03015
G1 X127.876 Y119.171 F7200.000
G1 F5760
G1 X126.027 Y119.348 E-0.76000
G1 E-0.04000 F2100.00000
G1 Z0.800 F7200.000
G1 X124.787 Y118.107 F7200.000
G1 Z0.200 F7200.000
G1 E0.80000 F2100.00000
G1 F900
G1 X125.394 Y118.714 E0.02741
G1 X125.937 Y118.714 E0.01732
G1 X124.956 Y117.733 E0.04426
G1 X124.956 Y117.190 E0.01733
G1 X126.480 Y118.714 E0.06878
G1 X127.022 Y118.714 E0.01732
G1 X124.955 Y116.647 E0.09329
G1 X124.955 Y116.104 E0.01733
G1 X127.564 Y118.713 E0.11776
G1 X127.580 Y118.186 E0.01683
G1 X124.955 Y115.561 E0.11848
G1 X124.954 Y115.018 E0.01733
G1 X127.659 Y117.722 E0.12205
G1 X127.699 Y117.528 E0.00631
G1 X127.779 Y117.300 E0.00773
G1 X124.954 Y114.475 E0.12751
G1 X124.954 Y113.931 E0.01733
G1 X127.935 Y116.913 E0.13455
G1 X128.121 Y116.556 E0.01283
G1 X124.954 Y113.388 E0.14299
G1 X124.953 Y112.845 E0.01733
G1 X128.344 Y116.236 E0.15305
G1 X128.587 Y115.936 E0.01232
G1 X124.953 Y112.302 E0.16403
G1 X124.953 Y111.759 E0.01733
G1 X128.866 Y115.672 E0.17663
G1 X129.164 Y115.427 E0.01231
G1 X128.191 Y114.454 E0.04392
G1 X128.732 Y114.453 E0.01729
G1 X129.497 Y115.218 E0.03451
G1 X129.853 Y115.031 E0.01283
G1 X129.274 Y114.452 E0.02611
G1 X129.816 Y114.451 E0.01729
G1 X130.248 Y114.884 E0.01952
G1 X130.678 Y114.770 E0.01418
G1 X130.358 Y114.450 E0.01446
G1 X130.899 Y114.449 E0.01729
G1 X131.308 Y114.857 E0.01844
G1 X131.702 Y114.337 F7200.000
G1 F900
G1 X131.873 Y114.468 E0.00418
G1 X131.901 Y114.459 E0.00055
G1 X132.271 Y114.298 E0.00785
G1 X132.584 Y114.088 E0.00733
G1 X132.793 Y113.899 E0.00549
G1 F900
G1 X133.030 Y113.608 E0.00763
G1 F900
G1 X133.166 Y113.380 E0.00588
G1 F900
G1 X133.260 Y113.169 E0.00582
G1 F900
G1 X133.319 Y113.007 E0.00447
G1 X133.187 Y112.825 E0.00583
G1 X133.127 Y111.921 F7200.000
G1 F900
G1 X133.542 Y112.336 E0.01973
G1 X133.558 Y111.779 E0.01875
G1 X133.296 Y111.517 E0.01246
G1 X133.294 Y110.943 E0.01933
G1 X133.725 Y111.374 E0.02051
G1 F5760
G1 X133.294 Y110.943 E-0.21105
G1 F5760
G1 X133.296 Y111.517 E-0.19887
G1 F5760
G1 X133.558 Y111.779 E-0.12819
G1 F5760
G1 X133.542 Y112.336 E-0.19293
G1 F5760
G1 X133.483 Y112.276 E-0.02895
G1 E-0.04000 F2100.00000
G1 Z0.800 F7200.000
G1 X133.512 Y110.239 F7200.000
G1 Z0.200 F7200.000
G1 E0.80000 F2100.00000
G1 F900
G1 X133.305 Y110.125 E0.00635
G1 X133.268 Y110.012 E0.00317
G1 F900
G1 X133.251 Y109.970 E0.00113
G1 F900
G1 X133.154 Y109.765 E0.00550
G1 F900
G1 X133.030 Y109.560 E0.00526
G1 F900
G1 X132.779 Y109.253 E0.00808
G1 F900
G1 X132.486 Y109.004 E0.00741
G1 X132.253 Y108.861 E0.00527
G1 X132.052 Y108.764 E0.00431
G1 X131.714 Y108.656 E0.00682
G1 X131.311 Y108.890 F7200.000
G1 F900
G1 X130.852 Y108.430 E0.02074
G1 X130.360 Y108.325 E0.01604
G1 X130.114 Y108.235 E0.00837
G1 X130.767 Y108.889 E0.02949
G1 F5760
G1 X130.114 Y108.235 E-0.32003
G1 F5760
G1 X130.360 Y108.325 E-0.09087
G1 F5760
G1 X130.852 Y108.430 E-0.17402
G1 F5760
G1 X131.209 Y108.788 E-0.17507
G1 E-0.04000 F2100.00000
G1 Z0.800 F7200.000
G1 X127.729 Y113.993 F7200.000
G1 Z0.200 F7200.000
G1 E0.80000 F2100.00000
G1 F900
G1 X124.952 Y111.216 E0.12533
G1 X124.952 Y110.673 E0.01733
G1 X127.559 Y113.280 E0.11769
G1 X127.559 Y112.737 E0.01732
G1 X124.952 Y110.129 E0.11770
G1 X124.951 Y109.586 E0.01733
G1 X127.559 Y112.194 E0.11772
G1 X127.559 Y111.652 E0.01732
G1 X124.951 Y109.043 E0.11773
G1 X124.951 Y108.500 E0.01733
G1 X127.559 Y111.109 E0.11775
G1 X127.559 Y110.566 E0.01732
G1 X124.950 Y107.957 E0.11776
G1 X124.950 Y107.414 E0.01733
G1 X127.559 Y110.023 E0.11778
G1 X127.559 Y109.480 E0.01732
G1 X124.950 Y106.871 E0.11779
G1 X124.949 Y106.327 E0.01733
G1 X127.559 Y108.938 E0.11781
G1 X127.559 Y108.712 E0.00719
G1 X127.878 Y108.713 E0.01016
G1 X124.949 Y105.784 E0.13219
G1 X124.949 Y105.241 E0.01733
G1 X128.421 Y108.714 E0.15675
G1 X128.965 Y108.715 E0.01736
G1 X124.948 Y104.698 E0.18132
G1 X124.948 Y104.155 E0.01733
G1 X129.509 Y108.716 E0.20588
G1 X130.053 Y108.717 E0.01736
G1 X124.948 Y103.612 E0.23044
G1 X124.947 Y103.069 E0.01733
G1 X127.786 Y105.907 E0.12813
G1 X127.639 Y105.391 E0.01713
G1 X127.611 Y105.189 E0.00651
G1 X124.947 Y102.525 E0.12024
G1 X124.947 Y101.982 E0.01733
G1 X127.565 Y104.601 E0.11820
G1 X127.563 Y104.056 E0.01739
G1 X124.946 Y101.439 E0.11812
G1 X124.946 Y100.896 E0.01733
G1 X127.561 Y103.511 E0.11804
G1 X127.559 Y102.966 E0.01739
G1 X124.946 Y100.353 E0.11796
G1 X124.945 Y99.810 E0.01733
G1 X127.557 Y102.422 E0.11788
G1 X127.555 Y101.877 E0.01739
G1 X124.915 Y99.237 E0.11915
G1 X124.877 Y98.656 E0.01858
G1 X127.553 Y101.332 E0.12077
G1 X127.551 Y100.787 E0.01739
G1 X124.777 Y98.013 E0.12518
G1 X124.717 Y97.622 E0.01263
G1 X124.640 Y97.333 E0.00956
G1 X127.549 Y100.242 E0.13130
G1 X127.540 Y99.691 E0.01759
G1 X124.442 Y96.592 E0.13987
G1 X124.177 Y95.784 E0.02712
G1 X127.511 Y99.119 E0.15050
G1 X127.476 Y98.541 E0.01849
G1 X120.253 Y91.318 E0.32602
G1 X120.631 Y91.289 E0.01211
G1 X120.780 Y91.302 E0.00476
G1 X127.403 Y97.925 E0.29893
G1 X127.295 Y97.275 E0.02103
G1 X121.387 Y91.366 E0.26668
G1 X122.004 Y91.440 E0.01983
G1 X127.175 Y96.612 E0.23341
G1 X127.119 Y96.303 E0.01002
G1 X126.986 Y95.880 E0.01415
G1 X122.673 Y91.567 E0.19467
G1 X123.305 Y91.761 E0.02110
G1 X123.501 Y91.852 E0.00689
G1 X126.985 Y95.336 E0.15725
G1 F5760
G1 X125.433 Y93.784 E-0.76000
G1 E-0.04000 F2100.00000
G1 Z0.800 F7200.000
G1 X126.463 Y94.271 F7200.000
G1 Z0.200 F7200.000
G1 E0.80000 F2100.00000
G1 F900
G1 X124.310 Y92.118 E0.09716
G1 F5760
G1 X125.862 Y93.670 E-0.76000
G1 E-0.04000 F2100.00000
G1 Z0.800 F7200.000
