; generated by Slic3r Prusa Edition 1.39.1-prusa3d on 2018-04-22 at 18:20:20

; 

; external perimeters extrusion width = 0.45mm
; perimeters extrusion width = 0.45mm
; infill extrusion width = 0.45mm
; solid infill extrusion width = 0.45mm
; top infill extrusion width = 0.33mm
; first layer extrusion width = 0.42mm

M107
M115 U3.1.0 ; tell printer latest fw version
M201 X9000 Y9000 Z500 E10000 ; sets maximum accelerations, mm/sec^2
M203 X500 Y500 Z12 E120 ; sets maximum feedrates, mm/sec
M204 S1500 T1500 ; sets acceleration (S) and retract acceleration (T)
M205 X10 Y10 Z0.2 E2.5 ; sets the jerk limits, mm/sec
M205 S0 T0 ; sets the minimum extruding and travel feed rate, mm/sec
M83  ; extruder relative mode
M104 S215 ; set extruder temp
M140 S60 ; set bed temp
M190 S60 ; wait for bed temp
M109 S215 ; wait for extruder temp
G28 W ; home all without mesh bed level
G80 ; mesh bed leveling
G1 Y-3.0 F1000.0 ; go outside print area
G92 E0.0
G1 E18.0 F1000.0;
G1 X60.0 E9.0  F1000.0 ; intro line
G1 X100.0 E12.5  F1000.0 ; intro line
G92 E0.0
M900 K30; Filament gcode
G21 ; set units to millimeters
G90 ; use absolute coordinates
M83 ; use relative distances for extrusion
;BEFORE_LAYER_CHANGE
;0.2


G1 E-0.80000 F2100.00000
G1 Z0.600 F7200.000
;AFTER_LAYER_CHANGE
;0.2
G1 X115.063 Y89.127 F7200.000
G1 Z0.200 F7200.000
G1 E0.80000 F2100.00000
M204 S1000
G1 F900
G1 X115.478 Y88.647 E0.01988
G1 X115.991 Y88.275 E0.01988
G1 X116.576 Y88.030 E0.01988
G1 X117.201 Y87.925 E0.01988
G1 X138.664 Y87.922 E0.67294
G1 X139.673 Y88.115 E0.03221
G1 X140.541 Y88.664 E0.03221
G1 X141.147 Y89.493 E0.03221
G1 X141.408 Y90.491 E0.03233
G1 X141.339 Y119.372 E0.90557
G1 X141.211 Y120.155 E0.02485
G1 X140.864 Y120.872 E0.02498
G1 X140.441 Y121.360 E0.02026
G1 X139.911 Y121.738 E0.02039
G1 X139.308 Y121.982 E0.02039
G1 X138.665 Y122.077 E0.02039
G1 X117.283 Y122.078 E0.67042
G1 X116.505 Y121.949 E0.02473
G1 X115.792 Y121.602 E0.02485
G1 X110.393 Y116.222 E0.23898
G1 X109.842 Y115.583 E0.02646
G1 X109.262 Y114.650 E0.03443
G1 X108.920 Y113.838 E0.02764
G1 X108.694 Y112.977 E0.02791
G1 X108.587 Y111.897 E0.03402
G1 X108.602 Y110.388 E0.04732
G1 X108.808 Y109.174 E0.03862
G1 X114.711 Y89.855 E0.63337
G1 X115.037 Y89.181 E0.02348
G1 X115.374 Y89.344 F7200.000
G1 F900
G1 X115.739 Y88.919 E0.01758
G1 X116.184 Y88.599 E0.01716
G1 X116.689 Y88.390 E0.01716
G1 X117.233 Y88.301 E0.01728
G1 X138.663 Y88.299 E0.67193
G1 X139.541 Y88.468 E0.02802
G1 X140.291 Y88.947 E0.02790
G1 X140.814 Y89.671 E0.02802
G1 X141.033 Y90.538 E0.02802
G1 X140.962 Y119.361 E0.90373
G1 X140.850 Y120.046 E0.02178
G1 X140.545 Y120.670 E0.02178
G1 X140.177 Y121.090 E0.01752
G1 X139.721 Y121.413 E0.01752
G1 X139.202 Y121.620 E0.01752
G1 X138.645 Y121.701 E0.01763
G1 X117.298 Y121.701 E0.66931
G1 X116.617 Y121.589 E0.02166
G1 X115.993 Y121.283 E0.02178
G1 X110.659 Y115.954 E0.23642
G1 X110.149 Y115.364 E0.02444
G1 X109.702 Y114.675 E0.02577
G1 X109.277 Y113.718 E0.03281
G1 X109.066 Y112.914 E0.02606
G1 X108.964 Y111.882 E0.03251
G1 X108.978 Y110.421 E0.04582
G1 X109.171 Y109.275 E0.03645
G1 X115.070 Y89.970 E0.63292
G1 X115.348 Y89.398 E0.01993
G1 F5760
G1 X115.739 Y88.919 E-0.21436
G1 F5760
G1 X116.184 Y88.599 E-0.18955
G1 F5760
G1 X116.689 Y88.390 E-0.18955
G1 F5760
G1 X117.164 Y88.312 E-0.16653
G1 E-0.04000 F2100.00000
G1 Z0.800 F7200.000
G1 X117.927 Y108.737 F7200.000
G1 Z0.200 F7200.000
G1 E0.80000 F2100.00000
G1 F900
G1 X117.927 Y113.913 E0.16228
G1 X114.148 Y113.904 E0.11851
G1 X113.776 Y113.812 E0.01201
G1 X113.436 Y113.634 E0.01203
G1 X113.163 Y113.391 E0.01147
G1 X113.022 Y113.212 E0.00713
G1 X112.861 Y112.904 E0.01090
G1 X112.793 Y112.687 E0.00713
G1 X112.753 Y112.360 E0.01034
G1 X112.753 Y110.289 E0.06494
G1 X112.795 Y109.943 E0.01091
G1 X112.925 Y109.601 E0.01147
G1 X113.034 Y109.421 E0.00663
G1 X113.168 Y109.251 E0.00677
G1 X113.438 Y109.013 E0.01127
G1 X113.783 Y108.834 E0.01222
G1 X114.132 Y108.749 E0.01124
G1 X117.867 Y108.737 E0.11714
G1 X117.550 Y109.114 F7200.000
G1 F900
G1 X117.550 Y113.535 E0.13860
G1 X114.194 Y113.527 E0.10523
G1 X113.911 Y113.457 E0.00915
G1 X113.652 Y113.321 E0.00916
G1 X113.438 Y113.132 E0.00896
G1 X113.340 Y113.007 E0.00498
G1 X113.211 Y112.760 E0.00876
G1 X113.163 Y112.608 E0.00498
G1 X113.130 Y112.337 E0.00856
G1 X113.130 Y110.312 E0.06351
G1 X113.164 Y110.034 E0.00876
G1 X113.265 Y109.767 E0.00896
G1 X113.443 Y109.512 E0.00976
G1 X113.653 Y109.327 E0.00876
G1 X113.917 Y109.189 E0.00934
G1 X114.188 Y109.123 E0.00875
G1 X117.490 Y109.114 E0.10354
G1 X117.950 Y109.111 F7200.000
G1 F5760
G1 X117.520 Y111.308 E-0.76000
G1 E-0.04000 F2100.00000
G1 Z0.800 F7200.000
G1 X122.600 Y104.299 F7200.000
G1 Z0.200 F7200.000
G1 E0.80000 F2100.00000
G1 F900
G1 X133.151 Y91.263 E0.52583
G1 X137.409 Y91.263 E0.13351
G1 X124.841 Y106.391 E0.61666
G1 X137.170 Y118.737 E0.54707
G1 X133.062 Y118.737 E0.12878
G1 X121.076 Y106.452 E0.53815
G1 X121.076 Y118.737 E0.38519
G1 X117.924 Y118.737 E0.09885
G1 X117.920 Y118.051 E0.02150
G1 X117.849 Y117.556 E0.01570
G1 X117.779 Y117.282 E0.00885
G1 X117.607 Y116.821 E0.01545
G1 X117.370 Y116.384 E0.01559
G1 X117.207 Y116.148 E0.00898
G1 X116.886 Y115.776 E0.01541
G1 X116.512 Y115.449 E0.01558
G1 X116.279 Y115.286 E0.00890
G1 X115.858 Y115.054 E0.01507
G1 X115.597 Y114.944 E0.00889
G1 X115.126 Y114.803 E0.01542
G1 X114.243 Y114.674 E0.02797
G1 X113.878 Y114.572 E0.01189
G1 X113.531 Y114.425 E0.01182
G1 X113.212 Y114.239 E0.01157
G1 X112.899 Y113.995 E0.01245
G1 X112.775 Y113.878 E0.00533
G1 X112.417 Y113.439 E0.01776
G1 X112.224 Y113.103 E0.01215
G1 X112.081 Y112.753 E0.01186
G1 X111.954 Y112.210 E0.01748
G1 X111.928 Y111.807 E0.01267
G1 X111.935 Y110.637 E0.03669
G1 X111.983 Y110.261 E0.01188
G1 X112.147 Y109.718 E0.01779
G1 X112.407 Y109.224 E0.01748
G1 X112.646 Y108.909 E0.01242
G1 X113.052 Y108.527 E0.01746
G1 X113.364 Y108.314 E0.01185
G1 X113.710 Y108.140 E0.01215
G1 X114.240 Y107.975 E0.01738
G1 X114.884 Y107.889 E0.02040
G1 X115.369 Y107.781 E0.01558
G1 X115.844 Y107.602 E0.01591
G1 X116.285 Y107.359 E0.01579
G1 X116.512 Y107.199 E0.00871
G1 X116.882 Y106.877 E0.01540
G1 X117.217 Y106.488 E0.01608
G1 X117.495 Y106.053 E0.01619
G1 X117.699 Y105.605 E0.01545
G1 X117.787 Y105.341 E0.00870
G1 X117.893 Y104.850 E0.01576
G1 X117.927 Y104.364 E0.01528
G1 X117.927 Y91.263 E0.41079
G1 X121.076 Y91.263 E0.09874
G1 X121.076 Y102.775 E0.36097
G1 X122.558 Y104.257 E0.06568
G1 X122.571 Y103.736 F7200.000
G1 F900
G1 X132.971 Y90.886 E0.51834
G1 X138.212 Y90.886 E0.16434
G1 X125.350 Y106.367 E0.63108
G1 X138.079 Y119.114 E0.56481
G1 X132.903 Y119.114 E0.16228
G1 X121.454 Y107.379 E0.51408
G1 X121.454 Y119.114 E0.36796
G1 X117.549 Y119.114 E0.12242
G1 X117.543 Y118.079 E0.03245
G1 X117.479 Y117.629 E0.01425
G1 X117.419 Y117.395 E0.00758
G1 X117.263 Y116.977 E0.01399
G1 X117.049 Y116.581 E0.01411
G1 X116.909 Y116.379 E0.00771
G1 X116.618 Y116.042 E0.01395
G1 X116.279 Y115.746 E0.01411
G1 X116.080 Y115.607 E0.00763
G1 X115.694 Y115.394 E0.01381
G1 X115.470 Y115.300 E0.00763
G1 X115.044 Y115.173 E0.01393
G1 X114.165 Y115.044 E0.02786
G1 X113.753 Y114.929 E0.01340
G1 X113.367 Y114.765 E0.01315
G1 X112.995 Y114.548 E0.01352
G1 X112.653 Y114.281 E0.01360
G1 X112.503 Y114.139 E0.00648
G1 X112.218 Y113.811 E0.01360
G1 X112.099 Y113.642 E0.00648
G1 X111.885 Y113.269 E0.01350
G1 X111.723 Y112.874 E0.01339
G1 X111.615 Y112.468 E0.01315
G1 X111.579 Y112.253 E0.00684
G1 X111.550 Y111.818 E0.01368
G1 X111.558 Y110.611 E0.03784
G1 X111.612 Y110.195 E0.01317
G1 X111.660 Y109.982 E0.00684
G1 X111.797 Y109.574 E0.01349
G1 X111.981 Y109.197 E0.01315
G1 X112.095 Y109.011 E0.00684
G1 X112.357 Y108.666 E0.01359
G1 X112.498 Y108.514 E0.00648
G1 X112.819 Y108.229 E0.01350
G1 X113.173 Y107.989 E0.01339
G1 X113.557 Y107.795 E0.01350
G1 X113.750 Y107.720 E0.00648
G1 X114.164 Y107.605 E0.01346
G1 X114.818 Y107.518 E0.02071
G1 X115.261 Y107.419 E0.01422
G1 X115.685 Y107.259 E0.01422
G1 X116.085 Y107.038 E0.01431
G1 X116.279 Y106.902 E0.00744
G1 X116.614 Y106.610 E0.01394
G1 X116.914 Y106.263 E0.01439
G1 X117.163 Y105.873 E0.01450
G1 X117.348 Y105.467 E0.01398
G1 X117.422 Y105.242 E0.00743
G1 X117.519 Y104.797 E0.01428
G1 X117.550 Y104.351 E0.01402
G1 X117.550 Y90.886 E0.42219
G1 X121.454 Y90.886 E0.12238
G1 X121.454 Y102.619 E0.36789
G1 X122.528 Y103.694 E0.04765
G1 X122.804 Y104.061 F7200.000
G1 X122.818 Y104.479 F7200.000
G1 F900
G1 X124.590 Y106.251 E0.07868
G1 X124.832 Y105.959 E0.01192
G1 X123.057 Y104.184 E0.07884
G1 X123.296 Y103.889 E0.01193
G1 X125.074 Y105.667 E0.07899
G1 X125.317 Y105.375 E0.01192
G1 X123.535 Y103.593 E0.07914
G1 X123.774 Y103.298 E0.01193
G1 X125.559 Y105.083 E0.07930
G1 X125.802 Y104.792 E0.01192
G1 X124.013 Y103.003 E0.07945
G1 X124.252 Y102.708 E0.01193
G1 X126.044 Y104.500 E0.07961
G1 X126.287 Y104.208 E0.01192
G1 X124.491 Y102.412 E0.07976
G1 X124.730 Y102.117 E0.01193
G1 X126.529 Y103.916 E0.07991
G1 X126.771 Y103.624 E0.01192
G1 X124.969 Y101.822 E0.08007
G1 X125.208 Y101.527 E0.01193
G1 X127.014 Y103.333 E0.08022
G1 X127.256 Y103.041 E0.01192
G1 X125.447 Y101.231 E0.08037
G1 X125.686 Y100.936 E0.01193
G1 X127.499 Y102.749 E0.08053
G1 X127.741 Y102.457 E0.01192
G1 X125.925 Y100.641 E0.08068
G1 X126.164 Y100.346 E0.01193
G1 X127.983 Y102.166 E0.08084
G1 X128.226 Y101.874 E0.01192
G1 X126.403 Y100.050 E0.08099
G1 X126.642 Y99.755 E0.01193
G1 X128.468 Y101.582 E0.08114
G1 X128.711 Y101.290 E0.01192
G1 X126.880 Y99.460 E0.08130
G1 X127.119 Y99.165 E0.01193
G1 X128.953 Y100.998 E0.08145
G1 X129.196 Y100.707 E0.01192
G1 X127.358 Y98.869 E0.08160
G1 X127.597 Y98.574 E0.01193
G1 X129.438 Y100.415 E0.08176
G1 X129.680 Y100.123 E0.01192
G1 X127.836 Y98.279 E0.08191
G1 X128.075 Y97.984 E0.01193
G1 X129.923 Y99.831 E0.08206
G1 X130.165 Y99.539 E0.01192
G1 X128.314 Y97.688 E0.08222
G1 X128.553 Y97.393 E0.01193
G1 X130.408 Y99.248 E0.08237
G1 X130.650 Y98.956 E0.01192
G1 X128.792 Y97.098 E0.08253
G1 X129.031 Y96.803 E0.01193
G1 X130.892 Y98.664 E0.08268
G1 X131.135 Y98.372 E0.01192
G1 X129.270 Y96.507 E0.08283
G1 X129.509 Y96.212 E0.01193
G1 X131.377 Y98.080 E0.08299
G1 X131.620 Y97.789 E0.01192
G1 X129.748 Y95.917 E0.08314
G1 X129.987 Y95.622 E0.01193
G1 X131.862 Y97.497 E0.08329
G1 X132.104 Y97.205 E0.01192
G1 X130.226 Y95.326 E0.08345
G1 X130.465 Y95.031 E0.01193
G1 X132.347 Y96.913 E0.08360
G1 X132.589 Y96.621 E0.01192
G1 X130.704 Y94.736 E0.08376
G1 X130.943 Y94.441 E0.01193
G1 X132.832 Y96.330 E0.08391
G1 X133.074 Y96.038 E0.01192
G1 X131.182 Y94.145 E0.08406
G1 X131.421 Y93.850 E0.01193
G1 X133.317 Y95.746 E0.08422
G1 X133.559 Y95.454 E0.01192
G1 X131.660 Y93.555 E0.08437
G1 X131.899 Y93.260 E0.01193
G1 X133.801 Y95.162 E0.08452
G1 X134.044 Y94.871 E0.01192
G1 X132.137 Y92.964 E0.08468
G1 X132.376 Y92.669 E0.01193
G1 X134.286 Y94.579 E0.08483
G1 X134.529 Y94.287 E0.01192
G1 X132.615 Y92.374 E0.08498
G1 X132.854 Y92.079 E0.01193
G1 X134.771 Y93.995 E0.08514
G1 X135.013 Y93.704 E0.01192
G1 X133.093 Y91.783 E0.08529
G1 X133.286 Y91.546 E0.00961
G1 X133.390 Y91.546 E0.00327
G1 X135.256 Y93.412 E0.08289
G1 X135.498 Y93.120 E0.01192
G1 X133.924 Y91.546 E0.06993
G1 X134.458 Y91.546 E0.01678
G1 X135.741 Y92.828 E0.05697
G1 X135.983 Y92.536 E0.01192
G1 X134.992 Y91.546 E0.04401
G1 X135.527 Y91.546 E0.01678
G1 X136.225 Y92.245 E0.03104
G1 X136.468 Y91.953 E0.01192
G1 X136.061 Y91.546 E0.01808
G1 X136.595 Y91.546 E0.01678
G1 X136.831 Y91.781 E0.01047
G1 F5760
G1 X136.595 Y91.546 E-0.11550
G1 F5760
G1 X136.061 Y91.546 E-0.18502
G1 F5760
G1 X136.468 Y91.953 E-0.19940
G1 F5760
G1 X136.225 Y92.245 E-0.13139
G1 F5760
G1 X135.963 Y91.982 E-0.12868
G1 E-0.04000 F2100.00000
G1 Z0.800 F7200.000
G1 X120.399 Y91.376 F7200.000
G1 Z0.200 F7200.000
G1 E0.80000 F2100.00000
G1 F900
G1 X120.794 Y91.771 E0.01753
G1 X120.794 Y92.305 E0.01678
G1 X120.035 Y91.546 E0.03372
G1 X119.500 Y91.546 E0.01678
G1 X120.794 Y92.839 E0.05745
G1 X120.794 Y93.373 E0.01678
G1 X118.966 Y91.546 E0.08118
G1 X118.432 Y91.546 E0.01678
G1 X120.794 Y93.907 E0.10491
G1 X120.794 Y94.442 E0.01678
G1 X118.210 Y91.858 E0.11476
G1 X118.210 Y92.392 E0.01678
G1 X120.794 Y94.976 E0.11476
G1 X120.794 Y95.510 E0.01678
G1 X118.210 Y92.926 E0.11476
G1 X118.210 Y93.461 E0.01678
G1 X120.794 Y96.044 E0.11476
G1 X120.794 Y96.578 E0.01678
G1 X118.210 Y93.995 E0.11476
G1 X118.210 Y94.529 E0.01678
G1 X120.794 Y97.113 E0.11476
G1 X120.794 Y97.647 E0.01678
G1 X118.210 Y95.063 E0.11476
G1 X118.210 Y95.598 E0.01678
G1 X120.794 Y98.181 E0.11476
G1 X120.794 Y98.715 E0.01678
G1 X118.210 Y96.132 E0.11476
G1 X118.210 Y96.666 E0.01678
G1 X120.794 Y99.249 E0.11476
G1 X120.794 Y99.784 E0.01678
G1 X118.210 Y97.200 E0.11476
G1 X118.210 Y97.734 E0.01678
G1 X120.794 Y100.318 E0.11476
G1 X120.794 Y100.852 E0.01678
G1 X118.210 Y98.269 E0.11476
G1 X118.210 Y98.803 E0.01678
G1 X120.794 Y101.386 E0.11476
G1 X120.794 Y101.920 E0.01678
G1 X118.210 Y99.337 E0.11476
G1 X118.210 Y99.871 E0.01678
G1 X120.794 Y102.455 E0.11476
G1 F5760
G1 X119.242 Y100.903 E-0.76000
G1 E-0.04000 F2100.00000
G1 Z0.800 F7200.000
G1 X120.963 Y106.364 F7200.000
G1 Z0.200 F7200.000
G1 E0.80000 F2100.00000
G1 F900
G1 X118.210 Y103.611 E0.12230
G1 X118.210 Y104.145 E0.01678
G1 X120.794 Y106.728 E0.11476
G1 X120.794 Y107.263 E0.01678
G1 X118.190 Y104.659 E0.11566
G1 X118.174 Y104.890 E0.00729
G1 X118.123 Y105.126 E0.00756
G1 X120.794 Y107.797 E0.11865
G1 X120.794 Y108.331 E0.01678
G1 X118.015 Y105.552 E0.12344
G1 X117.861 Y105.932 E0.01289
G1 X120.794 Y108.865 E0.13028
G1 X120.794 Y109.399 E0.01678
G1 X117.681 Y106.287 E0.13824
G1 X117.473 Y106.613 E0.01215
G1 X120.794 Y109.934 E0.14749
G1 X120.794 Y110.468 E0.01678
G1 X117.231 Y106.905 E0.15825
G1 X117.083 Y107.077 E0.00712
G1 X116.968 Y107.177 E0.00478
G1 X120.794 Y111.002 E0.16992
G1 X120.794 Y111.536 E0.01678
G1 X118.210 Y108.953 E0.11476
G1 X118.210 Y109.487 E0.01678
G1 X120.794 Y112.070 E0.11476
G1 X120.794 Y112.605 E0.01678
G1 X118.210 Y110.021 E0.11476
G1 X118.210 Y110.555 E0.01678
G1 X120.794 Y113.139 E0.11476
G1 X120.794 Y113.673 E0.01678
G1 X118.210 Y111.090 E0.11476
G1 X118.210 Y111.624 E0.01678
G1 X120.794 Y114.207 E0.11476
G1 X120.794 Y114.741 E0.01678
G1 X118.210 Y112.158 E0.11476
G1 X118.210 Y112.692 E0.01678
G1 X120.794 Y115.276 E0.11476
G1 X120.794 Y115.810 E0.01678
G1 X118.210 Y113.226 E0.11476
G1 X118.210 Y113.761 E0.01678
G1 X120.794 Y116.344 E0.11476
G1 X120.794 Y116.878 E0.01678
G1 X118.111 Y114.196 E0.11915
G1 X117.576 Y114.195 E0.01682
G1 X120.794 Y117.412 E0.14293
G1 X120.794 Y117.947 E0.01678
G1 X117.040 Y114.193 E0.16672
G1 X116.505 Y114.192 E0.01682
G1 X120.767 Y118.454 E0.18933
G1 X120.233 Y118.454 E0.01678
G1 X115.970 Y114.191 E0.18938
G1 X115.434 Y114.190 E0.01682
G1 X116.120 Y114.875 E0.03046
G1 X115.692 Y114.678 E0.01479
G1 X115.258 Y114.548 E0.01424
G1 X114.899 Y114.188 E0.01597
G1 X114.371 Y114.187 E0.01656
G1 X114.820 Y114.644 E0.02013
G1 X114.051 Y114.253 F7200.000
G1 F900
G1 X113.675 Y114.127 E0.01059
G1 F900
G1 X113.397 Y113.976 E0.00746
G1 F900
G1 X113.273 Y113.896 E0.00325
G1 F900
G1 X112.933 Y113.593 E0.00904
G1 X112.761 Y113.385 E0.00536
G1 X112.564 Y113.041 E0.00787
G1 X112.452 Y112.748 E0.00623
G1 X112.587 Y112.562 E0.00456
G1 F5760
G1 X112.452 Y112.748 E-0.07948
G1 F5760
G1 X112.564 Y113.041 E-0.10858
G1 F5760
G1 X112.761 Y113.385 E-0.13732
G1 F5760
G1 X112.933 Y113.593 E-0.09352
G1 F5760
G1 X113.273 Y113.896 E-0.15772
G1 E-0.22338 F2100.00000
G1 Z0.800 F7200.000
G1 X112.041 Y111.668 F7200.000
G1 Z0.200 F7200.000
G1 E0.80000 F2100.00000
G1 F900
G1 X112.470 Y112.097 E0.02221
G1 X112.470 Y111.474 E0.02280
G1 X112.214 Y111.217 E0.01329
G1 X112.226 Y110.607 E0.02236
G1 X112.640 Y111.021 E0.02145
G1 X112.586 Y110.042 F7200.000
G1 F900
G1 X112.460 Y109.863 E0.00439
G1 X112.631 Y109.472 E0.00860
G1 X112.776 Y109.250 E0.00532
G1 X112.938 Y109.047 E0.00523
G1 X113.275 Y108.749 E0.00904
G1 F900
G1 X113.684 Y108.521 E0.01086
G1 F900
G1 X113.852 Y108.459 E0.00477
G1 F900
G1 X114.064 Y108.392 E0.00605
G1 X114.168 Y108.116 F7200.000
G1 F900
G1 X114.507 Y108.454 E0.01503
G1 X115.041 Y108.454 E0.01678
G1 X114.776 Y108.189 E0.01178
