;FLAVOR:Marlin
;TIME:323
;Filament used:0.268634m
;Layer height: 0.3
;MINX:69.038
;MINY:68.376
;MINZ:0.2
;MAXX:95.731
;MAXY:96.624
;MAXZ:2.9
                                 
;Creative3D GCode Generated by CXEngineDEV
;Generated Time:2022-04-08 18:14:05
;----------Machine Config--------------
;Machine Name:Creality Ender-2 Pro
;Machine Height:180
;Machine Width:165
;Machine Depth:165
;Material name:PLA
;Number of Extruders:1
;ExtruderParams[0] Nozzle Diameter1000
;----------Profile Config---------------
;Layer Height:0.3
;Wall Thickness:0.8
;Top/Bottom Thickness:1
;Out Wall Line Width:0.4
;Inner Wall Line Width:0.4
;Inital Layer Height:200
;Wall Line Count:1
;Infill Line Distance:4
;Infill Pattern:grid
;Infill Sparse Density:20
;Infill Wipe Distance:0
;Print Temperature:200
;Bed Temperature:60
;Support Enable:false
;Support Density:30
;Support Angle:1.0472
;Adhesion Type:none
;machine is belt:false
;machine belt offset:10
;machine belt offset Y:0
;----------Shell Config----------------
;Outer Wall Wipe Distance:200
;Infill Before Walls:false
;Infill Overlap:0.16
;Fill Gaps Between Walls:everywhere
;Minimum Infill Area:1
;Top Surface Skin Layer:0
;Top Layers:2
;Z Seam Alignment:sharpest_corner
;Seam Corner Preference:z_seam_corner_inner
;Z Seam X:82.5
;Z Seam Y:82.5
;Horizontal Expansion:0
;Top/Bottom Pattern:zigzag
;Ironing Pattern:zigzag
;Vase Model:false
;----------Support Config----------------
;Support Type:everywhere
;Support Pattern:zigzag
;Support Infill Layer Thickness:0.3
;Minimum Support Area:10
;Enable Support Roof:false
;Support Roof Thickness:0.8
;Support Roof Pattern:lines
; ---------PrintSpeed & Travel----------
;Enable Print Cool:true
;Avoid Printed Parts Traveling:true
;Enable Retraction:true
;Retraction Distance:8
;Retraction Speed:100
;Retraction Prime Speed:100
;Maximum Retraction Count:100
;Minimum Extrusion Distance Window:1
;Z Hop When Retracted:false
;Z Hop Height:0.2
;Retract Before Outer Wall:true
;Print Speed:50
;Infill Speed:50

;Prime Tower Speed:50
;Travel Speed:120
;Initial Layer Speed:25
;Skirt/Brim Speed:25
;Combing Mode:off
;---------------------End of Head--------------------------
M140 S60
M104 S200
M105
M109 S200
M82 ;absolute extrusion mode
M220 S100 ;Reset Feedrate
M221 S100 ;Reset Flowrate

G28 ;Home

G92 E0 ;Reset Extruder
G1 Z2.0 F3000 ;Move Z Axis up
G1 X10.1 Y20 Z0.28 F5000.0 ;Move to start position
G1 X10.1 Y145.0 Z0.28 F1500.0 E15 ;Draw the first line
G1 X10.4 Y145.0 Z0.28 F5000.0 ;Move to side a little
G1 X10.4 Y20 Z0.28 F1500.0 E30 ;Draw the second line
G92 E0  ;Reset Extruder
G1 E-1.0000 F1800 ;Retract a bit
G1 Z2.0 F3000 ;Move Z Axis up
G1 E0.0000 F1800 

G92 E0
G92 E0
G1 F6000 E-8

;LAYER_COUNT:10

;LAYER:0
M107
;MESH:
G0 F3600 X74.937 Y86.624 Z0.2
;TYPE:WALL-OUTER
G1 F6000 E0
G1 F1500 X71.82 Y86.624 E0.11404
G1 X71.419 Y86.696 E0.12894
G1 X71.047 Y86.918 E0.14479
G1 X70.777 Y87.257 E0.16065
G1 X70.649 Y87.659 E0.17609
G1 X70.638 Y87.817 E0.18188
G1 X70.638 Y89.842 E0.25597
G1 X70.709 Y90.243 E0.27087
G1 X70.931 Y90.615 E0.28672
G1 X71.271 Y90.885 E0.3026
G1 X71.674 Y91.014 E0.31808
G1 X71.891 Y91.024 E0.32603
G1 X75.038 Y91.024 E0.44117
G1 X75.038 Y86.925 E0.59113
G1 X74.937 Y86.624 E0.60275
G0 F3600 X74.737 Y86.624
G0 X74.737 Y86.184
;;retract;;
G1 F6000 E-7.39725
G0 F3600 X82.862 Y83.866
G1 F6000 E0.60275
G1 F1500 X95.261 Y96.283 E1.24475
G1 X95.601 Y96.624 E1.26236
G1 X95.12 Y96.624 E1.27183
G1 X95.119 Y96.624 E1.27187
G1 X90.396 Y96.624 E1.44466
G1 X79.323 Y85.274 E2.0248
G1 X79.21 Y85.159 E2.0307
G1 X78.961 Y85.26 E2.04053
G1 X78.961 Y85.422 E2.04555
G1 X78.961 Y96.624 E2.45539
G1 X75.038 Y96.624 E2.59892
G1 X75.038 Y95.794 E2.62928
G1 X75.006 Y95.355 E2.64539
G1 X74.912 Y94.911 E2.66199
G1 X74.755 Y94.486 E2.67857
G1 X74.537 Y94.084 E2.6953
G1 X74.265 Y93.718 E2.71198
G1 X73.946 Y93.397 E2.72854
G1 X73.581 Y93.121 E2.74528
G1 X73.185 Y92.902 E2.76184
G1 X72.763 Y92.742 E2.77835
G1 X72.321 Y92.643 E2.79492
G1 X71.871 Y92.591 E2.81149
G1 X71.464 Y92.507 E2.8267
G1 X71.06 Y92.367 E2.84234
G1 X70.675 Y92.173 E2.85811
G1 X70.318 Y91.933 E2.87385
G1 X70.003 Y91.656 E2.8892
G1 X69.709 Y91.319 E2.90556
G1 X69.586 Y91.145 E2.91336
G1 X69.378 Y90.782 E2.92866
G1 X69.215 Y90.388 E2.94426
G1 X69.104 Y89.974 E2.95995
G1 X69.047 Y89.549 E2.97563
G1 X69.038 Y89.325 E2.98384
G1 X69.044 Y88.119 E3.02796
G1 X69.097 Y87.698 E3.04348
G1 X69.205 Y87.29 E3.05892
G1 X69.373 Y86.873 E3.07537
G1 X69.473 Y86.687 E3.0831
G1 X69.713 Y86.325 E3.09899
G1 X69.983 Y86.012 E3.11411
G1 X70.3 Y85.73 E3.12964
G1 X70.652 Y85.488 E3.14526
G1 X71.042 Y85.291 E3.16125
G1 X71.434 Y85.152 E3.17647
G1 X71.864 Y85.06 E3.19255
G1 X72.316 Y85.008 E3.2092
G1 X72.533 Y84.969 E3.21727
G1 X72.966 Y84.84 E3.2338
G1 X73.376 Y84.651 E3.25031
G1 X73.757 Y84.405 E3.26691
G1 X74.103 Y84.105 E3.28366
G1 X74.4 Y83.762 E3.30026
G1 X74.646 Y83.377 E3.31698
G1 X74.836 Y82.961 E3.33371
G1 X74.964 Y82.527 E3.35026
G1 X75.027 Y82.082 E3.36671
G1 X75.038 Y81.848 E3.37528
G1 X75.038 Y68.376 E3.86817
G1 X78.961 Y68.376 E4.01169
G1 X78.961 Y80.115 E4.44118
G1 X79.911 Y81.065 E4.49033
G1 X80.067 Y81.222 E4.49843
G1 X80.206 Y81.05 E4.50351
G1 X90.463 Y68.376 E5.10003
G1 X95.305 Y68.376 E5.27718
G1 X95.306 Y68.376 E5.27721
G1 X95.731 Y68.376 E5.29276
G1 X95.459 Y68.703 E5.30128
G1 X82.862 Y83.866 E6.02251
G0 F3600 X83.003 Y84.007
G0 X82.691 Y84.316
;;retract;;
G1 F6000 E-1.97749
G0 F3600 X69.592 Y90.67
;TYPE:SKIN
G1 F6000 E6.02251
G1 F1500 X69.791 Y91.02 E6.03724
G1 X69.896 Y91.167 E6.04385
G1 X70.172 Y91.486 E6.05928
G1 X70.461 Y91.74 E6.07336
G1 X70.794 Y91.962 E6.088
G1 X71.158 Y92.146 E6.10292
G1 X71.245 Y92.176 E6.10629
G1 X71.528 Y92.273 E6.11723
G1 X71.904 Y92.351 E6.13128
G1 X71.997 Y92.362 E6.13471
G1 X69.305 Y89.67 E6.27399
G1 X69.287 Y89.528 E6.27923
G1 X69.277 Y89.325 E6.28667
G1 X69.278 Y89.077 E6.29574
G1 X70.47 Y90.269 E6.35741
G1 X70.398 Y89.861 E6.37257
G1 X70.398 Y89.631 E6.38099
G1 X69.281 Y88.514 E6.43878
G1 X69.283 Y88.132 E6.45276
G1 X69.303 Y87.971 E6.45869
G1 X70.398 Y89.065 E6.51532
G1 X70.398 Y88.5 E6.53599
G1 X69.396 Y87.498 E6.58784
G1 X69.431 Y87.369 E6.59273
G1 X69.546 Y87.083 E6.60401
G1 X70.398 Y87.934 E6.64806
G1 X70.398 Y87.808 E6.65267
G1 X70.41 Y87.611 E6.65989
G1 X70.467 Y87.437 E6.66659
G1 X69.742 Y86.713 E6.70408
G1 X69.905 Y86.467 E6.71488
G1 X69.978 Y86.383 E6.71895
G1 X70.639 Y87.044 E6.75315
G1 X70.886 Y86.733 E6.76768
G1 X70.89 Y86.73 E6.76786
G1 X70.253 Y86.093 E6.80082
G1 X70.449 Y85.917 E6.81046
G1 X70.565 Y85.838 E6.81559
G1 X71.245 Y86.518 E6.85078
G1 X71.333 Y86.467 E6.8545
G1 X71.693 Y86.401 E6.86789
G1 X70.916 Y85.624 E6.90809
G1 X71.137 Y85.512 E6.91715
G1 X71.309 Y85.451 E6.92383
G1 X72.24 Y86.382 E6.972
G1 X72.806 Y86.382 E6.99271
G1 X71.752 Y85.329 E7.04722
G1 X71.902 Y85.296 E7.05284
G1 X72.246 Y85.257 E7.0655
G1 X73.372 Y86.382 E7.12374
G1 X73.937 Y86.382 E7.14441
G1 X72.718 Y85.163 E7.20748
G1 X73.051 Y85.064 E7.22019
G1 X73.143 Y85.022 E7.22389
G1 X74.503 Y86.382 E7.29426
G1 X75.069 Y86.382 E7.31497
G1 X73.526 Y84.84 E7.39478
G1 X73.87 Y84.618 E7.40976
G1 X78.72 Y89.468 E7.6607
G1 X78.72 Y88.903 E7.68137
G1 X74.176 Y84.358 E7.9165
G1 X74.273 Y84.274 E7.9212
G1 X74.451 Y84.067 E7.93119
G1 X78.72 Y88.337 E8.15209
G1 X78.72 Y87.771 E8.1728
G1 X74.694 Y83.745 E8.38111
G1 X74.857 Y83.49 E8.39218
G1 X74.903 Y83.389 E8.39624
G1 X78.72 Y87.206 E8.59374
G1 X78.72 Y86.64 E8.61444
G1 X75.075 Y82.995 E8.80304
G1 X75.199 Y82.577 E8.81899
G1 X75.202 Y82.556 E8.81977
G1 X78.72 Y86.074 E9.00179
G1 X78.72 Y85.509 E9.02246
G1 X75.268 Y82.056 E9.2011
G1 X75.278 Y81.853 E9.20853
G1 X75.277 Y81.5 E9.22145
G1 X78.83 Y85.052 E9.40525
G1 X79.232 Y84.889 E9.42113
G1 X75.277 Y80.934 E9.62576
G1 X75.277 Y80.369 E9.64643
G1 X91.291 Y96.382 E10.47498
G1 X91.857 Y96.382 E10.49569
G1 X75.277 Y79.803 E11.35352
G1 X75.277 Y79.237 E11.37423
G1 X92.423 Y96.382 E12.26135
G1 X92.988 Y96.382 E12.28202
G1 X75.277 Y78.671 E13.1984
G1 X75.277 Y78.106 E13.21907
G1 X93.554 Y96.382 E14.16471
G1 X94.12 Y96.382 E14.18541
G1 X75.277 Y77.54 E15.16034
G1 X75.277 Y76.974 E15.18104
G1 X94.685 Y96.382 E16.18523
G1 X95.023 Y96.383 E16.19759
G1 X82.538 Y83.879 E16.84407
G1 X82.633 Y83.765 E16.84949
G1 X80.247 Y81.378 E16.97297
G1 X80.5 Y81.066 E16.98767
G1 X82.89 Y83.456 E17.11133
G1 X83.147 Y83.147 E17.12603
G1 X80.753 Y80.753 E17.2499
G1 X81.006 Y80.441 E17.2646
G1 X83.403 Y82.838 E17.38862
G1 X83.66 Y82.529 E17.40332
G1 X81.26 Y80.128 E17.52753
G1 X81.512 Y79.815 E17.54223
G1 X83.917 Y82.22 E17.66667
G1 X84.173 Y81.911 E17.68135
G1 X81.765 Y79.502 E17.80596
G1 X82.018 Y79.19 E17.82066
G1 X84.43 Y81.602 E17.94546
G1 X84.687 Y81.293 E17.96016
G1 X82.271 Y78.877 E18.08517
G1 X82.525 Y78.565 E18.09989
G1 X84.944 Y80.984 E18.22505
G1 X85.2 Y80.675 E18.23973
G1 X82.778 Y78.252 E18.36507
G1 X83.03 Y77.939 E18.37977
G1 X85.457 Y80.366 E18.50535
G1 X85.714 Y80.057 E18.52005
G1 X83.283 Y77.626 E18.64583
G1 X83.536 Y77.314 E18.66053
G1 X85.97 Y79.748 E18.78647
G1 X86.227 Y79.439 E18.80117
G1 X83.79 Y77.001 E18.92729
G1 X84.043 Y76.689 E18.94198
G1 X86.484 Y79.13 E19.06828
G1 X86.74 Y78.821 E19.08296
G1 X84.295 Y76.376 E19.20947
G1 X84.548 Y76.063 E19.22419
G1 X86.997 Y78.512 E19.35091
G1 X87.254 Y78.203 E19.36561
G1 X84.801 Y75.75 E19.49253
G1 X85.055 Y75.438 E19.50725
G1 X87.51 Y77.894 E19.6343
G1 X87.767 Y77.585 E19.649
G1 X85.308 Y75.125 E19.77626
G1 X85.561 Y74.813 E19.79096
G1 X88.024 Y77.276 E19.91839
G1 X88.28 Y76.967 E19.93307
G1 X85.813 Y74.5 E20.06072
G1 X86.066 Y74.187 E20.07544
G1 X88.537 Y76.658 E20.20329
G1 X88.794 Y76.349 E20.218
G1 X86.32 Y73.874 E20.34603
G1 X86.573 Y73.562 E20.36073
G1 X89.05 Y76.04 E20.48891
G1 X89.307 Y75.731 E20.50362
G1 X86.826 Y73.249 E20.63201
G1 X87.078 Y72.936 E20.64671
G1 X89.564 Y75.422 E20.77534
G1 X89.82 Y75.113 E20.79002
G1 X87.331 Y72.624 E20.9188
G1 X87.585 Y72.311 E20.93355
G1 X90.077 Y74.804 E21.06252
G1 X90.334 Y74.495 E21.07722
G1 X87.838 Y71.999 E21.20636
G1 X88.091 Y71.686 E21.22109
G1 X90.59 Y74.186 E21.35041
G1 X90.847 Y73.877 E21.36512
G1 X88.344 Y71.373 E21.49465
G1 X88.596 Y71.06 E21.50935
G1 X91.104 Y73.568 E21.63912
G1 X91.361 Y73.259 E21.65382
G1 X88.85 Y70.748 E21.78374
G1 X89.103 Y70.435 E21.79847
G1 X91.617 Y72.95 E21.92857
G1 X91.874 Y72.641 E21.94327
G1 X89.356 Y70.123 E22.07356
G1 X89.609 Y69.81 E22.08828
G1 X92.131 Y72.332 E22.21877
G1 X92.387 Y72.023 E22.23345
G1 X89.861 Y69.497 E22.36415
G1 X90.115 Y69.184 E22.3789
G1 X92.644 Y71.714 E22.50978
G1 X92.901 Y71.405 E22.52448
G1 X90.368 Y68.872 E22.65554
G1 X90.576 Y68.616 E22.66761
G1 X90.677 Y68.616 E22.6713
G1 X93.157 Y71.096 E22.79962
G1 X93.414 Y70.787 E22.81432
G1 X91.243 Y68.616 E22.92665
G1 X91.809 Y68.616 E22.94736
G1 X93.671 Y70.478 E23.0437
G1 X93.927 Y70.169 E23.05838
G1 X92.375 Y68.616 E23.13871
G1 X92.94 Y68.616 E23.15938
G1 X94.184 Y69.86 E23.22374
G1 X94.441 Y69.551 E23.23845
G1 X93.506 Y68.616 E23.28683
G1 X94.072 Y68.616 E23.30753
G1 X94.697 Y69.242 E23.3399
G1 X94.955 Y68.933 E23.35463
G1 X94.637 Y68.616 E23.37105
G1 X95.203 Y68.616 E23.39176
G1 X95.218 Y68.615 E23.39231
;;retract;;
G1 F6000 E15.39231
G0 F3600 X78.72 Y68.615
G1 F6000 E23.39231
G1 F1500 X78.232 Y68.616 E23.41017
G1 X77.667 Y68.616 E23.43084
G1 X78.72 Y69.669 E23.48532
G1 X78.72 Y70.235 E23.50603
G1 X77.101 Y68.616 E23.5898
G1 X76.535 Y68.616 E23.6105
G1 X78.72 Y70.801 E23.72356
G1 X78.72 Y71.366 E23.74423
G1 X75.97 Y68.616 E23.88651
G1 X75.404 Y68.616 E23.90722
G1 X78.72 Y71.932 E24.07879
G1 X78.72 Y72.498 E24.0995
G1 X75.277 Y69.054 E24.27767
G1 X75.277 Y69.62 E24.29838
G1 X78.72 Y73.063 E24.47652
G1 X78.72 Y73.629 E24.49723
G1 X75.277 Y70.186 E24.67537
G1 X75.277 Y70.751 E24.69604
G1 X78.72 Y74.195 E24.87421
G1 X78.72 Y74.76 E24.89488
G1 X75.277 Y71.317 E25.07303
G1 X75.277 Y71.883 E25.09373
G1 X78.72 Y75.326 E25.27188
G1 X78.72 Y75.892 E25.29258
G1 X75.277 Y72.448 E25.47075
G1 X75.277 Y73.014 E25.49146
G1 X78.72 Y76.458 E25.66963
G1 X78.72 Y77.023 E25.6903
G1 X75.277 Y73.58 E25.86844
G1 X75.277 Y74.145 E25.88912
G1 X78.72 Y77.589 E26.06728
G1 X78.72 Y78.155 E26.08799
G1 X75.277 Y74.711 E26.26616
G1 X75.277 Y75.277 E26.28687
G1 X78.72 Y78.72 E26.46501
G1 X78.72 Y79.286 E26.48572
G1 X75.277 Y75.843 E26.66386
G1 X75.277 Y76.409 E26.68457
G1 X78.72 Y79.852 E26.86271
G1 X78.72 Y80.214 E26.87596
G1 X80.085 Y81.58 E26.94661
;;retract;;
G1 F6000 E18.94661
G0 F3600 X79.269 Y84.875
G1 F6000 E26.94661
G1 F1500 X81.31 Y86.967 E27.05354
G1 X90.726 Y96.382 E27.5407
G1 X90.496 Y96.382 E27.54912
;;retract;;
G1 F6000 E19.54912
G0 F3600 X75.452 Y96.382
G1 F6000 E27.54912
G1 F1500 X76.018 Y96.382 E27.56983
G1 X75.266 Y95.631 E27.60871
G1 X75.243 Y95.32 E27.62012
G1 X75.169 Y94.968 E27.63328
G1 X76.583 Y96.382 E27.70644
G1 X77.149 Y96.382 E27.72715
G1 X74.763 Y93.996 E27.8506
G1 X74.739 Y93.953 E27.8524
G1 X74.447 Y93.56 E27.87031
G1 X74.104 Y93.215 E27.88811
G1 X73.711 Y92.918 E27.90614
;;retract;;
G1 F6000 E19.90614
G0 F3600 X71.368 Y91.167
G1 F6000 E27.90614
G1 F1500 X72.677 Y92.476 E27.97386
G1 X72.832 Y92.511 E27.97968
G1 X73.285 Y92.683 E27.99741
G1 X73.651 Y92.884 E28.01268
G1 X72.03 Y91.263 E28.09655
G1 X72.595 Y91.263 E28.11723
G1 X77.715 Y96.382 E28.38211
G1 X78.28 Y96.382 E28.40278
G1 X73.161 Y91.263 E28.66764
G1 X73.727 Y91.263 E28.68835
G1 X78.72 Y96.257 E28.94672
G1 X78.72 Y95.691 E28.96743
G1 X74.292 Y91.263 E29.19653
G1 X74.858 Y91.263 E29.21724
G1 X78.72 Y95.125 E29.41706
G1 X78.72 Y94.559 E29.43777
G1 X75.277 Y91.117 E29.61589
G1 X75.277 Y90.551 E29.6366
G1 X78.72 Y93.994 E29.81474
G1 X78.72 Y93.428 E29.83545
G1 X75.277 Y89.985 E30.01359
G1 X75.277 Y89.42 E30.03426
G1 X78.72 Y92.862 E30.21238
G1 X78.72 Y92.297 E30.23305
G1 X75.277 Y88.854 E30.41119
G1 X75.277 Y88.288 E30.4319
G1 X78.72 Y91.731 E30.61004
G1 X78.72 Y91.165 E30.63075
G1 X75.277 Y87.722 E30.80889
G1 X75.277 Y87.157 E30.82956
G1 X78.72 Y90.6 E31.00771
G1 X78.72 Y90.034 E31.02842
G1 X75.13 Y86.444 E31.21416
G1 X75.11 Y86.382 E31.21655
;;retract;;
G1 F6000 E23.21655
G0 F3600 X70.47 Y90.269
G1 F6000 E31.21655
G1 F1500 X70.48 Y90.327 E31.2187
G1 X70.747 Y90.775 E31.23778
G1 X71.156 Y91.099 E31.25687
;;retract;;
G1 F6000 E23.25687
G0 F3600 X69.485 Y90.416
G1 F6000 E31.25687
G1 F1500 X71.245 Y92.176 E31.34794
;;retract;;
G1 F6000 E23.34794
G0 F3600 X75.277 Y96.208
G1 F6000 E31.34794
G1 F1500 X75.452 Y96.382 E31.35696
G1 X75.277 Y96.383 E31.36337
;;retract;;
G1 F6000 E23.36337
G0 F3600 X78.72 Y69.104
G1 F6000 E31.36337
G1 F1500 X78.232 Y68.616 E31.38862
;;retract;;
G1 F6000 E23.38862
G0 F3600 X94.998 Y68.694
;TYPE:SKIN
G1 F6000 E31.38862
G1 F1500 X95.059 Y69.037 E31.39794
G1 X95.181 Y68.593 E31.41026
G1 X95.37 Y68.5 E31.41589
;;retract;;
G1 F6000 E23.41589
G0 F3600 X94.8 Y95.931
G1 F6000 E31.41589
G1 F1500 X95.262 Y96.394 E31.42786
G0 F3600 X94.935 Y96.349
G1 F1500 X94.752 Y96.449 E31.44532
G0 F3600 X94.588 Y96.568
G1 F1500 X94.552 Y96.532 E31.44625
;;retract;;
G1 F6000 E23.44625
;MESH:NONMESH
G0 F600 X94.552 Y96.532 Z0.5
G0 F3600 X75.038 Y86.624
;TIME_ELAPSED:55.080475

;LAYER:1
M140 S60
M106 S127.5
;TYPE:WALL-OUTER
;MESH:
G1 F6000 E31.44625
G1 F1500 X71.821 Y86.624 E31.60674
G1 X71.44 Y86.69 E31.62604
G1 X71.152 Y86.837 E31.64217
G1 X70.867 Y87.116 E31.66206
G1 X70.712 Y87.402 E31.67829
G1 X70.64 Y87.783 E31.69764
G1 X70.638 Y89.841 E31.80031
G1 X70.704 Y90.222 E31.8196
G1 X70.851 Y90.51 E31.83574
G1 X71.13 Y90.794 E31.8556
G1 X71.415 Y90.95 E31.87181
G1 X71.797 Y91.022 E31.8912
G1 X74.838 Y91.024 E32.04292
G1 X75.038 Y91.024 E32.0529
G1 X75.038 Y90.824 E32.05936
G1 X75.038 Y86.624 E32.26889
G0 F5400 X74.838 Y86.624
G0 X74.838 Y86.184
;;retract;;
G1 F6000 E24.26889
G0 F5400 X82.862 Y83.866
G1 F6000 E32.26889
G1 F1500 X95.261 Y96.283 E33.14435
G1 X95.601 Y96.624 E33.16837
G1 X95.12 Y96.624 E33.18128
G1 X95.119 Y96.624 E33.18133
G1 X90.396 Y96.624 E33.41696
G1 X79.323 Y85.274 E34.20805
G1 X79.21 Y85.159 E34.2161
G1 X78.961 Y85.26 E34.2295
G1 X78.961 Y85.422 E34.23635
G1 X78.961 Y96.624 E34.79522
G1 X75.038 Y96.624 E34.99094
G1 X75.038 Y95.784 E35.03285
G1 X75.007 Y95.359 E35.05411
G1 X74.914 Y94.92 E35.0765
G1 X74.761 Y94.503 E35.09866
