; generated by Slic3r Prusa Edition 1.39.1-prusa3d on 2018-05-09 at 12:53:30

; 

; external perimeters extrusion width = 0.45mm
; perimeters extrusion width = 0.45mm
; infill extrusion width = 0.45mm
; solid infill extrusion width = 0.45mm
; top infill extrusion width = 0.33mm
; first layer extrusion width = 0.42mm

M107
M115 U3.1.0 ; tell printer latest fw version
M201 X9000 Y9000 Z500 E10000 ; sets maximum accelerations, mm/sec^2
M203 X500 Y500 Z12 E120 ; sets maximum feedrates, mm/sec
M204 S1500 T1500 ; sets acceleration (S) and retract acceleration (T)
M205 X10 Y10 Z0.2 E2.5 ; sets the jerk limits, mm/sec
M205 S0 T0 ; sets the minimum extruding and travel feed rate, mm/sec
M83  ; extruder relative mode
M104 S200 ; set extruder temp
M140 S65 ; set bed temp
M190 S65 ; wait for bed temp
M109 S200 ; wait for extruder temp
G28 W ; home all without mesh bed level
G80 ; mesh bed leveling
G1 Y-3.0 F1000.0 ; go outside print area
G92 E0.0
G1 E18.0 F1000.0;
G1 X60.0 E9.0  F1000.0 ; intro line
G1 X100.0 E12.5  F1000.0 ; intro line
G92 E0.0
M900 K30; Filament gcode
G21 ; set units to millimeters
G90 ; use absolute coordinates
M83 ; use relative distances for extrusion
;BEFORE_LAYER_CHANGE
;0.2


G1 E-0.80000 F2100.00000
G1 Z0.600 F7200.000
;AFTER_LAYER_CHANGE
;0.2
G1 X90.061 Y84.130 F7200.000
G1 Z0.200 F7200.000
G1 E0.80000 F2100.00000
M204 S1000
G1 F900
G1 X90.475 Y83.650 E0.01988
G1 X90.988 Y83.277 E0.01988
G1 X91.572 Y83.031 E0.01988
G1 X92.197 Y82.925 E0.01988
G1 X113.664 Y82.922 E0.67307
G1 X114.673 Y83.115 E0.03221
G1 X115.541 Y83.664 E0.03221
G1 X116.147 Y84.493 E0.03221
G1 X116.408 Y85.491 E0.03233
G1 X116.339 Y114.372 E0.90557
G1 X116.211 Y115.155 E0.02485
G1 X115.864 Y115.872 E0.02498
G1 X115.441 Y116.360 E0.02026
G1 X114.911 Y116.738 E0.02039
G1 X114.308 Y116.982 E0.02039
G1 X113.665 Y117.077 E0.02039
G1 X92.283 Y117.078 E0.67042
G1 X91.505 Y116.949 E0.02473
G1 X90.792 Y116.602 E0.02485
G1 X85.393 Y111.222 E0.23898
G1 X84.842 Y110.583 E0.02646
G1 X84.265 Y109.657 E0.03421
G1 X83.920 Y108.838 E0.02786
G1 X83.694 Y107.977 E0.02791
G1 X83.587 Y106.897 E0.03402
G1 X83.602 Y105.384 E0.04744
G1 X83.808 Y104.174 E0.03849
G1 X89.711 Y84.855 E0.63337
G1 X90.035 Y84.184 E0.02335
G1 X90.372 Y84.348 F7200.000
G1 F900
G1 X90.739 Y83.919 E0.01770
G1 X91.184 Y83.599 E0.01716
G1 X91.689 Y83.390 E0.01716
G1 X92.233 Y83.301 E0.01728
G1 X113.663 Y83.299 E0.67193
G1 X114.541 Y83.468 E0.02802
G1 X115.291 Y83.947 E0.02790
G1 X115.814 Y84.671 E0.02802
G1 X116.033 Y85.538 E0.02802
G1 X115.962 Y114.361 E0.90373
G1 X115.850 Y115.046 E0.02178
G1 X115.545 Y115.670 E0.02178
G1 X115.177 Y116.090 E0.01752
G1 X114.721 Y116.413 E0.01752
G1 X114.202 Y116.620 E0.01752
G1 X113.645 Y116.701 E0.01763
G1 X92.298 Y116.701 E0.66931
G1 X91.617 Y116.589 E0.02166
G1 X90.993 Y116.283 E0.02178
G1 X85.659 Y110.954 E0.23642
G1 X85.149 Y110.364 E0.02444
G1 X84.702 Y109.675 E0.02577
G1 X84.277 Y108.718 E0.03281
G1 X84.066 Y107.914 E0.02606
G1 X83.964 Y106.882 E0.03251
G1 X83.978 Y105.421 E0.04582
G1 X84.171 Y104.275 E0.03645
G1 X90.070 Y84.970 E0.63292
G1 X90.346 Y84.402 E0.01980
G1 F5760
G1 X90.739 Y83.919 E-0.21573
G1 F5760
G1 X91.184 Y83.599 E-0.18955
G1 F5760
G1 X91.689 Y83.390 E-0.18955
G1 F5760
G1 X92.160 Y83.313 E-0.16516
G1 E-0.04000 F2100.00000
G1 Z0.800 F7200.000
G1 X92.927 Y103.737 F7200.000
G1 Z0.200 F7200.000
G1 E0.80000 F2100.00000
G1 F900
G1 X92.927 Y108.913 E0.16228
G1 X89.164 Y108.904 E0.11800
G1 X88.935 Y108.861 E0.00731
G1 X88.600 Y108.733 E0.01122
G1 X88.285 Y108.515 E0.01201
G1 X88.030 Y108.227 E0.01207
G1 X87.850 Y107.881 E0.01223
G1 X87.765 Y107.533 E0.01124
G1 X87.753 Y107.342 E0.00600
G1 X87.753 Y105.289 E0.06438
G1 X87.795 Y104.943 E0.01091
G1 X87.925 Y104.601 E0.01147
G1 X88.034 Y104.421 E0.00663
G1 X88.168 Y104.251 E0.00677
G1 X88.437 Y104.014 E0.01122
G1 X88.776 Y103.836 E0.01201
G1 X89.131 Y103.749 E0.01147
G1 X92.867 Y103.737 E0.11715
G1 X92.550 Y104.114 F7200.000
G1 F900
G1 X92.550 Y108.535 E0.13860
G1 X89.200 Y108.527 E0.10505
G1 X89.038 Y108.496 E0.00517
G1 X88.777 Y108.397 E0.00875
G1 X88.537 Y108.231 E0.00915
G1 X88.343 Y108.012 E0.00917
G1 X88.206 Y107.747 E0.00935
G1 X88.139 Y107.476 E0.00875
G1 X88.130 Y107.331 E0.00458
G1 X88.130 Y105.312 E0.06331
G1 X88.164 Y105.034 E0.00876
G1 X88.265 Y104.767 E0.00896
G1 X88.443 Y104.512 E0.00976
G1 X88.652 Y104.327 E0.00875
G1 X88.911 Y104.191 E0.00915
G1 X89.188 Y104.123 E0.00896
G1 X92.490 Y104.114 E0.10354
G1 X92.950 Y104.111 F7200.000
G1 F5760
G1 X92.520 Y106.308 E-0.76000
G1 E-0.04000 F2100.00000
G1 Z0.800 F7200.000
G1 X97.600 Y99.299 F7200.000
G1 Z0.200 F7200.000
G1 E0.80000 F2100.00000
G1 F900
G1 X108.151 Y86.263 E0.52583
G1 X112.409 Y86.263 E0.13351
G1 X99.841 Y101.391 E0.61666
G1 X112.170 Y113.737 E0.54707
G1 X108.062 Y113.737 E0.12878
G1 X96.076 Y101.452 E0.53815
G1 X96.076 Y113.737 E0.38519
G1 X92.924 Y113.737 E0.09885
G1 X92.920 Y113.051 E0.02150
G1 X92.849 Y112.556 E0.01570
G1 X92.779 Y112.282 E0.00885
G1 X92.607 Y111.821 E0.01545
G1 X92.370 Y111.384 E0.01559
G1 X92.207 Y111.148 E0.00898
G1 X91.886 Y110.776 E0.01541
G1 X91.512 Y110.449 E0.01558
G1 X91.279 Y110.286 E0.00890
G1 X90.858 Y110.054 E0.01507
G1 X90.597 Y109.944 E0.00889
G1 X90.126 Y109.803 E0.01542
G1 X89.243 Y109.674 E0.02797
G1 X88.869 Y109.570 E0.01218
G1 X88.364 Y109.334 E0.01747
G1 X87.905 Y109.001 E0.01778
G1 X87.775 Y108.878 E0.00560
G1 X87.417 Y108.439 E0.01776
G1 X87.224 Y108.103 E0.01216
G1 X87.028 Y107.581 E0.01748
G1 X86.953 Y107.201 E0.01212
G1 X86.928 Y106.807 E0.01239
G1 X86.935 Y105.627 E0.03698
G1 X86.951 Y105.456 E0.00539
G1 X87.026 Y105.076 E0.01215
G1 X87.147 Y104.718 E0.01186
G1 X87.407 Y104.224 E0.01748
G1 X87.641 Y103.916 E0.01213
G1 X88.044 Y103.532 E0.01748
G1 X88.364 Y103.314 E0.01212
G1 X88.710 Y103.140 E0.01215
G1 X89.240 Y102.975 E0.01738
G1 X89.884 Y102.889 E0.02040
G1 X90.369 Y102.781 E0.01558
G1 X90.844 Y102.602 E0.01591
G1 X91.285 Y102.359 E0.01579
G1 X91.512 Y102.199 E0.00871
G1 X91.882 Y101.877 E0.01540
G1 X92.217 Y101.488 E0.01608
G1 X92.495 Y101.053 E0.01619
G1 X92.699 Y100.605 E0.01545
G1 X92.787 Y100.341 E0.00870
G1 X92.893 Y99.850 E0.01576
G1 X92.927 Y99.364 E0.01528
G1 X92.927 Y86.263 E0.41079
G1 X96.076 Y86.263 E0.09874
G1 X96.076 Y97.775 E0.36097
G1 X97.558 Y99.257 E0.06568
G1 X97.571 Y98.736 F7200.000
G1 F900
G1 X107.971 Y85.886 E0.51834
G1 X113.212 Y85.886 E0.16434
G1 X100.350 Y101.367 E0.63108
G1 X113.079 Y114.114 E0.56481
G1 X107.903 Y114.114 E0.16228
G1 X96.454 Y102.379 E0.51408
G1 X96.454 Y114.114 E0.36796
G1 X92.549 Y114.114 E0.12242
G1 X92.543 Y113.079 E0.03245
G1 X92.479 Y112.629 E0.01425
G1 X92.419 Y112.395 E0.00758
G1 X92.263 Y111.977 E0.01399
G1 X92.049 Y111.581 E0.01411
G1 X91.909 Y111.379 E0.00771
G1 X91.618 Y111.042 E0.01395
G1 X91.279 Y110.746 E0.01411
G1 X91.080 Y110.607 E0.00763
G1 X90.694 Y110.394 E0.01381
G1 X90.470 Y110.300 E0.00763
G1 X90.044 Y110.173 E0.01393
G1 X89.165 Y110.044 E0.02786
G1 X88.750 Y109.928 E0.01351
G1 X88.557 Y109.853 E0.00648
G1 X88.173 Y109.660 E0.01350
G1 X87.826 Y109.424 E0.01315
G1 X87.503 Y109.139 E0.01352
G1 X87.218 Y108.811 E0.01360
G1 X87.099 Y108.642 E0.00648
G1 X86.885 Y108.269 E0.01350
G1 X86.725 Y107.881 E0.01315
G1 X86.662 Y107.672 E0.00684
G1 X86.578 Y107.250 E0.01349
G1 X86.550 Y106.818 E0.01358
G1 X86.558 Y105.608 E0.03794
G1 X86.578 Y105.401 E0.00650
G1 X86.661 Y104.979 E0.01350
G1 X86.797 Y104.574 E0.01339
G1 X86.981 Y104.197 E0.01315
G1 X87.095 Y104.011 E0.00684
G1 X87.355 Y103.669 E0.01349
G1 X87.650 Y103.370 E0.01315
G1 X87.817 Y103.230 E0.00684
G1 X88.173 Y102.989 E0.01349
G1 X88.557 Y102.795 E0.01350
G1 X88.750 Y102.720 E0.00648
G1 X89.164 Y102.605 E0.01346
G1 X89.818 Y102.518 E0.02071
G1 X90.261 Y102.419 E0.01422
G1 X90.685 Y102.259 E0.01422
G1 X91.085 Y102.038 E0.01431
G1 X91.279 Y101.902 E0.00744
G1 X91.614 Y101.610 E0.01394
G1 X91.914 Y101.263 E0.01439
G1 X92.163 Y100.873 E0.01450
G1 X92.348 Y100.467 E0.01398
G1 X92.422 Y100.242 E0.00743
G1 X92.519 Y99.797 E0.01428
G1 X92.550 Y99.351 E0.01402
G1 X92.550 Y85.886 E0.42219
G1 X96.454 Y85.886 E0.12238
G1 X96.454 Y97.619 E0.36789
G1 X97.528 Y98.694 E0.04765
G1 X97.804 Y99.061 F7200.000
G1 X97.818 Y99.479 F7200.000
G1 F900
G1 X99.590 Y101.251 E0.07868
G1 X99.832 Y100.959 E0.01192
G1 X98.057 Y99.184 E0.07884
G1 X98.296 Y98.889 E0.01193
G1 X100.074 Y100.667 E0.07899
G1 X100.317 Y100.375 E0.01192
G1 X98.535 Y98.593 E0.07914
G1 X98.774 Y98.298 E0.01193
G1 X100.559 Y100.083 E0.07930
G1 X100.802 Y99.792 E0.01192
G1 X99.013 Y98.003 E0.07945
G1 X99.252 Y97.708 E0.01193
G1 X101.044 Y99.500 E0.07961
G1 X101.287 Y99.208 E0.01192
G1 X99.491 Y97.412 E0.07976
G1 X99.730 Y97.117 E0.01193
G1 X101.529 Y98.916 E0.07991
G1 X101.771 Y98.624 E0.01192
G1 X99.969 Y96.822 E0.08007
G1 X100.208 Y96.527 E0.01193
G1 X102.014 Y98.333 E0.08022
G1 X102.256 Y98.041 E0.01192
G1 X100.447 Y96.231 E0.08037
G1 X100.686 Y95.936 E0.01193
G1 X102.499 Y97.749 E0.08053
G1 X102.741 Y97.457 E0.01192
G1 X100.925 Y95.641 E0.08068
G1 X101.164 Y95.346 E0.01193
G1 X102.983 Y97.166 E0.08084
G1 X103.226 Y96.874 E0.01192
G1 X101.403 Y95.050 E0.08099
G1 X101.642 Y94.755 E0.01193
G1 X103.468 Y96.582 E0.08114
G1 X103.711 Y96.290 E0.01192
G1 X101.880 Y94.460 E0.08130
G1 X102.119 Y94.165 E0.01193
G1 X103.953 Y95.998 E0.08145
G1 X104.196 Y95.707 E0.01192
G1 X102.358 Y93.869 E0.08160
G1 X102.597 Y93.574 E0.01193
G1 X104.438 Y95.415 E0.08176
G1 X104.680 Y95.123 E0.01192
G1 X102.836 Y93.279 E0.08191
G1 X103.075 Y92.984 E0.01193
G1 X104.923 Y94.831 E0.08206
G1 X105.165 Y94.539 E0.01192
G1 X103.314 Y92.688 E0.08222
G1 X103.553 Y92.393 E0.01193
G1 X105.408 Y94.248 E0.08237
G1 X105.650 Y93.956 E0.01192
G1 X103.792 Y92.098 E0.08253
G1 X104.031 Y91.803 E0.01193
G1 X105.892 Y93.664 E0.08268
G1 X106.135 Y93.372 E0.01192
G1 X104.270 Y91.507 E0.08283
G1 X104.509 Y91.212 E0.01193
G1 X106.377 Y93.080 E0.08299
G1 X106.620 Y92.789 E0.01192
G1 X104.748 Y90.917 E0.08314
G1 X104.987 Y90.622 E0.01193
G1 X106.862 Y92.497 E0.08329
G1 X107.104 Y92.205 E0.01192
G1 X105.226 Y90.326 E0.08345
G1 X105.465 Y90.031 E0.01193
G1 X107.347 Y91.913 E0.08360
G1 X107.589 Y91.621 E0.01192
G1 X105.704 Y89.736 E0.08375
G1 X105.943 Y89.441 E0.01193
G1 X107.832 Y91.330 E0.08391
G1 X108.074 Y91.038 E0.01192
G1 X106.182 Y89.145 E0.08406
G1 X106.421 Y88.850 E0.01193
G1 X108.317 Y90.746 E0.08422
G1 X108.559 Y90.454 E0.01192
G1 X106.660 Y88.555 E0.08437
G1 X106.899 Y88.260 E0.01193
G1 X108.801 Y90.162 E0.08452
G1 X109.044 Y89.871 E0.01192
G1 X107.137 Y87.964 E0.08468
G1 X107.376 Y87.669 E0.01193
G1 X109.286 Y89.579 E0.08483
G1 X109.529 Y89.287 E0.01192
G1 X107.615 Y87.374 E0.08498
G1 X107.854 Y87.079 E0.01193
G1 X109.771 Y88.995 E0.08514
G1 X110.013 Y88.704 E0.01192
G1 X108.093 Y86.783 E0.08529
G1 X108.286 Y86.546 E0.00961
G1 X108.390 Y86.546 E0.00327
G1 X110.256 Y88.412 E0.08289
G1 X110.498 Y88.120 E0.01192
G1 X108.924 Y86.546 E0.06993
G1 X109.458 Y86.546 E0.01678
G1 X110.741 Y87.828 E0.05697
G1 X110.983 Y87.536 E0.01192
G1 X109.992 Y86.546 E0.04401
G1 X110.527 Y86.546 E0.01678
G1 X111.225 Y87.245 E0.03104
G1 X111.468 Y86.953 E0.01192
G1 X111.061 Y86.546 E0.01808
G1 X111.595 Y86.546 E0.01678
G1 X111.831 Y86.781 E0.01047
G1 F5760
G1 X111.595 Y86.546 E-0.11550
G1 F5760
G1 X111.061 Y86.546 E-0.18502
G1 F5760
G1 X111.468 Y86.953 E-0.19940
G1 F5760
G1 X111.225 Y87.245 E-0.13139
G1 F5760
G1 X110.963 Y86.982 E-0.12868
G1 E-0.04000 F2100.00000
G1 Z0.800 F7200.000
G1 X95.399 Y86.376 F7200.000
G1 Z0.200 F7200.000
G1 E0.80000 F2100.00000
G1 F900
G1 X95.794 Y86.771 E0.01753
G1 X95.794 Y87.305 E0.01678
G1 X95.035 Y86.546 E0.03372
G1 X94.500 Y86.546 E0.01678
G1 X95.794 Y87.839 E0.05745
G1 X95.794 Y88.373 E0.01678
G1 X93.966 Y86.546 E0.08118
G1 X93.432 Y86.546 E0.01678
G1 X95.794 Y88.907 E0.10491
G1 X95.794 Y89.442 E0.01678
G1 X93.210 Y86.858 E0.11476
G1 X93.210 Y87.392 E0.01678
G1 X95.794 Y89.976 E0.11476
G1 X95.794 Y90.510 E0.01678
G1 X93.210 Y87.926 E0.11476
G1 X93.210 Y88.461 E0.01678
G1 X95.794 Y91.044 E0.11476
G1 X95.794 Y91.578 E0.01678
G1 X93.210 Y88.995 E0.11476
G1 X93.210 Y89.529 E0.01678
G1 X95.794 Y92.113 E0.11476
G1 X95.794 Y92.647 E0.01678
G1 X93.210 Y90.063 E0.11476
G1 X93.210 Y90.598 E0.01678
G1 X95.794 Y93.181 E0.11476
G1 X95.794 Y93.715 E0.01678
G1 X93.210 Y91.132 E0.11476
G1 X93.210 Y91.666 E0.01678
G1 X95.794 Y94.249 E0.11476
G1 X95.794 Y94.784 E0.01678
G1 X93.210 Y92.200 E0.11476
G1 X93.210 Y92.734 E0.01678
G1 X95.794 Y95.318 E0.11476
G1 X95.794 Y95.852 E0.01678
G1 X93.210 Y93.269 E0.11476
G1 X93.210 Y93.803 E0.01678
G1 X95.794 Y96.386 E0.11476
G1 X95.794 Y96.920 E0.01678
G1 X93.210 Y94.337 E0.11476
G1 X93.210 Y94.871 E0.01678
G1 X95.794 Y97.455 E0.11476
G1 F5760
G1 X94.242 Y95.903 E-0.76000
G1 E-0.04000 F2100.00000
G1 Z0.800 F7200.000
G1 X95.963 Y101.364 F7200.000
G1 Z0.200 F7200.000
G1 E0.80000 F2100.00000
G1 F900
G1 X93.210 Y98.611 E0.12230
G1 X93.210 Y99.145 E0.01678
G1 X95.794 Y101.728 E0.11476
G1 X95.794 Y102.263 E0.01678
G1 X93.190 Y99.659 E0.11566
G1 X93.174 Y99.890 E0.00729
G1 X93.123 Y100.126 E0.00756
G1 X95.794 Y102.797 E0.11865
G1 X95.794 Y103.331 E0.01678
G1 X93.015 Y100.552 E0.12344
G1 X92.861 Y100.932 E0.01289
G1 X95.794 Y103.865 E0.13028
G1 X95.794 Y104.399 E0.01678
G1 X92.681 Y101.287 E0.13824
G1 X92.473 Y101.613 E0.01215
G1 X95.794 Y104.934 E0.14749
G1 X95.794 Y105.468 E0.01678
G1 X92.231 Y101.905 E0.15825
G1 X92.083 Y102.077 E0.00712
G1 X91.968 Y102.177 E0.00478
G1 X95.794 Y106.002 E0.16992
G1 X95.794 Y106.536 E0.01678
G1 X93.210 Y103.953 E0.11476
G1 X93.210 Y104.487 E0.01678
G1 X95.794 Y107.070 E0.11476
G1 X95.794 Y107.605 E0.01678
G1 X93.210 Y105.021 E0.11476
G1 X93.210 Y105.555 E0.01678
G1 X95.794 Y108.139 E0.11476
G1 X95.794 Y108.673 E0.01678
G1 X93.210 Y106.090 E0.11476
G1 X93.210 Y106.624 E0.01678
G1 X95.794 Y109.207 E0.11476
G1 X95.794 Y109.741 E0.01678
G1 X93.210 Y107.158 E0.11476
G1 X93.210 Y107.692 E0.01678
G1 X95.794 Y110.276 E0.11476
G1 X95.794 Y110.810 E0.01678
G1 X93.210 Y108.226 E0.11476
G1 X93.210 Y108.761 E0.01678
G1 X95.794 Y111.344 E0.11476
G1 X95.794 Y111.878 E0.01678
G1 X93.111 Y109.196 E0.11915
G1 X92.576 Y109.195 E0.01682
G1 X95.794 Y112.412 E0.14293
G1 X95.794 Y112.947 E0.01678
G1 X92.040 Y109.193 E0.16672
G1 X91.505 Y109.192 E0.01682
G1 X95.767 Y113.454 E0.18933
G1 X95.233 Y113.454 E0.01678
G1 X90.970 Y109.191 E0.18938
G1 X90.434 Y109.190 E0.01682
G1 X91.120 Y109.875 E0.03046
G1 X90.692 Y109.678 E0.01479
G1 X90.258 Y109.548 E0.01424
G1 X89.899 Y109.188 E0.01597
G1 X89.364 Y109.187 E0.01679
G1 X89.820 Y109.644 E0.02029
G1 X89.052 Y109.252 F7200.000
G1 F900
G1 X88.855 Y109.195 E0.00543
G1 F900
G1 X88.529 Y109.053 E0.00918
G1 F900
G1 X88.466 Y109.021 E0.00160
G1 F900
G1 X88.110 Y108.770 E0.00929
G1 F900
G1 X87.783 Y108.415 E0.00964
G1 X87.688 Y108.266 E0.00353
G1 X87.535 Y107.982 E0.00646
G1 X87.410 Y107.603 E0.00797
G1 F5760
G1 X87.535 Y107.982 E-0.13815
G1 F5760
G1 X87.688 Y108.266 E-0.11189
G1 F5760
G1 X87.783 Y108.415 E-0.06112
G1 F5760
G1 X88.110 Y108.770 E-0.16710
G1 E-0.32174 F2100.00000
G1 Z0.800 F7200.000
G1 X87.042 Y106.631 F7200.000
G1 Z0.200 F7200.000
G1 E0.80000 F2100.00000
G1 F900
G1 X87.480 Y107.068 E0.02136
G1 X87.477 Y106.479 E0.02034
G1 X87.214 Y106.216 E0.01282
G1 X87.218 Y105.634 E0.02009
G1 X87.644 Y106.060 E0.02078
G1 F5760
G1 X87.218 Y105.634 E-0.20865
G1 F5760
G1 X87.214 Y106.216 E-0.20172
G1 F5760
G1 X87.477 Y106.479 E-0.12868
G1 F5760
G1 X87.480 Y107.068 E-0.20425
G1 F5760
G1 X87.446 Y107.034 E-0.01669
G1 E-0.04000 F2100.00000
G1 Z0.800 F7200.000
G1 X87.419 Y105.043 F7200.000
G1 Z0.200 F7200.000
G1 E0.80000 F2100.00000
G1 F900
G1 X87.465 Y104.848 E0.00389
G1 X87.631 Y104.472 E0.00800
G1 X87.785 Y104.238 E0.00543
G1 X87.954 Y104.034 E0.00516
G1 F900
G1 X88.273 Y103.751 E0.00859
G1 F900
G1 X88.675 Y103.524 E0.01066
G1 F900
G1 X88.852 Y103.459 E0.00500
G1 F900
G1 X89.064 Y103.392 E0.00605
G1 X89.168 Y103.116 F7200.000
G1 F900
G1 X89.507 Y103.454 E0.01503
G1 X90.041 Y103.454 E0.01678
G1 X89.776 Y103.189 E0.01178
G1 X90.224 Y103.103 E0.01434
G1 X90.575 Y103.454 E0.01559
G1 X91.109 Y103.454 E0.01678
G1 X90.637 Y102.982 E0.02097
G1 X91.018 Y102.829 E0.01289
