;FLAVOR:Marlin
;TIME:190
;Filament used:0.160667m
;Layer height: 0.3
;MINX:73.326
;MINY:68.376
;MINZ:0.2
;MAXX:91.674
;MAXY:96.624
;MAXZ:2.9
                                 
;Creative3D GCode Generated by CXEngineDEV
;Generated Time:2022-04-08 18:14:05
;----------Machine Config--------------
;Machine Name:Creality Ender-2 Pro
;Machine Height:180
;Machine Width:165
;Machine Depth:165
;Material name:PLA
;Number of Extruders:1
;ExtruderParams[0] Nozzle Diameter1000
;----------Profile Config---------------
;Layer Height:0.3
;Wall Thickness:0.8
;Top/Bottom Thickness:1
;Out Wall Line Width:0.4
;Inner Wall Line Width:0.4
;Inital Layer Height:200
;Wall Line Count:1
;Infill Line Distance:4
;Infill Pattern:grid
;Infill Sparse Density:20
;Infill Wipe Distance:0
;Print Temperature:200
;Bed Temperature:60
;Support Enable:false
;Support Density:30
;Support Angle:1.0472
;Adhesion Type:none
;machine is belt:false
;machine belt offset:10
;machine belt offset Y:0
;----------Shell Config----------------
;Outer Wall Wipe Distance:200
;Infill Before Walls:false
;Infill Overlap:0.16
;Fill Gaps Between Walls:everywhere
;Minimum Infill Area:1
;Top Surface Skin Layer:0
;Top Layers:2
;Z Seam Alignment:sharpest_corner
;Seam Corner Preference:z_seam_corner_inner
;Z Seam X:82.5
;Z Seam Y:82.5
;Horizontal Expansion:0
;Top/Bottom Pattern:zigzag
;Ironing Pattern:zigzag
;Vase Model:false
;----------Support Config----------------
;Support Type:everywhere
;Support Pattern:zigzag
;Support Infill Layer Thickness:0.3
;Minimum Support Area:10
;Enable Support Roof:false
;Support Roof Thickness:0.8
;Support Roof Pattern:lines
; ---------PrintSpeed & Travel----------
;Enable Print Cool:true
;Avoid Printed Parts Traveling:true
;Enable Retraction:true
;Retraction Distance:8
;Retraction Speed:100
;Retraction Prime Speed:100
;Maximum Retraction Count:100
;Minimum Extrusion Distance Window:1
;Z Hop When Retracted:false
;Z Hop Height:0.2
;Retract Before Outer Wall:true
;Print Speed:50
;Infill Speed:50

;Prime Tower Speed:50
;Travel Speed:120
;Initial Layer Speed:25
;Skirt/Brim Speed:25
;Combing Mode:off
;---------------------End of Head--------------------------
M140 S60
M104 S200
M105
M109 S200
M82 ;absolute extrusion mode
M220 S100 ;Reset Feedrate
M221 S100 ;Reset Flowrate

G28 ;Home

G92 E0 ;Reset Extruder
G1 Z2.0 F3000 ;Move Z Axis up
G1 X10.1 Y20 Z0.28 F5000.0 ;Move to start position
G1 X10.1 Y145.0 Z0.28 F1500.0 E15 ;Draw the first line
G1 X10.4 Y145.0 Z0.28 F5000.0 ;Move to side a little
G1 X10.4 Y20 Z0.28 F1500.0 E30 ;Draw the second line
G92 E0  ;Reset Extruder
G1 E-1.0000 F1800 ;Retract a bit
G1 Z2.0 F3000 ;Move Z Axis up
G1 E0.0000 F1800 

G92 E0
G92 E0
G1 F6000 E-8

;LAYER_COUNT:10

;LAYER:0
M107
;MESH:
G0 F3600 X79.217 Y86.624 Z0.2
;TYPE:WALL-OUTER
G1 F6000 E0
G1 F1500 X76.11 Y86.624 E0.11367
G1 X75.736 Y86.685 E0.12754
G1 X75.383 Y86.879 E0.14227
G1 X75.113 Y87.177 E0.15699
G1 X74.96 Y87.544 E0.17153
G1 X74.926 Y87.811 E0.18138
G1 X74.926 Y89.841 E0.25565
G1 X74.988 Y90.214 E0.26948
G1 X75.182 Y90.567 E0.28422
G1 X75.479 Y90.838 E0.29893
G1 X75.848 Y90.992 E0.31356
G1 X76.154 Y91.024 E0.32482
G1 X79.326 Y91.024 E0.44087
G1 X79.326 Y86.923 E0.59091
G1 X79.217 Y86.624 E0.60255
G0 F3600 X79.017 Y86.624
G0 X79.017 Y86.184
;;retract;;
G1 F6000 E-7.39745
G0 F3600 X83.25 Y72.039
G1 F6000 E0.60255
G1 F1500 X83.25 Y96.624 E1.50202
G1 X79.326 Y96.624 E1.64559
G1 X79.326 Y95.799 E1.67577
G1 X79.302 Y95.397 E1.6905
G1 X79.222 Y94.989 E1.70571
G1 X79.09 Y94.591 E1.72106
G1 X78.907 Y94.218 E1.73626
G1 X78.679 Y93.874 E1.75135
G1 X78.409 Y93.56 E1.76651
G1 X78.094 Y93.282 E1.78188
G1 X77.752 Y93.048 E1.79704
G1 X77.383 Y92.862 E1.81216
G1 X76.991 Y92.724 E1.82736
G1 X76.592 Y92.639 E1.84229
G1 X76.17 Y92.592 E1.85782
G1 X75.779 Y92.513 E1.87242
G1 X75.386 Y92.382 E1.88757
G1 X75.017 Y92.205 E1.90254
G1 X74.671 Y91.982 E1.9176
G1 X74.362 Y91.724 E1.93233
G1 X74.076 Y91.417 E1.94768
G1 X73.836 Y91.086 E1.96264
G1 X73.641 Y90.729 E1.97752
G1 X73.493 Y90.351 E1.99238
G1 X73.385 Y89.94 E2.00792
G1 X73.335 Y89.544 E2.02253
G1 X73.326 Y89.325 E2.03055
G1 X73.332 Y88.135 E2.07408
G1 X73.382 Y87.72 E2.08938
G1 X73.483 Y87.319 E2.10451
G1 X73.628 Y86.946 E2.11915
G1 X73.825 Y86.581 E2.13432
G1 X74.065 Y86.244 E2.14946
G1 X74.338 Y85.947 E2.16422
G1 X74.653 Y85.681 E2.1793
G1 X74.998 Y85.456 E2.19437
G1 X75.371 Y85.274 E2.20956
G1 X75.754 Y85.143 E2.22437
G1 X76.158 Y85.059 E2.23946
G1 X76.591 Y85.01 E2.25541
G1 X76.983 Y84.928 E2.27006
G1 X77.374 Y84.792 E2.2852
G1 X77.745 Y84.605 E2.3004
G1 X78.088 Y84.372 E2.31557
G1 X78.399 Y84.097 E2.33076
G1 X78.671 Y83.784 E2.34593
G1 X78.903 Y83.436 E2.36124
G1 X79.085 Y83.063 E2.37642
G1 X79.218 Y82.669 E2.39163
G1 X79.298 Y82.263 E2.40677
G1 X79.325 Y81.855 E2.42173
G1 X79.326 Y68.376 E2.91488
G1 X91.674 Y68.376 E3.36664
G1 X91.674 Y72.039 E3.50066
G1 X83.25 Y72.039 E3.80886
G0 F3600 X83.25 Y72.239
G0 X82.81 Y72.239
;;retract;;
G1 F6000 E-4.19114
G0 F3600 X91.433 Y68.616
;TYPE:SKIN
G1 F6000 E3.80886
G1 F1500 X91.243 Y68.616 E3.81581
G1 X91.433 Y68.806 E3.82564
G1 X91.433 Y69.372 E3.84635
G1 X90.677 Y68.616 E3.88547
G1 X90.112 Y68.616 E3.90614
G1 X91.433 Y69.937 E3.97449
G1 X91.433 Y70.503 E3.9952
G1 X89.546 Y68.616 E4.09283
G1 X88.98 Y68.616 E4.11354
G1 X91.433 Y71.069 E4.24046
G1 X91.433 Y71.634 E4.26113
G1 X88.415 Y68.616 E4.41728
G1 X87.849 Y68.616 E4.43799
G1 X91.032 Y71.798 E4.60265
G1 X90.466 Y71.798 E4.62336
G1 X87.283 Y68.616 E4.78803
G1 X86.718 Y68.616 E4.8087
G1 X89.9 Y71.798 E4.97334
G1 X89.335 Y71.798 E4.99401
G1 X86.152 Y68.616 E5.15867
G1 X85.586 Y68.616 E5.17938
G1 X88.769 Y71.798 E5.34404
G1 X88.203 Y71.798 E5.36475
G1 X85.021 Y68.616 E5.52939
G1 X84.455 Y68.616 E5.5501
G1 X87.638 Y71.798 E5.71476
G1 X87.072 Y71.798 E5.73547
G1 X83.889 Y68.616 E5.90014
G1 X83.324 Y68.616 E5.92081
G1 X86.506 Y71.798 E6.08545
G1 X85.941 Y71.798 E6.10612
G1 X82.758 Y68.616 E6.27078
G1 X82.192 Y68.616 E6.29149
G1 X85.375 Y71.798 E6.45615
G1 X84.809 Y71.798 E6.47686
G1 X81.626 Y68.616 E6.64153
G1 X81.061 Y68.616 E6.6622
G1 X84.243 Y71.798 E6.82684
G1 X83.678 Y71.798 E6.84751
G1 X80.495 Y68.616 E7.01217
G1 X79.929 Y68.616 E7.03288
G1 X83.112 Y71.798 E7.19754
G1 X83.009 Y71.798 E7.20131
G1 X83.01 Y72.262 E7.21829
G1 X79.565 Y68.817 E7.39653
G1 X79.565 Y69.382 E7.41721
G1 X83.01 Y72.827 E7.59545
G1 X83.01 Y73.393 E7.61616
G1 X79.565 Y69.948 E7.79441
G1 X79.565 Y70.514 E7.81511
G1 X83.01 Y73.959 E7.99336
G1 X83.01 Y74.524 E8.01403
G1 X79.565 Y71.079 E8.19228
G1 X79.565 Y71.645 E8.21299
G1 X83.01 Y75.09 E8.39123
G1 X83.01 Y75.656 E8.41194
G1 X79.565 Y72.211 E8.59019
G1 X79.565 Y72.776 E8.61086
G1 X83.01 Y76.221 E8.7891
G1 X83.01 Y76.787 E8.80981
G1 X79.565 Y73.342 E8.98806
G1 X79.565 Y73.908 E9.00877
G1 X83.01 Y77.353 E9.18701
G1 X83.01 Y77.918 E9.20768
G1 X79.565 Y74.473 E9.38593
G1 X79.565 Y75.039 E9.40664
G1 X83.01 Y78.484 E9.58488
G1 X83.01 Y79.05 E9.60559
G1 X79.565 Y75.605 E9.78384
G1 X79.565 Y76.17 E9.80451
G1 X83.01 Y79.615 E9.98276
G1 X83.01 Y80.181 E10.00346
G1 X79.565 Y76.736 E10.18171
G1 X79.565 Y77.302 E10.20242
G1 X83.01 Y80.747 E10.38066
G1 X83.01 Y81.313 E10.40137
G1 X79.565 Y77.868 E10.57962
G1 X79.565 Y78.433 E10.60029
G1 X83.01 Y81.878 E10.77854
G1 X83.01 Y82.444 E10.79924
G1 X79.565 Y78.999 E10.97749
G1 X79.565 Y79.565 E10.9982
G1 X83.01 Y83.01 E11.17644
G1 X83.01 Y83.575 E11.19712
G1 X79.565 Y80.13 E11.37536
G1 X79.565 Y80.696 E11.39607
G1 X83.01 Y84.141 E11.57432
G1 X83.01 Y84.707 E11.59502
G1 X79.565 Y81.262 E11.77327
G1 X79.565 Y81.827 E11.79394
G1 X83.01 Y85.272 E11.97219
G1 X83.01 Y85.838 E11.9929
G1 X79.524 Y82.353 E12.17324
G1 X79.45 Y82.73 E12.18729
G1 X79.42 Y82.814 E12.19056
G1 X83.01 Y86.404 E12.37631
G1 X83.01 Y86.969 E12.39698
G1 X79.269 Y83.229 E12.59051
G1 X79.111 Y83.555 E12.60377
G1 X79.078 Y83.604 E12.60593
G1 X83.01 Y87.535 E12.80935
G1 X83.01 Y88.101 E12.83006
G1 X78.85 Y83.942 E13.04527
G1 X78.587 Y84.243 E13.05989
G1 X83.01 Y88.666 E13.28874
G1 X83.01 Y89.232 E13.30945
G1 X78.29 Y84.513 E13.55364
G1 X78.235 Y84.561 E13.55631
G1 X77.961 Y84.749 E13.56847
G1 X83.01 Y89.798 E13.82971
G1 X83.01 Y90.364 E13.85042
G1 X79.565 Y86.919 E14.02866
G1 X79.565 Y87.485 E14.04937
G1 X83.01 Y90.929 E14.22759
G1 X83.01 Y91.495 E14.2483
G1 X79.565 Y88.051 E14.42652
G1 X79.565 Y88.616 E14.44719
G1 X83.01 Y92.061 E14.62544
G1 X83.01 Y92.626 E14.64611
G1 X79.565 Y89.182 E14.82433
G1 X79.565 Y89.748 E14.84504
G1 X83.01 Y93.192 E15.02326
G1 X83.01 Y93.758 E15.04396
G1 X79.565 Y90.313 E15.22221
G1 X79.565 Y90.879 E15.24292
G1 X83.01 Y94.323 E15.42114
G1 X83.01 Y94.889 E15.44185
G1 X79.384 Y91.263 E15.62946
G1 X78.818 Y91.263 E15.65017
G1 X83.01 Y95.455 E15.86706
G1 X83.01 Y96.02 E15.88773
G1 X78.252 Y91.263 E16.13389
G1 X77.686 Y91.263 E16.1546
G1 X82.806 Y96.382 E16.41948
G1 X82.24 Y96.382 E16.44019
G1 X77.121 Y91.263 E16.70505
G1 X76.555 Y91.263 E16.72576
G1 X81.675 Y96.382 E16.99065
G1 X81.109 Y96.382 E17.01135
G1 X79.356 Y94.629 E17.10205
G1 X79.454 Y94.927 E17.11353
G1 X79.541 Y95.366 E17.12991
G1 X79.541 Y95.38 E17.13042
G1 X80.543 Y96.382 E17.18226
G1 X79.978 Y96.382 E17.20293
G1 X79.565 Y96.383 E17.21804
G0 F3600 X79.565 Y95.97
G1 F1500 X79.978 Y96.382 E17.23939
;;retract;;
G1 F6000 E9.23939
G0 F3600 X79.356 Y94.629
G1 F6000 E17.23939
G1 F1500 X79.313 Y94.499 E17.2444
G1 X79.116 Y94.096 E17.26081
G1 X78.87 Y93.728 E17.277
G1 X78.58 Y93.39 E17.2933
G1 X78.242 Y93.091 E17.30981
G1 X77.874 Y92.839 E17.32612
G1 X77.478 Y92.64 E17.34234
G0 F3600 X77.305 Y92.578
G1 F1500 X75.972 Y91.245 E17.41131
G0 F3600 X75.787 Y91.226
G1 F1500 X75.347 Y91.042 E17.42876
G1 X74.991 Y90.716 E17.44642
G1 X74.758 Y90.291 E17.46415
G1 X74.706 Y89.98 E17.47569
G1 X74.686 Y89.86 E17.48014
G1 X74.686 Y89.393 E17.49722
G1 X73.57 Y88.278 E17.55494
G1 X73.571 Y88.155 E17.55944
G1 X73.619 Y87.763 E17.57389
G0 F3600 X73.619 Y87.761
G1 F1500 X74.686 Y88.828 E17.6291
G1 X74.686 Y88.262 E17.6498
G1 X73.739 Y87.316 E17.69878
G1 X73.843 Y87.051 E17.70919
G1 X73.911 Y86.922 E17.71453
G1 X74.697 Y87.708 E17.7552
G1 X74.726 Y87.481 E17.76357
G1 X74.817 Y87.262 E17.77224
G1 X74.125 Y86.57 E17.80805
G1 X74.255 Y86.389 E17.8162
G1 X74.377 Y86.256 E17.82281
G1 X75.03 Y86.909 E17.85659
G1 X75.231 Y86.687 E17.86755
G1 X75.323 Y86.636 E17.8714
G1 X74.669 Y85.982 E17.90524
G1 X74.798 Y85.873 E17.91141
G1 X74.996 Y85.744 E17.92006
G1 X75.699 Y86.447 E17.95643
G1 X76.091 Y86.383 E17.97097
G1 X76.201 Y86.383 E17.97499
G1 X75.363 Y85.545 E18.01835
G1 X75.467 Y85.494 E18.02259
G1 X75.772 Y85.389 E18.03439
G1 X76.767 Y86.383 E18.08584
G1 X77.332 Y86.383 E18.10652
G1 X76.24 Y85.291 E18.16302
G1 X76.629 Y85.247 E18.17734
G1 X76.739 Y85.224 E18.18145
G1 X77.898 Y86.383 E18.24142
G1 X78.464 Y86.383 E18.26213
G1 X77.19 Y85.11 E18.32802
G1 X77.468 Y85.013 E18.33879
G1 X77.595 Y84.949 E18.34399
G1 X79.029 Y86.383 E18.41819
G0 F3600 X79.565 Y86.919
G1 F1500 X79.565 Y86.88 E18.41962
G1 X79.384 Y86.383 E18.43897
;;retract;;
G1 F6000 E10.43897
G0 F3600 X74.706 Y89.98
G1 F6000 E18.43897
G1 F1500 X73.568 Y88.841 E18.49787
G1 X73.565 Y89.325 E18.51558
G1 X73.568 Y89.407 E18.51858
G1 X76.551 Y92.39 E18.67293
G1 X76.202 Y92.353 E18.68577
G1 X75.883 Y92.288 E18.69768
G1 X73.667 Y90.071 E18.81236
G1 X73.721 Y90.276 E18.82012
G1 X73.856 Y90.619 E18.8336
G1 X74.043 Y90.962 E18.8479
G1 X74.175 Y91.146 E18.85618
G1 X74.822 Y91.793 E18.88966
G1 X74.814 Y91.788 E18.89
G1 X74.521 Y91.543 E18.90397
G1 X74.261 Y91.264 E18.91793
;;retract;;
G1 F6000 E10.91793
;MESH:NONMESH
G0 F600 X74.261 Y91.264 Z0.5
G0 F3600 X79.326 Y86.624
;TIME_ELAPSED:32.657580

;LAYER:1
M140 S60
M106 S127.5
;TYPE:WALL-OUTER
;MESH:
G1 F6000 E18.91793
G1 F1500 X79.126 Y86.624 E18.92791
G1 X76.009 Y86.629 E19.08341
G1 X75.631 Y86.728 E19.10291
G1 X75.357 Y86.901 E19.11907
G1 X75.121 Y87.166 E19.13678
G1 X74.963 Y87.528 E19.15648
G1 X74.926 Y87.811 E19.17072
G1 X74.931 Y89.941 E19.27699
G1 X75.032 Y90.32 E19.29656
G1 X75.204 Y90.593 E19.31266
G1 X75.468 Y90.829 E19.33032
G1 X75.834 Y90.99 E19.35027
G1 X76.252 Y91.024 E19.37119
G1 X79.326 Y91.024 E19.52456
G1 X79.326 Y86.824 E19.7341
G1 X79.326 Y86.624 E19.74056
G0 F5400 X79.126 Y86.624
G0 X79.126 Y86.184
;;retract;;
G1 F6000 E11.74056
G0 F5400 X83.25 Y72.039
G1 F6000 E19.74056
G1 F1500 X83.25 Y96.624 E20.96711
G1 X79.326 Y96.624 E21.16288
G1 X79.326 Y95.799 E21.20404
G1 X79.303 Y95.409 E21.22353
G1 X79.225 Y95.003 E21.24415
G1 X79.091 Y94.596 E21.26553
G1 X78.91 Y94.225 E21.28612
G1 X78.686 Y93.884 E21.30648
G1 X78.419 Y93.572 E21.32697
G1 X78.099 Y93.284 E21.34844
G1 X77.757 Y93.052 E21.36906
G1 X77.39 Y92.865 E21.38961
G1 X77.002 Y92.727 E21.41016
G1 X76.614 Y92.643 E21.42996
G1 X76.166 Y92.591 E21.45246
G1 X75.805 Y92.52 E21.47082
G1 X75.565 Y92.449 E21.48331
G1 X75.23 Y92.313 E21.50134
G1 X75.002 Y92.196 E21.51413
G1 X74.696 Y92 E21.53226
G1 X74.503 Y91.85 E21.54445
G1 X74.224 Y91.585 E21.56365
G1 X74.072 Y91.414 E21.57507
G1 X73.854 Y91.113 E21.59361
G1 X73.723 Y90.893 E21.60638
G1 X73.572 Y90.568 E21.62426
G1 X73.487 Y90.337 E21.63654
G1 X73.39 Y89.962 E21.65587
G1 X73.354 Y89.743 E21.66694
G1 X73.328 Y89.35 E21.68659
G1 X73.326 Y88.336 E21.73718
G1 X73.349 Y87.947 E21.75662
G1 X73.384 Y87.713 E21.76842
G1 X73.475 Y87.348 E21.78719
G1 X73.553 Y87.125 E21.79898
G1 X73.715 Y86.772 E21.81835
G1 X73.828 Y86.575 E21.82968
G1 X74.049 Y86.265 E21.84868
G1 X74.207 Y86.079 E21.86085
G1 X74.469 Y85.828 E21.87895
G1 X74.659 Y85.675 E21.89112
G1 X74.981 Y85.466 E21.91028
G1 X75.188 Y85.354 E21.92202
G1 X75.53 Y85.214 E21.94046
G1 X75.769 Y85.138 E21.95297
G1 X76.129 Y85.064 E21.9713
G1 X76.612 Y85.006 E21.99557
G1 X76.977 Y84.929 E22.01418
G1 X77.367 Y84.795 E22.03476
G1 X77.736 Y84.609 E22.05537
G1 X78.079 Y84.38 E22.07595
G1 X78.391 Y84.105 E22.0967
G1 X78.662 Y83.795 E22.11724
G1 X78.899 Y83.44 E22.13854
G1 X79.082 Y83.071 E22.15909
G1 X79.216 Y82.678 E22.1798
G1 X79.297 Y82.273 E22.20041
G1 X79.325 Y81.865 E22.22081
G1 X79.326 Y68.376 E22.89378
G1 X91.674 Y68.376 E23.50982
G1 X91.674 Y72.039 E23.69257
G1 X83.25 Y72.039 E24.11285
G0 F5400 X83.25 Y72.239
G0 X82.81 Y72.239
;;retract;;
G1 F6000 E16.11285
G0 F5400 X79.565 Y68.616
;TYPE:SKIN
G1 F6000 E24.11285
G1 F1500 X79.565 Y68.644 E24.11424
G0 F5400 X79.593 Y68.616
G1 F1500 X80.159 Y68.616 E24.14248
G1 X79.565 Y69.21 E24.18439
G1 X79.565 Y69.775 E24.21258
G1 X80.724 Y68.616 E24.29435
G1 X81.29 Y68.616 E24.32259
G1 X79.565 Y70.341 E24.4443
G1 X79.565 Y70.907 E24.47254
G1 X81.856 Y68.616 E24.63418
G1 X82.421 Y68.616 E24.66237
G1 X79.565 Y71.472 E24.86387
G1 X79.565 Y72.038 E24.89211
G1 X82.987 Y68.616 E25.13355
G1 X83.553 Y68.616 E25.16179
G1 X79.565 Y72.604 E25.44316
G1 X79.565 Y73.169 E25.47135
G1 X84.118 Y68.616 E25.79259
G1 X84.684 Y68.616 E25.82083
G1 X79.565 Y73.735 E26.182
G1 X79.565 Y74.301 E26.21024
G1 X85.25 Y68.616 E26.61135
G1 X85.815 Y68.616 E26.63953
G1 X79.565 Y74.867 E27.08054
G1 X79.565 Y75.432 E27.10873
G1 X83.009 Y71.988 E27.35172
G1 X83.009 Y72.554 E27.37996
G1 X79.565 Y75.998 E27.62295
G1 X79.565 Y76.564 E27.65119
G1 X83.009 Y73.119 E27.89422
G1 X83.009 Y73.685 E27.92246
G1 X79.565 Y77.129 E28.16545
G1 X79.565 Y77.695 E28.19369
G1 X83.009 Y74.251 E28.43668
G1 X83.009 Y74.816 E28.46487
G1 X79.565 Y78.261 E28.7079
G1 X79.565 Y78.826 E28.73608
G1 X83.009 Y75.382 E28.97908
G1 X83.009 Y75.948 E29.00731
G1 X79.565 Y79.392 E29.25031
G1 X79.565 Y79.958 E29.27855
G1 X83.009 Y76.513 E29.52157
G1 X83.009 Y77.079 E29.54981
G1 X79.565 Y80.523 E29.7928
G1 X79.565 Y81.089 E29.82104
G1 X83.009 Y77.645 E30.06403
G1 X83.009 Y78.21 E30.09222
G1 X79.565 Y81.655 E30.33525
G1 X79.564 Y81.872 E30.34608
G1 X79.54 Y82.245 E30.36472
G1 X83.009 Y78.776 E30.60948
G1 X83.009 Y79.342 E30.63772
G1 X79.363 Y82.988 E30.89496
G0 F5400 X79.304 Y83.162
G1 F1500 X79.106 Y83.558 E30.91705
G1 X78.853 Y83.939 E30.93987
G1 X78.56 Y84.272 E30.962
G1 X78.225 Y84.57 E30.98437
G1 X77.856 Y84.816 E31.00649
G1 X77.461 Y85.016 E31.02858
G1 X77.269 Y85.081 E31.03869
G1 X77.041 Y85.16 E31.05073
G1 X76.652 Y85.242 E31.07057
G1 X76.528 Y85.257 E31.0768
G1 X73.574 Y88.211 E31.28522
G1 X73.588 Y87.972 E31.29716
G1 X73.621 Y87.751 E31.30831
