; generated by Slic3r Prusa Edition 1.39.1-prusa3d on 2018-04-22 at 18:20:32

; 

; external perimeters extrusion width = 0.45mm
; perimeters extrusion width = 0.45mm
; infill extrusion width = 0.45mm
; solid infill extrusion width = 0.45mm
; top infill extrusion width = 0.33mm
; first layer extrusion width = 0.42mm

M107
M115 U3.1.0 ; tell printer latest fw version
M201 X9000 Y9000 Z500 E10000 ; sets maximum accelerations, mm/sec^2
M203 X500 Y500 Z12 E120 ; sets maximum feedrates, mm/sec
M204 S1500 T1500 ; sets acceleration (S) and retract acceleration (T)
M205 X10 Y10 Z0.2 E2.5 ; sets the jerk limits, mm/sec
M205 S0 T0 ; sets the minimum extruding and travel feed rate, mm/sec
M83  ; extruder relative mode
M104 S215 ; set extruder temp
M140 S60 ; set bed temp
M190 S60 ; wait for bed temp
M109 S215 ; wait for extruder temp
G28 W ; home all without mesh bed level
G80 ; mesh bed leveling
G1 Y-3.0 F1000.0 ; go outside print area
G92 E0.0
G1 E18.0 F1000.0;
G1 X60.0 E9.0  F1000.0 ; intro line
G1 X100.0 E12.5  F1000.0 ; intro line
G92 E0.0
M900 K30; Filament gcode
G21 ; set units to millimeters
G90 ; use absolute coordinates
M83 ; use relative distances for extrusion
;BEFORE_LAYER_CHANGE
;0.2


G1 E-0.80000 F2100.00000
G1 Z0.600 F7200.000
;AFTER_LAYER_CHANGE
;0.2
G1 X119.441 Y89.000 F7200.000
G1 Z0.200 F7200.000
G1 E0.80000 F2100.00000
M204 S1000
G1 F900
G1 X119.965 Y88.479 E0.02320
G1 X120.606 Y88.118 E0.02307
G1 X121.320 Y87.939 E0.02307
G1 X134.378 Y87.922 E0.40941
G1 X135.201 Y88.049 E0.02612
G1 X135.949 Y88.417 E0.02612
G1 X136.552 Y88.991 E0.02612
G1 X136.956 Y89.720 E0.02612
G1 X137.127 Y90.609 E0.02841
G1 X137.084 Y95.229 E0.14484
G1 X128.502 Y120.359 E0.83262
G1 X128.169 Y120.955 E0.02141
G1 X127.699 Y121.451 E0.02141
G1 X127.119 Y121.818 E0.02154
G1 X126.469 Y122.029 E0.02141
G1 X121.557 Y122.077 E0.15403
G1 X120.591 Y121.876 E0.03094
G1 X120.126 Y121.634 E0.01643
G1 X119.713 Y121.305 E0.01656
G1 X114.266 Y115.759 E0.24374
G1 X113.677 Y114.892 E0.03285
G1 X113.303 Y114.104 E0.02735
G1 X112.996 Y113.061 E0.03408
G1 X112.882 Y112.172 E0.02811
G1 X112.885 Y110.433 E0.05451
G1 X113.079 Y109.231 E0.03818
G1 X119.075 Y89.639 E0.64243
G1 X119.411 Y89.052 E0.02119
G1 X119.736 Y89.241 F7200.000
G1 F900
G1 X120.208 Y88.769 E0.02093
G1 X120.770 Y88.459 E0.02012
G1 X121.394 Y88.310 E0.02012
G1 X134.377 Y88.299 E0.40708
G1 X135.104 Y88.414 E0.02308
G1 X135.761 Y88.746 E0.02308
G1 X136.285 Y89.263 E0.02308
G1 X136.626 Y89.915 E0.02308
G1 X136.750 Y90.640 E0.02308
G1 X136.707 Y95.194 E0.14277
G1 X128.149 Y120.227 E0.82949
G1 X127.855 Y120.746 E0.01870
G1 X127.438 Y121.178 E0.01882
G1 X126.930 Y121.490 E0.01870
G1 X126.360 Y121.666 E0.01870
G1 X121.566 Y121.701 E0.15033
G1 X120.724 Y121.523 E0.02696
G1 X119.968 Y121.027 E0.02837
G1 X114.563 Y115.526 E0.24179
G1 X114.003 Y114.702 E0.03126
G1 X113.654 Y113.966 E0.02554
G1 X113.364 Y112.977 E0.03232
G1 X113.258 Y112.138 E0.02650
G1 X113.261 Y110.464 E0.05251
G1 X113.443 Y109.329 E0.03602
G1 X119.428 Y89.773 E0.64124
G1 X119.706 Y89.293 E0.01740
G1 F5760
G1 X120.208 Y88.769 E-0.25135
G1 F5760
G1 X120.770 Y88.459 E-0.22228
G1 F5760
G1 X121.394 Y88.310 E-0.22228
G1 F5760
G1 X121.579 Y88.310 E-0.06410
G1 E-0.04000 F2100.00000
G1 Z0.800 F7200.000
G1 X122.214 Y108.737 F7200.000
G1 Z0.200 F7200.000
G1 E0.80000 F2100.00000
G1 F900
G1 X122.214 Y113.912 E0.16227
G1 X118.448 Y113.905 E0.11807
G1 X118.101 Y113.826 E0.01115
G1 X117.795 Y113.678 E0.01065
G1 X117.623 Y113.556 E0.00662
G1 X117.382 Y113.315 E0.01069
G1 X117.182 Y112.993 E0.01188
G1 X117.046 Y112.519 E0.01546
G1 X117.039 Y110.292 E0.06983
G1 X117.076 Y109.970 E0.01016
G1 X117.188 Y109.650 E0.01065
G1 X117.394 Y109.321 E0.01219
G1 X117.635 Y109.080 E0.01065
G1 X117.922 Y108.900 E0.01065
G1 X118.297 Y108.770 E0.01242
G1 X118.594 Y108.737 E0.00938
G1 X122.154 Y108.737 E0.11161
G1 X121.836 Y109.114 F7200.000
G1 F900
G1 X121.836 Y113.535 E0.13860
G1 X118.491 Y113.528 E0.10491
G1 X118.226 Y113.468 E0.00850
G1 X117.987 Y113.352 E0.00832
G1 X117.867 Y113.267 E0.00463
G1 X117.679 Y113.079 E0.00833
G1 X117.530 Y112.839 E0.00887
G1 X117.423 Y112.466 E0.01216
G1 X117.416 Y110.313 E0.06751
G1 X117.446 Y110.055 E0.00814
G1 X117.533 Y109.804 E0.00832
G1 X117.684 Y109.565 E0.00887
G1 X117.871 Y109.377 E0.00832
G1 X118.096 Y109.236 E0.00832
G1 X118.369 Y109.142 E0.00906
G1 X118.615 Y109.114 E0.00775
G1 X121.776 Y109.114 E0.09913
G1 X122.236 Y109.113 F7200.000
G1 F5760
G1 X121.806 Y111.308 E-0.76000
G1 E-0.04000 F2100.00000
G1 Z0.800 F7200.000
G1 X125.363 Y94.152 F7200.000
G1 Z0.200 F7200.000
G1 E0.80000 F2100.00000
G1 F900
G1 X125.363 Y118.737 E0.77084
G1 X122.211 Y118.737 E0.09883
G1 X122.207 Y118.073 E0.02082
G1 X122.147 Y117.609 E0.01468
G1 X122.027 Y117.159 E0.01459
G1 X121.852 Y116.733 E0.01443
G1 X121.627 Y116.338 E0.01427
G1 X121.475 Y116.123 E0.00826
G1 X121.180 Y115.784 E0.01411
G1 X120.839 Y115.481 E0.01429
G1 X120.628 Y115.328 E0.00818
G1 X120.241 Y115.100 E0.01408
G1 X119.828 Y114.925 E0.01406
G1 X119.579 Y114.846 E0.00819
G1 X119.149 Y114.756 E0.01378
G1 X118.541 Y114.676 E0.01921
G1 X118.185 Y114.580 E0.01156
G1 X117.690 Y114.358 E0.01703
G1 X117.252 Y114.052 E0.01675
G1 X116.876 Y113.672 E0.01676
G1 X116.660 Y113.371 E0.01162
G1 X116.487 Y113.053 E0.01136
G1 X116.354 Y112.716 E0.01136
G1 X116.265 Y112.365 E0.01133
G1 X116.214 Y111.808 E0.01757
G1 X116.220 Y110.644 E0.03647
G1 X116.302 Y110.115 E0.01681
G1 X116.415 Y109.762 E0.01162
G1 X116.568 Y109.434 E0.01136
G1 X116.761 Y109.127 E0.01136
G1 X116.990 Y108.846 E0.01136
G1 X117.387 Y108.488 E0.01676
G1 X117.698 Y108.287 E0.01162
G1 X118.024 Y108.129 E0.01136
G1 X118.533 Y107.973 E0.01667
G1 X119.149 Y107.893 E0.01948
G1 X119.603 Y107.797 E0.01456
G1 X120.226 Y107.556 E0.02094
G1 X120.633 Y107.318 E0.01478
G1 X120.839 Y107.168 E0.00800
G1 X121.176 Y106.869 E0.01411
G1 X121.487 Y106.510 E0.01488
G1 X121.735 Y106.135 E0.01411
G1 X121.849 Y105.919 E0.00766
G1 X121.949 Y105.696 E0.00766
G1 X122.093 Y105.269 E0.01414
G1 X122.185 Y104.808 E0.01473
G1 X122.214 Y104.363 E0.01399
G1 X122.214 Y91.263 E0.41073
G1 X133.786 Y91.263 E0.36286
G1 X133.786 Y94.152 E0.09059
G1 X125.423 Y94.152 E0.26224
G1 X125.740 Y94.529 F7200.000
G1 F900
G1 X125.740 Y119.114 E0.77084
G1 X121.835 Y119.114 E0.12242
G1 X121.830 Y118.098 E0.03185
G1 X121.776 Y117.682 E0.01317
G1 X121.669 Y117.280 E0.01305
G1 X121.513 Y116.899 E0.01290
G1 X121.309 Y116.541 E0.01292
G1 X121.178 Y116.357 E0.00709
G1 X120.911 Y116.049 E0.01277
G1 X120.602 Y115.775 E0.01294
G1 X120.421 Y115.643 E0.00702
G1 X120.071 Y115.438 E0.01274
G1 X119.697 Y115.279 E0.01273
G1 X119.483 Y115.211 E0.00703
G1 X119.085 Y115.128 E0.01274
G1 X118.467 Y115.047 E0.01955
G1 X118.070 Y114.940 E0.01290
G1 X117.884 Y114.870 E0.00621
G1 X117.510 Y114.689 E0.01304
G1 X117.009 Y114.341 E0.01913
G1 X116.718 Y114.064 E0.01260
G1 X116.580 Y113.907 E0.00655
G1 X116.340 Y113.572 E0.01292
G1 X116.144 Y113.213 E0.01283
G1 X115.995 Y112.831 E0.01283
G1 X115.896 Y112.442 E0.01260
G1 X115.863 Y112.236 E0.00655
G1 X115.837 Y111.818 E0.01311
G1 X115.843 Y110.620 E0.03757
G1 X115.893 Y110.221 E0.01262
G1 X115.937 Y110.016 E0.00655
G1 X116.064 Y109.624 E0.01292
G1 X116.236 Y109.253 E0.01283
G1 X116.454 Y108.906 E0.01283
G1 X116.713 Y108.589 E0.01283
G1 X117.003 Y108.312 E0.01260
G1 X117.167 Y108.182 E0.00655
G1 X117.513 Y107.958 E0.01292
G1 X117.881 Y107.779 E0.01283
G1 X118.464 Y107.602 E0.01911
G1 X119.085 Y107.521 E0.01964
G1 X119.496 Y107.434 E0.01315
G1 X120.062 Y107.215 E0.01903
G1 X120.426 Y107.002 E0.01324
G1 X120.603 Y106.873 E0.00684
G1 X120.907 Y106.603 E0.01276
G1 X121.186 Y106.282 E0.01334
G1 X121.410 Y105.942 E0.01276
G1 X121.510 Y105.753 E0.00670
G1 X121.598 Y105.558 E0.00670
G1 X121.728 Y105.172 E0.01280
G1 X121.810 Y104.759 E0.01319
G1 X121.836 Y104.350 E0.01284
G1 X121.836 Y90.886 E0.42217
G1 X134.164 Y90.886 E0.38651
G1 X134.164 Y94.529 E0.11424
G1 X125.800 Y94.529 E0.26224
G1 X125.343 Y94.584 F7200.000
G1 F5760
G1 X125.794 Y96.724 E-0.76000
G1 E-0.04000 F2100.00000
G1 Z0.800 F7200.000
G1 X133.673 Y92.144 F7200.000
G1 Z0.200 F7200.000
G1 E0.80000 F2100.00000
G1 F900
G1 X133.075 Y91.546 E0.02673
G1 X132.538 Y91.546 E0.01696
G1 X133.504 Y92.511 E0.04314
G1 X133.504 Y93.049 E0.01696
G1 X132.001 Y91.546 E0.06713
G1 X131.464 Y91.546 E0.01696
G1 X133.504 Y93.586 E0.09112
G1 X133.504 Y93.869 E0.00896
G1 X133.250 Y93.869 E0.00801
G1 X130.926 Y91.546 E0.10379
G1 X130.389 Y91.546 E0.01696
G1 X132.713 Y93.869 E0.10379
G1 X132.176 Y93.869 E0.01696
G1 X129.852 Y91.546 E0.10379
G1 X129.315 Y91.546 E0.01696
G1 X131.639 Y93.869 E0.10379
G1 X131.102 Y93.869 E0.01696
G1 X128.778 Y91.546 E0.10379
G1 X128.241 Y91.546 E0.01696
G1 X130.565 Y93.869 E0.10379
G1 X130.027 Y93.869 E0.01696
G1 X127.704 Y91.546 E0.10378
G1 X127.167 Y91.546 E0.01696
G1 X129.490 Y93.869 E0.10378
G1 X128.953 Y93.869 E0.01696
G1 X126.629 Y91.546 E0.10379
G1 X126.092 Y91.546 E0.01696
G1 X128.416 Y93.869 E0.10379
G1 X127.879 Y93.869 E0.01696
G1 X125.555 Y91.546 E0.10379
G1 X125.018 Y91.546 E0.01696
G1 X127.342 Y93.869 E0.10379
G1 X126.805 Y93.869 E0.01696
G1 X124.481 Y91.546 E0.10379
G1 X123.944 Y91.546 E0.01696
G1 X126.267 Y93.869 E0.10379
G1 X125.730 Y93.869 E0.01696
G1 X123.407 Y91.546 E0.10379
G1 X122.869 Y91.546 E0.01696
G1 X125.193 Y93.869 E0.10379
G1 X125.080 Y93.869 E0.00358
G1 X125.080 Y94.293 E0.01338
G1 X122.496 Y91.710 E0.11539
G1 X122.496 Y92.247 E0.01696
G1 X125.080 Y94.830 E0.11539
G1 X125.080 Y95.367 E0.01696
G1 X122.496 Y92.784 E0.11539
G1 X122.496 Y93.321 E0.01696
G1 X125.080 Y95.905 E0.11539
G1 X125.080 Y96.442 E0.01696
G1 X122.496 Y93.858 E0.11539
G1 X122.496 Y94.395 E0.01696
G1 X125.080 Y96.979 E0.11539
G1 X125.080 Y97.516 E0.01696
G1 X122.496 Y94.932 E0.11539
G1 X122.496 Y95.470 E0.01696
G1 X125.080 Y98.053 E0.11539
G1 X125.080 Y98.590 E0.01696
G1 X122.496 Y96.007 E0.11539
G1 X122.496 Y96.544 E0.01696
G1 X125.080 Y99.127 E0.11539
G1 X125.080 Y99.665 E0.01696
G1 X122.496 Y97.081 E0.11539
G1 X122.496 Y97.618 E0.01696
G1 X125.080 Y100.202 E0.11539
G1 X125.080 Y100.739 E0.01696
G1 X122.496 Y98.155 E0.11539
G1 X122.496 Y98.692 E0.01696
G1 X125.080 Y101.276 E0.11539
G1 X125.080 Y101.813 E0.01696
G1 X122.496 Y99.230 E0.11539
G1 X122.496 Y99.767 E0.01696
G1 X125.080 Y102.350 E0.11539
G1 X125.080 Y102.887 E0.01696
G1 X122.496 Y100.304 E0.11539
G1 X122.496 Y100.841 E0.01696
G1 X125.080 Y103.424 E0.11539
G1 X125.080 Y103.962 E0.01696
G1 X122.496 Y101.378 E0.11539
G1 X122.496 Y101.915 E0.01696
G1 X125.080 Y104.499 E0.11539
G1 X125.080 Y105.036 E0.01696
G1 X122.496 Y102.452 E0.11539
G1 X122.496 Y102.989 E0.01696
G1 X125.080 Y105.573 E0.11539
G1 X125.080 Y106.110 E0.01696
G1 X122.496 Y103.527 E0.11539
G1 X122.496 Y104.064 E0.01696
G1 X125.080 Y106.647 E0.11539
G1 X125.080 Y107.184 E0.01696
G1 X122.482 Y104.587 E0.11601
G1 X122.466 Y104.845 E0.00816
G1 X122.422 Y105.064 E0.00706
G1 X125.080 Y107.722 E0.11870
G1 X125.080 Y108.259 E0.01696
G1 X122.316 Y105.495 E0.12345
G1 X122.173 Y105.889 E0.01324
G1 X125.080 Y108.796 E0.12983
G1 X125.080 Y109.333 E0.01696
G1 X121.995 Y106.248 E0.13778
G1 X121.784 Y106.574 E0.01226
G1 X125.080 Y109.870 E0.14722
G1 X125.080 Y110.407 E0.01696
G1 X121.546 Y106.873 E0.15783
G1 X121.285 Y107.150 E0.01200
G1 X125.080 Y110.944 E0.16948
G1 X125.080 Y111.481 E0.01696
G1 X122.496 Y108.898 E0.11539
G1 X122.496 Y109.435 E0.01696
G1 X125.080 Y112.019 E0.11539
G1 X125.080 Y112.556 E0.01696
G1 X122.496 Y109.972 E0.11539
G1 X122.496 Y110.509 E0.01696
G1 X125.080 Y113.093 E0.11539
G1 X125.080 Y113.630 E0.01696
G1 X122.496 Y111.047 E0.11539
G1 X122.496 Y111.584 E0.01696
G1 X125.080 Y114.167 E0.11539
G1 X125.080 Y114.704 E0.01696
G1 X122.496 Y112.121 E0.11539
G1 X122.496 Y112.658 E0.01696
G1 X125.080 Y115.241 E0.11539
G1 X125.080 Y115.779 E0.01696
G1 X122.496 Y113.195 E0.11539
G1 X122.496 Y113.732 E0.01696
G1 X125.080 Y116.316 E0.11539
G1 X125.080 Y116.853 E0.01696
G1 X122.423 Y114.196 E0.11867
G1 X121.885 Y114.195 E0.01700
G1 X125.080 Y117.390 E0.14271
G1 X125.080 Y117.927 E0.01696
G1 X121.346 Y114.194 E0.16675
G1 X120.808 Y114.192 E0.01700
G1 X125.070 Y118.454 E0.19035
G1 X124.533 Y118.454 E0.01696
G1 X120.270 Y114.191 E0.19040
G1 X119.732 Y114.190 E0.01700
G1 X120.418 Y114.876 E0.03064
G1 X119.926 Y114.659 E0.01697
G1 X119.557 Y114.552 E0.01215
G1 X119.193 Y114.189 E0.01622
G1 X118.656 Y114.188 E0.01699
G1 X119.103 Y114.636 E0.01999
G1 X118.341 Y114.252 F7200.000
G1 F900
G1 X118.007 Y114.143 E0.00951
G1 F900
G1 X117.730 Y114.005 E0.00731
G1 F900
G1 X117.645 Y113.954 E0.00222
G1 F900
G1 X117.432 Y113.798 E0.00547
G1 F900
G1 X117.149 Y113.517 E0.00792
G1 X116.932 Y113.200 E0.00763
G1 X116.799 Y112.908 E0.00639
G1 X116.698 Y112.608 E0.00629
G1 F5760
G1 X116.799 Y112.908 E-0.10967
G1 F5760
G1 X116.932 Y113.200 E-0.11139
G1 F5760
G1 X117.149 Y113.517 E-0.13302
G1 F5760
G1 X117.432 Y113.798 E-0.13798
G1 E-0.30794 F2100.00000
G1 Z0.800 F7200.000
G1 X116.328 Y111.579 F7200.000
G1 Z0.200 F7200.000
G1 E0.80000 F2100.00000
G1 F900
G1 X116.762 Y112.013 E0.02229
G1 X116.760 Y111.393 E0.02254
G1 X116.500 Y111.133 E0.01334
G1 X116.503 Y110.667 E0.01696
G1 X116.523 Y110.538 E0.00475
G1 X116.928 Y110.943 E0.02084
G1 F5760
G1 X116.523 Y110.538 E-0.19858
G1 F5760
G1 X116.503 Y110.667 E-0.04525
G1 F5760
G1 X116.500 Y111.133 E-0.16159
G1 F5760
G1 X116.760 Y111.393 E-0.12715
G1 F5760
G1 X116.762 Y112.013 E-0.21475
G1 F5760
G1 X116.736 Y111.987 E-0.01269
G1 E-0.04000 F2100.00000
G1 Z0.800 F7200.000
G1 X116.747 Y109.866 F7200.000
G1 Z0.200 F7200.000
G1 E0.80000 F2100.00000
G1 F900
G1 X116.889 Y109.528 E0.00732
G1 X117.017 Y109.310 E0.00505
G1 X117.218 Y109.057 E0.00647
G1 X117.454 Y108.829 E0.00656
G1 F900
G1 X117.785 Y108.611 E0.00862
G1 F900
G1 X117.859 Y108.572 E0.00191
G1 F900
G1 X118.003 Y108.508 E0.00375
G1 F900
G1 X118.319 Y108.399 E0.00880
G1 X118.482 Y108.107 F7200.000
G1 F900
G1 X118.830 Y108.454 E0.01552
G1 X119.367 Y108.454 E0.01696
G1 X119.097 Y108.185 E0.01205
G1 X119.547 Y108.098 E0.01448
G1 X119.904 Y108.454 E0.01593
G1 X120.441 Y108.454 E0.01696
G1 X119.952 Y107.965 E0.02185
G1 X120.339 Y107.815 E0.01312
G1 X120.978 Y108.454 E0.02854
G1 X121.516 Y108.454 E0.01696
G1 X120.679 Y107.618 E0.03735
G1 X120.999 Y107.401 E0.01221
G1 X122.222 Y108.624 E0.05463
G1 F5760
G1 X120.999 Y107.401 E-0.59914
G1 F5760
G1 X120.679 Y107.618 E-0.13392
G1 F5760
G1 X120.734 Y107.673 E-0.02694
G1 E-0.04000 F2100.00000
G1 Z0.800 F7200.000
G1 X122.288 Y117.821 F7200.000
G1 Z0.200 F7200.000
G1 E0.80000 F2100.00000
G1 F900
G1 X122.921 Y118.454 E0.02827
G1 X123.459 Y118.454 E0.01696
G1 X122.376 Y117.372 E0.04834
G1 X122.295 Y117.069 E0.00991
G1 X122.049 Y116.508 E0.01935
G1 X124.165 Y118.624 E0.09452
M106 S255
;BEFORE_LAYER_CHANGE
;0.5


G1 F5760
G1 X122.614 Y117.072 E-0.76000
G1 E-0.04000 F2100.00000
G1 Z0.800 F7200.000
;AFTER_LAYER_CHANGE
;0.5
M104 S210 ; set temperature
G1 X122.237 Y113.936 F7200.000
G1 Z0.500 F7200.000
G1 E0.80000 F2100.00000
M204 S800
G1 F4800
G1 X118.445 Y113.928 E0.18238
G1 X118.093 Y113.848 E0.01736
G1 X117.769 Y113.692 E0.01731
G1 X117.518 Y113.494 E0.01537
G1 X117.355 Y113.317 E0.01157
G1 X117.153 Y112.986 E0.01867
G1 X117.022 Y112.521 E0.02322
G1 X117.016 Y110.291 E0.10727
G1 X117.052 Y109.965 E0.01577
G1 X117.166 Y109.640 E0.01656
G1 X117.376 Y109.305 E0.01901
G1 X117.620 Y109.062 E0.01656
G1 X117.911 Y108.879 E0.01656
G1 X118.099 Y108.801 E0.00977
G1 X118.310 Y108.744 E0.01054
G1 X118.594 Y108.714 E0.01371
G1 X122.237 Y108.714 E0.17523
G1 X122.237 Y113.876 E0.24830
M204 S1000
G1 X121.851 Y113.550 F7200.000
M204 S800
G1 F4800
G1 X118.489 Y113.543 E0.16173
G1 X118.221 Y113.482 E0.01320
G1 X117.975 Y113.363 E0.01318
G1 X117.781 Y113.210 E0.01187
G1 X117.664 Y113.084 E0.00826
G1 X117.510 Y112.831 E0.01427
G1 X117.408 Y112.467 E0.01814
G1 X117.401 Y110.312 E0.10368
G1 X117.431 Y110.051 E0.01261
G1 X117.519 Y109.798 E0.01290
G1 X117.672 Y109.555 E0.01381
G1 X117.862 Y109.365 E0.01290
G1 X118.089 Y109.223 E0.01290
G1 X118.382 Y109.124 E0.01486
G1 X118.614 Y109.099 E0.01126
G1 X121.851 Y109.099 E0.15569
G1 X121.851 Y113.490 E0.21117
M204 S1000
G1 X121.934 Y113.941 F7200.000
