; generated by Slic3r Prusa Edition 1.39.1-prusa3d on 2018-05-09 at 12:53:30

; 

; external perimeters extrusion width = 0.45mm
; perimeters extrusion width = 0.45mm
; infill extrusion width = 0.45mm
; solid infill extrusion width = 0.45mm
; top infill extrusion width = 0.33mm
; first layer extrusion width = 0.42mm

M107
M115 U3.1.0 ; tell printer latest fw version
M201 X9000 Y9000 Z500 E10000 ; sets maximum accelerations, mm/sec^2
M203 X500 Y500 Z12 E120 ; sets maximum feedrates, mm/sec
M204 S1500 T1500 ; sets acceleration (S) and retract acceleration (T)
M205 X10 Y10 Z0.2 E2.5 ; sets the jerk limits, mm/sec
M205 S0 T0 ; sets the minimum extruding and travel feed rate, mm/sec
M83  ; extruder relative mode
M104 S200 ; set extruder temp
M140 S65 ; set bed temp
M190 S65 ; wait for bed temp
M109 S200 ; wait for extruder temp
G28 W ; home all without mesh bed level
G80 ; mesh bed leveling
G1 Y-3.0 F1000.0 ; go outside print area
G92 E0.0
G1 E18.0 F1000.0;
G1 X60.0 E9.0  F1000.0 ; intro line
G1 X100.0 E12.5  F1000.0 ; intro line
G92 E0.0
M900 K30; Filament gcode
G21 ; set units to millimeters
G90 ; use absolute coordinates
M83 ; use relative distances for extrusion
;BEFORE_LAYER_CHANGE
;0.2


G1 E-0.80000 F2100.00000
G1 Z0.600 F7200.000
;AFTER_LAYER_CHANGE
;0.2
G1 X94.441 Y84.000 F7200.000
G1 Z0.200 F7200.000
G1 E0.80000 F2100.00000
M204 S1000
G1 F900
G1 X94.965 Y83.479 E0.02320
G1 X95.606 Y83.118 E0.02307
G1 X96.320 Y82.939 E0.02307
G1 X109.378 Y82.922 E0.40941
G1 X110.201 Y83.049 E0.02612
G1 X110.949 Y83.417 E0.02612
G1 X111.552 Y83.991 E0.02612
G1 X111.956 Y84.720 E0.02612
G1 X112.127 Y85.609 E0.02841
G1 X112.084 Y90.229 E0.14484
G1 X103.502 Y115.359 E0.83262
G1 X103.169 Y115.955 E0.02141
G1 X102.699 Y116.451 E0.02141
G1 X102.122 Y116.816 E0.02141
G1 X101.469 Y117.029 E0.02154
G1 X96.557 Y117.077 E0.15403
G1 X95.591 Y116.876 E0.03094
G1 X95.126 Y116.634 E0.01643
G1 X94.713 Y116.305 E0.01656
G1 X89.266 Y110.759 E0.24374
G1 X88.672 Y109.882 E0.03320
G1 X88.303 Y109.104 E0.02699
G1 X87.996 Y108.061 E0.03410
G1 X87.883 Y107.183 E0.02777
G1 X87.885 Y105.438 E0.05472
G1 X88.076 Y104.242 E0.03796
G1 X94.075 Y84.639 E0.64278
G1 X94.411 Y84.052 E0.02119
G1 X94.736 Y84.241 F7200.000
G1 F900
G1 X95.208 Y83.769 E0.02093
G1 X95.770 Y83.459 E0.02012
G1 X96.394 Y83.310 E0.02012
G1 X109.377 Y83.299 E0.40708
G1 X110.104 Y83.414 E0.02308
G1 X110.761 Y83.746 E0.02308
G1 X111.285 Y84.263 E0.02308
G1 X111.626 Y84.915 E0.02308
G1 X111.750 Y85.640 E0.02308
G1 X111.707 Y90.194 E0.14277
G1 X103.149 Y115.227 E0.82949
G1 X102.855 Y115.746 E0.01870
G1 X102.438 Y116.178 E0.01882
G1 X101.930 Y116.490 E0.01870
G1 X101.360 Y116.666 E0.01870
G1 X96.566 Y116.701 E0.15033
G1 X95.724 Y116.523 E0.02696
G1 X94.968 Y116.027 E0.02837
G1 X89.563 Y110.526 E0.24179
G1 X88.997 Y109.692 E0.03161
G1 X88.655 Y108.969 E0.02507
G1 X88.365 Y107.980 E0.03233
G1 X88.259 Y107.149 E0.02626
G1 X88.261 Y105.464 E0.05284
G1 X88.441 Y104.340 E0.03567
G1 X94.428 Y84.773 E0.64159
G1 X94.706 Y84.293 E0.01740
G1 F5760
G1 X95.208 Y83.769 E-0.25135
G1 F5760
G1 X95.770 Y83.459 E-0.22228
G1 F5760
G1 X96.394 Y83.310 E-0.22228
G1 F5760
G1 X96.579 Y83.310 E-0.06410
G1 E-0.04000 F2100.00000
G1 Z0.800 F7200.000
G1 X97.214 Y103.737 F7200.000
G1 Z0.200 F7200.000
G1 E0.80000 F2100.00000
G1 F900
G1 X97.214 Y108.912 E0.16227
G1 X93.448 Y108.905 E0.11807
G1 X93.101 Y108.826 E0.01115
G1 X92.780 Y108.671 E0.01116
G1 X92.520 Y108.464 E0.01042
G1 X92.374 Y108.302 E0.00685
G1 X92.182 Y107.993 E0.01141
G1 X92.046 Y107.519 E0.01546
G1 X92.039 Y105.292 E0.06983
G1 X92.076 Y104.970 E0.01016
G1 X92.188 Y104.650 E0.01065
G1 X92.290 Y104.465 E0.00661
G1 X92.486 Y104.218 E0.00990
G1 X92.647 Y104.072 E0.00681
G1 X92.922 Y103.900 E0.01018
G1 X93.297 Y103.770 E0.01242
G1 X93.594 Y103.737 E0.00938
G1 X97.154 Y103.737 E0.11161
G1 X96.836 Y104.114 F7200.000
G1 F900
G1 X96.836 Y108.535 E0.13860
G1 X93.491 Y108.528 E0.10491
G1 X93.226 Y108.468 E0.00850
G1 X92.982 Y108.350 E0.00850
G1 X92.779 Y108.189 E0.00813
G1 X92.676 Y108.075 E0.00482
G1 X92.530 Y107.839 E0.00870
G1 X92.423 Y107.466 E0.01216
G1 X92.416 Y105.313 E0.06751
G1 X92.446 Y105.055 E0.00814
G1 X92.533 Y104.804 E0.00832
G1 X92.604 Y104.675 E0.00462
G1 X92.762 Y104.477 E0.00794
G1 X92.876 Y104.374 E0.00481
G1 X93.096 Y104.236 E0.00815
G1 X93.369 Y104.142 E0.00906
G1 X93.615 Y104.114 E0.00775
G1 X96.776 Y104.114 E0.09913
G1 X97.236 Y104.113 F7200.000
G1 F5760
G1 X96.806 Y106.308 E-0.76000
G1 E-0.04000 F2100.00000
G1 Z0.800 F7200.000
G1 X100.363 Y89.152 F7200.000
G1 Z0.200 F7200.000
G1 E0.80000 F2100.00000
G1 F900
G1 X100.363 Y113.737 E0.77084
G1 X97.211 Y113.737 E0.09883
G1 X97.207 Y113.073 E0.02082
G1 X97.147 Y112.609 E0.01468
G1 X97.027 Y112.159 E0.01459
G1 X96.852 Y111.733 E0.01443
G1 X96.627 Y111.338 E0.01427
G1 X96.475 Y111.123 E0.00826
G1 X96.180 Y110.784 E0.01411
G1 X95.839 Y110.481 E0.01429
G1 X95.628 Y110.328 E0.00818
G1 X95.241 Y110.100 E0.01408
G1 X94.828 Y109.925 E0.01406
G1 X94.579 Y109.846 E0.00819
G1 X94.149 Y109.756 E0.01378
G1 X93.541 Y109.676 E0.01921
G1 X93.194 Y109.583 E0.01127
G1 X92.698 Y109.362 E0.01703
G1 X92.252 Y109.052 E0.01703
G1 X91.990 Y108.802 E0.01136
G1 X91.761 Y108.522 E0.01136
G1 X91.490 Y108.061 E0.01676
G1 X91.355 Y107.716 E0.01162
G1 X91.263 Y107.356 E0.01164
G1 X91.214 Y106.808 E0.01726
G1 X91.220 Y105.636 E0.03675
G1 X91.304 Y105.107 E0.01679
G1 X91.415 Y104.762 E0.01136
G1 X91.568 Y104.434 E0.01136
G1 X91.761 Y104.127 E0.01136
G1 X91.990 Y103.846 E0.01136
G1 X92.252 Y103.596 E0.01136
G1 X92.550 Y103.375 E0.01164
G1 X93.033 Y103.125 E0.01703
G1 X93.541 Y102.972 E0.01665
G1 X94.149 Y102.893 E0.01922
G1 X94.603 Y102.797 E0.01457
G1 X95.226 Y102.556 E0.02094
G1 X95.633 Y102.318 E0.01478
G1 X95.839 Y102.168 E0.00800
G1 X96.176 Y101.869 E0.01411
G1 X96.487 Y101.510 E0.01488
G1 X96.735 Y101.135 E0.01411
G1 X96.849 Y100.919 E0.00766
G1 X96.949 Y100.696 E0.00766
G1 X97.093 Y100.269 E0.01414
G1 X97.185 Y99.808 E0.01473
G1 X97.214 Y99.363 E0.01399
G1 X97.214 Y86.263 E0.41073
G1 X108.786 Y86.263 E0.36286
G1 X108.786 Y89.152 E0.09059
G1 X100.423 Y89.152 E0.26224
G1 X100.740 Y89.529 F7200.000
G1 F900
G1 X100.740 Y114.114 E0.77084
G1 X96.835 Y114.114 E0.12242
G1 X96.830 Y113.098 E0.03185
G1 X96.776 Y112.682 E0.01317
G1 X96.669 Y112.280 E0.01305
G1 X96.513 Y111.899 E0.01290
G1 X96.309 Y111.541 E0.01292
G1 X96.178 Y111.357 E0.00709
G1 X95.911 Y111.049 E0.01277
G1 X95.602 Y110.775 E0.01294
G1 X95.421 Y110.643 E0.00702
G1 X95.071 Y110.438 E0.01274
G1 X94.697 Y110.279 E0.01273
G1 X94.483 Y110.211 E0.00703
G1 X94.085 Y110.128 E0.01274
G1 X93.467 Y110.047 E0.01955
G1 X93.073 Y109.941 E0.01280
G1 X92.691 Y109.784 E0.01293
G1 X92.513 Y109.691 E0.00632
G1 X92.340 Y109.587 E0.00632
G1 X92.009 Y109.341 E0.01293
G1 X91.713 Y109.059 E0.01283
G1 X91.454 Y108.742 E0.01283
G1 X91.240 Y108.402 E0.01260
G1 X91.145 Y108.215 E0.00655
G1 X90.995 Y107.832 E0.01292
G1 X90.893 Y107.432 E0.01293
G1 X90.863 Y107.236 E0.00621
G1 X90.837 Y106.818 E0.01312
G1 X90.843 Y105.617 E0.03767
G1 X90.862 Y105.419 E0.00623
G1 X90.938 Y105.014 E0.01293
G1 X91.064 Y104.624 E0.01283
G1 X91.236 Y104.253 E0.01283
G1 X91.454 Y103.906 E0.01283
G1 X91.713 Y103.589 E0.01283
G1 X92.009 Y103.307 E0.01283
G1 X92.340 Y103.062 E0.01293
G1 X92.510 Y102.959 E0.00621
G1 X92.884 Y102.778 E0.01304
G1 X93.467 Y102.601 E0.01910
G1 X94.085 Y102.521 E0.01955
G1 X94.496 Y102.434 E0.01315
G1 X95.062 Y102.215 E0.01903
G1 X95.426 Y102.002 E0.01324
G1 X95.603 Y101.873 E0.00684
G1 X95.907 Y101.603 E0.01276
G1 X96.186 Y101.282 E0.01334
G1 X96.410 Y100.942 E0.01276
G1 X96.510 Y100.753 E0.00670
G1 X96.598 Y100.558 E0.00670
G1 X96.728 Y100.172 E0.01280
G1 X96.810 Y99.759 E0.01319
G1 X96.836 Y99.350 E0.01284
G1 X96.836 Y85.886 E0.42217
G1 X109.164 Y85.886 E0.38651
G1 X109.164 Y89.529 E0.11424
G1 X100.800 Y89.529 E0.26224
G1 X100.343 Y89.584 F7200.000
G1 F5760
G1 X100.794 Y91.724 E-0.76000
G1 E-0.04000 F2100.00000
G1 Z0.800 F7200.000
G1 X108.673 Y87.144 F7200.000
G1 Z0.200 F7200.000
G1 E0.80000 F2100.00000
G1 F900
G1 X108.075 Y86.546 E0.02673
G1 X107.538 Y86.546 E0.01696
G1 X108.504 Y87.511 E0.04314
G1 X108.504 Y88.049 E0.01696
G1 X107.001 Y86.546 E0.06713
G1 X106.464 Y86.546 E0.01696
G1 X108.504 Y88.586 E0.09112
G1 X108.504 Y88.869 E0.00896
G1 X108.250 Y88.869 E0.00801
G1 X105.926 Y86.546 E0.10378
G1 X105.389 Y86.546 E0.01696
G1 X107.713 Y88.869 E0.10379
G1 X107.176 Y88.869 E0.01696
G1 X104.852 Y86.546 E0.10379
G1 X104.315 Y86.546 E0.01696
G1 X106.639 Y88.869 E0.10379
G1 X106.102 Y88.869 E0.01696
G1 X103.778 Y86.546 E0.10378
G1 X103.241 Y86.546 E0.01696
G1 X105.565 Y88.869 E0.10378
G1 X105.027 Y88.869 E0.01696
G1 X102.704 Y86.546 E0.10378
G1 X102.167 Y86.546 E0.01696
G1 X104.490 Y88.869 E0.10378
G1 X103.953 Y88.869 E0.01696
G1 X101.629 Y86.546 E0.10379
G1 X101.092 Y86.546 E0.01696
G1 X103.416 Y88.869 E0.10379
G1 X102.879 Y88.869 E0.01696
G1 X100.555 Y86.546 E0.10379
G1 X100.018 Y86.546 E0.01696
G1 X102.342 Y88.869 E0.10379
G1 X101.805 Y88.869 E0.01696
G1 X99.481 Y86.546 E0.10379
G1 X98.944 Y86.546 E0.01696
G1 X101.267 Y88.869 E0.10379
G1 X100.730 Y88.869 E0.01696
G1 X98.407 Y86.546 E0.10379
G1 X97.869 Y86.546 E0.01696
G1 X100.193 Y88.869 E0.10379
G1 X100.080 Y88.869 E0.00358
G1 X100.080 Y89.293 E0.01338
G1 X97.496 Y86.710 E0.11539
G1 X97.496 Y87.247 E0.01696
G1 X100.080 Y89.830 E0.11539
G1 X100.080 Y90.367 E0.01696
G1 X97.496 Y87.784 E0.11539
G1 X97.496 Y88.321 E0.01696
G1 X100.080 Y90.905 E0.11539
G1 X100.080 Y91.442 E0.01696
G1 X97.496 Y88.858 E0.11539
G1 X97.496 Y89.395 E0.01696
G1 X100.080 Y91.979 E0.11539
G1 X100.080 Y92.516 E0.01696
G1 X97.496 Y89.932 E0.11539
G1 X97.496 Y90.470 E0.01696
G1 X100.080 Y93.053 E0.11539
G1 X100.080 Y93.590 E0.01696
G1 X97.496 Y91.007 E0.11539
G1 X97.496 Y91.544 E0.01696
G1 X100.080 Y94.127 E0.11539
G1 X100.080 Y94.665 E0.01696
G1 X97.496 Y92.081 E0.11539
G1 X97.496 Y92.618 E0.01696
G1 X100.080 Y95.202 E0.11539
G1 X100.080 Y95.739 E0.01696
G1 X97.496 Y93.155 E0.11539
G1 X97.496 Y93.692 E0.01696
G1 X100.080 Y96.276 E0.11539
G1 X100.080 Y96.813 E0.01696
G1 X97.496 Y94.230 E0.11539
G1 X97.496 Y94.767 E0.01696
G1 X100.080 Y97.350 E0.11539
G1 X100.080 Y97.887 E0.01696
G1 X97.496 Y95.304 E0.11539
G1 X97.496 Y95.841 E0.01696
G1 X100.080 Y98.424 E0.11539
G1 X100.080 Y98.962 E0.01696
G1 X97.496 Y96.378 E0.11539
G1 X97.496 Y96.915 E0.01696
G1 X100.080 Y99.499 E0.11539
G1 X100.080 Y100.036 E0.01696
G1 X97.496 Y97.452 E0.11539
G1 X97.496 Y97.989 E0.01696
G1 X100.080 Y100.573 E0.11539
G1 X100.080 Y101.110 E0.01696
G1 X97.496 Y98.527 E0.11539
G1 X97.496 Y99.064 E0.01696
G1 X100.080 Y101.647 E0.11539
G1 X100.080 Y102.184 E0.01696
G1 X97.482 Y99.587 E0.11601
G1 X97.466 Y99.845 E0.00816
G1 X97.422 Y100.064 E0.00706
G1 X100.080 Y102.722 E0.11870
G1 X100.080 Y103.259 E0.01696
G1 X97.316 Y100.495 E0.12345
G1 X97.173 Y100.889 E0.01324
G1 X100.080 Y103.796 E0.12983
G1 X100.080 Y104.333 E0.01696
G1 X96.995 Y101.248 E0.13778
G1 X96.784 Y101.574 E0.01226
G1 X100.080 Y104.870 E0.14722
G1 X100.080 Y105.407 E0.01696
G1 X96.546 Y101.873 E0.15783
G1 X96.285 Y102.150 E0.01200
G1 X100.080 Y105.944 E0.16948
G1 X100.080 Y106.481 E0.01696
G1 X97.496 Y103.898 E0.11539
G1 X97.496 Y104.435 E0.01696
G1 X100.080 Y107.019 E0.11539
G1 X100.080 Y107.556 E0.01696
G1 X97.496 Y104.972 E0.11539
G1 X97.496 Y105.509 E0.01696
G1 X100.080 Y108.093 E0.11539
G1 X100.080 Y108.630 E0.01696
G1 X97.496 Y106.047 E0.11539
G1 X97.496 Y106.584 E0.01696
G1 X100.080 Y109.167 E0.11539
G1 X100.080 Y109.704 E0.01696
G1 X97.496 Y107.121 E0.11539
G1 X97.496 Y107.658 E0.01696
G1 X100.080 Y110.241 E0.11539
G1 X100.080 Y110.779 E0.01696
G1 X97.496 Y108.195 E0.11539
G1 X97.496 Y108.732 E0.01696
G1 X100.080 Y111.316 E0.11539
G1 X100.080 Y111.853 E0.01696
G1 X97.423 Y109.196 E0.11867
G1 X96.884 Y109.195 E0.01700
G1 X100.080 Y112.390 E0.14271
G1 X100.080 Y112.927 E0.01696
G1 X96.346 Y109.194 E0.16675
G1 X95.808 Y109.192 E0.01700
G1 X100.070 Y113.454 E0.19035
G1 X99.533 Y113.454 E0.01696
G1 X95.270 Y109.191 E0.19040
G1 X94.732 Y109.190 E0.01700
G1 X95.418 Y109.876 E0.03064
G1 X94.926 Y109.659 E0.01697
G1 X94.557 Y109.552 E0.01215
G1 X94.193 Y109.189 E0.01622
G1 X93.658 Y109.188 E0.01691
G1 X94.103 Y109.636 E0.01993
G1 X93.341 Y109.252 F7200.000
G1 F900
G1 X93.006 Y109.146 E0.00936
G1 F900
G1 X92.859 Y109.075 E0.00392
G1 F900
G1 X92.730 Y109.005 E0.00344
G1 F900
G1 X92.626 Y108.943 E0.00270
G1 F900
G1 X92.318 Y108.694 E0.00808
G1 F900
G1 X92.122 Y108.479 E0.00564
G1 X91.897 Y108.140 E0.00791
G1 X91.698 Y107.607 E0.01104
G1 F5760
G1 X91.897 Y108.140 E-0.19698
G1 F5760
G1 X92.122 Y108.479 E-0.14109
G1 F5760
G1 X92.318 Y108.694 E-0.10071
G1 E-0.36122 F2100.00000
G1 Z0.800 F7200.000
G1 X91.328 Y106.580 F7200.000
G1 Z0.200 F7200.000
G1 E0.80000 F2100.00000
G1 F900
G1 X91.762 Y107.013 E0.02226
G1 X91.760 Y106.394 E0.02249
G1 X91.500 Y106.134 E0.01333
G1 X91.503 Y105.659 E0.01727
G1 X91.522 Y105.539 E0.00441
G1 X91.928 Y105.945 E0.02085
G1 F5760
G1 X91.522 Y105.539 E-0.19895
G1 F5760
G1 X91.503 Y105.659 E-0.04208
G1 F5760
G1 X91.500 Y106.134 E-0.16478
G1 F5760
G1 X91.760 Y106.394 E-0.12715
G1 F5760
G1 X91.762 Y107.013 E-0.21451
G1 F5760
G1 X91.736 Y106.988 E-0.01253
G1 E-0.04000 F2100.00000
G1 Z0.800 F7200.000
G1 X91.746 Y104.868 F7200.000
G1 Z0.200 F7200.000
G1 E0.80000 F2100.00000
G1 F900
G1 X91.889 Y104.528 E0.00738
G1 X92.023 Y104.300 E0.00531
G1 X92.256 Y104.015 E0.00737
G1 X92.469 Y103.820 E0.00579
G1 F900
G1 X92.785 Y103.609 E0.00846
G1 X93.194 Y103.437 E0.00991
G1 X93.380 Y103.561 E0.00500
G1 X93.483 Y103.108 F7200.000
G1 F900
G1 X93.830 Y103.454 E0.01549
G1 X94.367 Y103.454 E0.01696
G1 X94.097 Y103.185 E0.01205
G1 X94.547 Y103.098 E0.01448
G1 X94.904 Y103.454 E0.01593
G1 X95.441 Y103.454 E0.01696
G1 X94.952 Y102.965 E0.02185
G1 X95.339 Y102.815 E0.01312
G1 X95.978 Y103.454 E0.02854
G1 X96.516 Y103.454 E0.01696
G1 X95.679 Y102.618 E0.03735
G1 X95.999 Y102.401 E0.01221
G1 X97.222 Y103.624 E0.05463
G1 F5760
G1 X95.999 Y102.401 E-0.59914
G1 F5760
G1 X95.679 Y102.618 E-0.13392
G1 F5760
G1 X95.734 Y102.673 E-0.02694
G1 E-0.04000 F2100.00000
G1 Z0.800 F7200.000
G1 X97.288 Y112.821 F7200.000
G1 Z0.200 F7200.000
G1 E0.80000 F2100.00000
G1 F900
G1 X97.921 Y113.454 E0.02827
G1 X98.459 Y113.454 E0.01696
G1 X97.376 Y112.372 E0.04834
G1 X97.295 Y112.069 E0.00991
G1 X97.049 Y111.508 E0.01935
G1 X99.165 Y113.624 E0.09452
M106 S255
;BEFORE_LAYER_CHANGE
;0.5


G1 F5760
G1 X97.614 Y112.072 E-0.76000
G1 E-0.04000 F2100.00000
G1 Z0.800 F7200.000
;AFTER_LAYER_CHANGE
;0.5
G1 X97.237 Y108.936 F7200.000
G1 Z0.500 F7200.000
G1 E0.80000 F2100.00000
M204 S800
G1 F1385
G1 X93.445 Y108.928 E0.18238
G1 X93.093 Y108.848 E0.01736
G1 X92.768 Y108.691 E0.01739
G1 X92.498 Y108.477 E0.01656
G1 X92.363 Y108.325 E0.00977
G1 X92.239 Y108.144 E0.01054
G1 X92.102 Y107.856 E0.01537
G1 X92.022 Y107.506 E0.01726
G1 X92.016 Y105.291 E0.10654
G1 X92.051 Y104.977 E0.01519
G1 X92.120 Y104.751 E0.01137
G1 X92.253 Y104.479 E0.01454
G1 X92.376 Y104.305 E0.01027
G1 X92.611 Y104.071 E0.01597
G1 X92.806 Y103.937 E0.01137
G1 X93.084 Y103.805 E0.01478
G1 X93.310 Y103.744 E0.01129
G1 X93.594 Y103.714 E0.01371
G1 X97.237 Y103.714 E0.17523
G1 X97.237 Y108.876 E0.24830
M204 S1000
G1 X96.851 Y108.550 F7200.000
M204 S800
G1 F4800
G1 X93.489 Y108.543 E0.16173
G1 X93.221 Y108.482 E0.01320
G1 X92.974 Y108.363 E0.01321
G1 X92.764 Y108.195 E0.01290
G1 X92.575 Y107.952 E0.01486
G1 X92.469 Y107.729 E0.01187
G1 X92.408 Y107.462 E0.01316
G1 X92.401 Y105.312 E0.10341
G1 X92.430 Y105.056 E0.01240
G1 X92.480 Y104.893 E0.00819
G1 X92.586 Y104.677 E0.01156
G1 X92.672 Y104.555 E0.00719
G1 X92.859 Y104.369 E0.01269
G1 X92.999 Y104.272 E0.00819
G1 X93.218 Y104.168 E0.01165
G1 X93.382 Y104.124 E0.00816
G1 X93.614 Y104.099 E0.01126
G1 X96.851 Y104.099 E0.15569
G1 X96.851 Y108.490 E0.21117
M204 S1000
G1 X96.934 Y108.941 F7200.000
G1 F5760
G1 X94.657 Y108.524 E-0.76000
G1 E-0.04000 F2100.00000
G1 Z1.100 F7200.000
G1 X100.339 Y89.129 F7200.000
G1 Z0.500 F7200.000
G1 E0.80000 F2100.00000
M204 S800
G1 F1385
G1 X100.339 Y113.714 E1.18245
G1 X97.234 Y113.714 E0.14934
G1 X97.231 Y113.078 E0.03059
