; generated by Slic3r Prusa Edition 1.39.1-prusa3d on 2018-05-09 at 12:53:30

; 

; external perimeters extrusion width = 0.45mm
; perimeters extrusion width = 0.45mm
; infill extrusion width = 0.45mm
; solid infill extrusion width = 0.45mm
; top infill extrusion width = 0.33mm
; first layer extrusion width = 0.42mm

M107
M115 U3.1.0 ; tell printer latest fw version
M201 X9000 Y9000 Z500 E10000 ; sets maximum accelerations, mm/sec^2
M203 X500 Y500 Z12 E120 ; sets maximum feedrates, mm/sec
M204 S1500 T1500 ; sets acceleration (S) and retract acceleration (T)
M205 X10 Y10 Z0.2 E2.5 ; sets the jerk limits, mm/sec
M205 S0 T0 ; sets the minimum extruding and travel feed rate, mm/sec
M83  ; extruder relative mode
M104 S200 ; set extruder temp
M140 S65 ; set bed temp
M190 S65 ; wait for bed temp
M109 S200 ; wait for extruder temp
G28 W ; home all without mesh bed level
G80 ; mesh bed leveling
G1 Y-3.0 F1000.0 ; go outside print area
G92 E0.0
G1 E18.0 F1000.0;
G1 X60.0 E9.0  F1000.0 ; intro line
G1 X100.0 E12.5  F1000.0 ; intro line
G92 E0.0
M900 K30; Filament gcode
G21 ; set units to millimeters
G90 ; use absolute coordinates
M83 ; use relative distances for extrusion
;BEFORE_LAYER_CHANGE
;0.2


G1 E-0.80000 F2100.00000
G1 Z0.600 F7200.000
;AFTER_LAYER_CHANGE
;0.2
G1 X82.796 Y84.483 F7200.000
G1 Z0.200 F7200.000
G1 E0.80000 F2100.00000
M204 S1000
G1 F900
G1 X83.060 Y83.948 E0.01870
G1 X83.382 Y83.558 E0.01585
G1 X83.780 Y83.245 E0.01585
G1 X84.238 Y83.022 E0.01597
G1 X84.729 Y82.902 E0.01585
G1 X100.837 Y81.564 E0.50681
G1 X116.904 Y82.914 E0.50553
G1 X117.534 Y83.112 E0.02071
G1 X118.085 Y83.476 E0.02071
G1 X118.515 Y83.978 E0.02071
G1 X118.790 Y84.579 E0.02071
G1 X118.885 Y85.114 E0.01704
G1 X118.856 Y85.653 E0.01692
G1 X113.422 Y116.542 E0.98339
G1 X113.209 Y117.144 E0.02000
G1 X112.845 Y117.667 E0.02000
G1 X112.354 Y118.075 E0.02000
G1 X111.773 Y118.337 E0.02000
G1 X111.097 Y118.436 E0.02142
G1 X91.066 Y118.436 E0.62804
G1 X90.497 Y118.365 E0.01799
G1 X89.761 Y118.041 E0.02520
G1 X83.292 Y113.586 E0.24629
G1 X82.666 Y112.944 E0.02810
G1 X82.180 Y112.269 E0.02608
G1 X81.788 Y111.519 E0.02655
G1 X81.522 Y110.771 E0.02488
G1 X81.156 Y108.930 E0.05885
G1 X81.128 Y107.743 E0.03723
G1 X82.674 Y85.066 E0.71266
G1 X82.784 Y84.541 E0.01682
G1 F5760
G1 X83.060 Y83.948 E-0.22676
G1 F5760
G1 X83.382 Y83.558 E-0.17513
G1 F5760
G1 X83.780 Y83.245 E-0.17513
G1 F5760
G1 X84.238 Y83.022 E-0.17644
G1 F5760
G1 X84.256 Y83.017 E-0.00653
G1 E-0.04000 F2100.00000
G1 Z0.800 F7200.000
G1 X89.616 Y105.556 F7200.000
G1 Z0.200 F7200.000
G1 E0.80000 F2100.00000
G1 F900
G1 X90.610 Y110.636 E0.16228
G1 X86.883 Y111.355 E0.11901
G1 X86.489 Y111.328 E0.01240
G1 X86.251 Y111.263 E0.00773
G1 X85.896 Y111.087 E0.01242
G1 X85.599 Y110.825 E0.01242
G1 X85.450 Y110.629 E0.00773
G1 X85.276 Y110.274 E0.01238
G1 X84.839 Y108.090 E0.06983
G1 X84.813 Y107.883 E0.00655
G1 X84.840 Y107.488 E0.01242
G1 X84.968 Y107.113 E0.01242
G1 X85.093 Y106.899 E0.00777
G1 X85.361 Y106.598 E0.01264
G1 X85.685 Y106.384 E0.01217
G1 X85.911 Y106.291 E0.00769
G1 X89.557 Y105.568 E0.11652
G1 X89.318 Y105.999 F7200.000
G1 F900
G1 X90.167 Y110.337 E0.13860
G1 X86.860 Y110.975 E0.10562
G1 X86.552 Y110.954 E0.00969
G1 X86.385 Y110.909 E0.00540
G1 X86.108 Y110.771 E0.00970
G1 X85.876 Y110.567 E0.00970
G1 X85.772 Y110.430 E0.00540
G1 X85.636 Y110.152 E0.00969
G1 X85.212 Y108.029 E0.06788
G1 X85.191 Y107.872 E0.00498
G1 X85.213 Y107.563 E0.00970
G1 X85.313 Y107.271 E0.00970
G1 X85.400 Y107.121 E0.00541
G1 X85.610 Y106.885 E0.00991
G1 X85.862 Y106.719 E0.00948
G1 X86.021 Y106.653 E0.00538
G1 X89.259 Y106.010 E0.10352
G1 X89.710 Y105.921 F7200.000
G1 F5760
G1 X89.710 Y108.158 E-0.76000
G1 E-0.04000 F2100.00000
G1 Z0.800 F7200.000
G1 X108.906 Y103.075 F7200.000
G1 Z0.200 F7200.000
G1 E0.80000 F2100.00000
G1 F900
G1 X109.844 Y102.948 E0.02967
G1 X112.578 Y85.845 E0.54305
G1 X115.813 Y85.845 E0.10142
G1 X110.843 Y114.099 E0.89946
G1 X100.898 Y92.362 E0.74949
G1 X91.235 Y114.240 E0.74991
G1 X90.961 Y113.708 E0.01876
G1 X90.643 Y113.282 E0.01668
G1 X90.270 Y112.912 E0.01647
G1 X90.046 Y112.735 E0.00894
G1 X89.813 Y112.579 E0.00878
G1 X89.357 Y112.341 E0.01615
G1 X88.852 Y112.167 E0.01673
G1 X88.568 Y112.104 E0.00912
G1 X88.057 Y112.049 E0.01614
G1 X87.104 Y112.090 E0.02988
G1 X86.692 Y112.050 E0.01300
G1 X86.280 Y111.949 E0.01330
G1 X86.104 Y111.886 E0.00584
G1 X85.713 Y111.696 E0.01363
G1 X85.556 Y111.597 E0.00584
G1 X85.222 Y111.335 E0.01330
G1 X84.936 Y111.035 E0.01298
G1 X84.696 Y110.698 E0.01298
G1 X84.505 Y110.332 E0.01295
G1 X84.433 Y110.147 E0.00622
G1 X84.317 Y109.718 E0.01393
G1 X84.132 Y108.778 E0.03004
G1 X84.078 Y108.336 E0.01396
G1 X84.075 Y108.150 E0.00585
G1 X84.113 Y107.739 E0.01294
G1 X84.210 Y107.324 E0.01336
G1 X84.362 Y106.940 E0.01295
G1 X84.566 Y106.580 E0.01298
G1 X84.820 Y106.253 E0.01298
G1 X85.118 Y105.965 E0.01298
G1 X85.452 Y105.723 E0.01295
G1 X85.624 Y105.624 E0.00622
G1 X86.022 Y105.450 E0.01362
G1 X86.482 Y105.304 E0.01513
G1 X86.960 Y105.090 E0.01642
G1 X87.392 Y104.813 E0.01610
G1 X87.619 Y104.630 E0.00912
G1 X87.985 Y104.259 E0.01635
G1 X88.305 Y103.819 E0.01705
G1 X88.547 Y103.352 E0.01649
G1 X88.651 Y103.081 E0.00909
G1 X88.781 Y102.582 E0.01619
G1 X88.838 Y102.043 E0.01699
G1 X88.816 Y101.526 E0.01623
G1 X88.774 Y101.256 E0.00856
G1 X85.757 Y85.845 E0.49236
G1 X89.023 Y85.845 E0.10242
G1 X92.071 Y102.976 E0.54555
G1 X93.007 Y103.089 E0.02957
G1 X100.841 Y85.374 E0.60732
G1 X108.881 Y103.020 E0.60799
G1 X109.133 Y102.664 F7200.000
G1 F900
G1 X109.516 Y102.612 E0.01211
G1 X112.257 Y85.468 E0.54435
G1 X116.262 Y85.468 E0.12558
G1 X111.004 Y115.358 E0.95155
G1 X100.904 Y93.281 E0.76120
G1 X91.148 Y115.370 E0.75713
G1 X91.030 Y114.788 E0.01864
G1 X90.868 Y114.331 E0.01519
G1 X90.642 Y113.911 E0.01494
G1 X90.358 Y113.530 E0.01492
G1 X90.020 Y113.195 E0.01492
G1 X89.620 Y112.904 E0.01549
G1 X89.207 Y112.688 E0.01462
G1 X88.750 Y112.530 E0.01517
G1 X88.507 Y112.477 E0.00780
G1 X88.044 Y112.427 E0.01459
G1 X87.094 Y112.468 E0.02982
G1 X86.629 Y112.422 E0.01467
G1 X86.171 Y112.310 E0.01478
G1 X85.958 Y112.234 E0.00710
G1 X85.530 Y112.026 E0.01490
G1 X85.338 Y111.906 E0.00710
G1 X84.968 Y111.614 E0.01478
G1 X84.645 Y111.276 E0.01466
G1 X84.373 Y110.896 E0.01466
G1 X84.162 Y110.488 E0.01440
G1 X84.074 Y110.266 E0.00749
G1 X83.949 Y109.804 E0.01500
G1 X83.760 Y108.837 E0.03089
G1 X83.701 Y108.362 E0.01501
G1 X83.698 Y108.135 E0.00710
G1 X83.739 Y107.678 E0.01440
G1 X83.849 Y107.211 E0.01505
G1 X84.021 Y106.776 E0.01465
G1 X84.252 Y106.370 E0.01466
G1 X84.539 Y106.001 E0.01466
G1 X84.875 Y105.676 E0.01466
G1 X85.247 Y105.406 E0.01440
G1 X85.454 Y105.287 E0.00749
G1 X85.889 Y105.097 E0.01489
G1 X86.347 Y104.951 E0.01507
G1 X86.780 Y104.757 E0.01487
G1 X87.172 Y104.506 E0.01458
G1 X87.365 Y104.350 E0.00780
G1 X87.697 Y104.014 E0.01480
G1 X87.983 Y103.620 E0.01527
G1 X88.202 Y103.197 E0.01493
G1 X88.291 Y102.966 E0.00777
G1 X88.409 Y102.514 E0.01466
G1 X88.460 Y102.031 E0.01522
G1 X88.440 Y101.563 E0.01469
G1 X88.402 Y101.321 E0.00767
G1 X85.299 Y85.468 E0.50649
G1 X89.339 Y85.468 E0.12669
G1 X92.393 Y102.635 E0.54671
G1 X92.776 Y102.681 E0.01207
G1 X100.836 Y84.454 E0.62490
G1 X109.108 Y102.609 E0.62555
G1 X109.356 Y102.979 F7200.000
G1 F5760
G1 X109.516 Y102.612 E-0.14114
G1 F5760
G1 X109.798 Y100.847 E-0.61886
G1 E-0.04000 F2100.00000
G1 Z0.800 F7200.000
G1 X111.946 Y107.175 F7200.000
G1 Z0.200 F7200.000
G1 E0.80000 F2100.00000
G1 F900
G1 X104.647 Y99.876 E0.32616
G1 X105.100 Y100.867 E0.03442
G1 X111.719 Y107.486 E0.29577
G1 X111.639 Y107.943 E0.01466
G1 X105.554 Y101.858 E0.27192
G1 X106.007 Y102.848 E0.03442
G1 X111.558 Y108.400 E0.24808
G1 X111.478 Y108.857 E0.01466
G1 X106.460 Y103.839 E0.22423
G1 X106.913 Y104.830 E0.03442
G1 X111.398 Y109.314 E0.20039
G1 X111.317 Y109.771 E0.01466
G1 X107.366 Y105.820 E0.17654
G1 X107.820 Y106.811 E0.03442
G1 X111.237 Y110.228 E0.15270
G1 X111.156 Y110.685 E0.01466
G1 X108.273 Y107.801 E0.12885
G1 X108.726 Y108.792 E0.03442
G1 X111.076 Y111.142 E0.10501
G1 X110.996 Y111.599 E0.01466
G1 X109.179 Y109.783 E0.08116
G1 X109.633 Y110.773 E0.03442
G1 X110.915 Y112.056 E0.05731
G1 X110.835 Y112.513 E0.01466
G1 X110.086 Y111.764 E0.03347
G1 X110.539 Y112.755 E0.03442
G1 X110.901 Y113.117 E0.01617
G1 F5760
G1 X110.539 Y112.755 E-0.17727
G1 F5760
G1 X110.086 Y111.764 E-0.37731
G1 F5760
G1 X110.505 Y112.183 E-0.20542
G1 E-0.04000 F2100.00000
G1 Z0.800 F7200.000
G1 X94.555 Y106.444 F7200.000
G1 Z0.200 F7200.000
G1 E0.80000 F2100.00000
G1 F900
G1 X88.988 Y100.877 E0.24878
G1 X89.099 Y101.525 E0.02079
G1 X94.262 Y106.688 E0.23071
G1 X94.097 Y107.061 E0.01288
G1 X89.118 Y102.082 E0.22247
G1 X89.067 Y102.568 E0.01543
G1 X93.932 Y107.434 E0.21743
G1 X93.768 Y107.807 E0.01288
G1 X88.963 Y103.002 E0.21468
G1 X88.829 Y103.406 E0.01343
G1 X93.603 Y108.179 E0.21332
G1 X93.438 Y108.552 E0.01288
G1 X88.651 Y103.765 E0.21391
G1 X88.546 Y103.968 E0.00723
G1 X88.450 Y104.101 E0.00518
G1 X93.274 Y108.925 E0.21557
G1 X93.109 Y109.298 E0.01288
G1 X90.034 Y106.223 E0.13740
G1 X90.165 Y106.891 E0.02152
G1 X92.944 Y109.670 E0.12420
G1 X92.780 Y110.043 E0.01288
G1 X90.296 Y107.559 E0.11099
G1 X90.427 Y108.228 E0.02152
G1 X92.615 Y110.416 E0.09779
G1 X92.451 Y110.789 E0.01288
G1 X90.558 Y108.896 E0.08459
G1 X90.688 Y109.564 E0.02152
G1 X92.286 Y111.161 E0.07138
G1 X92.121 Y111.534 E0.01288
G1 X90.819 Y110.232 E0.05818
G1 X90.942 Y110.860 E0.02020
G1 X90.915 Y110.865 E0.00089
G1 X91.957 Y111.907 E0.04656
G1 X91.792 Y112.280 E0.01288
G1 X90.464 Y110.952 E0.05934
G1 X90.014 Y111.039 E0.01450
G1 X91.627 Y112.653 E0.07211
G1 X91.463 Y113.025 E0.01288
G1 X89.563 Y111.126 E0.08489
G1 X89.113 Y111.213 E0.01450
G1 X91.427 Y113.527 E0.10341
G1 F5760
G1 X89.875 Y111.975 E-0.76000
G1 E-0.04000 F2100.00000
G1 Z0.800 F7200.000
G1 X89.815 Y112.452 F7200.000
G1 Z0.200 F7200.000
G1 E0.80000 F2100.00000
G1 F900
G1 X88.662 Y111.300 E0.05151
G1 X88.212 Y111.387 E0.01450
G1 X88.660 Y111.835 E0.02002
G1 X88.053 Y111.766 E0.01928
G1 X87.761 Y111.474 E0.01306
G1 X87.311 Y111.560 E0.01450
G1 X87.701 Y111.951 E0.01744
G1 X86.866 Y111.718 F7200.000
G1 F900
G1 X86.448 Y111.653 E0.01132
G1 F900
G1 X86.229 Y111.590 E0.00525
G1 F900
G1 X86.151 Y111.560 E0.00184
G1 F900
G1 X85.738 Y111.350 E0.00959
G1 F900
G1 X85.362 Y111.029 E0.00964
G1 X85.179 Y110.812 E0.00554
G1 X84.946 Y110.425 E0.00881
G1 X85.097 Y109.954 F7200.000
G1 F900
G1 X84.542 Y109.400 E0.02857
G1 X84.400 Y108.638 E0.02826
G1 X84.942 Y109.180 E0.02792
G1 F5760
G1 X84.400 Y108.638 E-0.26526
G1 F5760
G1 X84.542 Y109.400 E-0.26854
G1 F5760
G1 X85.004 Y109.862 E-0.22619
G1 E-0.04000 F2100.00000
G1 Z0.800 F7200.000
G1 X84.447 Y107.903 F7200.000
G1 Z0.200 F7200.000
G1 E0.80000 F2100.00000
G1 F900
G1 X84.525 Y107.406 E0.00979
G1 X84.683 Y106.996 E0.00857
G1 X84.852 Y106.710 E0.00647
G1 F900
G1 X85.168 Y106.351 E0.00983
G1 F900
G1 X85.331 Y106.220 E0.00497
G1 F900
G1 X85.539 Y106.078 E0.00626
G1 F900
G1 X85.749 Y105.961 E0.00634
G1 X86.123 Y105.537 F7200.000
G1 F900
G1 X86.477 Y105.890 E0.01579
G1 X86.925 Y105.801 E0.01444
G1 X86.659 Y105.535 E0.01190
G1 X87.030 Y105.368 E0.01285
G1 X87.374 Y105.712 E0.01536
G1 X87.822 Y105.623 E0.01444
G1 X87.365 Y105.166 E0.02041
G1 X87.680 Y104.944 E0.01219
G1 X88.270 Y105.534 E0.02636
G1 X88.719 Y105.445 E0.01444
G1 X87.960 Y104.686 E0.03389
G1 X88.223 Y104.412 E0.01201
G1 X89.312 Y105.501 E0.04866
G1 F5760
G1 X88.223 Y104.412 E-0.53332
G1 F5760
G1 X87.960 Y104.686 E-0.13165
G1 F5760
G1 X88.154 Y104.880 E-0.09503
G1 E-0.04000 F2100.00000
G1 Z0.800 F7200.000
G1 X101.131 Y92.598 F7200.000
G1 Z0.200 F7200.000
G1 E0.80000 F2100.00000
G1 F900
G1 X106.075 Y97.542 E0.22092
G1 X106.524 Y98.529 E0.03428
G1 X101.928 Y93.933 E0.20540
G1 X102.381 Y94.923 E0.03442
G1 X106.974 Y99.516 E0.20525
G1 X107.424 Y100.504 E0.03428
G1 X102.834 Y95.914 E0.20510
G1 X103.288 Y96.904 E0.03442
G1 X107.874 Y101.491 E0.20495
G1 X108.324 Y102.478 E0.03428
G1 X103.741 Y97.895 E0.20479
G1 X104.194 Y98.886 E0.03442
G1 X111.880 Y106.572 E0.34346
G1 X111.960 Y106.115 E0.01466
G1 X109.170 Y103.324 E0.12468
G1 X109.643 Y103.260 E0.01509
G1 X112.041 Y105.658 E0.10712
G1 X112.121 Y105.201 E0.01466
G1 X110.094 Y103.174 E0.09057
G1 X110.168 Y102.710 E0.01483
G1 X112.201 Y104.744 E0.09085
G1 X112.282 Y104.286 E0.01466
G1 X110.242 Y102.247 E0.09113
G1 X110.317 Y101.784 E0.01483
G1 X112.362 Y103.829 E0.09141
G1 X112.443 Y103.372 E0.01466
G1 X110.391 Y101.320 E0.09170
G1 X110.465 Y100.857 E0.01483
G1 X112.523 Y102.915 E0.09198
G1 X112.603 Y102.458 E0.01466
G1 X110.539 Y100.394 E0.09226
G1 X110.613 Y99.930 E0.01483
G1 X112.684 Y102.001 E0.09254
G1 X112.764 Y101.544 E0.01466
G1 X110.687 Y99.467 E0.09283
G1 X110.761 Y99.004 E0.01483
G1 X112.845 Y101.087 E0.09311
G1 X112.925 Y100.630 E0.01466
G1 X110.835 Y98.540 E0.09339
G1 X110.909 Y98.077 E0.01483
G1 X113.005 Y100.173 E0.09367
G1 X113.086 Y99.716 E0.01466
G1 X110.983 Y97.614 E0.09395
G1 X111.057 Y97.150 E0.01483
G1 X113.166 Y99.259 E0.09424
G1 X113.247 Y98.802 E0.01466
G1 X111.131 Y96.687 E0.09452
G1 X111.205 Y96.224 E0.01483
G1 X113.327 Y98.345 E0.09480
G1 X113.407 Y97.888 E0.01466
G1 X111.280 Y95.760 E0.09508
G1 X111.354 Y95.297 E0.01483
G1 X113.488 Y97.431 E0.09537
G1 X113.568 Y96.974 E0.01466
G1 X111.428 Y94.834 E0.09565
G1 X111.502 Y94.370 E0.01483
G1 X113.649 Y96.517 E0.09593
G1 X113.729 Y96.060 E0.01466
G1 X111.576 Y93.907 E0.09621
G1 X111.650 Y93.444 E0.01483
G1 X113.809 Y95.603 E0.09649
G1 X113.890 Y95.146 E0.01466
G1 X111.724 Y92.980 E0.09678
G1 X111.798 Y92.517 E0.01483
G1 X113.970 Y94.689 E0.09706
G1 X114.050 Y94.232 E0.01466
G1 X111.872 Y92.054 E0.09734
G1 X111.946 Y91.590 E0.01483
G1 X114.131 Y93.775 E0.09762
G1 X114.211 Y93.318 E0.01466
G1 X112.020 Y91.127 E0.09791
G1 X112.094 Y90.664 E0.01483
G1 X114.292 Y92.861 E0.09819
G1 X114.372 Y92.404 E0.01466
G1 X112.168 Y90.200 E0.09847
G1 X112.243 Y89.737 E0.01483
G1 X114.452 Y91.947 E0.09875
G1 X114.533 Y91.490 E0.01466
G1 X112.317 Y89.274 E0.09904
G1 X112.391 Y88.810 E0.01483
G1 X114.613 Y91.033 E0.09932
G1 X114.694 Y90.576 E0.01466
G1 X112.465 Y88.347 E0.09960
G1 X112.539 Y87.883 E0.01483
G1 X114.774 Y90.119 E0.09988
G1 X114.854 Y89.662 E0.01466
G1 X112.613 Y87.420 E0.10016
G1 X112.687 Y86.957 E0.01483
G1 X114.935 Y89.205 E0.10045
G1 X115.015 Y88.748 E0.01466
G1 X112.761 Y86.493 E0.10073
G1 X112.819 Y86.128 E0.01169
G1 X112.933 Y86.128 E0.00359
G1 X115.096 Y88.291 E0.09663
G1 X115.176 Y87.834 E0.01466
G1 X113.471 Y86.128 E0.07621
G1 X114.008 Y86.128 E0.01698
G1 X115.256 Y87.376 E0.05578
G1 X115.337 Y86.919 E0.01466
G1 X114.545 Y86.128 E0.03536
G1 X115.083 Y86.128 E0.01698
G1 X115.564 Y86.609 E0.02148
G1 F5760
G1 X115.083 Y86.128 E-0.23550
G1 F5760
G1 X114.545 Y86.128 E-0.18614
G1 F5760
G1 X115.236 Y86.819 E-0.33837
G1 E-0.04000 F2100.00000
G1 Z0.800 F7200.000
G1 X101.469 Y87.025 F7200.000
G1 Z0.200 F7200.000
G1 E0.80000 F2100.00000
G1 F900
G1 X100.742 Y86.298 E0.03248
G1 X100.577 Y86.671 E0.01287
G1 X101.576 Y87.669 E0.04464
G1 X102.026 Y88.657 E0.03428
G1 X100.413 Y87.043 E0.07210
G1 X100.248 Y87.416 E0.01287
G1 X102.476 Y89.644 E0.09957
G1 X102.926 Y90.631 E0.03428
G1 X100.083 Y87.788 E0.12703
G1 X99.918 Y88.161 E0.01287
G1 X103.376 Y91.618 E0.15450
G1 X103.825 Y92.606 E0.03428
G1 X99.754 Y88.534 E0.18196
G1 X99.589 Y88.906 E0.01287
G1 X104.275 Y93.593 E0.20943
G1 X104.725 Y94.580 E0.03428
G1 X99.424 Y89.279 E0.23689
G1 X99.259 Y89.652 E0.01287
G1 X105.175 Y95.567 E0.26435
G1 X105.625 Y96.555 E0.03428
G1 X99.094 Y90.024 E0.29182
G1 X98.930 Y90.397 E0.01287
G1 X100.683 Y92.150 E0.07834
G1 X100.518 Y92.523 E0.01288
G1 X98.765 Y90.769 E0.07835
G1 X98.600 Y91.142 E0.01287
G1 X100.353 Y92.895 E0.07835
G1 X100.189 Y93.268 E0.01288
G1 X98.435 Y91.515 E0.07836
G1 X98.270 Y91.887 E0.01287
G1 X100.024 Y93.641 E0.07836
G1 X99.859 Y94.014 E0.01288
G1 X98.106 Y92.260 E0.07837
G1 X97.941 Y92.633 E0.01287
G1 X99.695 Y94.387 E0.07838
G1 X99.530 Y94.759 E0.01288
G1 X97.776 Y93.005 E0.07838
G1 X97.611 Y93.378 E0.01287
G1 X99.366 Y95.132 E0.07839
G1 X99.201 Y95.505 E0.01288
G1 X97.446 Y93.750 E0.07840
G1 X97.282 Y94.123 E0.01287
