;FLAVOR:Marlin
;TIME:413
;Filament used:0.35409m
;Layer height: 0.3
;MINX:66.035
;MINY:66.93
;MINZ:0.2
;MAXX:98.621
;MAXY:97.897
;MAXZ:2.9
                                   
;Creative3D GCode Generated by CXEngineDEV
;Generated Time:2022-04-08 18:14:05
;----------Machine Config--------------
;Machine Name:Creality Ender-2 Pro
;Machine Height:180
;Machine Width:165
;Machine Depth:165
;Material name:PLA
;Number of Extruders:1
;ExtruderParams[0] Nozzle Diameter1000
;----------Profile Config---------------
;Layer Height:0.3
;Wall Thickness:0.8
;Top/Bottom Thickness:1
;Out Wall Line Width:0.4
;Inner Wall Line Width:0.4
;Inital Layer Height:200
;Wall Line Count:1
;Infill Line Distance:4
;Infill Pattern:grid
;Infill Sparse Density:20
;Infill Wipe Distance:0
;Print Temperature:200
;Bed Temperature:60
;Support Enable:false
;Support Density:30
;Support Angle:1.0472
;Adhesion Type:none
;machine is belt:false
;machine belt offset:10
;machine belt offset Y:0
;----------Shell Config----------------
;Outer Wall Wipe Distance:200
;Infill Before Walls:false
;Infill Overlap:0.16
;Fill Gaps Between Walls:everywhere
;Minimum Infill Area:1
;Top Surface Skin Layer:0
;Top Layers:2
;Z Seam Alignment:sharpest_corner
;Seam Corner Preference:z_seam_corner_inner
;Z Seam X:82.5
;Z Seam Y:82.5
;Horizontal Expansion:0
;Top/Bottom Pattern:zigzag
;Ironing Pattern:zigzag
;Vase Model:false
;----------Support Config----------------
;Support Type:everywhere
;Support Pattern:zigzag
;Support Infill Layer Thickness:0.3
;Minimum Support Area:10
;Enable Support Roof:false
;Support Roof Thickness:0.8
;Support Roof Pattern:lines
; ---------PrintSpeed & Travel----------
;Enable Print Cool:true
;Avoid Printed Parts Traveling:true
;Enable Retraction:true
;Retraction Distance:8
;Retraction Speed:100
;Retraction Prime Speed:100
;Maximum Retraction Count:100
;Minimum Extrusion Distance Window:1
;Z Hop When Retracted:false
;Z Hop Height:0.2
;Retract Before Outer Wall:true
;Print Speed:50
;Infill Speed:50

;Prime Tower Speed:50
;Travel Speed:120
;Initial Layer Speed:25
;Skirt/Brim Speed:25
;Combing Mode:off
;---------------------End of Head--------------------------
M140 S60
M104 S200
M105
M109 S200
M82 ;absolute extrusion mode
M220 S100 ;Reset Feedrate
M221 S100 ;Reset Flowrate

G28 ;Home

G92 E0 ;Reset Extruder
G1 Z2.0 F3000 ;Move Z Axis up
G1 X10.1 Y20 Z0.28 F5000.0 ;Move to start position
G1 X10.1 Y145.0 Z0.28 F1500.0 E15 ;Draw the first line
G1 X10.4 Y145.0 Z0.28 F5000.0 ;Move to side a little
G1 X10.4 Y20 Z0.28 F1500.0 E30 ;Draw the second line
G92 E0  ;Reset Extruder
G1 E-1.0000 F1800 ;Retract a bit
G1 Z2.0 F3000 ;Move Z Axis up
G1 E0.0000 F1800 

G92 E0
G92 E0
G1 F6000 E-8

;LAYER_COUNT:10

;LAYER:0
M107
;MESH:
G0 F3600 X71.658 Y88.51 Z0.2
;TYPE:WALL-OUTER
G1 F6000 E0
G1 F1500 X71.462 Y88.548 E0.0073
G1 X68.505 Y89.128 E0.11755
G1 X68.227 Y89.22 E0.12826
G1 X67.966 Y89.391 E0.13968
G1 X67.756 Y89.625 E0.15118
G1 X67.615 Y89.905 E0.16265
G1 X67.551 Y90.212 E0.17413
G1 X67.565 Y90.512 E0.18511
G1 X67.957 Y92.509 E0.25957
G1 X68.049 Y92.785 E0.27022
G1 X68.22 Y93.048 E0.28169
G1 X68.455 Y93.258 E0.29322
G1 X68.734 Y93.398 E0.30464
G1 X69.041 Y93.463 E0.31612
G1 X69.341 Y93.448 E0.32711
G1 X72.503 Y92.829 E0.445
G1 X71.696 Y88.706 E0.5987
G1 X71.658 Y88.51 E0.60342
G0 F3600 X71.462 Y88.548
G0 X71.379 Y88.117
;;retract;;
G1 F6000 E-7.39658
G0 F3600 X83.383 Y76.092
G1 F6000 E0.60342
G1 F1500 X83.124 Y76.094 E0.6129
G1 X83.061 Y76.236 E0.61858
G1 X73.725 Y97.375 E1.46404
G1 X73.624 Y97.604 E1.4732
G1 X73.495 Y97.896 E1.48488
G1 X73.42 Y97.514 E1.49018
G1 X73.355 Y97.272 E1.49742
G1 X73.298 Y97.063 E1.50535
G1 X73.105 Y96.628 E1.52276
G1 X72.849 Y96.224 E1.54026
G1 X72.535 Y95.863 E1.55776
G1 X72.174 Y95.555 E1.57512
G1 X71.769 Y95.302 E1.59259
G1 X71.328 Y95.112 E1.61016
G1 X70.87 Y94.99 E1.6275
G1 X70.393 Y94.938 E1.64506
G1 X69.931 Y94.954 E1.66197
G1 X69.682 Y94.976 E1.67112
G1 X69.214 Y94.965 E1.68824
G1 X68.976 Y94.933 E1.69703
G1 X68.53 Y94.825 E1.71382
G1 X68.301 Y94.742 E1.72273
G1 X67.888 Y94.543 E1.7395
G1 X67.671 Y94.408 E1.74885
G1 X67.321 Y94.133 E1.76514
G1 X67.143 Y93.961 E1.77419
G1 X66.844 Y93.6 E1.79134
G1 X66.717 Y93.409 E1.79974
G1 X66.498 Y92.988 E1.8171
G1 X66.412 Y92.77 E1.82567
G1 X66.289 Y92.313 E1.84299
G1 X66.099 Y91.346 E1.87904
G1 X66.041 Y90.871 E1.89655
G1 X66.035 Y90.628 E1.90544
G1 X66.075 Y90.176 E1.92204
G1 X66.123 Y89.939 E1.93089
G1 X66.262 Y89.496 E1.94788
G1 X66.358 Y89.274 E1.95673
G1 X66.586 Y88.872 E1.97363
G1 X66.728 Y88.674 E1.98255
G1 X67.034 Y88.331 E1.99937
G1 X67.212 Y88.171 E2.00812
G1 X67.585 Y87.902 E2.02495
G1 X67.802 Y87.775 E2.03415
G1 X68.221 Y87.592 E2.05087
G1 X68.69 Y87.442 E2.06889
G1 X69.11 Y87.256 E2.0857
G1 X69.515 Y86.997 E2.10328
G1 X69.873 Y86.686 E2.12063
G1 X70.184 Y86.32 E2.13821
G1 X70.437 Y85.912 E2.15577
G1 X70.624 Y85.477 E2.17309
G1 X70.745 Y85.013 E2.19064
G1 X70.796 Y84.537 E2.20815
G1 X70.777 Y84.066 E2.2254
G1 X70.74 Y83.823 E2.23439
G1 X67.68 Y68.195 E2.81702
G1 X67.634 Y67.958 E2.82585
G1 X67.875 Y67.958 E2.83126
G1 X67.876 Y67.958 E2.8313
G1 X71.694 Y67.958 E2.97099
G1 X74.742 Y85.084 E3.60741
G1 X74.771 Y85.251 E3.61361
G1 X75.065 Y85.286 E3.62444
G1 X75.133 Y85.131 E3.62986
G1 X83.004 Y67.336 E4.34176
G1 X83.005 Y67.335 E4.34181
G1 X83.184 Y66.93 E4.35801
G1 X83.368 Y67.334 E4.36683
G1 X91.469 Y85.113 E5.08164
G1 X91.54 Y85.269 E5.08791
G1 X91.834 Y85.229 E5.09877
G1 X91.861 Y85.06 E5.10425
G1 X94.595 Y67.958 E5.73789
G1 X98.383 Y67.958 E5.87648
G1 X98.384 Y67.958 E5.87652
G1 X98.621 Y67.958 E5.88519
G1 X98.58 Y68.192 E5.89055
G1 X93.466 Y97.259 E6.97033
G1 X93.355 Y97.891 E6.99381
G1 X93.088 Y97.308 E7.00607
G1 X83.447 Y76.233 E7.85397
G1 X83.383 Y76.092 E7.85964
G0 F3600 X83.183 Y76.093
G0 X83.18 Y75.653
;;retract;;
G1 F6000 E-0.14036
G0 F3600 X98.335 Y68.198
;TYPE:SKIN
G1 F6000 E7.85964
G1 F1500 X98.179 Y68.198 E7.86535
G1 X97.613 Y68.198 E7.88605
G1 X98.227 Y68.812 E7.91782
G1 X98.142 Y69.292 E7.93566
G1 X97.048 Y68.198 E7.99226
G1 X96.482 Y68.198 E8.01297
G1 X98.058 Y69.774 E8.09451
G1 X97.973 Y70.255 E8.11238
G1 X95.916 Y68.198 E8.21881
G1 X95.351 Y68.198 E8.23948
G1 X97.889 Y70.736 E8.3708
G1 X97.804 Y71.216 E8.38864
G1 X94.796 Y68.208 E8.54427
G1 X94.718 Y68.696 E8.56235
G1 X97.72 Y71.698 E8.71768
G1 X97.635 Y72.179 E8.73555
G1 X94.64 Y69.184 E8.89051
G1 X94.562 Y69.671 E8.90856
G1 X97.55 Y72.66 E9.06318
G1 X97.466 Y73.141 E9.08105
G1 X94.484 Y70.159 E9.23534
G1 X94.406 Y70.647 E9.25342
G1 X97.381 Y73.622 E9.40735
G1 X97.296 Y74.103 E9.42522
G1 X94.328 Y71.135 E9.57878
G1 X94.25 Y71.622 E9.59683
G1 X97.212 Y74.584 E9.75008
G1 X97.127 Y75.065 E9.76796
G1 X94.172 Y72.11 E9.92085
G1 X94.094 Y72.598 E9.93893
G1 X97.042 Y75.546 E10.09146
G1 X96.958 Y76.028 E10.10936
G1 X94.016 Y73.086 E10.26158
G1 X93.938 Y73.573 E10.27963
G1 X96.873 Y76.508 E10.43149
G1 X96.788 Y76.989 E10.44936
G1 X93.86 Y74.061 E10.60085
G1 X93.782 Y74.549 E10.61893
G1 X96.704 Y77.471 E10.77012
G1 X96.619 Y77.952 E10.78799
G1 X93.705 Y75.037 E10.93879
G1 X93.626 Y75.524 E10.95684
G1 X96.534 Y78.432 E11.1073
G1 X96.45 Y78.914 E11.1252
G1 X93.548 Y76.012 E11.27535
G1 X93.471 Y76.5 E11.29343
G1 X96.365 Y79.395 E11.44319
G1 X96.281 Y79.876 E11.46105
G1 X93.393 Y76.988 E11.61048
G1 X93.314 Y77.475 E11.62853
G1 X96.196 Y80.357 E11.77765
G1 X96.112 Y80.838 E11.79551
G1 X93.236 Y77.963 E11.94429
G1 X93.159 Y78.451 E11.96237
G1 X96.027 Y81.319 E12.11076
G1 X95.942 Y81.8 E12.12863
G1 X93.081 Y78.939 E12.27666
G1 X93.002 Y79.426 E12.29471
G1 X95.858 Y82.281 E12.44246
G1 X95.773 Y82.762 E12.46033
G1 X92.925 Y79.914 E12.60768
G1 X92.847 Y80.402 E12.62576
G1 X95.688 Y83.243 E12.77276
G1 X95.604 Y83.724 E12.79062
G1 X92.769 Y80.89 E12.93728
G1 X92.691 Y81.377 E12.95533
G1 X95.519 Y84.205 E13.10165
G1 X95.434 Y84.686 E13.11952
G1 X92.613 Y81.865 E13.26548
G1 X92.535 Y82.353 E13.28356
G1 X95.35 Y85.168 E13.42921
G1 X95.265 Y85.649 E13.44708
G1 X92.457 Y82.841 E13.59237
G1 X92.379 Y83.328 E13.61041
G1 X95.18 Y86.129 E13.75534
G1 X95.096 Y86.611 E13.77324
G1 X92.301 Y83.816 E13.91785
G1 X92.223 Y84.304 E13.93594
G1 X95.011 Y87.092 E14.08019
G1 X94.926 Y87.573 E14.09806
G1 X92.145 Y84.792 E14.24195
G1 X92.067 Y85.279 E14.25999
G1 X94.842 Y88.053 E14.40355
G1 X94.757 Y88.535 E14.42146
G1 X91.711 Y85.488 E14.57908
G0 F3600 X91.395 Y85.53
G1 F1500 X91.096 Y84.874 E14.60546
G1 X90.622 Y83.834 E14.64727
G1 X84.292 Y77.503 E14.97482
G1 X83.814 Y76.46 E15.01679
G1 X83.536 Y75.851 E15.04129
G0 F3600 X83.207 Y75.853
G1 F1500 X80.636 Y73.282 E15.17431
G1 X80.462 Y73.674 E15.19
G1 X82.867 Y76.079 E15.31444
G1 X82.694 Y76.472 E15.33015
G1 X80.289 Y74.066 E15.45461
G1 X80.115 Y74.459 E15.47034
G1 X82.521 Y76.864 E15.5948
G1 X82.348 Y77.257 E15.61051
G1 X79.941 Y74.85 E15.73505
G1 X79.768 Y75.243 E15.75076
G1 X82.174 Y77.648 E15.87522
G1 X82.001 Y78.041 E15.89093
G1 X79.595 Y75.635 E16.01542
G1 X79.422 Y76.028 E16.03113
G1 X81.827 Y78.433 E16.15556
G1 X81.654 Y78.826 E16.17127
G1 X79.248 Y76.419 E16.29579
G1 X79.075 Y76.812 E16.3115
G1 X81.481 Y79.218 E16.43598
G1 X81.308 Y79.611 E16.45169
G1 X78.901 Y77.204 E16.57623
G1 X78.727 Y77.596 E16.59192
G1 X81.134 Y80.003 E16.71646
G1 X80.961 Y80.395 E16.73214
G1 X78.554 Y77.988 E16.85668
G1 X78.381 Y78.381 E16.87239
G1 X80.788 Y80.788 E16.99693
G1 X80.615 Y81.18 E17.01261
G1 X78.207 Y78.773 E17.13717
G1 X78.034 Y79.165 E17.15285
G1 X80.441 Y81.573 E17.27741
G1 X80.267 Y81.964 E17.29307
G1 X77.86 Y79.557 E17.41761
G1 X77.686 Y79.949 E17.4333
G1 X80.094 Y82.357 E17.55789
G1 X79.921 Y82.749 E17.57357
G1 X77.513 Y80.342 E17.69814
G1 X77.34 Y80.734 E17.71381
G1 X79.748 Y83.142 E17.8384
G1 X79.574 Y83.534 E17.85409
G1 X77.166 Y81.126 E17.97869
G1 X76.993 Y81.518 E17.99436
G1 X79.401 Y83.927 E18.11898
G1 X79.228 Y84.319 E18.13466
G1 X76.82 Y81.911 E18.25925
G1 X76.646 Y82.302 E18.27491
G1 X79.055 Y84.712 E18.39957
G1 X78.882 Y85.104 E18.41525
G1 X76.472 Y82.695 E18.53992
G1 X76.299 Y83.087 E18.5556
G1 X78.708 Y85.496 E18.68024
G1 X78.535 Y85.889 E18.69595
G1 X76.125 Y83.479 E18.82064
G1 X75.952 Y83.872 E18.83635
G1 X78.361 Y86.281 E18.961
G1 X78.188 Y86.673 E18.97667
G1 X75.779 Y84.264 E19.10132
G1 X75.605 Y84.656 E19.11701
G1 X78.015 Y87.066 E19.2417
G1 X77.841 Y87.458 E19.25739
G1 X75.432 Y85.048 E19.38206
G1 X75.258 Y85.441 E19.39779
G1 X77.668 Y87.85 E19.52246
G1 X77.495 Y88.243 E19.53817
G1 X74.74 Y85.488 E19.68071
G0 F3600 X74.566 Y85.467
G1 F1500 X74.534 Y85.282 E19.68758
G1 X74.41 Y84.593 E19.71319
G1 X70.336 Y80.518 E19.92401
G1 X70.199 Y79.816 E19.95018
G1 X74.288 Y83.905 E20.16175
G1 X74.166 Y83.217 E20.18731
G1 X70.061 Y79.112 E20.39971
G1 X69.923 Y78.408 E20.42595
G1 X74.043 Y82.529 E20.63915
G1 X73.92 Y81.84 E20.66476
G1 X69.785 Y77.705 E20.8787
G1 X69.647 Y77.001 E20.90495
G1 X73.798 Y81.152 E21.11973
G1 X73.676 Y80.464 E21.14529
G1 X69.51 Y76.298 E21.36084
G1 X69.372 Y75.595 E21.38705
G1 X73.553 Y79.775 E21.60335
G1 X73.43 Y79.087 E21.62892
G1 X69.234 Y74.891 E21.84603
G1 X69.097 Y74.188 E21.87223
G1 X73.308 Y78.399 E22.09011
G1 X73.186 Y77.711 E22.11568
G1 X68.959 Y73.485 E22.33436
G1 X68.821 Y72.781 E22.3606
G1 X73.063 Y77.023 E22.58009
G1 X72.94 Y76.335 E22.60566
G1 X68.684 Y72.078 E22.82589
G1 X68.546 Y71.374 E22.85214
G1 X72.818 Y75.646 E23.07317
G1 X72.696 Y74.958 E23.09874
G1 X68.409 Y70.671 E23.32055
G1 X68.271 Y69.968 E23.34676
G1 X72.573 Y74.27 E23.56935
G1 X72.45 Y73.582 E23.59492
G1 X68.133 Y69.264 E23.81831
G1 X67.995 Y68.561 E23.84452
G1 X72.328 Y72.894 E24.06871
G1 X72.205 Y72.205 E24.09432
G1 X68.198 Y68.198 E24.30164
G1 X68.764 Y68.198 E24.32235
G1 X72.083 Y71.517 E24.49408
G1 X71.96 Y70.829 E24.51965
G1 X69.329 Y68.198 E24.65578
G1 X69.895 Y68.198 E24.67649
G1 X71.838 Y70.141 E24.77702
G1 X71.715 Y69.452 E24.80263
G1 X70.461 Y68.198 E24.86751
G1 X71.026 Y68.198 E24.88818
G1 X71.492 Y68.198 E24.90523
G0 F3600 X71.593 Y68.764
G1 F1500 X71.026 Y68.198 E24.93454
;;retract;;
G1 F6000 E16.93454
G0 F3600 X83.064 Y67.791
G1 F6000 E24.93454
G1 F1500 X82.891 Y68.183 E24.95022
G1 X83.993 Y69.285 E25.00723
G1 X84.466 Y70.324 E25.049
G1 X82.718 Y68.575 E25.13947
G1 X82.544 Y68.967 E25.15516
G1 X84.94 Y71.364 E25.27916
G1 X85.414 Y72.403 E25.32094
G1 X82.37 Y69.36 E25.47841
G1 X82.197 Y69.752 E25.49409
G1 X85.887 Y73.442 E25.68501
G1 X86.361 Y74.481 E25.72679
G1 X82.023 Y70.144 E25.95122
G1 X81.85 Y70.536 E25.96689
G1 X86.834 Y75.521 E26.2248
G1 X87.307 Y76.559 E26.26653
G1 X81.677 Y70.929 E26.55783
G1 X81.503 Y71.32 E26.57349
G1 X87.781 Y77.599 E26.89834
G1 X88.255 Y78.638 E26.94012
G1 X81.33 Y71.713 E27.29843
G1 X81.156 Y72.105 E27.31412
G1 X88.728 Y79.677 E27.7059
G1 X89.202 Y80.716 E27.74768
G1 X80.982 Y72.497 E28.17296
G1 X80.809 Y72.889 E28.18864
G1 X89.675 Y81.756 E28.6474
G1 X90.149 Y82.795 E28.68918
G1 X83.814 Y76.46 E29.01695
;;retract;;
G1 F6000 E21.01695
G0 F3600 X83.519 Y68.246
G1 F6000 E29.01695
G1 F1500 X83.064 Y67.791 E29.0405
G1 X83.186 Y67.515 E29.05154
;;retract;;
G1 F6000 E21.05154
G0 F3600 X98.312 Y68.331
G1 F6000 E29.05154
G1 F1500 X98.179 Y68.198 E29.05842
;;retract;;
G1 F6000 E21.05842
G0 F3600 X91.096 Y84.874
G1 F6000 E29.05842
G1 F1500 X84.768 Y78.546 E29.38583
G1 X85.245 Y79.589 E29.42779
G1 X94.673 Y89.016 E29.91558
G1 X94.588 Y89.497 E29.93345
G1 X85.723 Y80.632 E30.39213
G1 X86.199 Y81.674 E30.43404
G1 X94.504 Y89.978 E30.86372
G1 X94.419 Y90.459 E30.88159
G1 X86.677 Y82.717 E31.28217
G1 X87.154 Y83.76 E31.32413
G1 X94.334 Y90.94 E31.69563
G1 X94.25 Y91.421 E31.71349
G1 X87.631 Y84.802 E32.05596
G1 X88.108 Y85.845 E32.09792
G1 X94.165 Y91.902 E32.41132
G1 X94.08 Y92.383 E32.42919
G1 X88.585 Y86.888 E32.7135
G1 X89.062 Y87.93 E32.75543
G1 X93.996 Y92.865 E33.01074
G1 X93.911 Y93.345 E33.02858
G1 X89.539 Y88.973 E33.25479
G1 X90.016 Y90.016 E33.29675
G1 X93.826 Y93.826 E33.49388
G1 X93.742 Y94.308 E33.51178
G1 X90.493 Y91.059 E33.67988
G1 X90.97 Y92.102 E33.72185
G1 X93.657 Y94.789 E33.86087
G1 X93.572 Y95.269 E33.87871
G1 X91.447 Y93.145 E33.98863
G1 X91.924 Y94.187 E34.03056
G1 X93.488 Y95.751 E34.11148
G1 X93.403 Y96.232 E34.12935
G1 X92.401 Y95.23 E34.18119
G1 X92.879 Y96.273 E34.22317
G1 X93.319 Y96.713 E34.24594
G1 X93.252 Y97.089 E34.25991
;;retract;;
G1 F6000 E26.25991
G0 F3600 X73.682 Y96.875
G1 F6000 E34.25991
G1 F1500 X73.855 Y96.483 E34.27559
G1 X70.782 Y93.41 E34.43458
G1 X71.255 Y93.317 E34.45222
G1 X74.029 Y96.09 E34.59572
G1 X74.202 Y95.698 E34.6114
G1 X71.728 Y93.224 E34.73941
G1 X72.202 Y93.133 E34.75706
G1 X74.375 Y95.305 E34.86947
G1 X74.549 Y94.914 E34.88513
G1 X72.675 Y93.04 E34.98209
G1 X72.785 Y93.018 E34.9862
G1 X72.679 Y92.478 E35.00633
G1 X74.722 Y94.521 E35.11203
G1 X74.896 Y94.129 E35.12773
G1 X72.541 Y91.774 E35.24958
G1 X72.404 Y91.071 E35.27578
G1 X75.069 Y93.736 E35.41367
G1 X75.242 Y93.344 E35.42934
G1 X72.266 Y90.368 E35.58332
G1 X72.129 Y89.665 E35.60953
G1 X75.415 Y92.952 E35.77957
G1 X75.589 Y92.559 E35.7953
G1 X71.991 Y88.961 E35.98146
G1 X71.853 Y88.258 E36.00767
G1 X71.847 Y88.227 E36.00883
G0 F3600 X71.825 Y88.23
G1 F1500 X70.23 Y86.635 E36.09135
G1 X70.045 Y86.854 E36.10184
G1 X69.959 Y86.929 E36.10602
G1 X71.353 Y88.324 E36.17817
G1 X70.88 Y88.416 E36.1958
G1 X69.655 Y87.191 E36.25918
G1 X69.31 Y87.412 E36.27417
G1 X70.407 Y88.509 E36.33093
G1 X69.934 Y88.601 E36.34856
G1 X68.929 Y87.597 E36.40053
G1 X68.775 Y87.664 E36.40668
G1 X68.515 Y87.748 E36.41667
G1 X69.461 Y88.694 E36.46562
G1 X68.988 Y88.787 E36.48326
G1 X68.104 Y87.903 E36.529
G1 X67.912 Y87.987 E36.53666
G0 F3600 X67.912 Y87.986
G1 F1500 X67.73 Y88.094 E36.54441
G1 X68.515 Y88.879 E36.58502
G1 X68.443 Y88.894 E36.58771
G1 X68.12 Y89.001 E36.60016
G1 X68.09 Y89.02 E36.60146
G1 X67.4 Y88.33 E36.63716
G1 X67.369 Y88.352 E36.63855
G0 F3600 X67.368 Y88.352
G1 F1500 X67.198 Y88.506 E36.64695
G1 X67.109 Y88.605 E36.65182
G1 X67.762 Y89.258 E36.6856
G1 X67.555 Y89.487 E36.6969
G1 X67.512 Y89.574 E36.70045
G1 X66.851 Y88.913 E36.73465
G1 X66.786 Y89.006 E36.7388
G1 X66.638 Y89.265 E36.74971
G1 X67.354 Y89.981 E36.78676
G1 X67.31 Y90.192 E36.79464
G1 X67.325 Y90.518 E36.80658
G1 X66.463 Y89.656 E36.85118
G1 X66.355 Y90.001 E36.86441
