; generated by Slic3r Prusa Edition 1.39.1-prusa3d on 2018-04-22 at 18:20:45

; 

; external perimeters extrusion width = 0.45mm
; perimeters extrusion width = 0.45mm
; infill extrusion width = 0.45mm
; solid infill extrusion width = 0.45mm
; top infill extrusion width = 0.33mm
; first layer extrusion width = 0.42mm

M107
M115 U3.1.0 ; tell printer latest fw version
M201 X9000 Y9000 Z500 E10000 ; sets maximum accelerations, mm/sec^2
M203 X500 Y500 Z12 E120 ; sets maximum feedrates, mm/sec
M204 S1500 T1500 ; sets acceleration (S) and retract acceleration (T)
M205 X10 Y10 Z0.2 E2.5 ; sets the jerk limits, mm/sec
M205 S0 T0 ; sets the minimum extruding and travel feed rate, mm/sec
M83  ; extruder relative mode
M104 S215 ; set extruder temp
M140 S60 ; set bed temp
M190 S60 ; wait for bed temp
M109 S215 ; wait for extruder temp
G28 W ; home all without mesh bed level
G80 ; mesh bed leveling
G1 Y-3.0 F1000.0 ; go outside print area
G92 E0.0
G1 E18.0 F1000.0;
G1 X60.0 E9.0  F1000.0 ; intro line
G1 X100.0 E12.5  F1000.0 ; intro line
G92 E0.0
M900 K30; Filament gcode
G21 ; set units to millimeters
G90 ; use absolute coordinates
M83 ; use relative distances for extrusion
;BEFORE_LAYER_CHANGE
;0.2


G1 E-0.80000 F2100.00000
G1 Z0.600 F7200.000
;AFTER_LAYER_CHANGE
;0.2
G1 X107.796 Y89.483 F7200.000
G1 Z0.200 F7200.000
G1 E0.80000 F2100.00000
M204 S1000
G1 F900
G1 X108.060 Y88.948 E0.01870
G1 X108.382 Y88.558 E0.01585
G1 X108.780 Y88.245 E0.01585
G1 X109.238 Y88.022 E0.01597
G1 X109.729 Y87.902 E0.01585
G1 X125.837 Y86.564 E0.50681
G1 X141.904 Y87.914 E0.50553
G1 X142.534 Y88.112 E0.02071
G1 X143.085 Y88.476 E0.02071
G1 X143.515 Y88.978 E0.02071
G1 X143.790 Y89.579 E0.02071
G1 X143.885 Y90.114 E0.01704
G1 X143.856 Y90.653 E0.01692
G1 X138.422 Y121.542 E0.98339
G1 X138.209 Y122.144 E0.02000
G1 X137.845 Y122.667 E0.02000
G1 X137.354 Y123.075 E0.02000
G1 X136.773 Y123.337 E0.02000
G1 X136.097 Y123.436 E0.02142
G1 X116.066 Y123.436 E0.62804
G1 X115.497 Y123.365 E0.01799
G1 X114.758 Y123.039 E0.02532
G1 X108.292 Y118.586 E0.24617
G1 X107.666 Y117.944 E0.02809
G1 X107.182 Y117.272 E0.02596
G1 X106.788 Y116.519 E0.02667
G1 X106.522 Y115.771 E0.02488
G1 X106.156 Y113.930 E0.05886
G1 X106.128 Y112.743 E0.03722
G1 X107.674 Y90.066 E0.71266
G1 X107.784 Y89.541 E0.01682
G1 F5760
G1 X108.060 Y88.948 E-0.22676
G1 F5760
G1 X108.382 Y88.558 E-0.17513
G1 F5760
G1 X108.780 Y88.245 E-0.17513
G1 F5760
G1 X109.238 Y88.022 E-0.17644
G1 F5760
G1 X109.256 Y88.017 E-0.00653
G1 E-0.04000 F2100.00000
G1 Z0.800 F7200.000
G1 X114.616 Y110.556 F7200.000
G1 Z0.200 F7200.000
G1 E0.80000 F2100.00000
G1 F900
G1 X115.610 Y115.636 E0.16228
G1 X111.883 Y116.355 E0.11901
G1 X111.489 Y116.328 E0.01240
G1 X111.251 Y116.263 E0.00773
G1 X110.895 Y116.086 E0.01247
G1 X110.579 Y115.805 E0.01325
G1 X110.365 Y115.482 E0.01217
G1 X110.272 Y115.255 E0.00767
G1 X109.839 Y113.090 E0.06922
G1 X109.813 Y112.883 E0.00655
G1 X109.840 Y112.488 E0.01242
G1 X109.968 Y112.113 E0.01242
G1 X110.092 Y111.900 E0.00773
G1 X110.341 Y111.618 E0.01181
G1 X110.537 Y111.468 E0.00773
G1 X110.892 Y111.294 E0.01240
G1 X114.557 Y110.568 E0.11713
G1 X114.318 Y110.999 F7200.000
G1 F900
G1 X115.167 Y115.337 E0.13860
G1 X111.860 Y115.975 E0.10562
G1 X111.552 Y115.954 E0.00969
G1 X111.385 Y115.909 E0.00540
G1 X111.108 Y115.771 E0.00972
G1 X110.867 Y115.556 E0.01013
G1 X110.700 Y115.304 E0.00948
G1 X110.635 Y115.146 E0.00538
G1 X110.212 Y113.029 E0.06767
G1 X110.191 Y112.872 E0.00498
G1 X110.213 Y112.563 E0.00970
G1 X110.313 Y112.271 E0.00970
G1 X110.399 Y112.122 E0.00540
G1 X110.600 Y111.895 E0.00948
G1 X110.736 Y111.791 E0.00540
G1 X111.014 Y111.655 E0.00969
G1 X114.259 Y111.010 E0.10373
G1 X114.710 Y110.919 F7200.000
G1 F5760
G1 X114.710 Y113.158 E-0.76000
G1 E-0.04000 F2100.00000
G1 Z0.800 F7200.000
G1 X133.906 Y108.075 F7200.000
G1 Z0.200 F7200.000
G1 E0.80000 F2100.00000
G1 F900
G1 X134.844 Y107.948 E0.02967
G1 X137.578 Y90.845 E0.54305
G1 X140.813 Y90.845 E0.10142
G1 X135.843 Y119.099 E0.89946
G1 X125.898 Y97.362 E0.74949
G1 X116.235 Y119.240 E0.74991
G1 X115.961 Y118.708 E0.01876
G1 X115.643 Y118.282 E0.01668
G1 X115.270 Y117.912 E0.01647
G1 X115.046 Y117.735 E0.00894
G1 X114.813 Y117.579 E0.00878
G1 X114.357 Y117.341 E0.01615
G1 X113.852 Y117.167 E0.01673
G1 X113.568 Y117.104 E0.00912
G1 X113.057 Y117.049 E0.01614
G1 X112.104 Y117.090 E0.02988
G1 X111.692 Y117.050 E0.01300
G1 X111.280 Y116.949 E0.01330
G1 X111.095 Y116.882 E0.00617
G1 X110.915 Y116.803 E0.00617
G1 X110.547 Y116.590 E0.01330
G1 X110.222 Y116.335 E0.01298
G1 X109.929 Y116.028 E0.01330
G1 X109.815 Y115.880 E0.00584
G1 X109.594 Y115.518 E0.01330
G1 X109.430 Y115.138 E0.01298
G1 X109.317 Y114.718 E0.01363
G1 X109.132 Y113.778 E0.03004
G1 X109.079 Y113.346 E0.01363
G1 X109.088 Y112.933 E0.01298
G1 X109.156 Y112.514 E0.01330
G1 X109.206 Y112.334 E0.00584
G1 X109.362 Y111.940 E0.01330
G1 X109.566 Y111.580 E0.01298
G1 X109.820 Y111.253 E0.01298
G1 X110.118 Y110.965 E0.01298
G1 X110.452 Y110.723 E0.01295
G1 X110.624 Y110.624 E0.00622
G1 X111.022 Y110.450 E0.01362
G1 X111.482 Y110.304 E0.01513
G1 X111.960 Y110.090 E0.01642
G1 X112.392 Y109.813 E0.01610
G1 X112.619 Y109.630 E0.00912
G1 X112.985 Y109.259 E0.01635
G1 X113.305 Y108.819 E0.01705
G1 X113.547 Y108.352 E0.01649
G1 X113.651 Y108.081 E0.00909
G1 X113.781 Y107.582 E0.01619
G1 X113.838 Y107.043 E0.01699
G1 X113.816 Y106.526 E0.01623
G1 X113.774 Y106.256 E0.00856
G1 X110.757 Y90.845 E0.49236
G1 X114.023 Y90.845 E0.10242
G1 X117.071 Y107.976 E0.54555
G1 X118.007 Y108.089 E0.02957
G1 X125.841 Y90.374 E0.60732
G1 X133.881 Y108.020 E0.60799
G1 X134.133 Y107.664 F7200.000
G1 F900
G1 X134.516 Y107.612 E0.01211
G1 X137.257 Y90.468 E0.54435
G1 X141.262 Y90.468 E0.12558
G1 X136.004 Y120.358 E0.95155
G1 X125.904 Y98.281 E0.76120
G1 X116.148 Y120.370 E0.75713
G1 X116.030 Y119.788 E0.01864
G1 X115.868 Y119.331 E0.01519
G1 X115.642 Y118.911 E0.01494
G1 X115.358 Y118.530 E0.01492
G1 X115.020 Y118.195 E0.01492
G1 X114.620 Y117.904 E0.01549
G1 X114.207 Y117.688 E0.01462
G1 X113.750 Y117.530 E0.01517
G1 X113.507 Y117.477 E0.00780
G1 X113.044 Y117.427 E0.01459
G1 X112.094 Y117.468 E0.02982
G1 X111.629 Y117.422 E0.01467
G1 X111.171 Y117.310 E0.01478
G1 X110.954 Y117.232 E0.00722
G1 X110.744 Y117.139 E0.00722
G1 X110.336 Y116.903 E0.01478
G1 X109.968 Y116.614 E0.01466
G1 X109.642 Y116.274 E0.01478
G1 X109.504 Y116.094 E0.00710
G1 X109.258 Y115.692 E0.01478
G1 X109.073 Y115.263 E0.01466
G1 X108.949 Y114.804 E0.01490
G1 X108.760 Y113.837 E0.03089
G1 X108.702 Y113.366 E0.01490
G1 X108.711 Y112.898 E0.01466
G1 X108.787 Y112.433 E0.01478
G1 X108.848 Y112.215 E0.00710
G1 X109.021 Y111.776 E0.01478
G1 X109.252 Y111.370 E0.01466
G1 X109.539 Y111.001 E0.01466
G1 X109.875 Y110.676 E0.01466
G1 X110.247 Y110.406 E0.01440
G1 X110.454 Y110.287 E0.00749
G1 X110.889 Y110.097 E0.01489
G1 X111.347 Y109.951 E0.01507
G1 X111.780 Y109.757 E0.01487
G1 X112.172 Y109.506 E0.01458
G1 X112.365 Y109.350 E0.00780
G1 X112.697 Y109.014 E0.01480
G1 X112.983 Y108.620 E0.01527
G1 X113.202 Y108.197 E0.01493
G1 X113.291 Y107.966 E0.00777
G1 X113.409 Y107.514 E0.01466
G1 X113.460 Y107.031 E0.01522
G1 X113.440 Y106.563 E0.01469
G1 X113.402 Y106.321 E0.00767
G1 X110.299 Y90.468 E0.50649
G1 X114.339 Y90.468 E0.12669
G1 X117.393 Y107.635 E0.54671
G1 X117.776 Y107.681 E0.01207
G1 X125.836 Y89.454 E0.62490
G1 X134.108 Y107.609 E0.62555
G1 X134.356 Y107.979 F7200.000
G1 F5760
G1 X134.516 Y107.612 E-0.14114
G1 F5760
G1 X134.798 Y105.847 E-0.61886
G1 E-0.04000 F2100.00000
G1 Z0.800 F7200.000
G1 X136.946 Y112.175 F7200.000
G1 Z0.200 F7200.000
G1 E0.80000 F2100.00000
G1 F900
G1 X129.647 Y104.876 E0.32616
G1 X130.100 Y105.867 E0.03442
G1 X136.719 Y112.486 E0.29577
G1 X136.639 Y112.943 E0.01466
G1 X130.554 Y106.858 E0.27192
G1 X131.007 Y107.848 E0.03442
G1 X136.558 Y113.400 E0.24808
G1 X136.478 Y113.857 E0.01466
G1 X131.460 Y108.839 E0.22423
G1 X131.913 Y109.830 E0.03442
G1 X136.398 Y114.314 E0.20039
G1 X136.317 Y114.771 E0.01466
G1 X132.366 Y110.820 E0.17654
G1 X132.820 Y111.811 E0.03442
G1 X136.237 Y115.228 E0.15270
G1 X136.156 Y115.685 E0.01466
G1 X133.273 Y112.801 E0.12885
G1 X133.726 Y113.792 E0.03442
G1 X136.076 Y116.142 E0.10501
G1 X135.996 Y116.599 E0.01466
G1 X134.179 Y114.783 E0.08116
G1 X134.633 Y115.773 E0.03442
G1 X135.915 Y117.056 E0.05731
G1 X135.835 Y117.513 E0.01466
G1 X135.086 Y116.764 E0.03347
G1 X135.539 Y117.755 E0.03442
G1 X135.901 Y118.117 E0.01617
G1 F5760
G1 X135.539 Y117.755 E-0.17727
G1 F5760
G1 X135.086 Y116.764 E-0.37731
G1 F5760
G1 X135.505 Y117.183 E-0.20542
G1 E-0.04000 F2100.00000
G1 Z0.800 F7200.000
G1 X119.555 Y111.444 F7200.000
G1 Z0.200 F7200.000
G1 E0.80000 F2100.00000
G1 F900
G1 X113.988 Y105.877 E0.24878
G1 X114.099 Y106.525 E0.02079
G1 X119.262 Y111.688 E0.23071
G1 X119.097 Y112.061 E0.01288
G1 X114.118 Y107.082 E0.22247
G1 X114.067 Y107.568 E0.01543
G1 X118.932 Y112.434 E0.21743
G1 X118.768 Y112.807 E0.01288
G1 X113.963 Y108.002 E0.21468
G1 X113.829 Y108.406 E0.01343
G1 X118.603 Y113.179 E0.21332
G1 X118.438 Y113.552 E0.01288
G1 X113.651 Y108.765 E0.21391
G1 X113.546 Y108.968 E0.00723
G1 X113.450 Y109.101 E0.00518
G1 X118.274 Y113.925 E0.21557
G1 X118.109 Y114.298 E0.01288
G1 X115.034 Y111.223 E0.13740
G1 X115.165 Y111.891 E0.02152
G1 X117.944 Y114.670 E0.12420
G1 X117.780 Y115.043 E0.01288
G1 X115.296 Y112.559 E0.11099
G1 X115.427 Y113.228 E0.02152
G1 X117.615 Y115.416 E0.09779
G1 X117.451 Y115.789 E0.01288
G1 X115.558 Y113.896 E0.08459
G1 X115.688 Y114.564 E0.02152
G1 X117.286 Y116.161 E0.07138
G1 X117.121 Y116.534 E0.01288
G1 X115.819 Y115.232 E0.05818
G1 X115.942 Y115.860 E0.02020
G1 X115.915 Y115.865 E0.00089
G1 X116.957 Y116.907 E0.04656
G1 X116.792 Y117.280 E0.01288
G1 X115.464 Y115.952 E0.05934
G1 X115.014 Y116.039 E0.01450
G1 X116.627 Y117.653 E0.07211
G1 X116.463 Y118.025 E0.01288
G1 X114.563 Y116.126 E0.08489
G1 X114.113 Y116.213 E0.01450
G1 X116.427 Y118.527 E0.10341
G1 F5760
G1 X114.875 Y116.975 E-0.76000
G1 E-0.04000 F2100.00000
G1 Z0.800 F7200.000
G1 X114.815 Y117.452 F7200.000
G1 Z0.200 F7200.000
G1 E0.80000 F2100.00000
G1 F900
G1 X113.662 Y116.300 E0.05151
G1 X113.212 Y116.387 E0.01450
G1 X113.660 Y116.835 E0.02002
G1 X113.053 Y116.766 E0.01928
G1 X112.761 Y116.474 E0.01306
G1 X112.311 Y116.560 E0.01450
G1 X112.701 Y116.951 E0.01744
G1 X111.866 Y116.718 F7200.000
G1 F900
G1 X111.448 Y116.653 E0.01132
G1 F900
G1 X111.214 Y116.585 E0.00562
G1 F900
G1 X111.151 Y116.562 E0.00147
G1 F900
G1 X110.737 Y116.348 E0.00980
G1 F900
G1 X110.332 Y115.998 E0.01034
G1 X110.095 Y115.688 E0.00756
G1 X109.951 Y115.416 E0.00595
G1 X110.097 Y114.955 F7200.000
G1 F900
G1 X109.542 Y114.400 E0.02848
G1 X109.401 Y113.640 E0.02809
G1 X109.942 Y114.182 E0.02784
G1 F5760
G1 X109.401 Y113.640 E-0.26537
G1 F5760
G1 X109.542 Y114.400 E-0.26777
G1 F5760
G1 X110.006 Y114.864 E-0.22685
G1 E-0.04000 F2100.00000
G1 Z0.800 F7200.000
G1 X109.452 Y112.920 F7200.000
G1 Z0.200 F7200.000
G1 E0.80000 F2100.00000
G1 F900
G1 X109.525 Y112.406 E0.01012
G1 X109.683 Y111.996 E0.00858
G1 X109.851 Y111.712 E0.00643
G1 F900
G1 X110.137 Y111.381 E0.00899
G1 F900
G1 X110.377 Y111.182 E0.00718
G1 F900
G1 X110.748 Y110.959 E0.01166
G1 X111.123 Y110.537 F7200.000
G1 F900
G1 X111.477 Y110.890 E0.01579
G1 X111.925 Y110.801 E0.01444
G1 X111.659 Y110.535 E0.01190
G1 X112.030 Y110.368 E0.01285
G1 X112.374 Y110.712 E0.01536
G1 X112.822 Y110.623 E0.01444
G1 X112.365 Y110.166 E0.02041
G1 X112.680 Y109.944 E0.01219
G1 X113.270 Y110.534 E0.02636
G1 X113.719 Y110.445 E0.01444
G1 X112.960 Y109.686 E0.03389
G1 X113.223 Y109.412 E0.01201
G1 X114.312 Y110.501 E0.04866
G1 F5760
G1 X113.223 Y109.412 E-0.53332
G1 F5760
G1 X112.960 Y109.686 E-0.13165
G1 F5760
G1 X113.154 Y109.880 E-0.09503
G1 E-0.04000 F2100.00000
G1 Z0.800 F7200.000
G1 X126.131 Y97.598 F7200.000
G1 Z0.200 F7200.000
G1 E0.80000 F2100.00000
G1 F900
G1 X131.075 Y102.542 E0.22092
G1 X131.524 Y103.529 E0.03428
G1 X126.928 Y98.933 E0.20540
G1 X127.381 Y99.923 E0.03442
G1 X131.974 Y104.516 E0.20525
G1 X132.424 Y105.504 E0.03428
G1 X127.834 Y100.914 E0.20510
G1 X128.288 Y101.904 E0.03442
G1 X132.874 Y106.491 E0.20495
G1 X133.324 Y107.478 E0.03428
G1 X128.741 Y102.895 E0.20479
G1 X129.194 Y103.886 E0.03442
G1 X136.880 Y111.572 E0.34346
G1 X136.960 Y111.115 E0.01466
G1 X134.170 Y108.324 E0.12468
G1 X134.643 Y108.260 E0.01509
G1 X137.041 Y110.658 E0.10712
G1 X137.121 Y110.201 E0.01466
G1 X135.094 Y108.174 E0.09057
G1 X135.168 Y107.710 E0.01483
G1 X137.201 Y109.744 E0.09085
G1 X137.282 Y109.286 E0.01466
G1 X135.242 Y107.247 E0.09113
G1 X135.317 Y106.784 E0.01483
G1 X137.362 Y108.829 E0.09141
G1 X137.443 Y108.372 E0.01466
G1 X135.391 Y106.320 E0.09170
G1 X135.465 Y105.857 E0.01483
G1 X137.523 Y107.915 E0.09198
G1 X137.603 Y107.458 E0.01466
G1 X135.539 Y105.394 E0.09226
G1 X135.613 Y104.930 E0.01483
G1 X137.684 Y107.001 E0.09254
G1 X137.764 Y106.544 E0.01466
G1 X135.687 Y104.467 E0.09283
G1 X135.761 Y104.004 E0.01483
G1 X137.845 Y106.087 E0.09311
G1 X137.925 Y105.630 E0.01466
G1 X135.835 Y103.540 E0.09339
G1 X135.909 Y103.077 E0.01483
G1 X138.005 Y105.173 E0.09367
G1 X138.086 Y104.716 E0.01466
G1 X135.983 Y102.614 E0.09395
G1 X136.057 Y102.150 E0.01483
G1 X138.166 Y104.259 E0.09424
G1 X138.247 Y103.802 E0.01466
G1 X136.131 Y101.687 E0.09452
G1 X136.205 Y101.224 E0.01483
G1 X138.327 Y103.345 E0.09480
G1 X138.407 Y102.888 E0.01466
G1 X136.280 Y100.760 E0.09508
G1 X136.354 Y100.297 E0.01483
G1 X138.488 Y102.431 E0.09537
G1 X138.568 Y101.974 E0.01466
G1 X136.428 Y99.834 E0.09565
G1 X136.502 Y99.370 E0.01483
G1 X138.649 Y101.517 E0.09593
G1 X138.729 Y101.060 E0.01466
G1 X136.576 Y98.907 E0.09621
G1 X136.650 Y98.444 E0.01483
G1 X138.809 Y100.603 E0.09649
G1 X138.890 Y100.146 E0.01466
G1 X136.724 Y97.980 E0.09678
G1 X136.798 Y97.517 E0.01483
G1 X138.970 Y99.689 E0.09706
G1 X139.050 Y99.232 E0.01466
G1 X136.872 Y97.054 E0.09734
G1 X136.946 Y96.590 E0.01483
G1 X139.131 Y98.775 E0.09762
G1 X139.211 Y98.318 E0.01466
G1 X137.020 Y96.127 E0.09791
G1 X137.094 Y95.664 E0.01483
G1 X139.292 Y97.861 E0.09819
G1 X139.372 Y97.404 E0.01466
G1 X137.168 Y95.200 E0.09847
G1 X137.243 Y94.737 E0.01483
G1 X139.452 Y96.947 E0.09875
G1 X139.533 Y96.490 E0.01466
G1 X137.317 Y94.274 E0.09904
G1 X137.391 Y93.810 E0.01483
G1 X139.613 Y96.033 E0.09932
G1 X139.694 Y95.576 E0.01466
G1 X137.465 Y93.347 E0.09960
G1 X137.539 Y92.883 E0.01483
G1 X139.774 Y95.119 E0.09988
G1 X139.854 Y94.662 E0.01466
G1 X137.613 Y92.420 E0.10016
G1 X137.687 Y91.957 E0.01483
G1 X139.935 Y94.205 E0.10045
G1 X140.015 Y93.748 E0.01466
G1 X137.761 Y91.493 E0.10073
G1 X137.819 Y91.128 E0.01169
G1 X137.933 Y91.128 E0.00359
G1 X140.096 Y93.291 E0.09663
G1 X140.176 Y92.834 E0.01466
G1 X138.471 Y91.128 E0.07621
G1 X139.008 Y91.128 E0.01698
G1 X140.256 Y92.376 E0.05578
G1 X140.337 Y91.919 E0.01466
G1 X139.545 Y91.128 E0.03536
G1 X140.083 Y91.128 E0.01698
G1 X140.564 Y91.609 E0.02148
G1 F5760
G1 X140.083 Y91.128 E-0.23550
G1 F5760
G1 X139.545 Y91.128 E-0.18614
G1 F5760
G1 X140.236 Y91.819 E-0.33837
G1 E-0.04000 F2100.00000
G1 Z0.800 F7200.000
G1 X126.469 Y92.025 F7200.000
G1 Z0.200 F7200.000
G1 E0.80000 F2100.00000
G1 F900
G1 X125.742 Y91.298 E0.03248
G1 X125.577 Y91.671 E0.01287
G1 X126.576 Y92.669 E0.04464
G1 X127.026 Y93.657 E0.03428
G1 X125.413 Y92.043 E0.07210
G1 X125.248 Y92.416 E0.01287
G1 X127.476 Y94.644 E0.09957
G1 X127.926 Y95.631 E0.03428
G1 X125.083 Y92.788 E0.12703
G1 X124.918 Y93.161 E0.01287
G1 X128.376 Y96.618 E0.15450
G1 X128.825 Y97.606 E0.03428
G1 X124.754 Y93.534 E0.18196
G1 X124.589 Y93.906 E0.01287
G1 X129.275 Y98.593 E0.20943
G1 X129.725 Y99.580 E0.03428
G1 X124.424 Y94.279 E0.23689
G1 X124.259 Y94.652 E0.01287
G1 X130.175 Y100.567 E0.26435
G1 X130.625 Y101.555 E0.03428
G1 X124.094 Y95.024 E0.29182
G1 X123.930 Y95.397 E0.01287
G1 X125.683 Y97.150 E0.07834
G1 X125.518 Y97.523 E0.01288
G1 X123.765 Y95.769 E0.07835
G1 X123.600 Y96.142 E0.01287
G1 X125.353 Y97.895 E0.07835
G1 X125.189 Y98.268 E0.01288
G1 X123.435 Y96.515 E0.07836
G1 X123.270 Y96.887 E0.01287
G1 X125.024 Y98.641 E0.07836
G1 X124.859 Y99.014 E0.01288
