; generated by Slic3r Prusa Edition 1.39.1-prusa3d on 2018-05-09 at 12:53:33

; 

; external perimeters extrusion width = 0.45mm
; perimeters extrusion width = 0.45mm
; infill extrusion width = 0.45mm
; solid infill extrusion width = 0.45mm
; top infill extrusion width = 0.33mm
; first layer extrusion width = 0.42mm

M107
M115 U3.1.0 ; tell printer latest fw version
M201 X9000 Y9000 Z500 E10000 ; sets maximum accelerations, mm/sec^2
M203 X500 Y500 Z12 E120 ; sets maximum feedrates, mm/sec
M204 S1500 T1500 ; sets acceleration (S) and retract acceleration (T)
M205 X10 Y10 Z0.2 E2.5 ; sets the jerk limits, mm/sec
M205 S0 T0 ; sets the minimum extruding and travel feed rate, mm/sec
M83  ; extruder relative mode
M104 S200 ; set extruder temp
M140 S65 ; set bed temp
M190 S65 ; wait for bed temp
M109 S200 ; wait for extruder temp
G28 W ; home all without mesh bed level
G80 ; mesh bed leveling
G1 Y-3.0 F1000.0 ; go outside print area
G92 E0.0
G1 E18.0 F1000.0;
G1 X60.0 E9.0  F1000.0 ; intro line
G1 X100.0 E12.5  F1000.0 ; intro line
G92 E0.0
M900 K30; Filament gcode
G21 ; set units to millimeters
G90 ; use absolute coordinates
M83 ; use relative distances for extrusion
;BEFORE_LAYER_CHANGE
;0.2


G1 E-0.80000 F2100.00000
G1 Z0.600 F7200.000
;AFTER_LAYER_CHANGE
;0.2
G1 X91.254 Y92.475 F7200.000
G1 Z0.200 F7200.000
G1 E0.80000 F2100.00000
M204 S1000
G1 F900
G1 X92.135 Y91.856 E0.03376
G1 X93.129 Y91.397 E0.03431
G1 X94.298 Y91.122 E0.03766
G1 X105.002 Y91.077 E0.33562
G1 X106.077 Y91.181 E0.03386
G1 X106.952 Y91.426 E0.02849
G1 X107.917 Y91.885 E0.03349
G1 X108.752 Y92.480 E0.03216
G1 X109.523 Y93.251 E0.03419
G1 X110.152 Y94.112 E0.03344
G1 X110.688 Y95.116 E0.03567
G1 X111.095 Y96.197 E0.03623
G1 X111.390 Y97.375 E0.03807
G1 X111.592 Y99.070 E0.05353
G1 X111.594 Y100.268 E0.03756
G1 X111.452 Y101.646 E0.04344
G1 X111.146 Y103.003 E0.04359
G1 X110.647 Y104.339 E0.04471
G1 X110.024 Y105.453 E0.04004
G1 X109.391 Y106.268 E0.03236
G1 X108.473 Y107.110 E0.03905
G1 X107.419 Y107.746 E0.03860
G1 X106.211 Y108.158 E0.04002
G1 X105.075 Y108.290 E0.03586
G1 X94.401 Y108.259 E0.33467
G1 X93.387 Y108.054 E0.03244
G1 X92.612 Y107.761 E0.02598
G1 X91.840 Y107.326 E0.02779
G1 X91.090 Y106.750 E0.02964
G1 X90.000 Y105.489 E0.05226
G1 X89.149 Y103.863 E0.05754
G1 X88.664 Y102.259 E0.05254
G1 X88.405 Y100.240 E0.06382
G1 X88.405 Y99.122 E0.03506
G1 X88.513 Y97.957 E0.03670
G1 X88.912 Y96.173 E0.05733
G1 X89.565 Y94.601 E0.05336
G1 X90.504 Y93.220 E0.05237
G1 X91.212 Y92.517 E0.03127
G1 F5760
G1 X92.135 Y91.856 E-0.39342
G1 F5760
G1 X93.096 Y91.412 E-0.36658
G1 E-0.04000 F2100.00000
G1 Z0.800 F7200.000
G1 X94.370 Y91.492 F7200.000
G1 Z0.200 F7200.000
G1 E0.80000 F2100.00000
G1 F900
G1 X105.002 Y91.454 E0.33336
G1 X106.017 Y91.554 E0.03198
G1 X106.841 Y91.787 E0.02685
G1 X107.748 Y92.223 E0.03157
G1 X108.575 Y92.826 E0.03209
G1 X109.258 Y93.521 E0.03056
G1 X109.876 Y94.383 E0.03326
G1 X110.496 Y95.630 E0.04365
G1 X110.863 Y96.755 E0.03710
G1 X111.110 Y97.982 E0.03925
G1 X111.229 Y99.526 E0.04856
G1 X111.170 Y100.890 E0.04279
G1 X110.973 Y102.151 E0.04004
G1 X110.714 Y103.128 E0.03169
G1 X110.271 Y104.253 E0.03789
G1 X109.698 Y105.263 E0.03644
G1 X109.085 Y106.044 E0.03113
G1 X108.203 Y106.841 E0.03725
G1 X107.251 Y107.409 E0.03477
G1 X106.121 Y107.792 E0.03739
G1 X105.056 Y107.913 E0.03362
G1 X94.451 Y107.885 E0.33250
G1 X93.490 Y107.691 E0.03076
G1 X92.759 Y107.413 E0.02451
G1 X91.889 Y106.906 E0.03157
G1 X91.314 Y106.443 E0.02315
G1 X90.307 Y105.270 E0.04847
G1 X89.492 Y103.707 E0.05528
G1 X89.033 Y102.179 E0.05002
G1 X88.781 Y100.211 E0.06220
G1 X88.782 Y99.137 E0.03369
G1 X88.888 Y97.999 E0.03583
G1 X89.274 Y96.279 E0.05527
G1 X89.899 Y94.777 E0.05100
G1 X90.808 Y93.445 E0.05058
G1 X91.497 Y92.763 E0.03039
G1 X92.326 Y92.181 E0.03175
G1 X93.254 Y91.752 E0.03207
G1 X94.311 Y91.506 E0.03402
G1 F5760
G1 X96.505 Y91.495 E-0.76000
G1 E-0.04000 F2100.00000
G1 Z0.800 F7200.000
G1 X102.569 Y96.073 F7200.000
G1 Z0.200 F7200.000
G1 E0.80000 F2100.00000
G1 F900
G1 X102.755 Y95.770 E0.01115
G1 X102.955 Y95.498 E0.01057
G1 X103.177 Y95.245 E0.01056
G1 X103.381 Y95.053 E0.00878
G1 X103.602 Y94.880 E0.00880
G1 X103.854 Y94.721 E0.00935
G1 X104.303 Y94.528 E0.01532
G1 X104.756 Y94.432 E0.01452
G1 X105.133 Y94.427 E0.01182
G1 X105.474 Y94.470 E0.01079
G1 X105.793 Y94.560 E0.01040
G1 X106.003 Y94.649 E0.00714
G1 X106.401 Y94.883 E0.01448
G1 X106.792 Y95.214 E0.01605
G1 X107.151 Y95.636 E0.01739
G1 X107.324 Y95.892 E0.00969
G1 X107.488 Y96.177 E0.01030
G1 X107.756 Y96.764 E0.02022
G1 X108.003 Y97.534 E0.02536
G1 X108.174 Y98.393 E0.02747
G1 X108.226 Y98.823 E0.01357
G1 X108.265 Y99.586 E0.02397
G1 X108.257 Y100.094 E0.01591
G1 X108.221 Y100.596 E0.01577
G1 X108.156 Y101.095 E0.01578
G1 X108.064 Y101.578 E0.01543
G1 X107.945 Y102.046 E0.01515
G1 X107.759 Y102.597 E0.01823
G1 X107.601 Y102.965 E0.01255
G1 X107.424 Y103.309 E0.01212
G1 X107.234 Y103.613 E0.01123
G1 X106.890 Y104.051 E0.01748
G1 X106.686 Y104.255 E0.00904
G1 X106.469 Y104.436 E0.00887
G1 X106.220 Y104.604 E0.00942
G1 X106.005 Y104.718 E0.00763
G1 X105.692 Y104.841 E0.01055
G1 X105.243 Y104.936 E0.01437
G1 X105.013 Y104.948 E0.00723
G1 X104.603 Y104.914 E0.01290
G1 X104.392 Y104.866 E0.00678
G1 X104.030 Y104.735 E0.01207
G1 X103.604 Y104.489 E0.01544
G1 X103.196 Y104.142 E0.01678
G1 X102.820 Y103.692 E0.01839
G1 X102.653 Y103.438 E0.00953
G1 X102.436 Y103.042 E0.01415
G1 X102.151 Y102.350 E0.02345
G1 X101.958 Y101.673 E0.02208
G1 X101.819 Y100.909 E0.02434
G1 X101.755 Y100.301 E0.01918
G1 X101.735 Y99.810 E0.01541
G1 X101.741 Y99.342 E0.01467
G1 X101.787 Y98.703 E0.02009
G1 X101.855 Y98.205 E0.01576
G1 X101.949 Y97.728 E0.01523
G1 X102.067 Y97.282 E0.01446
G1 X102.213 Y96.844 E0.01450
G1 X102.396 Y96.408 E0.01482
G1 X102.541 Y96.126 E0.00994
G1 X102.206 Y95.954 F7200.000
G1 F900
G1 X102.442 Y95.559 E0.01441
G1 X102.660 Y95.261 E0.01158
G1 X102.906 Y94.983 E0.01163
G1 X103.135 Y94.767 E0.00987
G1 X103.384 Y94.571 E0.00995
G1 X103.670 Y94.392 E0.01058
G1 X103.926 Y94.266 E0.00896
G1 X104.188 Y94.168 E0.00877
G1 X104.455 Y94.098 E0.00864
G1 X104.724 Y94.056 E0.00854
G1 X105.153 Y94.050 E0.01347
G1 X105.549 Y94.099 E0.01252
G1 X105.918 Y94.204 E0.01202
G1 X106.172 Y94.311 E0.00865
G1 X106.613 Y94.570 E0.01603
G1 X106.844 Y94.749 E0.00917
G1 X107.064 Y94.952 E0.00940
G1 X107.452 Y95.408 E0.01875
G1 X107.644 Y95.692 E0.01077
G1 X107.824 Y96.004 E0.01129
G1 X108.106 Y96.622 E0.02129
G1 X108.249 Y97.026 E0.01344
G1 X108.370 Y97.445 E0.01367
G1 X108.547 Y98.334 E0.02843
G1 X108.601 Y98.791 E0.01443
G1 X108.643 Y99.580 E0.02477
G1 X108.634 Y100.111 E0.01664
G1 X108.596 Y100.633 E0.01643
G1 X108.529 Y101.154 E0.01646
G1 X108.433 Y101.660 E0.01615
G1 X108.306 Y102.153 E0.01597
G1 X108.111 Y102.732 E0.01915
G1 X107.942 Y103.126 E0.01345
G1 X107.752 Y103.495 E0.01302
G1 X107.544 Y103.830 E0.01235
G1 X107.172 Y104.302 E0.01883
G1 X106.941 Y104.534 E0.01028
G1 X106.695 Y104.738 E0.01001
G1 X106.414 Y104.927 E0.01062
G1 X106.163 Y105.061 E0.00892
G1 X105.809 Y105.200 E0.01194
G1 X105.544 Y105.270 E0.00860
G1 X105.283 Y105.311 E0.00828
G1 X105.007 Y105.326 E0.00866
G1 X104.545 Y105.287 E0.01454
G1 X104.286 Y105.229 E0.00834
G1 X103.879 Y105.081 E0.01356
G1 X103.629 Y104.953 E0.00881
G1 X103.188 Y104.644 E0.01687
G1 X102.929 Y104.408 E0.01099
G1 X102.710 Y104.167 E0.01020
G1 X102.329 Y103.632 E0.02060
G1 X102.098 Y103.210 E0.01510
G1 X101.937 Y102.852 E0.01232
G1 X101.793 Y102.468 E0.01285
G1 X101.590 Y101.759 E0.02314
G1 X101.446 Y100.963 E0.02536
G1 X101.379 Y100.328 E0.02000
G1 X101.358 Y99.815 E0.01611
G1 X101.364 Y99.326 E0.01534
G1 X101.412 Y98.664 E0.02082
G1 X101.483 Y98.143 E0.01649
G1 X101.582 Y97.644 E0.01595
G1 X101.705 Y97.175 E0.01521
G1 X101.860 Y96.711 E0.01533
G1 X102.054 Y96.248 E0.01572
G1 X102.178 Y96.007 E0.00852
G1 X102.606 Y95.945 F7200.000
G1 F5760
G1 X102.442 Y95.559 E-0.17997
G1 F5760
G1 X102.660 Y95.261 E-0.12789
G1 F5760
G1 X102.906 Y94.983 E-0.12849
G1 F5760
G1 X103.135 Y94.767 E-0.10901
G1 F5760
G1 X103.384 Y94.571 E-0.10991
G1 F5760
G1 X103.640 Y94.410 E-0.10475
G1 E-0.04000 F2100.00000
G1 Z0.800 F7200.000
G1 X105.889 Y94.724 F7200.000
G1 Z0.200 F7200.000
G1 E0.80000 F2100.00000
G1 F900
G1 X107.375 Y96.209 E0.06883
G1 F5760
G1 X105.889 Y94.724 E-0.72782
G1 E-0.07218 F2100.00000
G1 Z0.800 F7200.000
G1 X107.781 Y97.173 F7200.000
G1 Z0.200 F7200.000
G1 E0.80000 F2100.00000
G1 F900
G1 X105.347 Y94.739 E0.11274
G1 X105.117 Y94.710 E0.00760
G1 X104.770 Y94.718 E0.01138
G1 X107.747 Y97.695 E0.13791
G1 X107.885 Y98.391 E0.02324
G1 X104.318 Y94.824 E0.16525
G1 X103.939 Y95.002 E0.01372
G1 X107.952 Y99.015 E0.18590
G1 X107.982 Y99.602 E0.01925
G1 X103.612 Y95.232 E0.20245
G1 X103.326 Y95.503 E0.01291
G1 X107.970 Y100.146 E0.21508
G1 X107.927 Y100.661 E0.01691
G1 X103.076 Y95.810 E0.22471
G1 X102.855 Y96.146 E0.01318
G1 X107.858 Y101.149 E0.23174
G1 X107.764 Y101.612 E0.01547
G1 X102.662 Y96.510 E0.23634
G1 X102.496 Y96.901 E0.01392
G1 X107.645 Y102.050 E0.23852
G1 X107.504 Y102.467 E0.01440
G1 X102.354 Y97.316 E0.23860
G1 X102.235 Y97.755 E0.01488
G1 X107.338 Y102.858 E0.23640
G1 X107.145 Y103.221 E0.01349
G1 X102.141 Y98.217 E0.23180
G1 X102.072 Y98.706 E0.01615
G1 X106.921 Y103.554 E0.22461
G1 X106.675 Y103.866 E0.01299
G1 X102.033 Y99.224 E0.21504
G1 X102.018 Y99.766 E0.01778
G1 X106.388 Y104.136 E0.20240
G1 X106.062 Y104.367 E0.01309
G1 X102.044 Y100.349 E0.18612
G1 X102.120 Y100.982 E0.02088
G1 X105.680 Y104.542 E0.16491
G1 X105.415 Y104.622 E0.00905
G1 X105.223 Y104.642 E0.00635
G1 X102.252 Y101.671 E0.13763
G1 X102.420 Y102.262 E0.02012
G1 X102.501 Y102.477 E0.00755
G1 X104.844 Y104.821 E0.10854
G1 X104.109 Y104.643 F7200.000
G1 F900
G1 X102.633 Y103.166 E0.06840
G1 F5760
G1 X104.109 Y104.643 E-0.72326
G1 E-0.07674 F2100.00000
G1 Z0.800 F7200.000
G1 X97.962 Y101.986 F7200.000
G1 Z0.200 F7200.000
G1 E0.80000 F2100.00000
G1 F900
G1 X97.823 Y102.418 E0.01423
G1 X97.559 Y103.052 E0.02152
G1 X97.395 Y103.359 E0.01093
G1 X97.178 Y103.694 E0.01250
G1 X96.998 Y103.928 E0.00926
G1 X96.804 Y104.141 E0.00905
G1 X96.396 Y104.489 E0.01679
G1 X95.970 Y104.735 E0.01544
G1 X95.608 Y104.866 E0.01207
G1 X95.397 Y104.914 E0.00678
G1 X94.987 Y104.948 E0.01290
G1 X94.757 Y104.936 E0.00723
G1 X94.308 Y104.841 E0.01437
G1 X93.995 Y104.718 E0.01055
G1 X93.780 Y104.604 E0.00763
G1 X93.531 Y104.436 E0.00941
G1 X93.311 Y104.252 E0.00899
G1 X93.110 Y104.051 E0.00891
G1 X92.766 Y103.613 E0.01748
G1 X92.576 Y103.309 E0.01123
G1 X92.399 Y102.965 E0.01212
G1 X92.241 Y102.597 E0.01255
G1 X92.054 Y102.042 E0.01838
G1 X91.935 Y101.577 E0.01504
G1 X91.844 Y101.095 E0.01539
G1 X91.780 Y100.599 E0.01567
G1 X91.743 Y100.094 E0.01588
G1 X91.735 Y99.586 E0.01591
G1 X91.774 Y98.823 E0.02397
G1 X91.827 Y98.388 E0.01375
G1 X91.999 Y97.527 E0.02752
G1 X92.108 Y97.148 E0.01238
G1 X92.361 Y96.484 E0.02227
G1 X92.671 Y95.900 E0.02072
G1 X92.849 Y95.636 E0.00999
G1 X93.208 Y95.214 E0.01738
G1 X93.600 Y94.881 E0.01611
G1 X94.000 Y94.647 E0.01453
G1 X94.207 Y94.561 E0.00702
G1 X94.538 Y94.466 E0.01081
G1 X94.753 Y94.433 E0.00681
G1 X95.137 Y94.427 E0.01204
G1 X95.476 Y94.469 E0.01072
G1 X95.924 Y94.612 E0.01473
G1 X96.363 Y94.856 E0.01575
G1 X96.621 Y95.055 E0.01020
G1 X96.823 Y95.245 E0.00871
G1 X97.044 Y95.496 E0.01048
G1 X97.266 Y95.804 E0.01189
G1 X97.431 Y96.073 E0.00989
G1 X97.602 Y96.404 E0.01167
G1 X97.759 Y96.771 E0.01255
G1 X97.934 Y97.284 E0.01698
G1 X98.051 Y97.728 E0.01441
G1 X98.145 Y98.205 E0.01523
G1 X98.213 Y98.705 E0.01584
G1 X98.253 Y99.194 E0.01537
G1 X98.265 Y99.812 E0.01938
G1 X98.245 Y100.305 E0.01546
G1 X98.133 Y101.230 E0.02923
G1 X97.975 Y101.927 E0.02242
G1 X98.343 Y102.011 F7200.000
G1 F900
G1 X98.177 Y102.548 E0.01764
G1 X97.900 Y103.214 E0.02259
G1 X97.720 Y103.550 E0.01198
G1 X97.487 Y103.912 E0.01348
G1 X97.287 Y104.170 E0.01023
G1 X97.071 Y104.408 E0.01009
G1 X96.614 Y104.797 E0.01882
G1 X96.371 Y104.953 E0.00905
G1 X96.121 Y105.081 E0.00881
G1 X95.714 Y105.229 E0.01356
G1 X95.455 Y105.287 E0.00834
G1 X94.993 Y105.326 E0.01454
G1 X94.717 Y105.311 E0.00866
G1 X94.456 Y105.270 E0.00828
G1 X94.191 Y105.200 E0.00860
G1 X93.837 Y105.061 E0.01194
G1 X93.586 Y104.927 E0.00892
G1 X93.305 Y104.738 E0.01062
G1 X93.056 Y104.531 E0.01014
G1 X92.828 Y104.302 E0.01015
G1 X92.456 Y103.830 E0.01883
G1 X92.248 Y103.495 E0.01235
G1 X92.058 Y103.126 E0.01302
G1 X91.889 Y102.732 E0.01345
G1 X91.692 Y102.149 E0.01930
G1 X91.567 Y101.659 E0.01586
G1 X91.471 Y101.154 E0.01610
G1 X91.404 Y100.637 E0.01636
G1 X91.366 Y100.111 E0.01654
G1 X91.357 Y99.580 E0.01664
G1 X91.399 Y98.791 E0.02477
G1 X91.454 Y98.328 E0.01461
G1 X91.632 Y97.438 E0.02847
G1 X91.750 Y97.028 E0.01336
G1 X92.015 Y96.334 E0.02330
G1 X92.351 Y95.700 E0.02248
G1 X92.548 Y95.408 E0.01108
G1 X92.936 Y94.952 E0.01875
G1 X93.156 Y94.749 E0.00940
G1 X93.389 Y94.568 E0.00923
G1 X93.831 Y94.309 E0.01608
G1 X94.082 Y94.204 E0.00852
G1 X94.457 Y94.097 E0.01225
G1 X94.721 Y94.056 E0.00837
G1 X95.158 Y94.050 E0.01370
G1 X95.548 Y94.098 E0.01234
G1 X95.812 Y94.168 E0.00854
G1 X96.074 Y94.266 E0.00877
G1 X96.331 Y94.392 E0.00898
G1 X96.578 Y94.545 E0.00914
G1 X96.866 Y94.768 E0.01139
G1 X97.094 Y94.983 E0.00985
G1 X97.339 Y95.261 E0.01161
G1 X97.580 Y95.594 E0.01290
G1 X97.760 Y95.887 E0.01078
G1 X97.943 Y96.243 E0.01254
G1 X98.111 Y96.636 E0.01342
G1 X98.295 Y97.175 E0.01785
G1 X98.418 Y97.644 E0.01519
G1 X98.517 Y98.143 E0.01595
G1 X98.588 Y98.665 E0.01652
G1 X98.630 Y99.175 E0.01606
G1 X98.642 Y99.816 E0.02010
G1 X98.621 Y100.330 E0.01612
G1 X98.576 Y100.814 E0.01526
G1 X98.504 Y101.299 E0.01538
G1 X98.356 Y101.952 E0.02099
G1 X97.956 Y102.114 F7200.000
G1 F5760
G1 X98.177 Y102.548 E-0.21556
G1 F5760
G1 X97.900 Y103.214 E-0.24959
G1 F5760
G1 X97.720 Y103.550 E-0.13236
G1 F5760
G1 X97.487 Y103.912 E-0.14889
G1 F5760
G1 X97.463 Y103.943 E-0.01361
G1 E-0.04000 F2100.00000
G1 Z0.800 F7200.000
G1 X94.855 Y104.828 F7200.000
G1 Z0.200 F7200.000
G1 E0.80000 F2100.00000
G1 F900
G1 X92.497 Y102.469 E0.10922
G1 X92.325 Y101.961 E0.01755
G1 X92.250 Y101.666 E0.01000
G1 X95.228 Y104.644 E0.13793
G1 X95.528 Y104.594 E0.00996
G1 X95.680 Y104.539 E0.00529
G1 X92.113 Y100.972 E0.16518
G1 X92.045 Y100.347 E0.02059
G1 X96.062 Y104.364 E0.18604
G1 X96.390 Y104.135 E0.01310
G1 X92.021 Y99.766 E0.20235
G1 X92.037 Y99.225 E0.01771
G1 X96.671 Y103.859 E0.21462
G1 X96.925 Y103.556 E0.01295
G1 X92.073 Y98.705 E0.22467
G1 X92.148 Y98.222 E0.01598
G1 X97.147 Y103.221 E0.23149
G1 X97.336 Y102.853 E0.01355
G1 X92.241 Y97.758 E0.23592
G1 X92.354 Y97.315 E0.01499
G1 X97.499 Y102.460 E0.23826
G1 X97.645 Y102.048 E0.01429
G1 X92.503 Y96.906 E0.23812
G1 X92.663 Y96.510 E0.01400
G1 X97.758 Y101.605 E0.23594
G1 X97.858 Y101.148 E0.01532
G1 X92.861 Y96.151 E0.23140
G1 X93.075 Y95.808 E0.01324
G1 X97.918 Y100.651 E0.22428
G1 X97.968 Y100.144 E0.01668
G1 X93.331 Y95.506 E0.21477
G1 X93.612 Y95.230 E0.01290
G1 X97.978 Y99.597 E0.20220
G1 X97.955 Y99.017 E0.01900
G1 X93.945 Y95.007 E0.18568
G1 X94.127 Y94.901 E0.00690
G1 X94.318 Y94.823 E0.00675
G1 X97.885 Y98.390 E0.16518
G1 X97.750 Y97.698 E0.02307
G1 X94.768 Y94.716 E0.13809
G1 X95.122 Y94.710 E0.01157
G1 X95.347 Y94.738 E0.00745
G1 X97.774 Y97.165 E0.11237
G1 F5760
G1 X96.222 Y95.613 E-0.76000
G1 E-0.04000 F2100.00000
G1 Z0.800 F7200.000
G1 X97.374 Y96.208 F7200.000
G1 Z0.200 F7200.000
G1 E0.80000 F2100.00000
G1 F900
G1 X95.885 Y94.719 E0.06895
G1 F5760
G1 X97.374 Y96.208 E-0.72932
G1 E-0.07068 F2100.00000
G1 Z0.800 F7200.000
G1 X92.623 Y103.153 F7200.000
G1 Z0.200 F7200.000
G1 E0.80000 F2100.00000
G1 F900
G1 X94.114 Y104.643 E0.06903
M106 S255
;BEFORE_LAYER_CHANGE
;0.5


G1 F5760
G1 X92.623 Y103.153 E-0.73016
G1 E-0.06984 F2100.00000
G1 Z0.800 F7200.000
;AFTER_LAYER_CHANGE
;0.5
G1 X102.201 Y102.306 F7200.000
G1 Z0.500 F7200.000
G1 E0.80000 F2100.00000
M204 S800
G1 F1033
G1 X102.022 Y101.680 E0.03131
G1 X101.928 Y101.229 E0.02218
G1 X101.856 Y100.731 E0.02421
G1 X101.807 Y100.088 E0.03098
G1 X101.801 Y99.371 E0.03453
G1 X101.845 Y98.743 E0.03025
G1 X101.914 Y98.222 E0.02530
G1 X102.009 Y97.742 E0.02351
G1 X102.119 Y97.321 E0.02094
