; generated by Slic3r Prusa Edition 1.39.1-prusa3d on 2018-04-22 at 18:20:57

; 

; external perimeters extrusion width = 0.45mm
; perimeters extrusion width = 0.45mm
; infill extrusion width = 0.45mm
; solid infill extrusion width = 0.45mm
; top infill extrusion width = 0.33mm
; first layer extrusion width = 0.42mm

M107
M115 U3.1.0 ; tell printer latest fw version
M201 X9000 Y9000 Z500 E10000 ; sets maximum accelerations, mm/sec^2
M203 X500 Y500 Z12 E120 ; sets maximum feedrates, mm/sec
M204 S1500 T1500 ; sets acceleration (S) and retract acceleration (T)
M205 X10 Y10 Z0.2 E2.5 ; sets the jerk limits, mm/sec
M205 S0 T0 ; sets the minimum extruding and travel feed rate, mm/sec
M83  ; extruder relative mode
M104 S215 ; set extruder temp
M140 S60 ; set bed temp
M190 S60 ; wait for bed temp
M109 S215 ; wait for extruder temp
G28 W ; home all without mesh bed level
G80 ; mesh bed leveling
G1 Y-3.0 F1000.0 ; go outside print area
G92 E0.0
G1 E18.0 F1000.0;
G1 X60.0 E9.0  F1000.0 ; intro line
G1 X100.0 E12.5  F1000.0 ; intro line
G92 E0.0
M900 K30; Filament gcode
G21 ; set units to millimeters
G90 ; use absolute coordinates
M83 ; use relative distances for extrusion
;BEFORE_LAYER_CHANGE
;0.2


G1 E-0.80000 F2100.00000
G1 Z0.600 F7200.000
;AFTER_LAYER_CHANGE
;0.2
G1 X113.469 Y89.177 F7200.000
G1 Z0.200 F7200.000
G1 E0.80000 F2100.00000
M204 S1000
G1 F900
G1 X113.802 Y88.807 E0.01562
G1 X114.208 Y88.512 E0.01574
G1 X114.664 Y88.311 E0.01562
G1 X115.155 Y88.209 E0.01574
G1 X140.611 Y86.453 E0.80006
G1 X141.489 Y86.622 E0.02802
G1 X142.242 Y87.103 E0.02802
G1 X142.764 Y87.828 E0.02802
G1 X142.981 Y88.695 E0.02802
G1 X142.985 Y119.256 E0.95824
G1 X142.864 Y119.971 E0.02272
G1 X142.531 Y120.619 E0.02284
G1 X142.192 Y120.994 E0.01585
G1 X141.778 Y121.291 E0.01597
G1 X141.314 Y121.492 E0.01585
G1 X140.814 Y121.590 E0.01597
G1 X115.526 Y123.544 E0.79527
G1 X114.720 Y123.451 E0.02543
G1 X113.996 Y123.094 E0.02532
G1 X108.715 Y117.805 E0.23433
G1 X108.177 Y117.179 E0.02590
G1 X107.722 Y116.465 E0.02655
G1 X107.358 Y115.646 E0.02810
G1 X107.087 Y114.580 E0.03449
G1 X107.015 Y113.709 E0.02738
G1 X107.032 Y112.223 E0.04660
G1 X107.234 Y111.084 E0.03628
G1 X113.106 Y89.923 E0.68854
G1 X113.442 Y89.231 E0.02414
G1 F5760
G1 X113.802 Y88.807 E-0.19256
G1 F5760
G1 X114.208 Y88.512 E-0.17382
G1 F5760
G1 X114.664 Y88.311 E-0.17251
G1 F5760
G1 X115.155 Y88.209 E-0.17382
G1 F5760
G1 X115.291 Y88.199 E-0.04729
G1 E-0.04000 F2100.00000
G1 Z0.800 F7200.000
G1 X115.979 Y110.583 F7200.000
G1 Z0.200 F7200.000
G1 E0.80000 F2100.00000
G1 F900
G1 X115.979 Y115.759 E0.16228
G1 X112.183 Y115.749 E0.11901
G1 X111.802 Y115.646 E0.01240
G1 X111.581 Y115.537 E0.00773
G1 X111.282 Y115.308 E0.01181
G1 X111.119 Y115.123 E0.00773
G1 X110.931 Y114.797 E0.01181
G1 X110.852 Y114.563 E0.00773
G1 X110.805 Y114.209 E0.01120
G1 X110.805 Y112.132 E0.06512
G1 X110.854 Y111.758 E0.01182
G1 X111.006 Y111.392 E0.01242
G1 X111.143 Y111.187 E0.00773
G1 X111.423 Y110.907 E0.01242
G1 X111.766 Y110.709 E0.01242
G1 X111.999 Y110.630 E0.00773
G1 X112.354 Y110.583 E0.01120
G1 X115.919 Y110.583 E0.11180
G1 X115.602 Y110.960 F7200.000
G1 F900
G1 X115.602 Y115.381 E0.13860
G1 X112.234 Y115.372 E0.10562
G1 X111.935 Y115.292 E0.00969
G1 X111.781 Y115.216 E0.00540
G1 X111.541 Y115.032 E0.00948
G1 X111.427 Y114.902 E0.00540
G1 X111.276 Y114.640 E0.00948
G1 X111.221 Y114.477 E0.00540
G1 X111.182 Y114.184 E0.00927
G1 X111.182 Y112.157 E0.06357
G1 X111.222 Y111.857 E0.00948
G1 X111.340 Y111.571 E0.00970
G1 X111.436 Y111.428 E0.00540
G1 X111.654 Y111.209 E0.00970
G1 X111.922 Y111.054 E0.00970
G1 X112.085 Y110.999 E0.00540
G1 X112.378 Y110.960 E0.00927
G1 X115.542 Y110.960 E0.09920
G1 X116.002 Y110.959 F7200.000
G1 F5760
G1 X115.572 Y113.154 E-0.76000
G1 E-0.04000 F2100.00000
G1 Z0.800 F7200.000
G1 X136.872 Y97.849 F7200.000
G1 Z0.200 F7200.000
G1 E0.80000 F2100.00000
G1 F900
G1 X115.949 Y119.738 E0.94943
G1 X115.890 Y119.351 E0.01228
G1 X115.733 Y118.842 E0.01671
G1 X115.503 Y118.362 E0.01668
G1 X115.208 Y117.927 E0.01647
G1 X115.015 Y117.703 E0.00927
G1 X114.646 Y117.360 E0.01581
G1 X114.408 Y117.183 E0.00930
G1 X113.972 Y116.930 E0.01579
G1 X113.700 Y116.810 E0.00932
G1 X113.193 Y116.653 E0.01665
G1 X112.249 Y116.511 E0.02992
G1 X112.068 Y116.464 E0.00585
G1 X111.671 Y116.313 E0.01331
G1 X111.309 Y116.114 E0.01295
G1 X110.986 Y115.872 E0.01267
G1 X110.687 Y115.571 E0.01330
G1 X110.439 Y115.239 E0.01298
G1 X110.242 Y114.876 E0.01298
G1 X110.098 Y114.488 E0.01298
G1 X110.008 Y114.073 E0.01330
G1 X109.988 Y113.886 E0.00590
G1 X109.979 Y112.689 E0.03752
G1 X110.011 Y112.247 E0.01390
G1 X110.044 Y112.064 E0.00585
G1 X110.159 Y111.667 E0.01294
G1 X110.335 Y111.279 E0.01336
G1 X110.557 Y110.931 E0.01295
G1 X110.827 Y110.618 E0.01298
G1 X111.139 Y110.346 E0.01298
G1 X111.495 Y110.115 E0.01330
G1 X111.662 Y110.031 E0.00584
G1 X112.058 Y109.881 E0.01330
G1 X112.473 Y109.788 E0.01332
G1 X112.952 Y109.733 E0.01513
G1 X113.463 Y109.615 E0.01642
G1 X113.940 Y109.426 E0.01610
G1 X114.197 Y109.290 E0.00912
G1 X114.628 Y108.996 E0.01635
G1 X115.027 Y108.626 E0.01705
G1 X115.354 Y108.215 E0.01649
G1 X115.508 Y107.969 E0.00909
G1 X115.732 Y107.504 E0.01619
G1 X115.891 Y106.986 E0.01699
G1 X115.969 Y106.474 E0.01623
G1 X115.979 Y106.201 E0.00856
G1 X115.979 Y91.161 E0.47158
G1 X119.128 Y91.161 E0.09874
G1 X119.128 Y112.092 E0.65630
G1 X140.021 Y90.291 E0.94678
G1 X140.021 Y118.635 E0.88872
G1 X136.872 Y118.635 E0.09874
G1 X136.872 Y97.909 E0.64985
G1 X136.495 Y98.789 F7200.000
G1 F900
G1 X115.599 Y120.650 E0.94820
G1 X115.594 Y119.914 E0.02308
G1 X115.522 Y119.435 E0.01519
G1 X115.381 Y118.980 E0.01494
G1 X115.175 Y118.551 E0.01492
G1 X114.908 Y118.157 E0.01492
G1 X114.743 Y117.965 E0.00794
G1 X114.404 Y117.650 E0.01450
G1 X114.200 Y117.498 E0.00797
G1 X113.801 Y117.267 E0.01448
G1 X113.568 Y117.164 E0.00799
G1 X113.108 Y117.021 E0.01508
G1 X112.173 Y116.881 E0.02965
G1 X111.954 Y116.823 E0.00711
G1 X111.513 Y116.657 E0.01478
G1 X111.110 Y116.435 E0.01440
G1 X110.733 Y116.152 E0.01480
G1 X110.400 Y115.818 E0.01478
G1 X110.121 Y115.443 E0.01466
G1 X109.898 Y115.032 E0.01466
G1 X109.735 Y114.594 E0.01466
G1 X109.635 Y114.133 E0.01478
G1 X109.611 Y113.907 E0.00712
G1 X109.602 Y112.677 E0.03857
G1 X109.636 Y112.200 E0.01499
G1 X109.676 Y111.977 E0.00710
G1 X109.805 Y111.536 E0.01440
G1 X110.002 Y111.099 E0.01505
G1 X110.254 Y110.705 E0.01465
G1 X110.559 Y110.351 E0.01466
G1 X110.912 Y110.044 E0.01466
G1 X111.307 Y109.788 E0.01478
G1 X111.509 Y109.685 E0.00710
G1 X111.950 Y109.519 E0.01478
G1 X112.410 Y109.416 E0.01478
G1 X112.888 Y109.361 E0.01507
G1 X113.350 Y109.254 E0.01487
G1 X113.782 Y109.083 E0.01458
G1 X114.002 Y108.967 E0.00780
G1 X114.392 Y108.701 E0.01480
G1 X114.749 Y108.370 E0.01527
G1 X115.045 Y107.997 E0.01493
G1 X115.177 Y107.787 E0.00777
G1 X115.380 Y107.365 E0.01466
G1 X115.523 Y106.902 E0.01522
G1 X115.593 Y106.438 E0.01469
G1 X115.602 Y106.194 E0.00767
G1 X115.602 Y90.784 E0.48317
G1 X119.505 Y90.784 E0.12238
G1 X119.505 Y111.154 E0.63870
G1 X140.398 Y89.352 E0.94678
G1 X140.398 Y119.012 E0.92997
G1 X136.495 Y119.012 E0.12238
G1 X136.495 Y98.849 E0.63219
G1 X136.268 Y98.460 F7200.000
G1 F5760
G1 X134.976 Y100.433 E-0.76000
G1 E-0.04000 F2100.00000
G1 Z0.800 F7200.000
G1 X136.748 Y97.815 F7200.000
G1 Z0.200 F7200.000
G1 E0.80000 F2100.00000
G1 F900
G1 X134.937 Y96.004 E0.08083
G1 X134.675 Y96.278 E0.01198
G1 X136.366 Y97.969 E0.07548
G1 X136.103 Y98.244 E0.01198
G1 X134.412 Y96.552 E0.07550
G1 X134.149 Y96.827 E0.01198
G1 X135.841 Y98.518 E0.07551
G1 X135.579 Y98.793 E0.01198
G1 X133.886 Y97.101 E0.07553
G1 X133.624 Y97.375 E0.01198
G1 X135.316 Y99.067 E0.07554
G1 X135.054 Y99.342 E0.01198
G1 X133.361 Y97.649 E0.07556
G1 X133.098 Y97.923 E0.01198
G1 X134.791 Y99.616 E0.07557
G1 X134.529 Y99.891 E0.01198
G1 X132.836 Y98.197 E0.07559
G1 X132.573 Y98.471 E0.01198
G1 X134.267 Y100.165 E0.07561
G1 X134.004 Y100.440 E0.01198
G1 X132.310 Y98.746 E0.07562
G1 X132.048 Y99.020 E0.01198
G1 X133.742 Y100.714 E0.07564
G1 X133.480 Y100.989 E0.01198
G1 X131.785 Y99.294 E0.07565
G1 X131.522 Y99.568 E0.01198
G1 X133.217 Y101.263 E0.07567
G1 X132.955 Y101.538 E0.01198
G1 X131.260 Y99.842 E0.07568
G1 X130.997 Y100.116 E0.01198
G1 X132.693 Y101.812 E0.07570
G1 X132.430 Y102.086 E0.01198
G1 X130.734 Y100.390 E0.07571
G1 X130.471 Y100.664 E0.01198
G1 X132.168 Y102.361 E0.07573
G1 X131.906 Y102.635 E0.01198
G1 X130.209 Y100.939 E0.07574
G1 X129.946 Y101.213 E0.01198
G1 X131.643 Y102.910 E0.07576
G1 X131.381 Y103.184 E0.01198
G1 X129.683 Y101.487 E0.07577
G1 X129.421 Y101.761 E0.01198
G1 X131.119 Y103.459 E0.07579
G1 X130.856 Y103.733 E0.01198
G1 X129.158 Y102.035 E0.07580
G1 X128.895 Y102.309 E0.01198
G1 X130.594 Y104.008 E0.07582
G1 X130.331 Y104.282 E0.01198
G1 X128.633 Y102.583 E0.07583
G1 X128.370 Y102.857 E0.01198
G1 X130.069 Y104.557 E0.07585
G1 X129.807 Y104.831 E0.01198
G1 X128.107 Y103.132 E0.07587
G1 X127.844 Y103.406 E0.01198
G1 X129.544 Y105.106 E0.07588
G1 X129.282 Y105.380 E0.01198
G1 X127.582 Y103.680 E0.07590
G1 X127.319 Y103.954 E0.01198
G1 X129.020 Y105.655 E0.07591
G1 X128.757 Y105.929 E0.01198
G1 X127.056 Y104.228 E0.07593
G1 X126.794 Y104.502 E0.01198
G1 X128.495 Y106.204 E0.07594
G1 X128.233 Y106.478 E0.01198
G1 X126.531 Y104.776 E0.07596
G1 X126.268 Y105.050 E0.01198
G1 X127.970 Y106.752 E0.07597
G1 X127.708 Y107.027 E0.01198
G1 X126.006 Y105.325 E0.07599
G1 X125.743 Y105.599 E0.01198
G1 X127.446 Y107.301 E0.07600
G1 X127.183 Y107.576 E0.01198
G1 X125.480 Y105.873 E0.07602
G1 X125.217 Y106.147 E0.01198
G1 X126.921 Y107.850 E0.07603
G1 X126.658 Y108.125 E0.01198
G1 X124.955 Y106.421 E0.07605
G1 X124.692 Y106.695 E0.01198
G1 X126.396 Y108.399 E0.07606
G1 X126.134 Y108.674 E0.01198
G1 X124.429 Y106.969 E0.07608
G1 X124.167 Y107.244 E0.01198
G1 X125.871 Y108.948 E0.07609
G1 X125.609 Y109.223 E0.01198
G1 X123.904 Y107.518 E0.07611
G1 X123.641 Y107.792 E0.01198
G1 X125.347 Y109.497 E0.07612
G1 X125.084 Y109.772 E0.01198
G1 X123.379 Y108.066 E0.07614
G1 X123.116 Y108.340 E0.01198
G1 X124.822 Y110.046 E0.07616
G1 X124.560 Y110.321 E0.01198
G1 X122.853 Y108.614 E0.07617
G1 X122.590 Y108.888 E0.01198
G1 X124.297 Y110.595 E0.07619
G1 X124.035 Y110.870 E0.01198
G1 X122.328 Y109.162 E0.07620
G1 X122.065 Y109.437 E0.01198
G1 X123.773 Y111.144 E0.07622
G1 X123.510 Y111.418 E0.01198
G1 X121.802 Y109.711 E0.07623
G1 X121.540 Y109.985 E0.01198
G1 X123.248 Y111.693 E0.07625
G1 X122.985 Y111.967 E0.01198
G1 X121.277 Y110.259 E0.07626
G1 X121.014 Y110.533 E0.01198
G1 X122.723 Y112.242 E0.07628
G1 X122.461 Y112.516 E0.01198
G1 X120.752 Y110.807 E0.07629
G1 X120.489 Y111.081 E0.01198
G1 X122.198 Y112.791 E0.07631
G1 X121.936 Y113.065 E0.01198
G1 X120.226 Y111.355 E0.07632
G1 X119.964 Y111.630 E0.01198
G1 X121.674 Y113.340 E0.07634
G1 X121.411 Y113.614 E0.01198
G1 X119.701 Y111.904 E0.07635
G1 X119.438 Y112.178 E0.01198
G1 X121.149 Y113.889 E0.07637
G1 X120.887 Y114.163 E0.01198
G1 X119.055 Y112.332 E0.08174
G1 F5760
G1 X120.607 Y113.884 E-0.76000
G1 E-0.04000 F2100.00000
G1 Z0.800 F7200.000
G1 X120.220 Y115.107 F7200.000
G1 Z0.200 F7200.000
G1 E0.80000 F2100.00000
G1 F900
G1 X116.262 Y111.149 E0.17666
G1 X116.262 Y111.686 E0.01694
G1 X119.837 Y115.261 E0.15959
G1 X119.575 Y115.536 E0.01198
G1 X116.262 Y112.223 E0.14788
G1 X116.262 Y112.759 E0.01694
G1 X119.313 Y115.810 E0.13617
G1 X119.050 Y116.085 E0.01198
G1 X116.262 Y113.296 E0.12446
G1 X116.262 Y113.833 E0.01694
G1 X118.788 Y116.359 E0.11275
G1 X118.525 Y116.633 E0.01198
G1 X116.262 Y114.370 E0.10104
G1 X116.262 Y114.907 E0.01694
G1 X118.263 Y116.908 E0.08933
G1 X118.001 Y117.182 E0.01198
G1 X116.262 Y115.444 E0.07761
G1 X116.262 Y115.980 E0.01694
G1 X117.738 Y117.457 E0.06590
G1 X117.476 Y117.731 E0.01198
G1 X115.786 Y116.041 E0.07544
G1 X115.248 Y116.040 E0.01699
G1 X117.214 Y118.006 E0.08775
G1 X116.951 Y118.280 E0.01198
G1 X114.709 Y116.038 E0.10007
G1 X114.171 Y116.037 E0.01699
G1 X116.689 Y118.555 E0.11239
G1 X116.427 Y118.829 E0.01198
G1 X113.633 Y116.035 E0.12471
G1 X113.095 Y116.034 E0.01699
G1 X113.518 Y116.458 E0.01891
G1 X113.256 Y116.376 E0.00867
G1 X112.837 Y116.313 E0.01337
G1 X112.386 Y115.862 E0.02013
G1 X112.083 Y116.089 F7200.000
G1 F900
G1 X111.814 Y116.003 E0.00743
G1 F900
G1 X111.699 Y115.957 E0.00315
G1 F900
G1 X111.478 Y115.843 E0.00570
G1 F900
G1 X111.425 Y115.811 E0.00134
G1 F900
G1 X111.082 Y115.538 E0.00920
G1 F900
G1 X110.876 Y115.311 E0.00587
G1 X110.643 Y114.941 E0.00838
G1 X110.523 Y114.655 E0.00595
G1 X110.463 Y114.417 E0.00471
G1 F5760
G1 X110.523 Y114.655 E-0.08510
G1 F5760
G1 X110.643 Y114.941 E-0.10746
G1 F5760
G1 X110.876 Y115.311 E-0.15145
G1 F5760
G1 X111.082 Y115.538 E-0.10603
G1 E-0.34995 F2100.00000
G1 Z0.800 F7200.000
G1 X110.098 Y113.457 F7200.000
G1 Z0.200 F7200.000
G1 E0.80000 F2100.00000
G1 F900
G1 X110.522 Y113.881 E0.02022
G1 X110.522 Y113.308 E0.01930
G1 X110.265 Y113.051 E0.01227
G1 X110.277 Y112.490 E0.01889
G1 X110.692 Y112.905 E0.01977
G1 F5760
G1 X110.277 Y112.490 E-0.20323
G1 F5760
G1 X110.265 Y113.051 E-0.19421
G1 F5760
G1 X110.522 Y113.308 E-0.12615
G1 F5760
G1 X110.522 Y113.881 E-0.19844
G1 F5760
G1 X110.445 Y113.804 E-0.03797
G1 E-0.04000 F2100.00000
G1 Z0.800 F7200.000
G1 X110.463 Y111.896 F7200.000
G1 Z0.200 F7200.000
G1 E0.80000 F2100.00000
G1 F900
G1 X110.534 Y111.653 E0.00492
G1 X110.735 Y111.234 E0.00902
G1 X110.914 Y110.985 E0.00595
G1 X111.249 Y110.655 E0.00912
G1 F900
G1 X111.329 Y110.598 E0.00208
G1 F900
G1 X111.620 Y110.420 E0.00766
G1 F900
G1 X111.659 Y110.400 E0.00101
G1 F900
G1 X111.798 Y110.341 E0.00376
G1 F900
G1 X111.936 Y110.293 E0.00374
G1 F900
G1 X112.146 Y110.240 E0.00576
G1 X112.359 Y109.930 F7200.000
G1 F900
G1 X112.729 Y110.301 E0.01655
G1 X113.266 Y110.301 E0.01694
G1 X112.981 Y110.015 E0.01275
G1 X113.418 Y109.916 E0.01416
G1 X113.803 Y110.301 E0.01719
G1 X114.340 Y110.301 E0.01694
G1 X113.818 Y109.779 E0.02330
G1 X114.190 Y109.614 E0.01285
G1 X114.877 Y110.301 E0.03064
G1 X115.413 Y110.301 E0.01694
G1 X114.523 Y109.410 E0.03974
G1 X114.838 Y109.188 E0.01216
G1 X120.362 Y114.712 E0.24659
G1 X120.624 Y114.438 E0.01198
G1 X115.116 Y108.929 E0.24588
G1 X115.235 Y108.819 E0.00512
G1 X115.371 Y108.648 E0.00691
G1 X118.845 Y112.122 E0.15509
G1 X118.845 Y111.585 E0.01694
G1 X115.606 Y108.345 E0.14462
G1 X115.803 Y108.006 E0.01239
G1 X118.845 Y111.048 E0.13579
G1 X118.845 Y110.512 E0.01694
G1 X115.978 Y107.644 E0.12800
G1 X116.109 Y107.239 E0.01345
G1 X118.845 Y109.975 E0.12214
G1 X118.845 Y109.438 E0.01694
G1 X116.206 Y106.798 E0.11783
G1 X116.251 Y106.500 E0.00950
G1 X116.258 Y106.313 E0.00591
G1 X118.845 Y108.901 E0.11551
G1 X118.845 Y108.364 E0.01694
G1 X116.262 Y105.781 E0.11532
G1 X116.262 Y105.244 E0.01694
G1 X118.845 Y107.827 E0.11532
G1 X118.845 Y107.291 E0.01694
G1 X116.262 Y104.707 E0.11532
G1 X116.262 Y104.170 E0.01694
G1 X118.845 Y106.754 E0.11532
G1 X118.845 Y106.217 E0.01694
G1 X116.262 Y103.633 E0.11532
G1 X116.262 Y103.097 E0.01694
G1 X118.845 Y105.680 E0.11532
G1 X118.845 Y105.143 E0.01694
G1 X116.262 Y102.560 E0.11532
G1 X116.262 Y102.023 E0.01694
G1 X118.845 Y104.606 E0.11532
G1 X118.845 Y104.070 E0.01694
G1 X116.262 Y101.486 E0.11532
G1 X116.262 Y100.949 E0.01694
G1 X118.845 Y103.533 E0.11532
G1 X118.845 Y102.996 E0.01694
G1 X116.262 Y100.412 E0.11532
G1 X116.262 Y99.876 E0.01694
G1 X118.845 Y102.459 E0.11532
G1 X118.845 Y101.922 E0.01694
G1 X116.262 Y99.339 E0.11532
G1 X116.262 Y98.802 E0.01694
G1 X118.845 Y101.385 E0.11532
G1 X118.845 Y100.849 E0.01694
G1 X116.262 Y98.265 E0.11532
G1 X116.262 Y97.728 E0.01694
G1 X118.845 Y100.312 E0.11532
G1 X118.845 Y99.775 E0.01694
G1 X116.262 Y97.192 E0.11532
G1 X116.262 Y96.655 E0.01694
G1 X118.845 Y99.238 E0.11532
G1 X118.845 Y98.701 E0.01694
G1 X116.262 Y96.118 E0.11532
G1 X116.262 Y95.581 E0.01694
G1 X118.845 Y98.165 E0.11532
G1 X118.845 Y97.628 E0.01694
G1 X116.262 Y95.044 E0.11532
G1 X116.262 Y94.507 E0.01694
G1 X118.845 Y97.091 E0.11532
G1 X118.845 Y96.554 E0.01694
G1 X116.262 Y93.971 E0.11532
G1 X116.262 Y93.434 E0.01694
G1 X118.845 Y96.017 E0.11532
G1 X118.845 Y95.480 E0.01694
