; generated by Slic3r Prusa Edition 1.39.1-prusa3d on 2018-05-09 at 12:53:30

; 

; external perimeters extrusion width = 0.45mm
; perimeters extrusion width = 0.45mm
; infill extrusion width = 0.45mm
; solid infill extrusion width = 0.45mm
; top infill extrusion width = 0.33mm
; first layer extrusion width = 0.42mm

M107
M115 U3.1.0 ; tell printer latest fw version
M201 X9000 Y9000 Z500 E10000 ; sets maximum accelerations, mm/sec^2
M203 X500 Y500 Z12 E120 ; sets maximum feedrates, mm/sec
M204 S1500 T1500 ; sets acceleration (S) and retract acceleration (T)
M205 X10 Y10 Z0.2 E2.5 ; sets the jerk limits, mm/sec
M205 S0 T0 ; sets the minimum extruding and travel feed rate, mm/sec
M83  ; extruder relative mode
M104 S200 ; set extruder temp
M140 S65 ; set bed temp
M190 S65 ; wait for bed temp
M109 S200 ; wait for extruder temp
G28 W ; home all without mesh bed level
G80 ; mesh bed leveling
G1 Y-3.0 F1000.0 ; go outside print area
G92 E0.0
G1 E18.0 F1000.0;
G1 X60.0 E9.0  F1000.0 ; intro line
G1 X100.0 E12.5  F1000.0 ; intro line
G92 E0.0
M900 K30; Filament gcode
G21 ; set units to millimeters
G90 ; use absolute coordinates
M83 ; use relative distances for extrusion
;BEFORE_LAYER_CHANGE
;0.2


G1 E-0.80000 F2100.00000
G1 Z0.600 F7200.000
;AFTER_LAYER_CHANGE
;0.2
G1 X88.469 Y84.177 F7200.000
G1 Z0.200 F7200.000
G1 E0.80000 F2100.00000
M204 S1000
G1 F900
G1 X88.802 Y83.807 E0.01562
G1 X89.208 Y83.512 E0.01574
G1 X89.664 Y83.311 E0.01562
G1 X90.155 Y83.209 E0.01574
G1 X115.611 Y81.453 E0.80006
G1 X116.489 Y81.622 E0.02802
G1 X117.242 Y82.103 E0.02802
G1 X117.764 Y82.828 E0.02802
G1 X117.981 Y83.695 E0.02802
G1 X117.985 Y114.256 E0.95824
G1 X117.864 Y114.971 E0.02272
G1 X117.531 Y115.619 E0.02284
G1 X117.192 Y115.994 E0.01585
G1 X116.778 Y116.291 E0.01597
G1 X116.314 Y116.492 E0.01585
G1 X115.814 Y116.590 E0.01597
G1 X90.526 Y118.544 E0.79527
G1 X89.724 Y118.452 E0.02532
G1 X88.996 Y118.094 E0.02543
G1 X83.715 Y112.805 E0.23433
G1 X83.177 Y112.179 E0.02590
G1 X82.720 Y111.461 E0.02667
G1 X82.358 Y110.646 E0.02798
G1 X82.087 Y109.580 E0.03448
G1 X82.015 Y108.709 E0.02738
G1 X82.032 Y107.223 E0.04660
G1 X82.234 Y106.084 E0.03628
G1 X88.106 Y84.923 E0.68854
G1 X88.442 Y84.231 E0.02414
G1 F5760
G1 X88.802 Y83.807 E-0.19256
G1 F5760
G1 X89.208 Y83.512 E-0.17382
G1 F5760
G1 X89.664 Y83.311 E-0.17251
G1 F5760
G1 X90.155 Y83.209 E-0.17382
G1 F5760
G1 X90.291 Y83.199 E-0.04729
G1 E-0.04000 F2100.00000
G1 Z0.800 F7200.000
G1 X90.979 Y105.583 F7200.000
G1 Z0.200 F7200.000
G1 E0.80000 F2100.00000
G1 F900
G1 X90.979 Y110.759 E0.16228
G1 X87.183 Y110.749 E0.11901
G1 X86.802 Y110.646 E0.01240
G1 X86.581 Y110.537 E0.00773
G1 X86.282 Y110.308 E0.01181
G1 X86.118 Y110.122 E0.00777
G1 X85.918 Y109.772 E0.01264
G1 X85.819 Y109.397 E0.01217
G1 X85.805 Y109.190 E0.00650
G1 X85.805 Y107.132 E0.06452
G1 X85.854 Y106.758 E0.01182
G1 X86.006 Y106.392 E0.01242
G1 X86.143 Y106.187 E0.00773
G1 X86.409 Y105.921 E0.01181
G1 X86.614 Y105.784 E0.00773
G1 X86.980 Y105.633 E0.01242
G1 X87.354 Y105.583 E0.01181
G1 X90.919 Y105.583 E0.11180
G1 X90.602 Y105.960 F7200.000
G1 F900
G1 X90.602 Y110.381 E0.13860
G1 X87.234 Y110.372 E0.10562
G1 X86.935 Y110.292 E0.00969
G1 X86.781 Y110.216 E0.00540
G1 X86.541 Y110.032 E0.00948
G1 X86.427 Y109.902 E0.00541
G1 X86.270 Y109.627 E0.00991
G1 X86.192 Y109.335 E0.00948
G1 X86.182 Y109.177 E0.00496
G1 X86.182 Y107.157 E0.06336
G1 X86.222 Y106.857 E0.00948
G1 X86.340 Y106.571 E0.00970
G1 X86.436 Y106.428 E0.00540
G1 X86.649 Y106.214 E0.00948
G1 X86.793 Y106.118 E0.00540
G1 X87.078 Y106.000 E0.00970
G1 X87.378 Y105.960 E0.00948
G1 X90.542 Y105.960 E0.09920
G1 X91.002 Y105.959 F7200.000
G1 F5760
G1 X90.572 Y108.154 E-0.76000
G1 E-0.04000 F2100.00000
G1 Z0.800 F7200.000
G1 X111.872 Y92.849 F7200.000
G1 Z0.200 F7200.000
G1 E0.80000 F2100.00000
G1 F900
G1 X90.949 Y114.738 E0.94943
G1 X90.890 Y114.351 E0.01228
G1 X90.733 Y113.842 E0.01671
G1 X90.503 Y113.362 E0.01668
G1 X90.208 Y112.927 E0.01647
G1 X90.015 Y112.703 E0.00927
G1 X89.646 Y112.360 E0.01581
G1 X89.408 Y112.183 E0.00930
G1 X88.972 Y111.930 E0.01579
G1 X88.700 Y111.810 E0.00932
G1 X88.193 Y111.653 E0.01665
G1 X87.259 Y111.512 E0.02960
G1 X86.863 Y111.394 E0.01296
G1 X86.679 Y111.318 E0.00623
G1 X86.309 Y111.114 E0.01324
G1 X85.986 Y110.872 E0.01267
G1 X85.687 Y110.571 E0.01330
G1 X85.439 Y110.239 E0.01298
G1 X85.242 Y109.876 E0.01298
G1 X85.098 Y109.488 E0.01298
G1 X85.008 Y109.073 E0.01330
G1 X84.988 Y108.886 E0.00590
G1 X84.979 Y107.689 E0.03752
G1 X85.010 Y107.258 E0.01357
G1 X85.100 Y106.843 E0.01330
G1 X85.159 Y106.666 E0.00584
G1 X85.334 Y106.280 E0.01330
G1 X85.557 Y105.931 E0.01298
G1 X85.827 Y105.618 E0.01298
G1 X86.139 Y105.346 E0.01298
G1 X86.495 Y105.115 E0.01330
G1 X86.662 Y105.031 E0.00584
G1 X87.058 Y104.881 E0.01330
G1 X87.473 Y104.788 E0.01332
G1 X87.952 Y104.733 E0.01513
G1 X88.463 Y104.615 E0.01642
G1 X88.940 Y104.426 E0.01610
G1 X89.197 Y104.290 E0.00912
G1 X89.628 Y103.996 E0.01635
G1 X90.027 Y103.626 E0.01705
G1 X90.354 Y103.215 E0.01649
G1 X90.508 Y102.969 E0.00909
G1 X90.732 Y102.504 E0.01619
G1 X90.891 Y101.986 E0.01699
G1 X90.969 Y101.474 E0.01623
G1 X90.979 Y101.201 E0.00856
G1 X90.979 Y86.161 E0.47158
G1 X94.128 Y86.161 E0.09874
G1 X94.128 Y107.092 E0.65630
G1 X115.021 Y85.291 E0.94678
G1 X115.021 Y113.635 E0.88872
G1 X111.872 Y113.635 E0.09874
G1 X111.872 Y92.909 E0.64985
G1 X111.495 Y93.789 F7200.000
G1 F900
G1 X90.599 Y115.650 E0.94820
G1 X90.594 Y114.914 E0.02308
G1 X90.522 Y114.435 E0.01519
G1 X90.381 Y113.980 E0.01494
G1 X90.175 Y113.551 E0.01492
G1 X89.908 Y113.157 E0.01492
G1 X89.743 Y112.965 E0.00794
G1 X89.404 Y112.650 E0.01450
G1 X89.200 Y112.498 E0.00797
G1 X88.801 Y112.267 E0.01448
G1 X88.568 Y112.164 E0.00799
G1 X88.108 Y112.021 E0.01508
G1 X87.177 Y111.881 E0.02954
G1 X86.736 Y111.750 E0.01440
G1 X86.516 Y111.658 E0.00749
G1 X86.110 Y111.435 E0.01451
G1 X85.733 Y111.152 E0.01480
G1 X85.400 Y110.818 E0.01478
G1 X85.121 Y110.443 E0.01466
G1 X84.898 Y110.032 E0.01466
G1 X84.735 Y109.594 E0.01466
G1 X84.635 Y109.133 E0.01478
G1 X84.611 Y108.907 E0.00712
G1 X84.602 Y107.677 E0.03857
G1 X84.636 Y107.204 E0.01487
G1 X84.736 Y106.743 E0.01478
G1 X84.807 Y106.528 E0.00710
G1 X85.002 Y106.099 E0.01478
G1 X85.254 Y105.705 E0.01466
G1 X85.559 Y105.351 E0.01466
G1 X85.912 Y105.044 E0.01466
G1 X86.307 Y104.788 E0.01478
G1 X86.509 Y104.685 E0.00710
G1 X86.950 Y104.519 E0.01478
G1 X87.410 Y104.416 E0.01478
G1 X87.888 Y104.361 E0.01507
G1 X88.350 Y104.254 E0.01487
G1 X88.782 Y104.083 E0.01458
G1 X89.002 Y103.967 E0.00780
G1 X89.392 Y103.701 E0.01480
G1 X89.749 Y103.369 E0.01527
G1 X90.045 Y102.997 E0.01493
G1 X90.177 Y102.787 E0.00777
G1 X90.380 Y102.365 E0.01466
G1 X90.523 Y101.902 E0.01522
G1 X90.593 Y101.438 E0.01469
G1 X90.602 Y101.194 E0.00767
G1 X90.602 Y85.784 E0.48317
G1 X94.505 Y85.784 E0.12238
G1 X94.505 Y106.154 E0.63870
G1 X115.398 Y84.352 E0.94678
G1 X115.398 Y114.012 E0.92997
G1 X111.495 Y114.012 E0.12238
G1 X111.495 Y93.849 E0.63219
G1 X111.268 Y93.460 F7200.000
G1 F5760
G1 X109.976 Y95.433 E-0.76000
G1 E-0.04000 F2100.00000
G1 Z0.800 F7200.000
G1 X111.750 Y92.813 F7200.000
G1 Z0.200 F7200.000
G1 E0.80000 F2100.00000
G1 F900
G1 X109.939 Y91.002 E0.08080
G1 X109.676 Y91.276 E0.01198
G1 X111.367 Y92.967 E0.07546
G1 X111.105 Y93.242 E0.01198
G1 X109.414 Y91.550 E0.07547
G1 X109.151 Y91.824 E0.01198
G1 X110.843 Y93.516 E0.07549
G1 X110.581 Y93.791 E0.01198
G1 X108.889 Y92.099 E0.07550
G1 X108.626 Y92.373 E0.01198
G1 X110.318 Y94.065 E0.07552
G1 X110.056 Y94.339 E0.01198
G1 X108.363 Y92.647 E0.07553
G1 X108.101 Y92.921 E0.01198
G1 X109.794 Y94.614 E0.07555
G1 X109.532 Y94.888 E0.01198
G1 X107.838 Y93.195 E0.07556
G1 X107.576 Y93.469 E0.01198
G1 X109.269 Y95.162 E0.07558
G1 X109.007 Y95.437 E0.01198
G1 X107.313 Y93.743 E0.07559
G1 X107.050 Y94.017 E0.01198
G1 X108.745 Y95.711 E0.07561
G1 X108.483 Y95.986 E0.01198
G1 X106.788 Y94.291 E0.07562
G1 X106.525 Y94.565 E0.01198
G1 X108.220 Y96.260 E0.07564
G1 X107.958 Y96.534 E0.01198
G1 X106.263 Y94.839 E0.07566
G1 X106.000 Y95.113 E0.01198
G1 X107.696 Y96.809 E0.07567
G1 X107.433 Y97.083 E0.01198
G1 X105.737 Y95.387 E0.07569
G1 X105.475 Y95.661 E0.01198
G1 X107.171 Y97.357 E0.07570
G1 X106.909 Y97.632 E0.01198
G1 X105.212 Y95.935 E0.07572
G1 X104.950 Y96.209 E0.01198
G1 X106.647 Y97.906 E0.07573
G1 X106.384 Y98.181 E0.01198
G1 X104.687 Y96.483 E0.07575
G1 X104.424 Y96.757 E0.01198
G1 X106.122 Y98.455 E0.07576
G1 X105.860 Y98.729 E0.01198
G1 X104.162 Y97.031 E0.07578
G1 X103.899 Y97.305 E0.01198
G1 X105.598 Y99.004 E0.07579
G1 X105.335 Y99.278 E0.01198
G1 X103.636 Y97.579 E0.07581
G1 X103.374 Y97.853 E0.01198
G1 X105.073 Y99.552 E0.07582
G1 X104.811 Y99.827 E0.01198
G1 X103.111 Y98.127 E0.07584
G1 X102.849 Y98.401 E0.01198
G1 X104.549 Y100.101 E0.07585
G1 X104.286 Y100.376 E0.01198
G1 X102.586 Y98.675 E0.07587
G1 X102.323 Y98.949 E0.01198
G1 X104.024 Y100.650 E0.07588
G1 X103.762 Y100.924 E0.01198
G1 X102.061 Y99.223 E0.07590
G1 X101.798 Y99.497 E0.01198
G1 X103.500 Y101.199 E0.07591
G1 X103.237 Y101.473 E0.01198
G1 X101.536 Y99.771 E0.07593
G1 X101.273 Y100.046 E0.01198
G1 X102.975 Y101.748 E0.07595
G1 X102.713 Y102.022 E0.01198
G1 X101.010 Y100.320 E0.07596
G1 X100.748 Y100.594 E0.01198
G1 X102.450 Y102.296 E0.07598
G1 X102.188 Y102.571 E0.01198
G1 X100.485 Y100.868 E0.07599
G1 X100.223 Y101.142 E0.01198
G1 X101.926 Y102.845 E0.07601
G1 X101.664 Y103.119 E0.01198
G1 X99.960 Y101.416 E0.07602
G1 X99.697 Y101.690 E0.01198
G1 X101.401 Y103.394 E0.07604
G1 X101.139 Y103.668 E0.01198
G1 X99.435 Y101.964 E0.07605
G1 X99.172 Y102.238 E0.01198
G1 X100.877 Y103.943 E0.07607
G1 X100.615 Y104.217 E0.01198
G1 X98.910 Y102.512 E0.07608
G1 X98.647 Y102.786 E0.01198
G1 X100.352 Y104.491 E0.07610
G1 X100.090 Y104.766 E0.01198
G1 X98.384 Y103.060 E0.07611
G1 X98.122 Y103.334 E0.01198
G1 X99.828 Y105.040 E0.07613
G1 X99.566 Y105.314 E0.01198
G1 X97.859 Y103.608 E0.07614
G1 X97.597 Y103.882 E0.01198
G1 X99.303 Y105.589 E0.07616
G1 X99.041 Y105.863 E0.01198
G1 X97.334 Y104.156 E0.07617
G1 X97.071 Y104.430 E0.01198
G1 X98.779 Y106.138 E0.07619
G1 X98.516 Y106.412 E0.01198
G1 X96.809 Y104.704 E0.07621
G1 X96.546 Y104.978 E0.01198
G1 X98.254 Y106.686 E0.07622
G1 X97.992 Y106.961 E0.01198
G1 X96.283 Y105.252 E0.07624
G1 X96.021 Y105.526 E0.01198
G1 X97.730 Y107.235 E0.07625
G1 X97.467 Y107.509 E0.01198
G1 X95.758 Y105.800 E0.07627
G1 X95.496 Y106.074 E0.01198
G1 X97.205 Y107.784 E0.07628
G1 X96.943 Y108.058 E0.01198
G1 X95.233 Y106.348 E0.07630
G1 X94.970 Y106.622 E0.01198
G1 X96.681 Y108.333 E0.07631
G1 X96.418 Y108.607 E0.01198
G1 X94.708 Y106.896 E0.07633
G1 X94.445 Y107.170 E0.01198
G1 X96.156 Y108.881 E0.07634
G1 X95.894 Y109.156 E0.01198
G1 X94.063 Y107.324 E0.08171
G1 F5760
G1 X95.614 Y108.876 E-0.76000
G1 E-0.04000 F2100.00000
G1 Z0.800 F7200.000
G1 X95.227 Y110.099 F7200.000
G1 Z0.200 F7200.000
G1 E0.80000 F2100.00000
G1 F900
G1 X91.262 Y106.134 E0.17693
G1 X91.262 Y106.670 E0.01693
G1 X94.845 Y110.253 E0.15987
G1 X94.583 Y110.528 E0.01198
G1 X91.262 Y107.207 E0.14817
G1 X91.262 Y107.744 E0.01693
G1 X94.320 Y110.802 E0.13647
G1 X94.058 Y111.076 E0.01198
G1 X91.262 Y108.280 E0.12476
G1 X91.262 Y108.817 E0.01693
G1 X93.796 Y111.351 E0.11306
G1 X93.533 Y111.625 E0.01198
G1 X91.262 Y109.354 E0.10136
G1 X91.262 Y109.890 E0.01693
G1 X93.271 Y111.899 E0.08966
G1 X93.009 Y112.174 E0.01198
G1 X91.262 Y110.427 E0.07795
G1 X91.262 Y110.963 E0.01693
G1 X92.747 Y112.448 E0.06625
G1 X92.484 Y112.723 E0.01198
G1 X90.803 Y111.041 E0.07502
G1 X90.265 Y111.040 E0.01698
G1 X92.222 Y112.997 E0.08733
G1 X91.960 Y113.271 E0.01198
G1 X89.727 Y111.038 E0.09963
G1 X89.189 Y111.037 E0.01698
G1 X91.698 Y113.546 E0.11194
G1 X91.435 Y113.820 E0.01198
G1 X88.651 Y111.036 E0.12425
G1 X88.113 Y111.034 E0.01698
G1 X88.544 Y111.466 E0.01927
G1 X88.256 Y111.376 E0.00954
G1 X87.859 Y111.317 E0.01267
G1 X87.404 Y110.862 E0.02026
G1 X87.097 Y111.100 F7200.000
G1 F900
G1 X86.828 Y111.009 E0.00765
G1 F900
G1 X86.699 Y110.957 E0.00357
G1 F900
G1 X86.478 Y110.843 E0.00570
G1 F900
G1 X86.425 Y110.811 E0.00134
G1 F900
G1 X86.082 Y110.538 E0.00920
G1 F900
G1 X85.875 Y110.310 E0.00591
G1 X85.713 Y110.064 E0.00564
G1 X85.612 Y109.879 E0.00405
G1 X85.458 Y109.430 E0.00909
G1 F5760
G1 X85.612 Y109.879 E-0.16424
G1 F5760
G1 X85.713 Y110.064 E-0.07321
G1 F5760
G1 X85.875 Y110.310 E-0.10189
G1 F5760
G1 X86.082 Y110.538 E-0.10668
G1 E-0.35399 F2100.00000
G1 Z0.800 F7200.000
G1 X85.098 Y108.412 F7200.000
G1 Z0.200 F7200.000
G1 E0.80000 F2100.00000
G1 F900
G1 X85.532 Y108.847 E0.02233
G1 X85.529 Y108.226 E0.02255
G1 X85.264 Y107.961 E0.01359
G1 X85.285 Y107.372 E0.02141
G1 X85.696 Y107.775 E0.02089
G1 X85.284 Y106.888 F7200.000
G1 F900
G1 X85.499 Y106.764 E0.00483
G1 X85.627 Y106.439 E0.00680
G1 X85.810 Y106.120 E0.00716
G1 X86.050 Y105.839 E0.00718
G1 X86.224 Y105.677 E0.00462
G1 F900
G1 X86.477 Y105.501 E0.00643
G1 F900
G1 X86.661 Y105.404 E0.00501
G1 F900
G1 X86.911 Y105.299 E0.00679
G1 F900
G1 X87.146 Y105.240 E0.00645
G1 X87.372 Y104.927 F7200.000
G1 F900
G1 X87.746 Y105.301 E0.01667
G1 X88.282 Y105.301 E0.01693
G1 X87.995 Y105.013 E0.01282
G1 X88.431 Y104.913 E0.01412
G1 X88.819 Y105.301 E0.01731
G1 X89.355 Y105.301 E0.01693
G1 X88.829 Y104.774 E0.02349
G1 X89.200 Y104.609 E0.01282
G1 X89.892 Y105.301 E0.03087
G1 X90.429 Y105.301 E0.01693
G1 X89.532 Y104.404 E0.04000
G1 X89.845 Y104.181 E0.01214
G1 X95.369 Y109.704 E0.24648
G1 X95.632 Y109.430 E0.01198
G1 X90.124 Y103.922 E0.24577
G1 X90.235 Y103.819 E0.00478
G1 X90.378 Y103.639 E0.00724
G1 X93.845 Y107.107 E0.15474
G1 X93.845 Y106.571 E0.01693
G1 X90.611 Y103.336 E0.14432
G1 X90.808 Y102.997 E0.01239
G1 X93.845 Y106.034 E0.13553
G1 X93.845 Y105.497 E0.01693
G1 X90.982 Y102.634 E0.12776
G1 X91.113 Y102.228 E0.01347
G1 X93.845 Y104.961 E0.12195
G1 X93.845 Y104.424 E0.01693
G1 X91.207 Y101.786 E0.11771
G1 X91.251 Y101.500 E0.00911
G1 X91.258 Y101.300 E0.00632
G1 X93.845 Y103.887 E0.11544
G1 X93.845 Y103.351 E0.01693
G1 X91.262 Y100.767 E0.11528
G1 X91.262 Y100.231 E0.01693
G1 X93.845 Y102.814 E0.11528
G1 X93.845 Y102.278 E0.01693
G1 X91.262 Y99.694 E0.11528
G1 X91.262 Y99.157 E0.01693
G1 X93.845 Y101.741 E0.11528
G1 X93.845 Y101.204 E0.01693
G1 X91.262 Y98.621 E0.11528
G1 X91.262 Y98.084 E0.01693
G1 X93.845 Y100.668 E0.11528
G1 X93.845 Y100.131 E0.01693
G1 X91.262 Y97.547 E0.11528
G1 X91.262 Y97.011 E0.01693
G1 X93.845 Y99.594 E0.11528
G1 X93.845 Y99.058 E0.01693
G1 X91.262 Y96.474 E0.11528
G1 X91.262 Y95.938 E0.01693
G1 X93.845 Y98.521 E0.11528
G1 X93.845 Y97.984 E0.01693
G1 X91.262 Y95.401 E0.11528
G1 X91.262 Y94.864 E0.01693
G1 X93.845 Y97.448 E0.11528
G1 X93.845 Y96.911 E0.01693
G1 X91.262 Y94.328 E0.11528
G1 X91.262 Y93.791 E0.01693
G1 X93.845 Y96.374 E0.11528
G1 X93.845 Y95.838 E0.01693
G1 X91.262 Y93.254 E0.11528
G1 X91.262 Y92.718 E0.01693
G1 X93.845 Y95.301 E0.11528
G1 X93.845 Y94.765 E0.01693
G1 X91.262 Y92.181 E0.11528
G1 X91.262 Y91.644 E0.01693
G1 X93.845 Y94.228 E0.11528
G1 X93.845 Y93.691 E0.01693
G1 X91.262 Y91.108 E0.11528
G1 X91.262 Y90.571 E0.01693
G1 X93.845 Y93.155 E0.11528
G1 X93.845 Y92.618 E0.01693
G1 X91.262 Y90.034 E0.11528
G1 X91.262 Y89.498 E0.01693
G1 X93.845 Y92.081 E0.11528
G1 X93.845 Y91.545 E0.01693
G1 X91.262 Y88.961 E0.11528
G1 X91.262 Y88.425 E0.01693
G1 X93.845 Y91.008 E0.11528
G1 X93.845 Y90.471 E0.01693
G1 X91.262 Y87.888 E0.11528
G1 X91.262 Y87.351 E0.01693
G1 X93.845 Y89.935 E0.11528
G1 X93.845 Y89.398 E0.01693
G1 X91.262 Y86.815 E0.11528
G1 X91.262 Y86.444 E0.01171
G1 X91.428 Y86.444 E0.00523
G1 X93.845 Y88.861 E0.10789
G1 X93.845 Y88.325 E0.01693
G1 X91.964 Y86.444 E0.08395
G1 X92.501 Y86.444 E0.01693
G1 X93.845 Y87.788 E0.06000
G1 X93.845 Y87.252 E0.01693
G1 X93.037 Y86.444 E0.03605
G1 X93.574 Y86.444 E0.01693
G1 X94.015 Y86.885 E0.01968
G1 F5760
G1 X93.574 Y86.444 E-0.21602
G1 F5760
G1 X93.037 Y86.444 E-0.18587
G1 F5760
G1 X93.769 Y87.175 E-0.35812
G1 E-0.04000 F2100.00000
G1 Z0.800 F7200.000
G1 X114.908 Y86.312 F7200.000
G1 Z0.200 F7200.000
G1 E0.80000 F2100.00000
G1 F900
G1 X114.666 Y86.070 E0.01079
G1 X114.403 Y86.344 E0.01198
