;FLAVOR:Marlin
;TIME:348
;Filament used:0.311269m
;Layer height: 0.3
;MINX:67.092
;MINY:66.861
;MINZ:0.2
;MAXX:97.908
;MAXY:98.205
;MAXZ:2.9
                                 
;Creative3D GCode Generated by CXEngineDEV
;Generated Time:2022-04-08 18:14:05
;----------Machine Config--------------
;Machine Name:Creality Ender-2 Pro
;Machine Height:180
;Machine Width:165
;Machine Depth:165
;Material name:PLA
;Number of Extruders:1
;ExtruderParams[0] Nozzle Diameter1000
;----------Profile Config---------------
;Layer Height:0.3
;Wall Thickness:0.8
;Top/Bottom Thickness:1
;Out Wall Line Width:0.4
;Inner Wall Line Width:0.4
;Inital Layer Height:200
;Wall Line Count:1
;Infill Line Distance:4
;Infill Pattern:grid
;Infill Sparse Density:20
;Infill Wipe Distance:0
;Print Temperature:200
;Bed Temperature:60
;Support Enable:false
;Support Density:30
;Support Angle:1.0472
;Adhesion Type:none
;machine is belt:false
;machine belt offset:10
;machine belt offset Y:0
;----------Shell Config----------------
;Outer Wall Wipe Distance:200
;Infill Before Walls:false
;Infill Overlap:0.16
;Fill Gaps Between Walls:everywhere
;Minimum Infill Area:1
;Top Surface Skin Layer:0
;Top Layers:2
;Z Seam Alignment:sharpest_corner
;Seam Corner Preference:z_seam_corner_inner
;Z Seam X:82.5
;Z Seam Y:82.5
;Horizontal Expansion:0
;Top/Bottom Pattern:zigzag
;Ironing Pattern:zigzag
;Vase Model:false
;----------Support Config----------------
;Support Type:everywhere
;Support Pattern:zigzag
;Support Infill Layer Thickness:0.3
;Minimum Support Area:10
;Enable Support Roof:false
;Support Roof Thickness:0.8
;Support Roof Pattern:lines
; ---------PrintSpeed & Travel----------
;Enable Print Cool:true
;Avoid Printed Parts Traveling:true
;Enable Retraction:true
;Retraction Distance:8
;Retraction Speed:100
;Retraction Prime Speed:100
;Maximum Retraction Count:100
;Minimum Extrusion Distance Window:1
;Z Hop When Retracted:false
;Z Hop Height:0.2
;Retract Before Outer Wall:true
;Print Speed:50
;Infill Speed:50

;Prime Tower Speed:50
;Travel Speed:120
;Initial Layer Speed:25
;Skirt/Brim Speed:25
;Combing Mode:off
;---------------------End of Head--------------------------
M140 S60
M104 S200
M105
M109 S200
M82 ;absolute extrusion mode
M220 S100 ;Reset Feedrate
M221 S100 ;Reset Flowrate

G28 ;Home

G92 E0 ;Reset Extruder
G1 Z2.0 F3000 ;Move Z Axis up
G1 X10.1 Y20 Z0.28 F5000.0 ;Move to start position
G1 X10.1 Y145.0 Z0.28 F1500.0 E15 ;Draw the first line
G1 X10.4 Y145.0 Z0.28 F5000.0 ;Move to side a little
G1 X10.4 Y20 Z0.28 F1500.0 E30 ;Draw the second line
G92 E0  ;Reset Extruder
G1 E-1.0000 F1800 ;Retract a bit
G1 Z2.0 F3000 ;Move Z Axis up
G1 E0.0000 F1800 

G92 E0
G92 E0
G1 F6000 E-8

;LAYER_COUNT:10

;LAYER:0
M107
;MESH:
G0 F3600 X73.092 Y92.904 Z0.2
;TYPE:WALL-OUTER
G1 F6000 E0
G1 F1500 X73.092 Y92.704 E0.00732
G1 X73.092 Y88.802 E0.15008
G1 X72.981 Y88.504 E0.16171
G1 X69.879 Y88.504 E0.2752
G1 X69.589 Y88.541 E0.2859
G1 X69.299 Y88.659 E0.29735
G1 X69.049 Y88.849 E0.30884
G1 X68.857 Y89.096 E0.32029
G1 X68.735 Y89.385 E0.33176
G1 X68.693 Y89.683 E0.34277
G1 X68.692 Y91.717 E0.41719
G1 X68.729 Y92.007 E0.42789
G1 X68.847 Y92.297 E0.43934
G1 X69.037 Y92.548 E0.45086
G1 X69.284 Y92.739 E0.46228
G1 X69.572 Y92.861 E0.47372
G1 X69.871 Y92.903 E0.48477
G1 X72.892 Y92.904 E0.5953
G1 X73.092 Y92.904 E0.60004
G0 F3600 X73.092 Y92.704
G0 X73.532 Y92.704
;;retract;;
G1 F6000 E-7.39996
G0 F3600 X77.266 Y88.401
G1 F6000 E0.60004
G1 F1500 X77.377 Y88.285 E0.60591
G1 X97.565 Y67.219 E1.67341
G1 X97.908 Y66.861 E1.69154
G1 X97.908 Y67.356 E1.70125
G1 X97.908 Y67.358 E1.70132
G1 X97.908 Y96.556 E2.76956
G1 X93.985 Y96.556 E2.91309
G1 X93.985 Y76.874 E3.63318
G1 X93.985 Y76.712 E3.63911
G1 X93.734 Y76.611 E3.64901
G1 X93.623 Y76.728 E3.65401
G1 X73.383 Y97.901 E4.72565
G1 X73.356 Y97.929 E4.72708
G1 X73.092 Y98.205 E4.74105
G1 X73.092 Y97.678 E4.75191
G1 X73.09 Y97.639 E4.75328
G1 X73.058 Y97.212 E4.76894
G1 X72.953 Y96.749 E4.78631
G1 X72.779 Y96.302 E4.80386
G1 X72.54 Y95.887 E4.82138
G1 X72.245 Y95.517 E4.83869
G1 X71.897 Y95.191 E4.85614
G1 X71.501 Y94.919 E4.87372
G1 X71.074 Y94.712 E4.89108
G1 X70.616 Y94.569 E4.90863
G1 X70.16 Y94.498 E4.92552
G1 X69.903 Y94.467 E4.93499
G1 X69.464 Y94.371 E4.95143
G1 X69.224 Y94.29 E4.9607
G1 X68.804 Y94.098 E4.97759
G1 X68.604 Y93.978 E4.98612
G1 X68.234 Y93.699 E5.00308
G1 X68.052 Y93.531 E5.01214
G1 X67.751 Y93.182 E5.029
G1 X67.618 Y92.991 E5.03752
G1 X67.389 Y92.569 E5.05508
G1 X67.3 Y92.357 E5.0635
G1 X67.171 Y91.915 E5.08034
G1 X67.125 Y91.666 E5.08961
G1 X67.092 Y91.19 E5.10706
G1 X67.092 Y90.192 E5.14358
G1 X67.124 Y89.743 E5.16004
G1 X67.223 Y89.285 E5.17719
G1 X67.299 Y89.054 E5.18608
G1 X67.486 Y88.64 E5.2027
G1 X67.61 Y88.431 E5.2116
G1 X67.886 Y88.058 E5.22857
G1 X68.048 Y87.883 E5.2373
G1 X68.406 Y87.57 E5.25469
G1 X68.594 Y87.437 E5.26312
G1 X68.995 Y87.217 E5.27985
G1 X69.222 Y87.12 E5.28889
G1 X69.673 Y86.985 E5.30611
G1 X69.899 Y86.942 E5.31453
G1 X70.386 Y86.885 E5.33247
G1 X70.834 Y86.784 E5.34927
G1 X71.28 Y86.608 E5.36681
G1 X71.692 Y86.371 E5.3842
G1 X72.067 Y86.071 E5.40177
G1 X72.393 Y85.72 E5.41929
G1 X72.661 Y85.328 E5.43667
G1 X72.869 Y84.896 E5.45421
G1 X73.01 Y84.439 E5.47171
G1 X73.081 Y83.973 E5.48895
G1 X73.092 Y83.728 E5.49793
G1 X73.092 Y68.308 E6.06208
G1 X77.015 Y68.308 E6.20561
G1 X77.015 Y88.139 E6.93115
G1 X77.015 Y88.3 E6.93616
G1 X77.266 Y88.401 E6.94605
G0 F3600 X77.377 Y88.285
G0 X77.404 Y88.257
G0 X77.72 Y88.562
;;retract;;
G1 F6000 E-1.05395
G0 F3600 X67.822 Y92.864
;TYPE:SKIN
G1 F6000 E6.94605
G1 F1500 X67.94 Y93.034 E6.95363
G1 X68.221 Y93.359 E6.96934
G1 X68.387 Y93.514 E6.97765
G1 X68.739 Y93.778 E6.99375
G1 X68.913 Y93.883 E7.00119
G1 X69.06 Y93.95 E7.0071
G1 X67.641 Y92.531 E7.08052
G1 X67.599 Y92.454 E7.08373
G1 X67.526 Y92.279 E7.09066
G1 X67.404 Y91.859 E7.10666
G1 X67.374 Y91.699 E7.11262
G1 X69.893 Y94.218 E7.24296
G1 X69.934 Y94.227 E7.24449
G1 X70.193 Y94.258 E7.25403
G1 X70.557 Y94.316 E7.26752
G1 X69.208 Y92.967 E7.33732
G1 X69.507 Y93.093 E7.34919
G1 X69.854 Y93.142 E7.36201
G1 X69.949 Y93.142 E7.36549
G1 X71.418 Y94.611 E7.44149
G0 F3600 X71.622 Y94.71
G1 F1500 X72.047 Y95.003 E7.46038
G1 X72.42 Y95.353 E7.47909
G1 X72.739 Y95.75 E7.49773
G1 X72.984 Y96.177 E7.51574
G1 X72.996 Y96.197 E7.51659
G1 X73.182 Y96.677 E7.53542
G1 X73.26 Y97.019 E7.54826
G1 X73.583 Y97.342 E7.56497
G1 X73.328 Y97.609 E7.57848
G1 X73.295 Y97.174 E7.59444
;;retract;;
G1 F6000 E-0.40556
G0 F3600 X72.984 Y96.177
G1 F6000 E7.59444
G1 F1500 X73.86 Y97.053 E7.63976
G1 X74.136 Y96.764 E7.65438
G1 X70.515 Y93.142 E7.84176
G1 X71.081 Y93.142 E7.86247
G1 X74.413 Y96.474 E8.03487
G1 X74.689 Y96.185 E8.04949
G1 X71.647 Y93.143 E8.20689
G1 X72.213 Y93.143 E8.22759
G1 X74.966 Y95.896 E8.37004
G1 X75.242 Y95.607 E8.38466
G1 X72.778 Y93.143 E8.51214
G1 X73.331 Y93.143 E8.53238
G1 X73.331 Y93.13 E8.53285
G1 X75.519 Y95.317 E8.64604
G1 X75.795 Y95.028 E8.66066
G1 X73.331 Y92.565 E8.78812
G1 X73.331 Y91.999 E8.80883
G1 X76.071 Y94.739 E8.9506
G1 X76.348 Y94.45 E8.96524
G1 X73.331 Y91.433 E9.12134
G1 X73.331 Y90.868 E9.14201
G1 X76.624 Y94.161 E9.3124
G1 X76.901 Y93.871 E9.32707
G1 X73.331 Y90.302 E9.51176
G1 X73.331 Y89.736 E9.53246
G1 X77.177 Y93.582 E9.73146
G1 X77.454 Y93.293 E9.7461
G1 X73.331 Y89.171 E9.95941
G1 X73.331 Y88.758 E9.97452
G1 X73.241 Y88.514 E9.98403
G1 X73.148 Y88.263 E9.99382
G0 F3600 X72.989 Y88.263
G1 F1500 X71.49 Y86.764 E10.07138
G1 X71.383 Y86.824 E10.07587
G1 X71.098 Y86.937 E10.08709
G1 X72.423 Y88.263 E10.15567
G1 X71.858 Y88.263 E10.17634
G1 X70.663 Y87.068 E10.23817
G1 X70.427 Y87.12 E10.24701
G1 X70.18 Y87.15 E10.25612
G1 X71.292 Y88.263 E10.31368
G1 X70.726 Y88.263 E10.33439
G1 X69.693 Y87.23 E10.38783
G1 X69.305 Y87.345 E10.40264
G1 X69.262 Y87.364 E10.40436
G1 X70.161 Y88.263 E10.45087
G1 X69.862 Y88.263 E10.46181
G1 X69.625 Y88.293 E10.47055
G1 X68.884 Y87.551 E10.50892
G1 X68.726 Y87.637 E10.5155
G1 X68.556 Y87.757 E10.52311
G1 X68.539 Y87.773 E10.52397
G1 X69.203 Y88.437 E10.55832
G1 X69.179 Y88.447 E10.55927
G1 X68.878 Y88.676 E10.57311
G0 F3600 X68.878 Y88.677
G1 F1500 X68.237 Y88.036 E10.60628
G1 X68.212 Y88.058 E10.6075
G1 X68.072 Y88.209 E10.61503
G1 X67.975 Y88.34 E10.62099
G1 X68.636 Y89.001 E10.65519
G1 X68.502 Y89.319 E10.66782
G1 X68.488 Y89.419 E10.67151
G1 X67.743 Y88.674 E10.71006
G1 X67.696 Y88.755 E10.71349
G1 X67.559 Y89.055 E10.72555
G1 X68.453 Y89.949 E10.77181
G1 X68.452 Y90.514 E10.79248
G1 X67.423 Y89.485 E10.84572
G1 X67.361 Y89.772 E10.85646
G1 X67.346 Y89.974 E10.86387
G1 X68.452 Y91.079 E10.92107
G1 X68.452 Y91.645 E10.94178
G1 X67.332 Y90.525 E10.99973
G1 X67.332 Y91.09 E11.0204
G1 X68.624 Y92.382 E11.08725
G1 X68.637 Y92.416 E11.08858
G1 X68.865 Y92.717 E11.1024
G1 X69.162 Y92.947 E11.11614
;;retract;;
G1 F6000 E3.11614
G0 F3600 X73.241 Y88.514
G1 F6000 E11.11614
G1 F1500 X77.73 Y93.004 E11.34843
G1 X78.007 Y92.715 E11.36308
G1 X71.846 Y86.554 E11.68185
G1 X72.16 Y86.303 E11.69656
G1 X78.283 Y92.425 E12.01334
G1 X78.56 Y92.136 E12.02799
G1 X72.441 Y86.018 E12.34456
G1 X72.58 Y85.868 E12.35204
G1 X72.693 Y85.704 E12.35933
G1 X78.836 Y91.847 E12.67717
G1 X79.113 Y91.558 E12.69182
G1 X72.912 Y85.357 E13.01266
G1 X73.092 Y84.983 E13.02785
G1 X73.095 Y84.974 E13.02819
G1 X79.389 Y91.269 E13.35388
G1 X79.666 Y90.979 E13.36855
G1 X77.347 Y88.661 E13.48851
G1 X77.624 Y88.372 E13.50315
G1 X79.942 Y90.69 E13.62309
G1 X80.219 Y90.401 E13.63773
G1 X77.901 Y88.083 E13.75767
G1 X78.177 Y87.794 E13.77229
G1 X80.495 Y90.112 E13.89222
G1 X80.772 Y89.823 E13.90687
G1 X78.454 Y87.505 E14.02681
G1 X78.731 Y87.216 E14.04145
G1 X81.048 Y89.533 E14.16133
G1 X81.325 Y89.244 E14.17598
G1 X79.008 Y86.928 E14.29584
G1 X79.285 Y86.638 E14.31051
G1 X81.601 Y88.955 E14.43037
G1 X81.878 Y88.666 E14.44501
G1 X79.562 Y86.35 E14.56484
G1 X79.838 Y86.061 E14.57946
G1 X82.154 Y88.377 E14.6993
G1 X82.43 Y88.087 E14.71394
G1 X80.115 Y85.772 E14.83372
G1 X80.392 Y85.483 E14.84837
G1 X82.707 Y87.798 E14.96815
G1 X82.983 Y87.509 E14.98277
G1 X80.669 Y85.195 E15.1025
G1 X80.946 Y84.905 E15.11717
G1 X83.26 Y87.22 E15.23692
G1 X83.536 Y86.931 E15.25154
G1 X81.223 Y84.617 E15.37124
G1 X81.499 Y84.328 E15.38587
G1 X83.813 Y86.641 E15.50557
G1 X84.089 Y86.352 E15.52019
G1 X81.776 Y84.039 E15.63986
G1 X82.053 Y83.75 E15.65451
G1 X84.366 Y86.063 E15.77419
G1 X84.642 Y85.774 E15.78881
G1 X82.33 Y83.461 E15.90846
G1 X82.607 Y83.172 E15.9231
G1 X84.919 Y85.484 E16.04273
G1 X85.195 Y85.195 E16.05735
G1 X82.883 Y82.883 E16.17697
G1 X83.16 Y82.595 E16.19159
G1 X85.472 Y84.906 E16.31119
G1 X85.748 Y84.617 E16.32581
G1 X83.437 Y82.305 E16.44541
G1 X83.714 Y82.017 E16.46003
G1 X86.025 Y84.328 E16.5796
G1 X86.301 Y84.038 E16.59425
G1 X83.99 Y81.728 E16.71379
G1 X84.268 Y81.439 E16.72847
G1 X86.578 Y83.749 E16.84799
G1 X86.854 Y83.46 E16.86261
G1 X84.544 Y81.15 E16.98213
G1 X84.821 Y80.861 E16.99677
G1 X87.131 Y83.171 E17.1163
G1 X87.407 Y82.882 E17.13092
G1 X85.098 Y80.572 E17.25041
G1 X85.375 Y80.284 E17.26503
G1 X87.684 Y82.592 E17.38447
G1 X87.96 Y82.303 E17.39909
G1 X85.651 Y79.994 E17.51856
G1 X85.929 Y79.706 E17.53321
G1 X88.237 Y82.014 E17.65263
G1 X88.513 Y81.725 E17.66725
G1 X86.205 Y79.417 E17.78666
G1 X86.482 Y79.128 E17.80131
G1 X88.789 Y81.436 E17.9207
G1 X89.066 Y81.146 E17.93537
G1 X86.759 Y78.839 E18.05474
G1 X87.036 Y78.551 E18.06936
G1 X89.342 Y80.857 E18.18867
G1 X89.619 Y80.568 E18.20332
G1 X87.312 Y78.261 E18.32268
G1 X87.59 Y77.973 E18.33733
G1 X89.895 Y80.279 E18.45662
G1 X90.172 Y79.99 E18.47126
G1 X87.866 Y77.684 E18.59058
G1 X88.143 Y77.395 E18.60522
G1 X90.448 Y79.7 E18.72448
G1 X90.725 Y79.411 E18.73913
G1 X88.42 Y77.106 E18.85839
G1 X88.697 Y76.817 E18.87304
G1 X91.001 Y79.122 E18.99227
G1 X91.278 Y78.833 E19.00692
G1 X88.973 Y76.528 E19.12618
G1 X89.251 Y76.24 E19.14083
G1 X91.554 Y78.544 E19.26001
G1 X91.831 Y78.254 E19.27468
G1 X89.527 Y75.951 E19.39387
G1 X89.803 Y75.661 E19.40852
G1 X92.107 Y77.964 E19.5277
G1 X92.383 Y77.675 E19.54232
G1 X90.081 Y75.373 E19.66143
G1 X90.357 Y75.084 E19.67605
G1 X92.659 Y77.386 E19.79516
G1 X92.936 Y77.097 E19.8098
G1 X90.634 Y74.795 E19.92891
G1 X90.911 Y74.506 E19.94355
G1 X93.212 Y76.808 E20.06264
G1 X93.489 Y76.518 E20.07731
G1 X91.188 Y74.217 E20.19636
G1 X91.464 Y73.928 E20.21098
G1 X93.992 Y76.456 E20.34178
G0 F3600 X94.224 Y76.549
G1 F1500 X94.224 Y76.688 E20.34687
G1 X94.224 Y77.254 E20.36758
G1 X97.667 Y80.697 E20.54572
G1 X97.667 Y81.262 E20.56639
G1 X94.224 Y77.819 E20.74453
G1 X94.224 Y78.385 E20.76524
G1 X97.667 Y81.828 E20.94338
G1 X97.667 Y82.394 E20.96409
G1 X94.224 Y78.951 E21.14224
G1 X94.224 Y79.516 E21.16291
G1 X97.667 Y82.959 E21.34105
G1 X97.667 Y83.525 E21.36176
G1 X94.224 Y80.082 E21.5399
G1 X94.224 Y80.648 E21.56061
G1 X97.667 Y84.091 E21.73875
G1 X97.667 Y84.656 E21.75942
G1 X94.224 Y81.214 E21.93754
G1 X94.224 Y81.779 E21.95821
G1 X97.667 Y85.222 E22.13635
G1 X97.667 Y85.788 E22.15706
G1 X94.224 Y82.345 E22.3352
G1 X94.224 Y82.911 E22.35591
G1 X97.667 Y86.354 E22.53406
G1 X97.667 Y86.919 E22.55473
G1 X94.224 Y83.476 E22.73287
G1 X94.224 Y84.042 E22.75358
G1 X97.667 Y87.485 E22.93172
G1 X97.667 Y88.051 E22.95243
G1 X94.224 Y84.608 E23.13057
G1 X94.224 Y85.173 E23.15124
G1 X97.667 Y88.616 E23.32938
G1 X97.667 Y89.182 E23.35009
G1 X94.224 Y85.739 E23.52824
G1 X94.224 Y86.305 E23.54894
G1 X97.667 Y89.748 E23.72709
G1 X97.667 Y90.313 E23.74776
G1 X94.224 Y86.87 E23.9259
G1 X94.224 Y87.436 E23.94661
G1 X97.667 Y90.879 E24.12475
G1 X97.667 Y91.445 E24.14546
G1 X94.224 Y88.002 E24.3236
G1 X94.224 Y88.567 E24.34427
G1 X97.667 Y92.01 E24.52242
G1 X97.667 Y92.576 E24.54312
G1 X94.224 Y89.133 E24.72127
G1 X94.224 Y89.699 E24.74197
G1 X97.667 Y93.142 E24.92012
G1 X97.667 Y93.707 E24.94079
G1 X94.224 Y90.265 E25.11891
G1 X94.224 Y90.83 E25.13958
G1 X97.667 Y94.273 E25.31772
G1 X97.667 Y94.839 E25.33843
G1 X94.224 Y91.396 E25.51657
G1 X94.224 Y91.962 E25.53728
G1 X97.667 Y95.404 E25.7154
G1 X97.667 Y95.97 E25.7361
G1 X94.224 Y92.527 E25.91425
G1 X94.224 Y93.093 E25.93495
G1 X97.446 Y96.315 E26.10166
G1 X96.88 Y96.315 E26.12237
G1 X94.224 Y93.659 E26.25979
G1 X94.224 Y94.224 E26.28046
G1 X96.315 Y96.315 E26.38865
G1 X95.749 Y96.315 E26.40936
G1 X94.224 Y94.79 E26.48827
G1 X94.224 Y95.356 E26.50897
G1 X95.183 Y96.315 E26.55859
G1 X94.617 Y96.315 E26.5793
G1 X94.224 Y96.315 E26.59368
G0 F3600 X94.224 Y95.921
G1 F1500 X94.617 Y96.315 E26.61404
;;retract;;
G1 F6000 E18.61404
G0 F3600 X77.327 Y88.683
G1 F6000 E26.61404
G1 F1500 X76.775 Y88.461 E26.63581
G1 X76.775 Y88.089 E26.64942
G1 X73.227 Y84.541 E26.83299
G1 X73.243 Y84.492 E26.83488
G1 X73.31 Y84.058 E26.85095
G1 X76.775 Y87.523 E27.03023
G1 X76.775 Y86.957 E27.05093
G1 X73.331 Y83.513 E27.22913
G1 X73.331 Y82.947 E27.24984
G1 X76.775 Y86.392 E27.42806
G1 X76.775 Y85.826 E27.44877
G1 X73.331 Y82.382 E27.62696
G1 X73.331 Y81.816 E27.64767
G1 X76.775 Y85.26 E27.82586
G1 X76.775 Y84.695 E27.84653
G1 X73.331 Y81.25 E28.02475
G1 X73.331 Y80.685 E28.04543
G1 X76.775 Y84.129 E28.22362
G1 X76.775 Y83.563 E28.24433
G1 X73.331 Y80.119 E28.42252
G1 X73.331 Y79.553 E28.44323
G1 X76.775 Y82.998 E28.62145
G1 X76.775 Y82.432 E28.64216
G1 X73.331 Y78.988 E28.82035
G1 X73.331 Y78.422 E28.84106
G1 X76.775 Y81.866 E29.01926
G1 X76.775 Y81.301 E29.03993
G1 X73.331 Y77.856 E29.21815
G1 X73.331 Y77.291 E29.23882
G1 X76.775 Y80.735 E29.41701
G1 X76.775 Y80.169 E29.43772
G1 X73.331 Y76.725 E29.61592
G1 X73.331 Y76.159 E29.63662
G1 X76.775 Y79.603 E29.81482
G1 X76.775 Y79.038 E29.83549
G1 X73.331 Y75.593 E30.01371
G1 X73.331 Y75.028 E30.03438
G1 X76.774 Y78.471 E30.21252
G1 X76.774 Y77.906 E30.2332
G1 X73.331 Y74.462 E30.41136
G1 X73.331 Y73.896 E30.43207
G1 X76.774 Y77.34 E30.61024
G1 X76.774 Y76.774 E30.63095
G1 X73.331 Y73.331 E30.80909
G1 X73.331 Y72.765 E30.8298
G1 X76.774 Y76.209 E31.00797
G1 X76.774 Y75.643 E31.02868
G1 X73.331 Y72.199 E31.20685
G1 X73.331 Y71.634 E31.22752
G1 X76.774 Y75.077 E31.40566
G1 X76.774 Y74.512 E31.42633
G1 X73.331 Y71.068 E31.6045
G1 X73.331 Y70.502 E31.62521
G1 X76.774 Y73.946 E31.80338
G1 X76.774 Y73.38 E31.82408
G1 X73.331 Y69.937 E32.00223
