;FLAVOR:Marlin
;TIME:960
;Filament used:0.662479m
;Layer height: 0.2
;MINX:71.979
;MINY:51.397
;MINZ:0.2
;MAXX:93.021
;MAXY:113.482
;MAXZ:2.8
                                
;Creative3D GCode Generated by CXEngineDEV
;Generated Time:2022-04-08 18:14:05
;----------Machine Config--------------
;Machine Name:Creality Ender-2 Pro
;Machine Height:180
;Machine Width:165
;Machine Depth:165
;Material name:PLA
;Number of Extruders:1
;ExtruderParams[0] Nozzle Diameter1000
;----------Profile Config---------------
;Layer Height:0.2
;Wall Thickness:0.8
;Top/Bottom Thickness:1
;Out Wall Line Width:0.4
;Inner Wall Line Width:0.4
;Inital Layer Height:200
;Wall Line Count:2
;Infill Line Distance:4
;Infill Pattern:grid
;Infill Sparse Density:20
;Infill Wipe Distance:0
;Print Temperature:200
;Bed Temperature:60
;Support Enable:false
;Support Density:30
;Support Angle:1.0472
;Adhesion Type:none
;machine is belt:false
;machine belt offset:10
;machine belt offset Y:0
;----------Shell Config----------------
;Outer Wall Wipe Distance:200
;Infill Before Walls:false
;Infill Overlap:0.16
;Fill Gaps Between Walls:everywhere
;Minimum Infill Area:1
;Top Surface Skin Layer:0
;Top Layers:3
;Z Seam Alignment:sharpest_corner
;Seam Corner Preference:z_seam_corner_inner
;Z Seam X:82.5
;Z Seam Y:82.5
;Horizontal Expansion:0
;Top/Bottom Pattern:zigzag
;Ironing Pattern:zigzag
;Vase Model:false
;----------Support Config----------------
;Support Type:everywhere
;Support Pattern:zigzag
;Support Infill Layer Thickness:0.2
;Minimum Support Area:10
;Enable Support Roof:false
;Support Roof Thickness:0.8
;Support Roof Pattern:lines
; ---------PrintSpeed & Travel----------
;Enable Print Cool:true
;Avoid Printed Parts Traveling:true
;Enable Retraction:true
;Retraction Distance:8
;Retraction Speed:100
;Retraction Prime Speed:100
;Maximum Retraction Count:100
;Minimum Extrusion Distance Window:1
;Z Hop When Retracted:false
;Z Hop Height:0.2
;Retract Before Outer Wall:true
;Print Speed:50
;Infill Speed:50

;Prime Tower Speed:50
;Travel Speed:120
;Initial Layer Speed:25
;Skirt/Brim Speed:25
;Combing Mode:off
;---------------------End of Head--------------------------
M140 S60
M104 S200
M105
M109 S200
M82 ;absolute extrusion mode
M220 S100 ;Reset Feedrate
M221 S100 ;Reset Flowrate

G28 ;Home

G92 E0 ;Reset Extruder
G1 Z2.0 F3000 ;Move Z Axis up
G1 X10.1 Y20 Z0.28 F5000.0 ;Move to start position
G1 X10.1 Y145.0 Z0.28 F1500.0 E15 ;Draw the first line
G1 X10.4 Y145.0 Z0.28 F5000.0 ;Move to side a little
G1 X10.4 Y20 Z0.28 F1500.0 E30 ;Draw the second line
G92 E0  ;Reset Extruder
G1 E-1.0000 F1800 ;Retract a bit
G1 Z2.0 F3000 ;Move Z Axis up
G1 E0.0000 F1800 

G92 E0
G92 E0
G1 F6000 E-8

;LAYER_COUNT:14

;LAYER:0
M107
;MESH:
G0 F3600 X82.233 Y66.364 Z0.2
;TYPE:WALL-INNER
G1 F6000 E0
G1 F1500 X82.611 Y66.369 E0.01383
G1 X82.987 Y66.345 E0.02762
G1 X83.362 Y66.292 E0.04147
G1 X83.729 Y66.206 E0.05526
G1 X84.058 Y66.104 E0.06786
G1 X84.41 Y65.966 E0.0817
G1 X84.75 Y65.797 E0.09559
G1 X85.075 Y65.603 E0.10944
G1 X85.381 Y65.383 E0.12322
G1 X85.67 Y65.141 E0.13702
G1 X85.938 Y64.875 E0.15083
G1 X86.183 Y64.589 E0.16461
G1 X86.39 Y64.308 E0.17738
G1 X86.588 Y63.989 E0.19111
G1 X86.762 Y63.654 E0.20492
G1 X86.907 Y63.304 E0.21879
G1 X87.025 Y62.945 E0.23261
G1 X87.111 Y62.578 E0.2464
G1 X87.17 Y62.205 E0.26022
G1 X87.196 Y61.859 E0.27291
G1 X87.197 Y61.482 E0.28671
G1 X87.166 Y61.105 E0.30054
G1 X87.105 Y60.732 E0.31437
G1 X87.015 Y60.365 E0.3282
G1 X86.896 Y60.008 E0.34197
G1 X86.749 Y59.658 E0.35585
G1 X86.572 Y59.325 E0.36965
G1 X86.389 Y59.032 E0.38229
G1 X86.165 Y58.728 E0.39611
G1 X85.917 Y58.444 E0.4099
G1 X85.647 Y58.179 E0.42374
G1 X85.355 Y57.938 E0.43759
G1 X85.048 Y57.722 E0.45133
G1 X84.722 Y57.529 E0.46519
G1 X84.382 Y57.364 E0.47901
G1 X84.059 Y57.237 E0.49171
G1 X83.7 Y57.126 E0.50546
G1 X83.33 Y57.044 E0.51933
G1 X82.956 Y56.993 E0.53314
G1 X82.579 Y56.971 E0.54695
G1 X82.202 Y56.979 E0.56075
G1 X81.823 Y57.019 E0.57469
G1 X81.455 Y57.09 E0.5884
G1 X81.121 Y57.178 E0.60104
G1 X80.764 Y57.303 E0.61488
G1 X80.419 Y57.456 E0.62869
G1 X80.086 Y57.636 E0.64254
G1 X79.77 Y57.844 E0.65638
G1 X79.472 Y58.076 E0.67019
G1 X79.193 Y58.331 E0.68402
G1 X78.936 Y58.607 E0.69782
G1 X78.721 Y58.878 E0.71048
G1 X78.507 Y59.189 E0.72429
G1 X78.321 Y59.519 E0.73815
G1 X78.161 Y59.861 E0.75196
G1 X78.031 Y60.215 E0.76576
G1 X77.929 Y60.578 E0.77955
G1 X77.855 Y60.949 E0.79339
G1 X77.813 Y61.324 E0.8072
G1 X77.801 Y61.671 E0.8199
G1 X77.814 Y62.047 E0.83367
G1 X77.86 Y62.424 E0.84756
G1 X77.936 Y62.793 E0.86135
G1 X78.041 Y63.155 E0.87514
G1 X78.174 Y63.508 E0.88894
G1 X78.336 Y63.851 E0.90282
G1 X78.525 Y64.178 E0.91663
G1 X78.721 Y64.463 E0.92929
G1 X78.955 Y64.757 E0.94304
G1 X79.215 Y65.033 E0.95691
G1 X79.495 Y65.286 E0.97072
G1 X79.797 Y65.516 E0.9846
G1 X80.114 Y65.72 E0.9984
G1 X80.448 Y65.898 E1.01224
G1 X80.792 Y66.048 E1.02597
G1 X81.12 Y66.163 E1.03869
G1 X81.484 Y66.26 E1.05247
G1 X81.856 Y66.327 E1.0663
G1 X82.233 Y66.364 E1.08016
G0 F3600 X82.256 Y65.964
;TYPE:WALL-OUTER
G1 F1500 X82.601 Y65.969 E1.09278
G1 X82.946 Y65.947 E1.10543
G1 X83.288 Y65.898 E1.11807
G1 X83.624 Y65.82 E1.13069
G1 X83.926 Y65.726 E1.14226
G1 X84.248 Y65.6 E1.15491
G1 X84.558 Y65.446 E1.16758
G1 X84.855 Y65.268 E1.18025
G1 X85.136 Y65.067 E1.19289
G1 X85.4 Y64.845 E1.20551
G1 X85.645 Y64.602 E1.21813
G1 X85.87 Y64.34 E1.23077
G1 X86.058 Y64.084 E1.24239
G1 X86.24 Y63.791 E1.25501
G1 X86.399 Y63.485 E1.26762
G1 X86.532 Y63.165 E1.2803
G1 X86.639 Y62.837 E1.29292
G1 X86.718 Y62.501 E1.30555
G1 X86.772 Y62.159 E1.31822
G1 X86.796 Y61.843 E1.32981
G1 X86.797 Y61.498 E1.34244
G1 X86.769 Y61.154 E1.35506
G1 X86.713 Y60.812 E1.36774
G1 X86.63 Y60.476 E1.3804
G1 X86.521 Y60.149 E1.39302
G1 X86.387 Y59.83 E1.40567
G1 X86.225 Y59.525 E1.41831
G1 X86.058 Y59.257 E1.42986
G1 X85.853 Y58.979 E1.4425
G1 X85.626 Y58.719 E1.45513
G1 X85.379 Y58.476 E1.4678
G1 X85.112 Y58.256 E1.48046
G1 X84.831 Y58.058 E1.49304
G1 X84.533 Y57.882 E1.5057
G1 X84.221 Y57.731 E1.51838
G1 X83.926 Y57.615 E1.52998
G1 X83.597 Y57.513 E1.54258
G1 X83.259 Y57.438 E1.55525
G1 X82.917 Y57.391 E1.56788
G1 X82.572 Y57.371 E1.58052
G1 X82.227 Y57.379 E1.59315
G1 X81.882 Y57.415 E1.60584
G1 X81.544 Y57.48 E1.61843
G1 X81.238 Y57.561 E1.63001
G1 X80.911 Y57.675 E1.64268
G1 X80.596 Y57.815 E1.65529
G1 X80.292 Y57.98 E1.66795
G1 X80.003 Y58.17 E1.6806
G1 X79.73 Y58.382 E1.69325
G1 X79.475 Y58.615 E1.70588
G1 X79.24 Y58.868 E1.71852
G1 X79.043 Y59.116 E1.73011
G1 X78.847 Y59.401 E1.74276
G1 X78.677 Y59.702 E1.75541
G1 X78.531 Y60.015 E1.76804
G1 X78.412 Y60.339 E1.78067
G1 X78.318 Y60.671 E1.7933
G1 X78.251 Y61.01 E1.80594
G1 X78.212 Y61.354 E1.81861
G1 X78.201 Y61.671 E1.83021
G1 X78.213 Y62.016 E1.84284
G1 X78.255 Y62.359 E1.85548
G1 X78.325 Y62.697 E1.86811
G1 X78.421 Y63.029 E1.88076
G1 X78.543 Y63.352 E1.89339
G1 X78.691 Y63.665 E1.90605
G1 X78.864 Y63.964 E1.91869
G1 X79.043 Y64.225 E1.93027
G1 X79.258 Y64.495 E1.9429
G1 X79.495 Y64.747 E1.95556
G1 X79.751 Y64.978 E1.96817
G1 X80.027 Y65.188 E1.98086
G1 X80.317 Y65.375 E1.99348
G1 X80.622 Y65.538 E2.00614
G1 X80.938 Y65.675 E2.01874
G1 X81.238 Y65.78 E2.03037
G1 X81.571 Y65.869 E2.04298
G1 X81.911 Y65.93 E2.05562
G1 X82.256 Y65.964 E2.0683
G0 F3600 X82.456 Y65.966
G0 X82.45 Y66.406
;;retract;;
G1 F6000 E-5.9317
G0 F3600 X76.515 Y103.726
;TYPE:WALL-INNER
G1 F6000 E2.0683
G1 F1500 X76.483 Y103.855 E2.07316
G1 X76.395 Y104.209 E2.08651
G1 X75.444 Y108.009 E2.22982
G1 X75.385 Y108.246 E2.23876
G1 X75.278 Y108.672 E2.25483
G1 X75.126 Y108.182 E2.26241
G1 X75.058 Y107.947 E2.26992
G1 X74.742 Y106.863 E2.31123
G1 X74.396 Y105.583 E2.35974
G1 X74.116 Y104.44 E2.4028
G1 X74.098 Y104.367 E2.40555
G1 X74.062 Y104.199 E2.41183
G1 X74.019 Y104.005 E2.4191
G1 X74.225 Y104.104 E2.42208
G1 X74.308 Y104.145 E2.42351
G1 X74.382 Y104.162 E2.42629
G1 X74.777 Y104.253 E2.44112
G1 X75.155 Y104.272 E2.45497
G1 X75.628 Y104.199 E2.47248
G1 X75.983 Y104.073 E2.48626
G1 X76.079 Y104.017 E2.49033
G1 X76.394 Y103.833 E2.49892
G1 X76.515 Y103.726 E2.50026
;;retract;;
G1 F6000 E-5.49974
G0 F3600 X79.449 Y95.715
G1 F6000 E2.50026
G1 F1500 X78.516 Y95.721 E2.53439
G1 X77.257 Y100.756 E2.72428
G1 X77.222 Y100.898 E2.72963
G1 X77.146 Y101.2 E2.74102
G1 X76.975 Y100.837 E2.74733
G1 X76.884 Y100.722 E2.75182
G1 X76.675 Y100.459 E2.76411
G1 X76.395 Y100.208 E2.77786
G1 X75.982 Y99.969 E2.79532
G1 X75.63 Y99.841 E2.80902
G1 X75.157 Y99.771 E2.82652
G1 X74.78 Y99.787 E2.84032
G1 X74.307 Y99.897 E2.85809
G1 X73.875 Y100.108 E2.87568
G1 X73.663 Y100.261 E2.88525
G1 X73.569 Y100.328 E2.88947
G1 X73.421 Y100.491 E2.89752
G1 X73.407 Y100.345 E2.89797
G1 X73.385 Y100.131 E2.90403
G1 X73.378 Y100.016 E2.90764
G1 X73.347 Y99.567 E2.92411
G1 X73.329 Y98.973 E2.94585
G1 X73.335 Y98.47 E2.96426
G1 X73.36 Y98.024 E2.9806
G1 X73.41 Y97.562 E2.9976
G1 X73.472 Y97.197 E3.01115
G1 X73.557 Y96.836 E3.02472
G1 X73.652 Y96.529 E3.03647
G1 X73.778 Y96.215 E3.04885
G1 X73.903 Y95.969 E3.05895
G1 X74.043 Y95.753 E3.06836
G1 X74.193 Y95.561 E3.07728
G1 X74.357 Y95.389 E3.08597
G1 X74.536 Y95.238 E3.09454
G1 X74.767 Y95.083 E3.10472
G1 X74.954 Y94.979 E3.11255
G1 X75.224 Y94.859 E3.12336
G1 X75.53 Y94.758 E3.13515
G1 X75.817 Y94.687 E3.14596
G1 X77.153 Y94.408 E3.1959
G1 X77.349 Y94.367 E3.20322
G1 X77.307 Y94.171 E3.20795
G1 X76.528 Y90.601 E3.34164
G1 X75.868 Y87.442 E3.45971
G1 X75.383 Y85.002 E3.55073
G1 X74.735 Y81.582 E3.67808
G1 X74.301 Y79.126 E3.76933
G1 X73.994 Y77.245 E3.83905
G1 X73.764 Y75.694 E3.89642
G1 X73.605 Y74.47 E3.94158
G1 X73.485 Y73.366 E3.98221
G1 X73.378 Y72.011 E4.03194
G1 X73.345 Y71.242 E4.0601
G1 X73.333 Y70.671 E4.08099
G1 X73.342 Y69.923 E4.10836
G1 X73.367 Y69.336 E4.12986
G1 X73.426 Y68.583 E4.15749
G1 X73.491 Y68.016 E4.17837
G1 X73.581 Y67.413 E4.20068
G1 X73.724 Y66.668 E4.22843
G1 X73.898 Y65.924 E4.25638
G1 X74.113 Y65.154 E4.28563
G1 X74.308 Y64.534 E4.30941
G1 X74.575 Y63.783 E4.33857
G1 X74.882 Y63.008 E4.36907
G1 X75.146 Y62.393 E4.39356
G1 X75.5 Y61.64 E4.424
G1 X75.891 Y60.876 E4.4554
G1 X76.318 Y60.104 E4.48768
G1 X76.653 Y59.532 E4.51193
G1 X77.111 Y58.8 E4.54352
G1 X77.478 Y58.246 E4.56783
G1 X77.963 Y57.556 E4.59869
G1 X78.487 Y56.857 E4.63065
G1 X78.991 Y56.228 E4.66014
G1 X79.506 Y55.629 E4.68904
G1 X79.905 Y55.19 E4.71074
G1 X80.368 Y54.712 E4.73509
G1 X80.891 Y54.213 E4.76154
G1 X81.244 Y53.896 E4.7789
G1 X81.649 Y53.563 E4.79808
G1 X82.155 Y53.182 E4.82125
G1 X82.497 Y52.954 E4.83629
G1 X82.632 Y53.037 E4.84209
G1 X83.043 Y53.326 E4.86047
G1 X83.499 Y53.682 E4.88164
G1 X83.947 Y54.066 E4.90322
G1 X84.333 Y54.421 E4.92241
G1 X84.881 Y54.968 E4.95074
G1 X85.289 Y55.401 E4.97251
G1 X85.785 Y55.966 E5.00001
G1 X86.162 Y56.417 E5.02152
G1 X86.613 Y56.987 E5.04811
G1 X87.135 Y57.692 E5.0802
G1 X87.566 Y58.309 E5.10774
G1 X87.993 Y58.959 E5.13619
G1 X88.392 Y59.605 E5.16397
G1 X88.858 Y60.416 E5.19819
G1 X89.22 Y61.09 E5.22618
G1 X89.574 Y61.797 E5.25511
G1 X89.836 Y62.35 E5.2775
G1 X90.142 Y63.06 E5.30579
G1 X90.422 Y63.771 E5.33374
G1 X90.69 Y64.529 E5.36316
G1 X90.891 Y65.162 E5.38746
G1 X91.103 Y65.927 E5.4165
G1 X91.268 Y66.626 E5.44278
G1 X91.403 Y67.319 E5.46861
G1 X91.505 Y67.984 E5.49322
G1 X91.591 Y68.751 E5.52146
G1 X91.637 Y69.408 E5.54555
G1 X91.664 Y70.099 E5.57086
G1 X91.665 Y70.849 E5.59829
G1 X91.646 Y71.516 E5.62271
G1 X91.612 Y72.199 E5.64773
G1 X91.563 Y72.858 E5.6719
G1 X91.489 Y73.64 E5.70064
G1 X91.345 Y74.887 E5.74657
G1 X91.128 Y76.434 E5.80372
G1 X90.912 Y77.829 E5.85537
G1 X90.595 Y79.725 E5.9257
G1 X90.252 Y81.645 E5.99705
G1 X89.679 Y84.682 E6.11013
G1 X89.145 Y87.368 E6.21032
G1 X88.597 Y90.015 E6.30922
G1 X87.692 Y94.171 E6.46483
G1 X87.65 Y94.366 E6.47213
G1 X87.845 Y94.407 E6.47684
G1 X89.347 Y94.726 E6.53302
G1 X89.622 Y94.805 E6.54348
G1 X89.907 Y94.913 E6.55464
G1 X90.14 Y95.027 E6.56413
G1 X90.326 Y95.14 E6.57209
G1 X90.543 Y95.3 E6.58195
G1 X90.703 Y95.448 E6.58993
G1 X90.878 Y95.645 E6.59957
G1 X91.034 Y95.868 E6.60952
G1 X91.151 Y96.07 E6.61806
G1 X91.275 Y96.339 E6.6289
G1 X91.392 Y96.656 E6.64126
G1 X91.485 Y97.002 E6.65437
G1 X91.563 Y97.381 E6.66853
G1 X91.616 Y97.759 E6.68249
G1 X91.657 Y98.263 E6.70099
G1 X91.672 Y98.782 E6.71999
G1 X91.663 Y99.352 E6.74085
G1 X91.633 Y99.908 E6.76122
G1 X91.581 Y100.497 E6.78285
G1 X91.506 Y101.123 E6.80592
G1 X91.355 Y102.133 E6.84328
G1 X91.173 Y103.112 E6.87971
G1 X90.919 Y104.293 E6.92391
G1 X90.617 Y105.533 E6.9706
G1 X90.272 Y106.813 E7.0191
G1 X89.943 Y107.941 E7.06209
G1 X89.881 Y108.155 E7.07024
G1 X89.722 Y108.667 E7.08986
G1 X89.611 Y108.223 E7.09518
G1 X89.557 Y108.007 E7.10213
G1 X86.485 Y95.72 E7.5655
G1 X85.552 Y95.714 E7.59963
G1 X83.484 Y103.707 E7.9017
G1 X81.516 Y103.707 E7.9737
G1 X79.449 Y95.715 E8.27572
G0 F3600 X79.14 Y96.117
;TYPE:WALL-OUTER
G1 F1500 X78.829 Y96.119 E8.28709
G1 X78.787 Y96.287 E8.29343
G1 X77.278 Y102.32 E8.52095
G1 X77.235 Y102.495 E8.52755
G1 X77.158 Y102.804 E8.5392
G1 X75.493 Y109.461 E8.79025
G1 X75.325 Y110.135 E8.81567
G1 X75.111 Y109.475 E8.82884
G1 X75.11 Y109.474 E8.82889
G1 X75.082 Y109.389 E8.83216
G1 X74.744 Y108.301 E8.87384
G1 X74.358 Y106.975 E8.92437
G1 X74.01 Y105.687 E8.97318
G1 X73.707 Y104.452 E9.01971
G1 X73.511 Y103.551 E9.05344
G1 X73.497 Y103.486 E9.05587
G1 X73.45 Y103.272 E9.06389
G1 X73.426 Y103.144 E9.06866
G1 X73.372 Y102.866 E9.07902
G1 X73.33 Y102.65 E9.08707
G1 X73.411 Y102.858 E9.08755
G1 X73.566 Y103.116 E9.0904
G1 X73.59 Y103.142
G1 X73.838 Y103.411 E9.10042
G1 X73.892 Y103.45 E9.10271
G1 X74.079 Y103.589 E9.11123
G1 X74.442 Y103.765 E9.12599
G1 X74.832 Y103.855 E9.14064
G1 X75.134 Y103.87 E9.1517
G1 X75.53 Y103.809 E9.16636
G1 X75.814 Y103.709 E9.17737
G1 X76.158 Y103.507 E9.19197
G1 X76.383 Y103.309 E9.20293
G1 X76.596 Y103.043 E9.2154
G1 X76.745 Y102.783 E9.22637
G1 X76.77 Y102.706 E9.22933
G1 X76.867 Y102.403 E9.24066
G1 X76.89 Y102.224 E9.24711
G1 X76.906 Y102.104 E9.25154
G1 X76.88 Y101.705 E9.26617
G1 X76.805 Y101.414 E9.27717
G1 X76.633 Y101.049 E9.29193
G1 X76.383 Y100.734 E9.30664
G1 X76.159 Y100.533 E9.31765
G1 X75.813 Y100.333 E9.33227
G1 X75.531 Y100.231 E9.34325
G1 X75.136 Y100.172 E9.35786
G1 X74.834 Y100.185 E9.36892
G1 X74.442 Y100.276 E9.38364
G1 X74.081 Y100.452 E9.39833
G1 X73.837 Y100.628 E9.40934
G1 X73.567 Y100.926 E9.42405
G1 X73.478 Y101.07 E9.43025
G1 X73.41 Y101.181 E9.43501
G1 X73.268 Y101.556 E9.44968
G1 X73.259 Y101.611 E9.45172
G1 X73.217 Y101.849 E9.46056
G1 X73.217 Y101.978 E9.46528
G1 X73.197 Y101.853 E9.46536
G1 X73.154 Y101.593 E9.46731
G1 X73.152 Y101.572
G1 X73.106 Y101.222 E9.47499
G1 X73.089 Y101.093 E9.47923
G1 X73.054 Y100.833 E9.48883
G1 X72.987 Y100.171 E9.51317
G1 X72.947 Y99.579 E9.53488
G1 X72.929 Y98.985 E9.55662
G1 X72.935 Y98.465 E9.57565
G1 X72.962 Y97.981 E9.59338
G1 X73.012 Y97.519 E9.61038
G1 X73.08 Y97.117 E9.6253
G1 X73.172 Y96.726 E9.63999
G1 X73.274 Y96.398 E9.65256
G1 X73.416 Y96.045 E9.66648
G1 X73.552 Y95.777 E9.67748
G1 X73.718 Y95.519 E9.6887
G1 X73.894 Y95.294 E9.69915
G1 X74.078 Y95.101 E9.70891
G1 X74.302 Y94.913 E9.71961
G1 X74.554 Y94.743 E9.73073
G1 X74.776 Y94.62 E9.74002
G1 X75.078 Y94.486 E9.7521
G1 X75.418 Y94.374 E9.7652
G1 X75.735 Y94.295 E9.77715
G1 X76.676 Y94.099 E9.81232
G1 X76.872 Y94.058 E9.81964
G1 X76.83 Y93.862 E9.82438
G1 X76.137 Y90.686 E9.94331
G1 X75.477 Y87.524 E10.06149
G1 X74.991 Y85.08 E10.15265
G1 X74.342 Y81.657 E10.28012
G1 X73.907 Y79.196 E10.37155
G1 X73.599 Y77.309 E10.4415
G1 X73.368 Y75.753 E10.49906
G1 X73.208 Y74.522 E10.54447
G1 X73.087 Y73.409 E10.58543
G1 X73.021 Y72.638 E10.61374
G1 X72.978 Y72.028 E10.63612
G1 X72.945 Y71.259 E10.66428
G1 X72.933 Y70.666 E10.68598
G1 X72.942 Y69.906 E10.71378
G1 X72.968 Y69.305 E10.73579
G1 X73.027 Y68.552 E10.76343
G1 X73.095 Y67.957 E10.78534
G1 X73.185 Y67.354 E10.80764
G1 X73.331 Y66.593 E10.83599
G1 X73.513 Y65.817 E10.86515
G1 X73.731 Y65.034 E10.89489
G1 X73.926 Y64.414 E10.91867
G1 X74.203 Y63.636 E10.94888
G1 X74.514 Y62.85 E10.97981
G1 X74.778 Y62.235 E11.0043
G1 X75.144 Y61.458 E11.03572
G1 X75.541 Y60.682 E11.06761
G1 X75.968 Y59.91 E11.09989
G1 X76.314 Y59.32 E11.12491
