; generated by Slic3r Prusa Edition 1.39.1-prusa3d on 2018-05-09 at 12:53:31

; 

; external perimeters extrusion width = 0.45mm
; perimeters extrusion width = 0.45mm
; infill extrusion width = 0.45mm
; solid infill extrusion width = 0.45mm
; top infill extrusion width = 0.33mm
; first layer extrusion width = 0.42mm

M107
M115 U3.1.0 ; tell printer latest fw version
M201 X9000 Y9000 Z500 E10000 ; sets maximum accelerations, mm/sec^2
M203 X500 Y500 Z12 E120 ; sets maximum feedrates, mm/sec
M204 S1500 T1500 ; sets acceleration (S) and retract acceleration (T)
M205 X10 Y10 Z0.2 E2.5 ; sets the jerk limits, mm/sec
M205 S0 T0 ; sets the minimum extruding and travel feed rate, mm/sec
M83  ; extruder relative mode
M104 S200 ; set extruder temp
M140 S65 ; set bed temp
M190 S65 ; wait for bed temp
M109 S200 ; wait for extruder temp
G28 W ; home all without mesh bed level
G80 ; mesh bed leveling
G1 Y-3.0 F1000.0 ; go outside print area
G92 E0.0
G1 E18.0 F1000.0;
G1 X60.0 E9.0  F1000.0 ; intro line
G1 X100.0 E12.5  F1000.0 ; intro line
G92 E0.0
M900 K30; Filament gcode
G21 ; set units to millimeters
G90 ; use absolute coordinates
M83 ; use relative distances for extrusion
;BEFORE_LAYER_CHANGE
;0.2


G1 E-0.80000 F2100.00000
G1 Z0.600 F7200.000
;AFTER_LAYER_CHANGE
;0.2
G1 X87.928 Y84.328 F7200.000
G1 Z0.200 F7200.000
G1 E0.80000 F2100.00000
M204 S1000
G1 F900
G1 X89.396 Y83.205 E0.05794
G1 X90.953 Y82.152 E0.05892
G1 X92.336 Y81.370 E0.04982
G1 X93.512 Y80.845 E0.04038
G1 X94.724 Y80.442 E0.04005
G1 X96.275 Y80.088 E0.04989
G1 X99.854 Y79.668 E0.11297
G1 X103.689 Y80.108 E0.12103
G1 X105.361 Y80.492 E0.05381
G1 X106.677 Y80.942 E0.04361
G1 X107.932 Y81.528 E0.04344
G1 X109.398 Y82.409 E0.05361
G1 X111.056 Y83.618 E0.06434
G1 X112.486 Y84.779 E0.05775
G1 X113.660 Y86.157 E0.05677
G1 X114.898 Y87.775 E0.06388
G1 X115.794 Y89.195 E0.05265
G1 X116.403 Y90.438 E0.04338
G1 X116.873 Y91.751 E0.04375
G1 X117.265 Y93.384 E0.05266
G1 X117.727 Y97.179 E0.11986
G1 X117.345 Y100.612 E0.10831
G1 X117.089 Y101.888 E0.04079
G1 X116.742 Y103.115 E0.03997
G1 X116.396 Y104.036 E0.03086
G1 X115.825 Y105.216 E0.04112
G1 X114.430 Y107.356 E0.08010
G1 X112.674 Y109.534 E0.08772
G1 X104.897 Y118.560 E0.37356
G1 X103.932 Y119.330 E0.03872
G1 X102.822 Y119.899 E0.03910
G1 X101.820 Y120.198 E0.03279
G1 X100.598 Y120.331 E0.03852
G1 X99.041 Y120.312 E0.04882
G1 X97.775 Y120.079 E0.04039
G1 X96.558 Y119.577 E0.04128
G1 X95.469 Y118.828 E0.04141
G1 X94.821 Y118.186 E0.02862
G1 X85.895 Y107.808 E0.42921
G1 X84.914 Y106.474 E0.05191
G1 X84.242 Y105.392 E0.03993
G1 X83.642 Y104.191 E0.04209
G1 X83.298 Y103.304 E0.02984
G1 X82.928 Y102.038 E0.04134
G1 X82.672 Y100.802 E0.03959
G1 X82.273 Y97.446 E0.10597
G1 X82.481 Y95.095 E0.07401
G1 X82.742 Y93.326 E0.05606
G1 X83.164 Y91.568 E0.05667
G1 X83.667 Y90.183 E0.04622
G1 X84.340 Y88.854 E0.04671
G1 X85.338 Y87.351 E0.05655
G1 X86.462 Y85.956 E0.05618
G1 X87.888 Y84.372 E0.06681
G1 X88.168 Y84.624 F7200.000
G1 F900
G1 X89.617 Y83.511 E0.05731
G1 X91.157 Y82.469 E0.05828
G1 X92.505 Y81.707 E0.04855
G1 X93.648 Y81.196 E0.03926
G1 X94.827 Y80.804 E0.03896
G1 X96.345 Y80.459 E0.04881
G1 X99.856 Y80.045 E0.11083
G1 X103.631 Y80.480 E0.11915
G1 X105.257 Y80.854 E0.05233
G1 X106.535 Y81.291 E0.04233
G1 X107.756 Y81.862 E0.04228
G1 X109.189 Y82.723 E0.05241
G1 X112.221 Y85.047 E0.11977
G1 X114.588 Y87.989 E0.11838
G1 X115.471 Y89.391 E0.05197
G1 X116.055 Y90.584 E0.04164
G1 X116.512 Y91.861 E0.04254
G1 X116.898 Y93.472 E0.05192
G1 X117.350 Y97.184 E0.11727
G1 X116.971 Y100.564 E0.10663
G1 X116.380 Y103.010 E0.07889
G1 X115.487 Y105.048 E0.06978
G1 X114.124 Y107.136 E0.07818
G1 X112.388 Y109.288 E0.08669
G1 X104.647 Y118.278 E0.37198
G1 X103.718 Y119.020 E0.03726
G1 X102.666 Y119.555 E0.03701
G1 X101.727 Y119.833 E0.03070
G1 X100.579 Y119.955 E0.03619
G1 X99.081 Y119.937 E0.04700
G1 X97.882 Y119.717 E0.03821
G1 X96.721 Y119.237 E0.03940
G1 X95.694 Y118.525 E0.03916
G1 X95.096 Y117.927 E0.02653
G1 X86.186 Y107.568 E0.42840
G1 X85.224 Y106.259 E0.05096
G1 X84.568 Y105.203 E0.03896
G1 X83.654 Y103.181 E0.06959
G1 X83.293 Y101.946 E0.04036
G1 X83.041 Y100.722 E0.03919
G1 X82.650 Y97.440 E0.10363
G1 X82.856 Y95.137 E0.07249
G1 X83.112 Y93.400 E0.05504
G1 X83.526 Y91.674 E0.05567
G1 X84.015 Y90.329 E0.04484
G1 X84.666 Y89.045 E0.04515
G1 X85.644 Y87.571 E0.05546
G1 X86.747 Y86.203 E0.05511
G1 X88.128 Y84.669 E0.06470
G1 F5760
G1 X89.617 Y83.511 E-0.65349
G1 F5760
G1 X89.872 Y83.338 E-0.10651
G1 E-0.04000 F2100.00000
G1 Z0.800 F7200.000
G1 X97.450 Y111.270 F7200.000
G1 Z0.200 F7200.000
G1 E0.80000 F2100.00000
G1 F900
G1 X100.073 Y111.538 E0.08270
G1 X102.626 Y111.271 E0.08046
G1 X102.615 Y114.787 E0.11022
G1 X102.508 Y115.187 E0.01300
G1 X102.300 Y115.547 E0.01303
G1 X102.020 Y115.827 E0.01242
G1 X101.815 Y115.964 E0.00773
G1 X101.449 Y116.116 E0.01242
G1 X101.075 Y116.165 E0.01181
G1 X98.998 Y116.165 E0.06512
G1 X98.625 Y116.116 E0.01181
G1 X98.241 Y115.957 E0.01303
G1 X97.926 Y115.716 E0.01242
G1 X97.764 Y115.530 E0.00773
G1 X97.566 Y115.187 E0.01242
G1 X97.463 Y114.805 E0.01242
G1 X97.450 Y114.597 E0.00652
G1 X97.450 Y111.330 E0.10243
G1 X97.827 Y111.688 F7200.000
G1 F900
G1 X100.074 Y111.917 E0.07083
G1 X102.247 Y111.690 E0.06852
G1 X102.238 Y114.737 E0.09552
G1 X102.156 Y115.042 E0.00991
G1 X101.998 Y115.316 E0.00992
G1 X101.779 Y115.535 E0.00970
G1 X101.636 Y115.630 E0.00540
G1 X101.350 Y115.749 E0.00970
G1 X101.050 Y115.788 E0.00948
G1 X99.023 Y115.788 E0.06357
G1 X98.723 Y115.749 E0.00948
G1 X98.431 Y115.628 E0.00992
G1 X98.185 Y115.439 E0.00970
G1 X98.072 Y115.310 E0.00540
G1 X97.917 Y115.042 E0.00970
G1 X97.837 Y114.743 E0.00970
G1 X97.827 Y111.748 E0.09391
G1 X97.850 Y111.289 F7200.000
G1 F5760
G1 X100.015 Y111.912 E-0.76000
G1 E-0.04000 F2100.00000
G1 Z0.800 F7200.000
G1 X100.018 Y108.655 F7200.000
G1 Z0.200 F7200.000
G1 E0.80000 F2100.00000
G1 F900
G1 X98.353 Y108.484 E0.05247
G1 X97.545 Y108.360 E0.02565
G1 X97.006 Y108.249 E0.01724
G1 X96.470 Y108.109 E0.01738
G1 X95.692 Y107.838 E0.02581
G1 X94.950 Y107.483 E0.02581
G1 X94.470 Y107.204 E0.01739
G1 X94.010 Y106.903 E0.01725
G1 X93.349 Y106.420 E0.02566
G1 X92.047 Y105.363 E0.05258
G1 X90.998 Y104.048 E0.05276
G1 X90.519 Y103.380 E0.02575
G1 X90.221 Y102.916 E0.01731
G1 X89.945 Y102.432 E0.01745
G1 X89.595 Y101.684 E0.02591
G1 X89.328 Y100.902 E0.02590
G1 X89.191 Y100.363 E0.01744
G1 X89.082 Y99.822 E0.01731
G1 X88.961 Y99.010 E0.02575
G1 X88.797 Y97.341 E0.05258
G1 X88.960 Y95.622 E0.05414
G1 X89.082 Y94.785 E0.02651
G1 X89.193 Y94.228 E0.01781
G1 X89.333 Y93.674 E0.01793
G1 X89.607 Y92.870 E0.02663
G1 X89.970 Y92.102 E0.02664
G1 X90.257 Y91.606 E0.01796
G1 X90.568 Y91.130 E0.01782
G1 X91.067 Y90.448 E0.02651
G1 X92.163 Y89.109 E0.05426
G1 X93.433 Y88.092 E0.05102
G1 X94.077 Y87.627 E0.02489
G1 X94.524 Y87.335 E0.01674
G1 X94.989 Y87.064 E0.01687
G1 X95.708 Y86.715 E0.02507
G1 X96.465 Y86.444 E0.02521
G1 X97.242 Y86.243 E0.02516
G1 X98.282 Y86.061 E0.03312
G1 X99.907 Y85.877 E0.05126
G1 X101.581 Y86.046 E0.05277
G1 X102.395 Y86.170 E0.02580
G1 X102.937 Y86.280 E0.01734
G1 X103.471 Y86.419 E0.01731
G1 X104.004 Y86.593 E0.01756
G1 X104.760 Y86.918 E0.02581
G1 X105.253 Y87.183 E0.01753
G1 X105.727 Y87.474 E0.01746
G1 X106.618 Y88.107 E0.03424
G1 X107.934 Y89.168 E0.05304
G1 X108.987 Y90.501 E0.05326
G1 X109.467 Y91.176 E0.02595
G1 X109.766 Y91.645 E0.01744
G1 X110.043 Y92.133 E0.01758
G1 X110.394 Y92.888 E0.02611
G1 X110.663 Y93.676 E0.02610
G1 X110.802 Y94.219 E0.01757
G1 X110.912 Y94.764 E0.01744
G1 X111.035 Y95.582 E0.02595
G1 X111.203 Y97.264 E0.05300
G1 X111.043 Y98.945 E0.05294
G1 X110.923 Y99.763 E0.02592
G1 X110.816 Y100.308 E0.01741
G1 X110.680 Y100.851 E0.01755
G1 X110.416 Y101.639 E0.02607
G1 X110.069 Y102.395 E0.02607
G1 X109.795 Y102.883 E0.01757
G1 X109.497 Y103.353 E0.01742
G1 X109.021 Y104.028 E0.02592
G1 X107.973 Y105.361 E0.05314
G1 X106.676 Y106.422 E0.05254
G1 X106.018 Y106.906 E0.02562
G1 X105.559 Y107.208 E0.01723
G1 X105.080 Y107.487 E0.01737
G1 X104.339 Y107.842 E0.02578
G1 X103.563 Y108.113 E0.02577
G1 X103.027 Y108.252 E0.01736
G1 X102.489 Y108.363 E0.01722
G1 X101.681 Y108.487 E0.02562
G1 X100.078 Y108.649 E0.05053
G1 X100.040 Y108.273 F7200.000
G1 F900
G1 X98.401 Y108.110 E0.05164
G1 X97.611 Y107.989 E0.02506
G1 X97.092 Y107.881 E0.01664
G1 X96.579 Y107.748 E0.01660
G1 X95.836 Y107.489 E0.02468
G1 X95.126 Y107.149 E0.02468
G1 X94.668 Y106.883 E0.01660
G1 X94.224 Y106.593 E0.01664
G1 X93.579 Y106.121 E0.02505
G1 X92.317 Y105.096 E0.05100
G1 X91.299 Y103.820 E0.05118
G1 X90.831 Y103.168 E0.02514
G1 X90.543 Y102.720 E0.01670
G1 X90.280 Y102.259 E0.01666
G1 X89.945 Y101.543 E0.02478
G1 X89.690 Y100.795 E0.02479
G1 X89.559 Y100.279 E0.01667
G1 X89.454 Y99.757 E0.01671
G1 X89.335 Y98.963 E0.02516
G1 X89.176 Y97.340 E0.05114
G1 X89.334 Y95.667 E0.05270
G1 X89.454 Y94.849 E0.02591
G1 X89.561 Y94.311 E0.01720
G1 X89.695 Y93.781 E0.01715
G1 X89.957 Y93.012 E0.02549
G1 X90.304 Y92.277 E0.02548
G1 X90.578 Y91.804 E0.01714
G1 X90.878 Y91.345 E0.01718
G1 X91.366 Y90.679 E0.02588
G1 X92.430 Y89.378 E0.05269
G1 X93.662 Y88.392 E0.04948
G1 X94.290 Y87.938 E0.02432
G1 X94.722 Y87.656 E0.01616
G1 X95.166 Y87.397 E0.01613
G1 X95.855 Y87.064 E0.02399
G1 X96.576 Y86.804 E0.02403
G1 X97.322 Y86.612 E0.02414
G1 X98.337 Y86.434 E0.03233
G1 X99.907 Y86.256 E0.04954
G1 X101.534 Y86.420 E0.05127
G1 X102.329 Y86.541 E0.02521
G1 X102.852 Y86.648 E0.01674
G1 X103.366 Y86.781 E0.01664
G1 X103.871 Y86.946 E0.01666
G1 X104.596 Y87.258 E0.02476
G1 X105.064 Y87.510 E0.01667
G1 X105.519 Y87.789 E0.01673
G1 X106.390 Y88.407 E0.03349
G1 X107.665 Y89.435 E0.05135
G1 X108.685 Y90.728 E0.05163
G1 X109.154 Y91.387 E0.02536
G1 X109.443 Y91.840 E0.01684
G1 X109.707 Y92.306 E0.01681
G1 X110.044 Y93.029 E0.02500
G1 X110.301 Y93.783 E0.02500
G1 X110.434 Y94.303 E0.01681
G1 X110.540 Y94.829 E0.01685
G1 X110.661 Y95.629 E0.02536
G1 X110.824 Y97.265 E0.05155
G1 X110.668 Y98.900 E0.05149
G1 X110.551 Y99.700 E0.02533
G1 X110.448 Y100.226 E0.01682
G1 X110.318 Y100.745 E0.01678
G1 X110.065 Y101.500 E0.02496
G1 X109.733 Y102.224 E0.02496
G1 X109.471 Y102.690 E0.01678
G1 X109.184 Y103.143 E0.01682
G1 X108.718 Y103.803 E0.02532
G1 X107.703 Y105.095 E0.05153
G1 X106.445 Y106.124 E0.05094
G1 X105.802 Y106.596 E0.02501
G1 X105.360 Y106.887 E0.01661
G1 X104.904 Y107.154 E0.01657
G1 X104.195 Y107.493 E0.02463
G1 X103.453 Y107.752 E0.02464
G1 X102.942 Y107.885 E0.01657
G1 X102.423 Y107.992 E0.01661
G1 X101.634 Y108.112 E0.02502
G1 X100.100 Y108.267 E0.04835
G1 X99.831 Y108.614 F7200.000
G1 F5760
G1 X98.401 Y108.110 E-0.59079
G1 F5760
G1 X97.918 Y108.036 E-0.16921
G1 E-0.04000 F2100.00000
G1 Z0.800 F7200.000
G1 X105.163 Y110.690 F7200.000
G1 Z0.200 F7200.000
G1 E0.80000 F2100.00000
G1 F900
G1 X104.736 Y110.997 E0.01649
G1 X104.355 Y111.367 E0.01664
G1 X104.049 Y111.765 E0.01575
G1 X103.902 Y112.006 E0.00884
G1 X103.689 Y112.460 E0.01574
G1 X103.596 Y112.733 E0.00905
G1 X103.490 Y113.212 E0.01536
G1 X103.458 Y113.493 E0.00886
G1 X103.441 Y114.290 E0.02501
G1 X103.420 Y114.493 E0.00639
G1 X103.385 Y114.687 E0.00619
G1 X103.262 Y115.106 E0.01368
G1 X103.190 Y115.278 E0.00586
G1 X102.981 Y115.661 E0.01368
G1 X102.874 Y115.815 E0.00586
G1 X102.595 Y116.137 E0.01336
G1 X102.282 Y116.409 E0.01299
G1 X102.119 Y116.523 E0.00624
G1 X101.746 Y116.726 E0.01332
G1 X101.347 Y116.875 E0.01335
G1 X101.166 Y116.921 E0.00586
G1 X100.742 Y116.982 E0.01342
G1 X99.556 Y116.991 E0.03721
G1 X99.112 Y116.959 E0.01395
G1 X98.928 Y116.926 E0.00586
G1 X98.519 Y116.806 E0.01336
G1 X98.142 Y116.634 E0.01299
G1 X97.961 Y116.528 E0.00657
G1 X97.800 Y116.416 E0.00616
G1 X97.478 Y116.137 E0.01336
G1 X97.206 Y115.824 E0.01299
G1 X97.092 Y115.660 E0.00624
G1 X96.883 Y115.278 E0.01365
G1 X96.812 Y115.105 E0.00587
G1 X96.692 Y114.698 E0.01332
G1 X96.654 Y114.492 E0.00657
G1 X96.632 Y114.290 E0.00636
G1 X96.615 Y113.497 E0.02488
G1 X96.584 Y113.220 E0.00874
G1 X96.477 Y112.738 E0.01546
G1 X96.381 Y112.458 E0.00929
G1 X96.171 Y112.010 E0.01551
G1 X96.018 Y111.761 E0.00918
G1 X95.710 Y111.362 E0.01580
G1 X95.332 Y110.998 E0.01644
G1 X94.903 Y110.691 E0.01654
G1 X93.540 Y110.017 E0.04769
G1 X92.958 Y109.677 E0.02111
G1 X92.384 Y109.303 E0.02150
G1 X91.529 Y108.686 E0.03304
G1 X89.874 Y107.365 E0.06642
G1 X88.506 Y105.722 E0.06702
G1 X87.871 Y104.876 E0.03315
G1 X87.303 Y104.009 E0.03252
G1 X86.976 Y103.424 E0.02100
G1 X86.568 Y102.522 E0.03104
G1 X86.351 Y101.889 E0.02098
G1 X86.093 Y100.895 E0.03220
G1 X85.904 Y99.863 E0.03292
G1 X85.762 Y98.796 E0.03373
G1 X85.616 Y97.393 E0.04422
G1 X85.801 Y95.471 E0.06055
G1 X85.900 Y94.706 E0.02420
G1 X86.024 Y93.954 E0.02386
G1 X86.178 Y93.224 E0.02341
G1 X86.368 Y92.517 E0.02296
G1 X86.603 Y91.830 E0.02275
G1 X86.736 Y91.506 E0.01100
G1 X86.881 Y91.187 E0.01097
G1 X87.221 Y90.548 E0.02268
G1 X87.607 Y89.929 E0.02287
G1 X88.036 Y89.322 E0.02333
G1 X88.503 Y88.723 E0.02379
G1 X88.997 Y88.133 E0.02414
G1 X90.283 Y86.701 E0.06034
G1 X91.898 Y85.530 E0.06255
G1 X93.016 Y84.808 E0.04174
G1 X93.575 Y84.491 E0.02015
G1 X94.142 Y84.208 E0.01985
G1 X95.026 Y83.848 E0.02993
G1 X95.624 Y83.659 E0.01968
G1 X96.246 Y83.503 E0.02010
G1 X96.884 Y83.374 E0.02042
G1 X97.536 Y83.268 E0.02069
G1 X98.540 Y83.142 E0.03174
G1 X99.854 Y83.012 E0.04140
G1 X102.022 Y83.232 E0.06831
G1 X102.737 Y83.335 E0.02264
G1 X103.438 Y83.461 E0.02236
G1 X104.122 Y83.618 E0.02198
G1 X104.785 Y83.809 E0.02162
G1 X105.729 Y84.169 E0.03169
G1 X106.658 Y84.641 E0.03265
G1 X107.555 Y85.196 E0.03309
G1 X108.435 Y85.821 E0.03384
G1 X110.145 Y87.168 E0.06826
G1 X111.516 Y88.824 E0.06741
G1 X112.154 Y89.681 E0.03349
G1 X112.539 Y90.257 E0.02174
G1 X112.888 Y90.845 E0.02143
G1 X113.196 Y91.449 E0.02127
G1 X113.451 Y92.054 E0.02058
G1 X113.668 Y92.697 E0.02127
G1 X113.845 Y93.357 E0.02143
G1 X113.988 Y94.036 E0.02174
G1 X114.156 Y95.090 E0.03349
G1 X114.383 Y97.230 E0.06748
G1 X114.243 Y98.642 E0.04449
G1 X114.047 Y100.075 E0.04534
G1 X113.841 Y101.104 E0.03289
G1 X113.560 Y102.094 E0.03227
G1 X113.193 Y103.020 E0.03123
G1 X112.887 Y103.623 E0.02122
G1 X112.350 Y104.511 E0.03255
G1 X111.738 Y105.377 E0.03325
G1 X111.069 Y106.233 E0.03405
G1 X110.160 Y107.332 E0.04472
G1 X109.079 Y108.224 E0.04393
G1 X108.237 Y108.881 E0.03349
G1 X107.385 Y109.484 E0.03273
G1 X106.515 Y110.014 E0.03194
G1 X105.217 Y110.663 E0.04552
G1 X105.385 Y111.001 F7200.000
G1 F900
G1 X104.979 Y111.287 E0.01559
G1 X104.637 Y111.618 E0.01491
G1 X104.360 Y111.978 E0.01425
G1 X104.235 Y112.184 E0.00756
G1 X104.039 Y112.601 E0.01444
G1 X103.960 Y112.835 E0.00775
G1 X103.862 Y113.274 E0.01408
G1 X103.835 Y113.518 E0.00769
G1 X103.818 Y114.314 E0.02498
G1 X103.793 Y114.546 E0.00732
G1 X103.752 Y114.774 E0.00725
G1 X103.618 Y115.231 E0.01495
G1 X103.531 Y115.441 E0.00713
G1 X103.302 Y115.860 E0.01495
G1 X103.173 Y116.047 E0.00713
G1 X102.863 Y116.404 E0.01484
G1 X102.515 Y116.706 E0.01445
G1 X102.318 Y116.844 E0.00752
G1 X101.903 Y117.070 E0.01482
G1 X101.460 Y117.236 E0.01483
G1 X101.240 Y117.292 E0.00713
G1 X100.771 Y117.359 E0.01486
G1 X99.543 Y117.368 E0.03848
G1 X99.065 Y117.334 E0.01505
G1 X98.841 Y117.293 E0.00713
G1 X98.387 Y117.160 E0.01484
G1 X97.968 Y116.969 E0.01445
G1 X97.758 Y116.845 E0.00763
G1 X97.568 Y116.714 E0.00723
G1 X97.211 Y116.404 E0.01484
G1 X96.908 Y116.056 E0.01445
G1 X96.771 Y115.859 E0.00752
G1 X96.543 Y115.441 E0.01494
G1 X96.456 Y115.231 E0.00713
G1 X96.324 Y114.785 E0.01457
G1 X96.280 Y114.546 E0.00763
G1 X96.255 Y114.314 E0.00731
G1 X96.238 Y113.522 E0.02486
G1 X96.212 Y113.282 E0.00757
G1 X96.113 Y112.841 E0.01416
G1 X96.031 Y112.600 E0.00799
G1 X95.838 Y112.190 E0.01420
G1 X95.707 Y111.975 E0.00788
G1 X95.428 Y111.615 E0.01430
G1 X95.090 Y111.289 E0.01472
G1 X94.708 Y111.016 E0.01472
G1 X93.361 Y110.349 E0.04714
G1 X92.760 Y109.998 E0.02181
G1 X92.171 Y109.614 E0.02207
G1 X91.301 Y108.986 E0.03361
G1 X89.609 Y107.635 E0.06790
G1 X88.210 Y105.956 E0.06853
G1 X87.563 Y105.093 E0.03382
G1 X86.980 Y104.205 E0.03331
G1 X86.640 Y103.598 E0.02182
G1 X86.343 Y102.971 E0.02175
G1 X86.215 Y102.654 E0.01070
G1 X85.989 Y101.998 E0.02176
