; generated by Slic3r Prusa Edition 1.39.1-prusa3d on 2018-04-22 at 18:21:13

; 

; external perimeters extrusion width = 0.45mm
; perimeters extrusion width = 0.45mm
; infill extrusion width = 0.45mm
; solid infill extrusion width = 0.45mm
; top infill extrusion width = 0.33mm
; first layer extrusion width = 0.42mm

M107
M115 U3.1.0 ; tell printer latest fw version
M201 X9000 Y9000 Z500 E10000 ; sets maximum accelerations, mm/sec^2
M203 X500 Y500 Z12 E120 ; sets maximum feedrates, mm/sec
M204 S1500 T1500 ; sets acceleration (S) and retract acceleration (T)
M205 X10 Y10 Z0.2 E2.5 ; sets the jerk limits, mm/sec
M205 S0 T0 ; sets the minimum extruding and travel feed rate, mm/sec
M83  ; extruder relative mode
M104 S215 ; set extruder temp
M140 S60 ; set bed temp
M190 S60 ; wait for bed temp
M109 S215 ; wait for extruder temp
G28 W ; home all without mesh bed level
G80 ; mesh bed leveling
G1 Y-3.0 F1000.0 ; go outside print area
G92 E0.0
G1 E18.0 F1000.0;
G1 X60.0 E9.0  F1000.0 ; intro line
G1 X100.0 E12.5  F1000.0 ; intro line
G92 E0.0
M900 K30; Filament gcode
G21 ; set units to millimeters
G90 ; use absolute coordinates
M83 ; use relative distances for extrusion
;BEFORE_LAYER_CHANGE
;0.2


G1 E-0.80000 F2100.00000
G1 Z0.600 F7200.000
;AFTER_LAYER_CHANGE
;0.2
G1 X112.928 Y89.328 F7200.000
G1 Z0.200 F7200.000
G1 E0.80000 F2100.00000
M204 S1000
G1 F900
G1 X114.396 Y88.205 E0.05794
G1 X115.964 Y87.145 E0.05936
G1 X117.346 Y86.365 E0.04974
G1 X118.512 Y85.845 E0.04003
G1 X119.728 Y85.441 E0.04018
G1 X121.275 Y85.088 E0.04976
G1 X124.854 Y84.668 E0.11297
G1 X128.689 Y85.108 E0.12103
G1 X130.361 Y85.492 E0.05381
G1 X131.677 Y85.942 E0.04361
G1 X132.932 Y86.528 E0.04344
G1 X134.387 Y87.402 E0.05322
G1 X136.056 Y88.618 E0.06472
G1 X137.486 Y89.779 E0.05775
G1 X138.660 Y91.157 E0.05677
G1 X139.898 Y92.775 E0.06388
G1 X140.794 Y94.195 E0.05265
G1 X141.403 Y95.438 E0.04338
G1 X141.873 Y96.751 E0.04375
G1 X142.265 Y98.384 E0.05266
G1 X142.727 Y102.179 E0.11986
G1 X142.345 Y105.612 E0.10831
G1 X142.089 Y106.888 E0.04079
G1 X141.742 Y108.115 E0.03997
G1 X141.396 Y109.037 E0.03088
G1 X140.825 Y110.216 E0.04109
G1 X139.430 Y112.356 E0.08010
G1 X137.674 Y114.534 E0.08772
G1 X129.894 Y123.563 E0.37369
G1 X128.928 Y124.332 E0.03872
G1 X127.818 Y124.900 E0.03910
G1 X126.816 Y125.199 E0.03279
G1 X125.586 Y125.332 E0.03878
G1 X124.054 Y125.313 E0.04804
G1 X122.772 Y125.078 E0.04087
G1 X121.558 Y124.577 E0.04118
G1 X120.466 Y123.826 E0.04154
G1 X119.821 Y123.186 E0.02849
G1 X110.895 Y112.808 E0.42921
G1 X109.920 Y111.482 E0.05159
G1 X109.242 Y110.392 E0.04025
G1 X108.642 Y109.191 E0.04209
G1 X108.298 Y108.304 E0.02984
G1 X107.928 Y107.038 E0.04134
G1 X107.669 Y105.788 E0.04003
G1 X107.273 Y102.446 E0.10553
G1 X107.481 Y100.095 E0.07400
G1 X107.740 Y98.341 E0.05557
G1 X108.165 Y96.567 E0.05719
G1 X108.667 Y95.183 E0.04618
G1 X109.332 Y93.868 E0.04618
G1 X110.337 Y92.353 E0.05702
G1 X111.454 Y90.966 E0.05582
G1 X112.888 Y89.372 E0.06723
G1 X113.168 Y89.624 F7200.000
G1 F900
G1 X114.617 Y88.511 E0.05730
G1 X116.165 Y87.464 E0.05860
G1 X117.515 Y86.702 E0.04859
G1 X118.648 Y86.196 E0.03891
G1 X119.827 Y85.804 E0.03897
G1 X121.345 Y85.459 E0.04881
G1 X124.856 Y85.045 E0.11083
G1 X128.631 Y85.480 E0.11915
G1 X130.257 Y85.854 E0.05233
G1 X131.535 Y86.291 E0.04233
G1 X132.756 Y86.862 E0.04228
G1 X134.189 Y87.723 E0.05242
G1 X137.221 Y90.047 E0.11977
G1 X139.588 Y92.989 E0.11838
G1 X140.471 Y94.391 E0.05197
G1 X141.055 Y95.584 E0.04164
G1 X141.512 Y96.861 E0.04254
G1 X141.898 Y98.472 E0.05192
G1 X142.350 Y102.184 E0.11727
G1 X141.971 Y105.564 E0.10663
G1 X141.380 Y108.010 E0.07889
G1 X140.487 Y110.048 E0.06978
G1 X139.124 Y112.136 E0.07818
G1 X137.388 Y114.288 E0.08669
G1 X129.647 Y123.278 E0.37198
G1 X128.718 Y124.020 E0.03726
G1 X127.666 Y124.555 E0.03701
G1 X126.727 Y124.833 E0.03070
G1 X125.580 Y124.955 E0.03618
G1 X124.080 Y124.937 E0.04702
G1 X122.882 Y124.717 E0.03820
G1 X121.721 Y124.237 E0.03940
G1 X120.694 Y123.525 E0.03916
G1 X120.096 Y122.927 E0.02653
G1 X111.186 Y112.568 E0.42840
G1 X110.223 Y111.259 E0.05096
G1 X109.568 Y110.203 E0.03895
G1 X108.654 Y108.181 E0.06959
G1 X108.293 Y106.946 E0.04036
G1 X108.041 Y105.722 E0.03918
G1 X107.650 Y102.439 E0.10364
G1 X107.856 Y100.137 E0.07249
G1 X108.112 Y98.400 E0.05504
G1 X108.526 Y96.674 E0.05566
G1 X109.015 Y95.329 E0.04485
G1 X109.666 Y94.045 E0.04515
G1 X110.644 Y92.571 E0.05546
G1 X111.747 Y91.203 E0.05511
G1 X113.128 Y89.669 E0.06470
G1 F5760
G1 X114.617 Y88.511 E-0.65344
G1 F5760
G1 X114.872 Y88.338 E-0.10656
G1 E-0.04000 F2100.00000
G1 Z0.800 F7200.000
G1 X122.450 Y116.270 F7200.000
G1 Z0.200 F7200.000
G1 E0.80000 F2100.00000
G1 F900
G1 X125.073 Y116.538 E0.08270
G1 X127.626 Y116.271 E0.08046
G1 X127.615 Y119.787 E0.11022
G1 X127.508 Y120.187 E0.01300
G1 X127.309 Y120.532 E0.01248
G1 X127.140 Y120.722 E0.00795
G1 X126.832 Y120.957 E0.01216
G1 X126.449 Y121.116 E0.01302
G1 X126.075 Y121.165 E0.01181
G1 X123.998 Y121.165 E0.06512
G1 X123.625 Y121.116 E0.01181
G1 X123.241 Y120.957 E0.01303
G1 X122.926 Y120.716 E0.01242
G1 X122.764 Y120.530 E0.00773
G1 X122.575 Y120.204 E0.01181
G1 X122.496 Y119.971 E0.00773
G1 X122.450 Y119.617 E0.01120
G1 X122.450 Y116.330 E0.10303
G1 X122.827 Y116.688 F7200.000
G1 F900
G1 X125.074 Y116.917 E0.07083
G1 X127.247 Y116.690 E0.06852
G1 X127.238 Y119.737 E0.09552
G1 X127.156 Y120.042 E0.00991
G1 X127.001 Y120.310 E0.00972
G1 X126.883 Y120.444 E0.00561
G1 X126.642 Y120.628 E0.00948
G1 X126.350 Y120.749 E0.00991
G1 X126.050 Y120.788 E0.00948
G1 X124.023 Y120.788 E0.06357
G1 X123.723 Y120.749 E0.00948
G1 X123.431 Y120.628 E0.00992
G1 X123.185 Y120.439 E0.00970
G1 X123.072 Y120.310 E0.00540
G1 X122.921 Y120.048 E0.00948
G1 X122.865 Y119.885 E0.00540
G1 X122.827 Y119.592 E0.00927
G1 X122.827 Y116.748 E0.08917
G1 X122.852 Y116.289 F7200.000
G1 F5760
G1 X125.015 Y116.912 E-0.76000
G1 E-0.04000 F2100.00000
G1 Z0.800 F7200.000
G1 X125.018 Y113.655 F7200.000
G1 Z0.200 F7200.000
G1 E0.80000 F2100.00000
G1 F900
G1 X123.353 Y113.484 E0.05247
G1 X122.545 Y113.360 E0.02565
G1 X122.006 Y113.249 E0.01724
G1 X121.470 Y113.109 E0.01738
G1 X120.692 Y112.838 E0.02581
G1 X119.950 Y112.483 E0.02581
G1 X119.470 Y112.204 E0.01739
G1 X119.010 Y111.903 E0.01725
G1 X118.349 Y111.420 E0.02566
G1 X117.047 Y110.363 E0.05258
G1 X115.998 Y109.048 E0.05276
G1 X115.519 Y108.380 E0.02575
G1 X115.221 Y107.916 E0.01731
G1 X114.945 Y107.432 E0.01745
G1 X114.595 Y106.684 E0.02591
G1 X114.328 Y105.902 E0.02590
G1 X114.191 Y105.363 E0.01744
G1 X114.082 Y104.822 E0.01731
G1 X113.961 Y104.010 E0.02575
G1 X113.797 Y102.341 E0.05258
G1 X113.960 Y100.622 E0.05414
G1 X114.082 Y99.785 E0.02651
G1 X114.193 Y99.228 E0.01781
G1 X114.333 Y98.674 E0.01793
G1 X114.607 Y97.870 E0.02663
G1 X114.970 Y97.102 E0.02664
G1 X115.257 Y96.606 E0.01796
G1 X115.568 Y96.130 E0.01782
G1 X116.067 Y95.448 E0.02651
G1 X117.163 Y94.109 E0.05426
G1 X118.433 Y93.092 E0.05102
G1 X119.077 Y92.627 E0.02489
G1 X119.524 Y92.335 E0.01674
G1 X119.989 Y92.064 E0.01687
G1 X120.708 Y91.715 E0.02507
G1 X121.465 Y91.444 E0.02521
G1 X122.242 Y91.243 E0.02516
G1 X123.282 Y91.061 E0.03312
G1 X124.907 Y90.877 E0.05126
G1 X126.581 Y91.046 E0.05277
G1 X127.395 Y91.170 E0.02580
G1 X127.937 Y91.280 E0.01734
G1 X128.471 Y91.419 E0.01731
G1 X129.004 Y91.593 E0.01756
G1 X129.760 Y91.918 E0.02581
G1 X130.253 Y92.183 E0.01753
G1 X130.727 Y92.474 E0.01746
G1 X131.618 Y93.107 E0.03424
G1 X132.934 Y94.168 E0.05304
G1 X133.987 Y95.501 E0.05326
G1 X134.467 Y96.176 E0.02595
G1 X134.766 Y96.645 E0.01744
G1 X135.043 Y97.133 E0.01758
G1 X135.394 Y97.888 E0.02611
G1 X135.663 Y98.676 E0.02610
G1 X135.802 Y99.219 E0.01757
G1 X135.912 Y99.764 E0.01744
G1 X136.035 Y100.582 E0.02595
G1 X136.203 Y102.264 E0.05300
G1 X136.043 Y103.945 E0.05294
G1 X135.923 Y104.763 E0.02592
G1 X135.816 Y105.308 E0.01741
G1 X135.680 Y105.851 E0.01755
G1 X135.416 Y106.639 E0.02607
G1 X135.069 Y107.395 E0.02607
G1 X134.795 Y107.883 E0.01757
G1 X134.497 Y108.353 E0.01742
G1 X134.021 Y109.028 E0.02592
G1 X132.973 Y110.361 E0.05314
G1 X131.676 Y111.422 E0.05254
G1 X131.018 Y111.906 E0.02562
G1 X130.559 Y112.208 E0.01723
G1 X130.080 Y112.487 E0.01737
G1 X129.339 Y112.842 E0.02578
G1 X128.563 Y113.113 E0.02577
G1 X128.027 Y113.252 E0.01736
G1 X127.489 Y113.363 E0.01722
G1 X126.681 Y113.487 E0.02562
G1 X125.078 Y113.649 E0.05053
G1 X125.040 Y113.273 F7200.000
G1 F900
G1 X123.401 Y113.110 E0.05164
G1 X122.611 Y112.989 E0.02506
G1 X122.092 Y112.881 E0.01664
G1 X121.579 Y112.748 E0.01660
G1 X120.836 Y112.489 E0.02468
G1 X120.126 Y112.149 E0.02468
G1 X119.668 Y111.883 E0.01660
G1 X119.224 Y111.593 E0.01664
G1 X118.579 Y111.121 E0.02505
G1 X117.317 Y110.096 E0.05100
G1 X116.299 Y108.820 E0.05118
G1 X115.831 Y108.168 E0.02514
G1 X115.543 Y107.720 E0.01670
G1 X115.280 Y107.259 E0.01666
G1 X114.945 Y106.543 E0.02478
G1 X114.690 Y105.795 E0.02479
G1 X114.559 Y105.279 E0.01667
G1 X114.454 Y104.757 E0.01671
G1 X114.335 Y103.963 E0.02516
G1 X114.176 Y102.340 E0.05114
G1 X114.334 Y100.667 E0.05270
G1 X114.454 Y99.849 E0.02591
G1 X114.561 Y99.311 E0.01720
G1 X114.695 Y98.781 E0.01715
G1 X114.957 Y98.012 E0.02549
G1 X115.304 Y97.277 E0.02548
G1 X115.578 Y96.804 E0.01714
G1 X115.878 Y96.345 E0.01718
G1 X116.366 Y95.679 E0.02588
G1 X117.430 Y94.378 E0.05269
G1 X118.662 Y93.392 E0.04948
G1 X119.290 Y92.938 E0.02432
G1 X119.722 Y92.656 E0.01616
G1 X120.166 Y92.397 E0.01613
G1 X120.855 Y92.064 E0.02399
G1 X121.576 Y91.804 E0.02403
G1 X122.322 Y91.612 E0.02414
G1 X123.337 Y91.434 E0.03233
G1 X124.907 Y91.256 E0.04954
G1 X126.534 Y91.420 E0.05127
G1 X127.329 Y91.541 E0.02521
G1 X127.852 Y91.648 E0.01674
G1 X128.366 Y91.781 E0.01664
G1 X128.871 Y91.946 E0.01666
G1 X129.596 Y92.258 E0.02476
G1 X130.064 Y92.510 E0.01667
G1 X130.519 Y92.789 E0.01673
G1 X131.390 Y93.407 E0.03349
G1 X132.665 Y94.435 E0.05135
G1 X133.685 Y95.728 E0.05163
G1 X134.154 Y96.387 E0.02536
G1 X134.443 Y96.840 E0.01684
G1 X134.707 Y97.306 E0.01681
G1 X135.044 Y98.029 E0.02500
G1 X135.301 Y98.783 E0.02500
G1 X135.434 Y99.303 E0.01681
G1 X135.540 Y99.829 E0.01685
G1 X135.661 Y100.629 E0.02536
G1 X135.824 Y102.265 E0.05155
G1 X135.668 Y103.900 E0.05149
G1 X135.551 Y104.700 E0.02533
G1 X135.448 Y105.226 E0.01682
G1 X135.318 Y105.745 E0.01678
G1 X135.065 Y106.500 E0.02496
G1 X134.733 Y107.224 E0.02496
G1 X134.471 Y107.690 E0.01678
G1 X134.184 Y108.143 E0.01682
G1 X133.718 Y108.803 E0.02532
G1 X132.703 Y110.095 E0.05153
G1 X131.445 Y111.124 E0.05094
G1 X130.802 Y111.596 E0.02501
G1 X130.360 Y111.887 E0.01661
G1 X129.904 Y112.154 E0.01657
G1 X129.195 Y112.493 E0.02463
G1 X128.453 Y112.752 E0.02464
G1 X127.942 Y112.885 E0.01657
G1 X127.423 Y112.992 E0.01661
G1 X126.634 Y113.112 E0.02502
G1 X125.100 Y113.267 E0.04835
G1 X124.831 Y113.614 F7200.000
G1 F5760
G1 X123.401 Y113.110 E-0.59079
G1 F5760
G1 X122.918 Y113.036 E-0.16921
G1 E-0.04000 F2100.00000
G1 Z0.800 F7200.000
G1 X130.163 Y115.690 F7200.000
G1 Z0.200 F7200.000
G1 E0.80000 F2100.00000
G1 F900
G1 X129.736 Y115.997 E0.01649
G1 X129.355 Y116.367 E0.01664
G1 X129.049 Y116.765 E0.01575
G1 X128.902 Y117.006 E0.00884
G1 X128.689 Y117.460 E0.01574
G1 X128.596 Y117.733 E0.00905
G1 X128.490 Y118.212 E0.01536
G1 X128.458 Y118.493 E0.00886
G1 X128.441 Y119.290 E0.02501
G1 X128.420 Y119.493 E0.00639
G1 X128.385 Y119.687 E0.00619
G1 X128.262 Y120.106 E0.01368
G1 X128.190 Y120.278 E0.00586
G1 X127.981 Y120.661 E0.01368
G1 X127.874 Y120.815 E0.00586
G1 X127.595 Y121.137 E0.01335
G1 X127.274 Y121.416 E0.01335
G1 X127.120 Y121.522 E0.00586
G1 X126.746 Y121.726 E0.01335
G1 X126.357 Y121.872 E0.01302
G1 X125.941 Y121.962 E0.01335
G1 X125.753 Y121.982 E0.00593
G1 X124.556 Y121.991 E0.03754
G1 X124.112 Y121.959 E0.01395
G1 X123.928 Y121.926 E0.00586
G1 X123.519 Y121.806 E0.01336
G1 X123.142 Y121.634 E0.01299
G1 X122.800 Y121.416 E0.01272
G1 X122.478 Y121.137 E0.01336
G1 X122.206 Y120.824 E0.01299
G1 X121.986 Y120.483 E0.01272
G1 X121.809 Y120.095 E0.01336
G1 X121.692 Y119.698 E0.01299
G1 X121.632 Y119.290 E0.01292
G1 X121.615 Y118.497 E0.02488
G1 X121.584 Y118.220 E0.00874
G1 X121.477 Y117.738 E0.01546
G1 X121.381 Y117.458 E0.00929
G1 X121.171 Y117.010 E0.01551
G1 X121.018 Y116.761 E0.00918
G1 X120.710 Y116.362 E0.01580
G1 X120.332 Y115.998 E0.01644
G1 X119.903 Y115.691 E0.01654
G1 X118.540 Y115.017 E0.04769
G1 X117.958 Y114.677 E0.02111
G1 X117.384 Y114.303 E0.02150
G1 X116.529 Y113.686 E0.03304
G1 X114.874 Y112.365 E0.06642
G1 X113.506 Y110.722 E0.06702
G1 X112.871 Y109.876 E0.03315
G1 X112.303 Y109.009 E0.03252
G1 X111.976 Y108.424 E0.02100
G1 X111.568 Y107.522 E0.03104
G1 X111.349 Y106.886 E0.02111
G1 X111.171 Y106.235 E0.02116
G1 X110.961 Y105.213 E0.03270
G1 X110.761 Y103.794 E0.04492
G1 X110.616 Y102.393 E0.04415
G1 X110.801 Y100.471 E0.06055
G1 X110.900 Y99.706 E0.02420
G1 X111.024 Y98.954 E0.02386
G1 X111.178 Y98.224 E0.02341
G1 X111.368 Y97.517 E0.02296
G1 X111.603 Y96.830 E0.02275
G1 X111.736 Y96.506 E0.01100
G1 X111.881 Y96.187 E0.01097
G1 X112.221 Y95.548 E0.02268
G1 X112.607 Y94.929 E0.02287
G1 X113.036 Y94.322 E0.02333
G1 X113.503 Y93.723 E0.02379
G1 X113.997 Y93.133 E0.02414
G1 X115.283 Y91.701 E0.06034
G1 X116.898 Y90.530 E0.06255
G1 X118.016 Y89.808 E0.04174
G1 X118.575 Y89.491 E0.02015
G1 X119.142 Y89.208 E0.01985
G1 X120.026 Y88.848 E0.02993
G1 X120.624 Y88.659 E0.01968
G1 X121.246 Y88.503 E0.02010
G1 X121.884 Y88.374 E0.02042
G1 X122.536 Y88.268 E0.02069
G1 X123.540 Y88.142 E0.03174
G1 X124.854 Y88.012 E0.04140
G1 X127.022 Y88.232 E0.06831
G1 X127.737 Y88.335 E0.02264
G1 X128.438 Y88.461 E0.02236
G1 X129.122 Y88.618 E0.02198
G1 X129.785 Y88.809 E0.02162
G1 X130.729 Y89.169 E0.03169
G1 X131.658 Y89.641 E0.03265
G1 X132.555 Y90.196 E0.03309
G1 X133.435 Y90.821 E0.03384
G1 X135.145 Y92.168 E0.06826
G1 X136.516 Y93.824 E0.06741
G1 X137.154 Y94.681 E0.03349
G1 X137.539 Y95.257 E0.02174
G1 X137.888 Y95.845 E0.02143
G1 X138.196 Y96.449 E0.02127
G1 X138.451 Y97.054 E0.02058
G1 X138.668 Y97.697 E0.02127
G1 X138.845 Y98.357 E0.02143
G1 X138.988 Y99.036 E0.02174
G1 X139.156 Y100.090 E0.03349
G1 X139.383 Y102.230 E0.06748
G1 X139.243 Y103.642 E0.04449
G1 X139.047 Y105.075 E0.04534
G1 X138.841 Y106.104 E0.03289
G1 X138.560 Y107.094 E0.03227
G1 X138.193 Y108.020 E0.03123
G1 X137.887 Y108.623 E0.02122
G1 X137.350 Y109.511 E0.03255
G1 X136.738 Y110.377 E0.03325
G1 X136.069 Y111.233 E0.03405
G1 X135.160 Y112.332 E0.04472
G1 X134.079 Y113.224 E0.04393
G1 X133.237 Y113.881 E0.03349
G1 X132.385 Y114.484 E0.03273
G1 X131.515 Y115.014 E0.03194
G1 X130.217 Y115.663 E0.04552
G1 X130.385 Y116.001 F7200.000
G1 F900
G1 X129.979 Y116.287 E0.01559
G1 X129.637 Y116.618 E0.01491
G1 X129.360 Y116.978 E0.01425
G1 X129.235 Y117.184 E0.00756
G1 X129.039 Y117.601 E0.01444
G1 X128.960 Y117.835 E0.00775
G1 X128.862 Y118.274 E0.01408
G1 X128.835 Y118.518 E0.00769
G1 X128.818 Y119.314 E0.02498
G1 X128.793 Y119.546 E0.00732
G1 X128.752 Y119.774 E0.00725
G1 X128.618 Y120.231 E0.01495
G1 X128.531 Y120.441 E0.00713
G1 X128.302 Y120.860 E0.01495
G1 X128.173 Y121.047 E0.00713
G1 X127.863 Y121.404 E0.01483
G1 X127.505 Y121.714 E0.01483
G1 X127.318 Y121.844 E0.00713
G1 X126.903 Y122.070 E0.01483
G1 X126.463 Y122.234 E0.01472
G1 X126.001 Y122.335 E0.01483
G1 X125.774 Y122.359 E0.00715
G1 X124.543 Y122.368 E0.03860
G1 X124.065 Y122.334 E0.01505
G1 X123.841 Y122.293 E0.00713
G1 X123.387 Y122.160 E0.01484
G1 X122.968 Y121.969 E0.01445
G1 X122.568 Y121.714 E0.01486
G1 X122.211 Y121.404 E0.01484
G1 X121.908 Y121.056 E0.01445
G1 X121.651 Y120.658 E0.01486
G1 X121.455 Y120.228 E0.01484
G1 X121.324 Y119.785 E0.01445
G1 X121.255 Y119.314 E0.01493
G1 X121.238 Y118.522 E0.02486
G1 X121.212 Y118.282 E0.00757
G1 X121.113 Y117.841 E0.01416
G1 X121.031 Y117.600 E0.00799
G1 X120.838 Y117.190 E0.01420
G1 X120.707 Y116.975 E0.00788
G1 X120.428 Y116.615 E0.01430
G1 X120.090 Y116.289 E0.01472
G1 X119.708 Y116.016 E0.01472
G1 X118.361 Y115.349 E0.04714
G1 X117.760 Y114.998 E0.02181
G1 X117.171 Y114.614 E0.02207
G1 X116.301 Y113.986 E0.03361
G1 X114.609 Y112.635 E0.06790
G1 X113.210 Y110.956 E0.06853
G1 X112.563 Y110.093 E0.03382
