;FLAVOR:Marlin
;TIME:340
;Filament used:0.304896m
;Layer height: 0.3
;MINX:67.728
;MINY:65.123
;MINZ:0.2
;MAXX:97.273
;MAXY:99.878
;MAXZ:2.9
                                 
;Creative3D GCode Generated by CXEngineDEV
;Generated Time:2022-04-08 18:14:05
;----------Machine Config--------------
;Machine Name:Creality Ender-2 Pro
;Machine Height:180
;Machine Width:165
;Machine Depth:165
;Material name:PLA
;Number of Extruders:1
;ExtruderParams[0] Nozzle Diameter1000
;----------Profile Config---------------
;Layer Height:0.3
;Wall Thickness:0.8
;Top/Bottom Thickness:1
;Out Wall Line Width:0.4
;Inner Wall Line Width:0.4
;Inital Layer Height:200
;Wall Line Count:1
;Infill Line Distance:4
;Infill Pattern:grid
;Infill Sparse Density:20
;Infill Wipe Distance:0
;Print Temperature:200
;Bed Temperature:60
;Support Enable:false
;Support Density:30
;Support Angle:1.0472
;Adhesion Type:none
;machine is belt:false
;machine belt offset:10
;machine belt offset Y:0
;----------Shell Config----------------
;Outer Wall Wipe Distance:200
;Infill Before Walls:false
;Infill Overlap:0.16
;Fill Gaps Between Walls:everywhere
;Minimum Infill Area:1
;Top Surface Skin Layer:0
;Top Layers:2
;Z Seam Alignment:sharpest_corner
;Seam Corner Preference:z_seam_corner_inner
;Z Seam X:82.5
;Z Seam Y:82.5
;Horizontal Expansion:0
;Top/Bottom Pattern:zigzag
;Ironing Pattern:zigzag
;Vase Model:false
;----------Support Config----------------
;Support Type:everywhere
;Support Pattern:zigzag
;Support Infill Layer Thickness:0.3
;Minimum Support Area:10
;Enable Support Roof:false
;Support Roof Thickness:0.8
;Support Roof Pattern:lines
; ---------PrintSpeed & Travel----------
;Enable Print Cool:true
;Avoid Printed Parts Traveling:true
;Enable Retraction:true
;Retraction Distance:8
;Retraction Speed:100
;Retraction Prime Speed:100
;Maximum Retraction Count:100
;Minimum Extrusion Distance Window:1
;Z Hop When Retracted:false
;Z Hop Height:0.2
;Retract Before Outer Wall:true
;Print Speed:50
;Infill Speed:50

;Prime Tower Speed:50
;Travel Speed:120
;Initial Layer Speed:25
;Skirt/Brim Speed:25
;Combing Mode:off
;---------------------End of Head--------------------------
M140 S60
M104 S200
M105
M109 S200
M82 ;absolute extrusion mode
M220 S100 ;Reset Feedrate
M221 S100 ;Reset Flowrate

G28 ;Home

G92 E0 ;Reset Extruder
G1 Z2.0 F3000 ;Move Z Axis up
G1 X10.1 Y20 Z0.28 F5000.0 ;Move to start position
G1 X10.1 Y145.0 Z0.28 F1500.0 E15 ;Draw the first line
G1 X10.4 Y145.0 Z0.28 F5000.0 ;Move to side a little
G1 X10.4 Y20 Z0.28 F1500.0 E30 ;Draw the second line
G92 E0  ;Reset Extruder
G1 E-1.0000 F1800 ;Retract a bit
G1 Z2.0 F3000 ;Move Z Axis up
G1 E0.0000 F1800 

G92 E0
G92 E0
G1 F6000 E-8

;LAYER_COUNT:10

;LAYER:0
M107
;MESH:
G0 F3600 X80.337 Y94.196 Z0.2
;TYPE:WALL-OUTER
G1 F6000 E0
G1 F1500 X80.337 Y94.419 E0.00816
G1 X80.337 Y94.42 E0.0082
G1 X80.337 Y97.091 E0.10592
G1 X80.374 Y97.381 E0.11661
G1 X80.492 Y97.671 E0.12807
G1 X80.682 Y97.921 E0.13956
G1 X80.929 Y98.113 E0.151
G1 X81.217 Y98.235 E0.16244
G1 X81.516 Y98.277 E0.17349
G1 X83.55 Y98.278 E0.24791
G1 X83.84 Y98.241 E0.2586
G1 X84.13 Y98.123 E0.27006
G1 X84.38 Y97.933 E0.28155
G1 X84.572 Y97.686 E0.29299
G1 X84.694 Y97.398 E0.30444
G1 X84.736 Y97.1 E0.31545
G1 X84.737 Y94.422 E0.41342
G1 X84.737 Y94.421 E0.41346
G1 X84.737 Y94.199 E0.42158
G1 X84.516 Y94.223 E0.42669
G1 X83.537 Y94.334 E0.46274
G1 X82.575 Y94.427 E0.4981
G1 X81.067 Y94.281 E0.55353
G1 X80.559 Y94.221 E0.57225
G1 X80.337 Y94.196 E0.57738
G0 F3600 X80.337 Y94.396
G0 X79.897 Y94.396
;;retract;;
G1 F6000 E-7.42262
G0 F3600 X76.952 Y89.233
G1 F6000 E0.57738
G1 F1500 X77.401 Y89.511 E0.5967
G1 X77.861 Y89.76 E0.61583
G1 X78.102 Y89.876 E0.62562
G1 X78.586 Y90.075 E0.64477
G1 X79.084 Y90.239 E0.66395
G1 X79.595 Y90.372 E0.68327
G1 X80.376 Y90.525 E0.71238
G1 X80.902 Y90.6 E0.73182
G1 X81.434 Y90.663 E0.75142
G1 X82.519 Y90.766 E0.7913
G1 X83.602 Y90.664 E0.8311
G1 X84.135 Y90.602 E0.85073
G1 X84.921 Y90.482 E0.87982
G1 X85.439 Y90.376 E0.89916
G1 X85.948 Y90.243 E0.91841
G1 X86.438 Y90.083 E0.93727
G1 X86.932 Y89.879 E0.95682
G1 X87.392 Y89.649 E0.97564
G1 X87.855 Y89.379 E0.99525
G1 X88.297 Y89.088 E1.01461
G1 X88.939 Y88.616 E1.04376
G1 X89.77 Y87.945 E1.08284
G1 X90.196 Y87.588 E1.10317
G1 X90.883 Y86.727 E1.14347
G1 X91.211 Y86.296 E1.16329
G1 X91.676 Y85.638 E1.19277
G1 X91.963 Y85.185 E1.21239
G1 X92.223 Y84.72 E1.23188
G1 X92.454 Y84.242 E1.2513
G1 X92.65 Y83.748 E1.27075
G1 X92.81 Y83.241 E1.2902
G1 X92.938 Y82.725 E1.30965
G1 X93.042 Y82.198 E1.3293
G1 X93.158 Y81.4 E1.3588
G1 X93.218 Y80.862 E1.37861
G1 X93.315 Y79.766 E1.41886
G1 X93.213 Y78.668 E1.45921
G1 X93.151 Y78.13 E1.47902
G1 X93.031 Y77.331 E1.50858
G1 X92.925 Y76.805 E1.52821
G1 X92.792 Y76.288 E1.54774
G1 X92.633 Y75.79 E1.56687
G1 X92.431 Y75.288 E1.58667
G1 X92.203 Y74.819 E1.60575
G1 X91.934 Y74.345 E1.62569
G1 X91.646 Y73.892 E1.64533
G1 X91.178 Y73.235 E1.67484
G1 X90.513 Y72.381 E1.71444
G1 X90.158 Y71.942 E1.73509
G1 X89.309 Y71.248 E1.77521
G1 X88.884 Y70.915 E1.79497
G1 X88.235 Y70.445 E1.82428
G1 X87.787 Y70.154 E1.84383
G1 X87.329 Y69.89 E1.86317
G1 X86.857 Y69.656 E1.88244
G1 X86.611 Y69.549 E1.89226
G1 X86.116 Y69.369 E1.91153
G1 X85.607 Y69.22 E1.93093
G1 X85.09 Y69.102 E1.95033
G1 X84.565 Y69.007 E1.96985
G1 X84.034 Y68.931 E1.98948
G1 X83.499 Y68.868 E2.00919
G1 X82.407 Y68.766 E2.04931
G1 X81.356 Y68.878 E2.08798
G1 X80.839 Y68.944 E2.10705
G1 X80.085 Y69.067 E2.135
G1 X79.573 Y69.18 E2.15418
G1 X79.08 Y69.315 E2.17288
G1 X78.605 Y69.475 E2.19122
G1 X78.126 Y69.676 E2.21023
G1 X77.67 Y69.907 E2.22893
G1 X77.228 Y70.165 E2.24765
G1 X76.797 Y70.446 E2.26648
G1 X76.168 Y70.9 E2.29486
G1 X75.355 Y71.544 E2.3328
G1 X74.937 Y71.886 E2.35256
G1 X74.217 Y72.752 E2.39377
G1 X73.707 Y73.405 E2.42408
G1 X73.386 Y73.852 E2.44422
G1 X73.087 Y74.309 E2.4642
G1 X72.816 Y74.779 E2.48405
G1 X72.69 Y75.021 E2.49403
G1 X72.467 Y75.516 E2.51389
G1 X72.37 Y75.772 E2.52391
G1 X72.205 Y76.286 E2.54366
G1 X72.071 Y76.814 E2.56359
G1 X71.964 Y77.351 E2.58362
G1 X71.845 Y78.168 E2.61383
G1 X71.784 Y78.718 E2.63407
G1 X71.686 Y79.84 E2.67528
G1 X71.785 Y80.928 E2.71525
G1 X71.846 Y81.464 E2.73498
G1 X71.964 Y82.256 E2.76428
G1 X72.069 Y82.777 E2.78373
G1 X72.2 Y83.29 E2.8031
G1 X72.361 Y83.793 E2.82242
G1 X72.558 Y84.283 E2.84174
G1 X72.79 Y84.756 E2.86102
G1 X73.052 Y85.216 E2.88038
G1 X73.341 Y85.664 E2.89989
G1 X73.807 Y86.313 E2.92912
G1 X74.135 Y86.739 E2.94879
G1 X74.824 Y87.59 E2.98885
G1 X75.666 Y88.283 E3.02875
G1 X76.086 Y88.614 E3.04831
G1 X76.514 Y88.933 E3.06784
G1 X76.952 Y89.233 E3.08727
G0 F3600 X77.122 Y89.338
G0 X76.89 Y89.711
;;retract;;
G1 F6000 E-4.91273
G0 F3600 X74.962 Y92.32
G1 F6000 E3.08727
G1 F1500 X74.37 Y91.917 E3.11347
G1 X73.798 Y91.496 E3.13945
G1 X73.223 Y91.05 E3.16608
G1 X72.103 Y90.144 E3.21878
G1 X71.16 Y89.029 E3.27221
G1 X70.49 Y88.19 E3.31149
G1 X70.052 Y87.595 E3.33852
G1 X69.655 Y87.006 E3.36451
G1 X69.295 Y86.406 E3.39011
G1 X69.13 Y86.099 E3.40286
G1 X68.976 Y85.788 E3.41556
G1 X68.834 Y85.474 E3.42816
G1 X68.704 Y85.153 E3.44083
G1 X68.586 Y84.828 E3.45348
G1 X68.479 Y84.497 E3.46621
G1 X68.382 Y84.161 E3.47901
G1 X68.214 Y83.474 E3.50488
G1 X68.081 Y82.782 E3.53066
G1 X67.968 Y82.063 E3.55729
G1 X67.878 Y81.345 E3.58377
G1 X67.728 Y79.893 E3.63717
G1 X67.873 Y78.324 E3.69482
G1 X67.965 Y77.535 E3.72388
G1 X68.077 Y76.768 E3.75224
G1 X68.216 Y76.015 E3.78026
G1 X68.301 Y75.636 E3.79447
G1 X68.394 Y75.269 E3.80832
G1 X68.497 Y74.906 E3.82212
G1 X68.612 Y74.55 E3.83581
G1 X68.739 Y74.2 E3.84943
G1 X68.879 Y73.856 E3.86302
G1 X69.037 Y73.511 E3.8769
G1 X69.202 Y73.186 E3.89024
G1 X69.387 Y72.852 E3.90421
G1 X69.575 Y72.538 E3.9176
G1 X70.003 Y71.897 E3.9458
G1 X70.448 Y71.299 E3.97307
G1 X70.948 Y70.681 E4.00215
G1 X71.463 Y70.083 E4.03102
G1 X72.521 Y68.914 E4.08871
G1 X73.622 Y68.103 E4.13874
G1 X74.459 Y67.521 E4.17604
G1 X75.032 Y67.15 E4.20101
G1 X75.599 Y66.812 E4.22516
G1 X76.192 Y66.496 E4.24975
G1 X76.481 Y66.356 E4.26149
G1 X76.786 Y66.22 E4.27371
G1 X77.084 Y66.099 E4.28548
G1 X77.397 Y65.983 E4.29769
G1 X77.707 Y65.88 E4.30964
G1 X78.333 Y65.703 E4.33344
G1 X78.983 Y65.557 E4.35782
G1 X79.651 Y65.436 E4.38265
G1 X80.316 Y65.339 E4.40724
G1 X80.999 Y65.257 E4.43241
G1 X82.353 Y65.123 E4.48219
G1 X83.828 Y65.262 E4.53639
G1 X84.927 Y65.395 E4.57689
G1 X85.656 Y65.513 E4.60391
G1 X86.352 Y65.653 E4.62989
G1 X87.07 Y65.838 E4.65701
G1 X87.407 Y65.941 E4.66991
G1 X87.737 Y66.054 E4.68267
G1 X88.067 Y66.179 E4.69558
G1 X88.399 Y66.321 E4.70879
G1 X88.714 Y66.468 E4.72151
G1 X89.029 Y66.628 E4.73443
G1 X89.662 Y66.987 E4.76106
G1 X90.273 Y67.376 E4.78756
G1 X90.867 Y67.79 E4.81405
G1 X91.757 Y68.461 E4.85483
G1 X92.917 Y69.388 E4.90915
G1 X93.86 Y70.51 E4.96278
G1 X94.32 Y71.082 E4.98963
G1 X94.758 Y71.661 E5.01619
G1 X95.175 Y72.257 E5.04281
G1 X95.555 Y72.858 E5.06882
G1 X95.727 Y73.156 E5.08141
G1 X95.891 Y73.465 E5.09421
G1 X96.044 Y73.778 E5.10695
G1 X96.185 Y74.095 E5.11965
G1 X96.317 Y74.426 E5.13268
G1 X96.432 Y74.748 E5.14519
G1 X96.538 Y75.081 E5.15798
G1 X96.72 Y75.762 E5.18377
G1 X96.87 Y76.47 E5.21025
G1 X96.989 Y77.178 E5.23651
G1 X97.129 Y78.267 E5.27668
G1 X97.273 Y79.729 E5.33043
G1 X97.127 Y81.192 E5.38422
G1 X96.99 Y82.265 E5.4238
G1 X96.867 Y82.991 E5.45074
G1 X96.719 Y83.693 E5.47699
G1 X96.633 Y84.034 E5.48985
G1 X96.432 Y84.709 E5.51562
G1 X96.314 Y85.04 E5.52848
G1 X96.185 Y85.364 E5.54124
G1 X96.044 Y85.684 E5.55403
G1 X95.892 Y85.999 E5.56683
G1 X95.727 Y86.313 E5.5798
G1 X95.377 Y86.908 E5.60506
G1 X94.976 Y87.517 E5.63174
G1 X94.552 Y88.105 E5.65826
G1 X93.873 Y88.974 E5.69861
G1 X92.933 Y90.109 E5.75252
G1 X91.824 Y91.024 E5.80513
G1 X90.965 Y91.694 E5.84498
G1 X90.394 Y92.107 E5.87076
G1 X89.805 Y92.497 E5.89661
G1 X89.201 Y92.856 E5.92232
G1 X88.902 Y93.015 E5.93471
G1 X88.566 Y93.18 E5.9484
G1 X88.061 Y93.412 E5.96873
G1 X87.673 Y93.65 E5.98539
G1 X87.314 Y93.95 E6.0025
G1 X87.003 Y94.296 E6.01952
G1 X86.746 Y94.685 E6.03658
G1 X86.549 Y95.108 E6.05365
G1 X86.416 Y95.549 E6.07051
G1 X86.347 Y96.009 E6.08752
G1 X86.328 Y96.812 E6.11691
G1 X86.264 Y97.269 E6.13379
G1 X86.204 Y97.503 E6.14263
G1 X86.042 Y97.943 E6.15979
G1 X85.934 Y98.159 E6.16862
G1 X85.686 Y98.547 E6.18547
G1 X85.534 Y98.735 E6.19431
G1 X85.203 Y99.067 E6.21147
G1 X85.015 Y99.22 E6.22034
G1 X84.83 Y99.349 E6.22859
G1 X84.41 Y99.577 E6.24607
G1 X84.194 Y99.669 E6.25466
G1 X83.752 Y99.798 E6.27151
G1 X83.51 Y99.844 E6.28052
G1 X83.036 Y99.877 E6.2979
G1 X82.051 Y99.878 E6.33394
G1 X81.575 Y99.846 E6.35139
G1 X81.336 Y99.802 E6.36029
G1 X80.893 Y99.674 E6.37716
G1 X80.673 Y99.583 E6.38587
G1 X80.263 Y99.359 E6.40296
G1 X80.054 Y99.215 E6.41224
G1 X79.88 Y99.075 E6.42042
G1 X79.547 Y98.743 E6.43762
G1 X79.396 Y98.557 E6.44638
G1 X79.145 Y98.167 E6.46335
G1 X79.039 Y97.955 E6.47202
G1 X78.946 Y97.731 E6.4809
G1 X78.816 Y97.291 E6.49768
G1 X78.77 Y97.04 E6.50702
G1 X78.738 Y96.587 E6.52363
G1 X78.728 Y96.014 E6.5446
G1 X78.663 Y95.57 E6.56102
G1 X78.528 Y95.119 E6.57824
G1 X78.332 Y94.697 E6.59527
G1 X78.072 Y94.303 E6.61254
G1 X77.76 Y93.955 E6.62964
G1 X77.404 Y93.658 E6.6466
G1 X77.005 Y93.414 E6.66371
G1 X76.477 Y93.173 E6.68494
G1 X76.161 Y93.019 E6.69781
G1 X75.558 Y92.689 E6.72295
G1 X74.962 Y92.32 E6.7486
G0 F3600 X74.797 Y92.208
G0 X75.045 Y91.845
;;retract;;
G1 F6000 E-1.2514
G0 F3600 X79.35 Y98.04
;TYPE:SKIN
G1 F6000 E6.7486
G1 F1500 X79.591 Y98.416 E6.76494
G1 X79.722 Y98.577 E6.77253
G1 X80.038 Y98.894 E6.78891
G1 X80.195 Y99.02 E6.79628
G1 X80.386 Y99.151 E6.80475
G1 X80.6 Y99.268 E6.81367
G1 X80.779 Y99.366 E6.82114
G1 X80.973 Y99.447 E6.82883
G1 X81.386 Y99.566 E6.84456
G1 X81.482 Y99.583 E6.84812
G1 X79.03 Y97.132 E6.97496
G1 X79.009 Y97.013 E6.97939
G1 X78.978 Y96.569 E6.99567
G1 X78.976 Y96.513 E6.99772
G1 X80.371 Y97.908 E7.0699
G1 X80.282 Y97.79 E7.0753
G1 X80.139 Y97.441 E7.0891
G1 X80.097 Y97.106 E7.10146
G1 X80.097 Y97.068 E7.10285
G1 X78.958 Y95.928 E7.1618
G1 X78.897 Y95.517 E7.17701
G1 X78.804 Y95.209 E7.18878
G1 X78.751 Y95.033 E7.1955
G1 X78.542 Y94.578 E7.21382
G1 X78.262 Y94.155 E7.23238
G1 X77.926 Y93.781 E7.25077
G1 X77.544 Y93.461 E7.26901
G1 X77.117 Y93.201 E7.2873
G1 X76.582 Y92.956 E7.30882
G0 F3600 X76.521 Y92.926
G1 F1500 X69.12 Y85.525 E7.69176
G1 X69.19 Y85.68 E7.69798
G0 F3600 X69.191 Y85.68
G1 F1500 X69.341 Y85.985 E7.71041
G1 X69.505 Y86.288 E7.72302
G1 X69.784 Y86.754 E7.74289
G1 X75.234 Y92.204 E8.02488
G1 X75.096 Y92.119 E8.03081
G1 X74.511 Y91.722 E8.05667
G1 X73.941 Y91.302 E8.08258
G1 X73.37 Y90.858 E8.10904
G1 X73.119 Y90.656 E8.12083
G1 X72.272 Y89.971 E8.16068
;;retract;;
G1 F6000 E0.16068
G0 F3600 X71.382 Y88.918
G1 F6000 E8.16068
G1 F1500 X73.119 Y90.656 E8.25058
;;retract;;
G1 F6000 E0.25058
G0 F3600 X75.191 Y88.202
G1 F6000 E8.25058
G1 F1500 X81.021 Y94.032 E8.55223
G1 X81.093 Y94.04 E8.55488
G1 X81.649 Y94.094 E8.57532
G1 X77.259 Y89.704 E8.80246
G1 X77.281 Y89.717 E8.80339
G1 X77.752 Y89.973 E8.82301
G1 X78.005 Y90.095 E8.83328
G1 X78.363 Y90.243 E8.84746
G1 X82.276 Y94.155 E9.04989
G1 X82.574 Y94.185 E9.06085
G1 X82.844 Y94.158 E9.07078
G1 X79.203 Y90.517 E9.25916
G1 X79.541 Y90.605 E9.27194
G1 X79.934 Y90.682 E9.28659
G1 X83.36 Y94.108 E9.46386
G1 X83.51 Y94.094 E9.46937
G1 X83.871 Y94.053 E9.48266
G1 X80.618 Y90.8 E9.65097
G1 X80.869 Y90.837 E9.66026
G1 X81.268 Y90.885 E9.67496
G1 X84.379 Y93.996 E9.83593
G1 X84.888 Y93.939 E9.85466
G1 X81.897 Y90.948 E10.00942
G1 X82.519 Y91.006 E10.03228
G0 F3600 X82.52 Y91.006
G1 F1500 X86.392 Y94.878 E10.23261
G1 X86.536 Y94.566 E10.24519
G1 X86.58 Y94.499 E10.24812
G1 X83.038 Y90.957 E10.43138
G1 X83.555 Y90.909 E10.45038
G1 X86.805 Y94.159 E10.61854
G1 X86.812 Y94.147 E10.61905
G1 X87.071 Y93.859 E10.63322
G1 X84.063 Y90.851 E10.78885
G1 X84.166 Y90.839 E10.79265
G1 X84.557 Y90.779 E10.80712
G1 X87.367 Y93.59 E10.95254
G1 X87.533 Y93.453 E10.96041
G1 X87.696 Y93.352 E10.96743
G1 X85.044 Y90.701 E11.10462
G1 X85.492 Y90.609 E11.12135
G1 X85.513 Y90.604 E11.12214
G1 X88.056 Y93.147 E11.25372
G1 X88.444 Y92.97 E11.26932
G1 X85.96 Y90.486 E11.39784
G1 X86.014 Y90.472 E11.39988
G1 X86.39 Y90.35 E11.41435
G1 X88.823 Y92.783 E11.54023
G1 X89.087 Y92.643 E11.55116
G1 X89.188 Y92.582 E11.55548
G1 X86.799 Y90.193 E11.67909
G1 X87.032 Y90.096 E11.68832
G1 X87.189 Y90.018 E11.69474
G1 X89.543 Y92.372 E11.81653
G1 X89.683 Y92.29 E11.82247
G1 X89.89 Y92.152 E11.83157
G1 X87.563 Y89.825 E11.95197
G1 X87.92 Y89.618 E11.96707
G1 X90.229 Y91.926 E12.08651
G1 X90.261 Y91.906 E12.08789
G1 X90.559 Y91.69 E12.10136
G1 X88.264 Y89.395 E12.2201
G1 X88.434 Y89.284 E12.22753
G1 X88.598 Y89.164 E12.23497
G1 X90.884 Y91.45 E12.35325
G1 X91.202 Y91.202 E12.368
G1 X88.924 Y88.924 E12.48587
G1 X89.084 Y88.805 E12.49316
G1 X89.243 Y88.677 E12.50063
G1 X91.52 Y90.954 E12.61844
G1 X91.675 Y90.834 E12.62561
G0 F3600 X91.674 Y90.834
G1 F1500 X91.834 Y90.702 E12.6332
G1 X89.556 Y88.425 E12.75104
G1 X89.869 Y88.171 E12.76579
G1 X92.144 Y90.447 E12.88353
G1 X92.454 Y90.192 E12.89821
G1 X90.178 Y87.915 E13.016
G1 X90.368 Y87.756 E13.02506
G1 X90.463 Y87.635 E13.03069
G1 X92.764 Y89.936 E13.14975
G1 X93.02 Y89.626 E13.16446
G1 X90.714 Y87.32 E13.28377
G1 X90.965 Y87.005 E13.29851
G1 X93.276 Y89.316 E13.41808
G1 X93.532 Y89.007 E13.43276
G1 X91.213 Y86.687 E13.55277
G1 X91.403 Y86.438 E13.56423
G1 X91.455 Y86.363 E13.56757
G1 X93.785 Y88.694 E13.68815
G1 X94.033 Y88.377 E13.70288
G1 X91.689 Y86.032 E13.82418
G1 X91.874 Y85.77 E13.83592
G1 X91.92 Y85.697 E13.83907
G1 X94.282 Y88.059 E13.96129
G1 X94.361 Y87.957 E13.96601
G0 F3600 X94.362 Y87.957
G1 F1500 X94.523 Y87.734 E13.97607
G1 X92.139 Y85.351 E14.09939
G1 X92.168 Y85.306 E14.10135
G1 X92.344 Y84.99 E14.11458
G1 X94.76 Y87.406 E14.23959
G1 X94.781 Y87.376 E14.24093
G1 X94.986 Y87.066 E14.25453
G1 X92.536 Y84.617 E14.38127
G1 X92.673 Y84.338 E14.39264
G1 X92.715 Y84.23 E14.39688
G1 X95.208 Y86.723 E14.52587
G1 X95.417 Y86.366 E14.541
G1 X92.876 Y83.825 E14.67247
G1 X93.012 Y83.395 E14.68897
G1 X95.619 Y86.002 E14.82386
G1 X95.679 Y85.887 E14.82861
G1 X95.805 Y85.623 E14.83931
G1 X93.128 Y82.946 E14.97782
