; generated by Slic3r Prusa Edition 1.39.1-prusa3d on 2018-05-09 at 07:50:46

; 

; external perimeters extrusion width = 0.45mm
; perimeters extrusion width = 0.45mm
; infill extrusion width = 0.45mm
; solid infill extrusion width = 0.45mm
; top infill extrusion width = 0.33mm
; first layer extrusion width = 0.42mm

M107
M115 U3.1.0 ; tell printer latest fw version
M201 X9000 Y9000 Z500 E10000 ; sets maximum accelerations, mm/sec^2
M203 X500 Y500 Z12 E120 ; sets maximum feedrates, mm/sec
M204 S1500 T1500 ; sets acceleration (S) and retract acceleration (T)
M205 X10 Y10 Z0.2 E2.5 ; sets the jerk limits, mm/sec
M205 S0 T0 ; sets the minimum extruding and travel feed rate, mm/sec
M83  ; extruder relative mode
M104 S200 ; set extruder temp
M140 S55 ; set bed temp
M190 S55 ; wait for bed temp
M109 S200 ; wait for extruder temp
G28 W ; home all without mesh bed level
G80 ; mesh bed leveling
G1 Y-3.0 F1000.0 ; go outside print area
G92 E0.0
G1 E18.0 F1000.0;
G1 X60.0 E9.0  F1000.0 ; intro line
G1 X100.0 E12.5  F1000.0 ; intro line
G92 E0.0
M900 K30; Filament gcode
G21 ; set units to millimeters
G90 ; use absolute coordinates
M83 ; use relative distances for extrusion
;BEFORE_LAYER_CHANGE
;0.2


G1 E-0.80000 F2100.00000
G1 Z0.600 F7200.000
;AFTER_LAYER_CHANGE
;0.2
G1 X94.421 Y82.976 F7200.000
G1 Z0.200 F7200.000
G1 E0.80000 F2100.00000
M204 S1000
G1 F900
G1 X99.293 Y82.922 E0.15279
G1 X99.923 Y82.996 E0.01988
G1 X100.519 Y83.212 E0.01988
G1 X101.050 Y83.558 E0.01988
G1 X101.488 Y84.017 E0.01988
G1 X112.530 Y100.481 E0.62158
G1 X113.191 Y101.986 E0.05152
G1 X113.612 Y103.902 E0.06151
G1 X113.788 Y105.863 E0.06176
G1 X113.583 Y107.921 E0.06484
G1 X113.356 Y109.059 E0.03638
G1 X112.995 Y110.174 E0.03675
G1 X112.478 Y111.239 E0.03710
G1 X111.848 Y112.216 E0.03645
G1 X110.398 Y113.987 E0.07178
G1 X109.041 Y115.089 E0.05480
G1 X107.833 Y115.792 E0.04382
G1 X105.943 Y116.501 E0.06330
G1 X102.873 Y116.981 E0.09743
G1 X100.572 Y117.074 E0.07220
G1 X94.590 Y117.053 E0.18758
G1 X93.795 Y116.817 E0.02600
G1 X93.106 Y116.356 E0.02600
G1 X87.929 Y111.128 E0.23068
G1 X87.358 Y110.433 E0.02820
G1 X86.678 Y109.192 E0.04438
G1 X86.327 Y108.021 E0.03832
G1 X86.213 Y106.892 E0.03557
G1 X86.264 Y105.015 E0.05890
G1 X86.497 Y103.958 E0.03393
G1 X92.334 Y84.863 E0.62606
G1 X92.594 Y84.275 E0.02014
G1 X92.935 Y83.815 E0.01796
G1 X93.368 Y83.433 E0.01809
G1 X93.870 Y83.149 E0.01809
G1 X94.363 Y82.994 E0.01621
G1 X94.472 Y83.357 F7200.000
G1 F900
G1 X94.533 Y83.338 E0.00202
G1 X99.293 Y83.299 E0.14923
G1 X99.840 Y83.363 E0.01728
G1 X100.358 Y83.552 E0.01728
G1 X100.818 Y83.856 E0.01728
G1 X101.196 Y84.257 E0.01728
G1 X112.207 Y100.676 E0.61988
G1 X112.833 Y102.104 E0.04887
G1 X113.240 Y103.962 E0.05965
G1 X113.411 Y105.865 E0.05989
G1 X113.209 Y107.874 E0.06330
G1 X112.991 Y108.965 E0.03488
G1 X112.646 Y110.033 E0.03522
G1 X112.149 Y111.055 E0.03562
G1 X111.543 Y111.993 E0.03502
G1 X110.150 Y113.704 E0.06917
G1 X108.825 Y114.780 E0.05352
G1 X107.658 Y115.458 E0.04233
G1 X105.853 Y116.135 E0.06044
G1 X102.833 Y116.606 E0.09581
G1 X100.572 Y116.697 E0.07097
G1 X94.636 Y116.678 E0.18613
G1 X93.948 Y116.473 E0.02249
G1 X93.351 Y116.069 E0.02260
G1 X88.199 Y110.865 E0.22962
G1 X87.665 Y110.214 E0.02638
G1 X87.025 Y109.043 E0.04185
G1 X86.695 Y107.939 E0.03613
G1 X86.590 Y106.882 E0.03329
G1 X86.639 Y105.062 E0.05711
G1 X86.858 Y104.068 E0.03190
G1 X92.695 Y84.974 E0.62604
G1 X92.910 Y84.483 E0.01680
G1 X93.211 Y84.072 E0.01597
G1 X93.596 Y83.733 E0.01609
G1 X94.045 Y83.484 E0.01609
G1 X94.414 Y83.374 E0.01207
G1 F5760
G1 X94.533 Y83.338 E-0.04315
G1 F5760
G1 X96.603 Y83.321 E-0.71685
G1 E-0.04000 F2100.00000
G1 Z0.800 F7200.000
G1 X98.702 Y100.730 F7200.000
G1 Z0.200 F7200.000
G1 E0.80000 F2100.00000
G1 F900
G1 X100.921 Y100.730 E0.06959
G1 X101.830 Y100.786 E0.02854
G1 X103.002 Y100.906 E0.03693
G1 X103.855 Y101.068 E0.02723
G1 X104.537 Y101.280 E0.02238
G1 X105.162 Y101.578 E0.02172
G1 X105.517 Y101.818 E0.01343
G1 X105.741 Y102.005 E0.00915
G1 X105.947 Y102.213 E0.00917
G1 X106.214 Y102.544 E0.01334
G1 X106.513 Y103.027 E0.01782
G1 X106.859 Y103.802 E0.02662
G1 X107.131 Y104.631 E0.02733
G1 X107.470 Y105.911 E0.04153
G1 X107.003 Y107.449 E0.05038
G1 X106.797 Y107.997 E0.01837
G1 X106.557 Y108.520 E0.01804
G1 X106.271 Y109.008 E0.01774
G1 X106.011 Y109.355 E0.01357
G1 X105.715 Y109.666 E0.01349
G1 X105.376 Y109.940 E0.01364
G1 X104.894 Y110.226 E0.01758
G1 X104.369 Y110.447 E0.01787
G1 X103.687 Y110.639 E0.02220
G1 X103.109 Y110.745 E0.01843
G1 X102.233 Y110.843 E0.02762
G1 X100.730 Y110.922 E0.04720
G1 X98.702 Y110.922 E0.06358
G1 X98.702 Y100.790 E0.31767
G1 X99.079 Y101.107 F7200.000
G1 F900
G1 X100.910 Y101.107 E0.05740
G1 X101.799 Y101.162 E0.02794
G1 X102.947 Y101.279 E0.03618
G1 X103.764 Y101.435 E0.02605
G1 X104.399 Y101.632 E0.02086
G1 X104.974 Y101.907 E0.01999
G1 X105.290 Y102.119 E0.01194
G1 X105.486 Y102.283 E0.00800
G1 X105.666 Y102.464 E0.00802
G1 X105.906 Y102.762 E0.01198
G1 X106.179 Y103.204 E0.01630
G1 X106.507 Y103.938 E0.02521
G1 X106.769 Y104.738 E0.02638
G1 X107.078 Y105.904 E0.03784
G1 X106.646 Y107.328 E0.04664
G1 X106.449 Y107.852 E0.01756
G1 X106.222 Y108.346 E0.01704
G1 X105.956 Y108.799 E0.01649
G1 X105.723 Y109.111 E0.01220
G1 X105.459 Y109.389 E0.01202
G1 X105.160 Y109.629 E0.01202
G1 X104.724 Y109.889 E0.01591
G1 X104.244 Y110.090 E0.01632
G1 X103.602 Y110.271 E0.02093
G1 X103.054 Y110.372 E0.01747
G1 X102.201 Y110.467 E0.02690
G1 X101.320 Y110.520 E0.02768
G1 X100.722 Y110.545 E0.01876
G1 X99.079 Y110.545 E0.05152
G1 X99.079 Y101.167 E0.29403
G1 X99.056 Y100.708 F7200.000
G1 F5760
G1 X100.910 Y101.107 E-0.63442
G1 F5760
G1 X101.272 Y101.130 E-0.12558
G1 E-0.04000 F2100.00000
G1 Z0.800 F7200.000
G1 X95.553 Y103.737 F7200.000
G1 Z0.200 F7200.000
G1 E0.80000 F2100.00000
G1 F900
G1 X95.553 Y108.912 E0.16227
G1 X91.787 Y108.905 E0.11807
G1 X91.440 Y108.826 E0.01115
G1 X91.120 Y108.671 E0.01116
G1 X90.860 Y108.464 E0.01042
G1 X90.713 Y108.302 E0.00685
G1 X90.521 Y107.993 E0.01141
G1 X90.385 Y107.519 E0.01546
G1 X90.379 Y105.292 E0.06983
G1 X90.415 Y104.970 E0.01016
G1 X90.527 Y104.650 E0.01065
G1 X90.629 Y104.465 E0.00661
G1 X90.826 Y104.218 E0.00990
G1 X90.987 Y104.072 E0.00681
G1 X91.262 Y103.900 E0.01018
G1 X91.636 Y103.770 E0.01242
G1 X91.933 Y103.737 E0.00938
G1 X95.493 Y103.737 E0.11161
G1 X95.176 Y104.114 F7200.000
G1 F900
G1 X95.176 Y108.535 E0.13860
G1 X91.830 Y108.528 E0.10491
G1 X91.566 Y108.468 E0.00850
G1 X91.321 Y108.350 E0.00850
G1 X91.119 Y108.189 E0.00813
G1 X91.016 Y108.075 E0.00482
G1 X90.869 Y107.839 E0.00870
G1 X90.762 Y107.466 E0.01216
G1 X90.756 Y105.313 E0.06751
G1 X90.785 Y105.055 E0.00814
G1 X90.872 Y104.804 E0.00832
G1 X90.944 Y104.675 E0.00462
G1 X91.101 Y104.477 E0.00794
G1 X91.215 Y104.374 E0.00481
G1 X91.435 Y104.236 E0.00815
G1 X91.708 Y104.142 E0.00906
G1 X91.954 Y104.114 E0.00775
G1 X95.116 Y104.114 E0.09913
G1 X95.576 Y104.113 F7200.000
G1 F5760
G1 X95.146 Y106.308 E-0.76000
G1 E-0.04000 F2100.00000
G1 Z0.800 F7200.000
G1 X98.702 Y97.897 F7200.000
G1 Z0.200 F7200.000
G1 E0.80000 F2100.00000
G1 F900
G1 X101.275 Y97.897 E0.08069
G1 X102.694 Y97.982 E0.04455
G1 X103.380 Y98.053 E0.02163
G1 X104.045 Y98.158 E0.02113
G1 X104.689 Y98.307 E0.02071
G1 X105.091 Y98.432 E0.01320
G1 X105.700 Y98.678 E0.02058
G1 X106.089 Y98.869 E0.01360
G1 X106.681 Y99.200 E0.02125
G1 X108.011 Y100.059 E0.04966
G1 X108.821 Y100.988 E0.03864
G1 X109.199 Y101.476 E0.01937
G1 X109.530 Y101.971 E0.01868
G1 X109.801 Y102.477 E0.01798
G1 X110.010 Y103.011 E0.01797
G1 X110.203 Y103.760 E0.02427
G1 X110.331 Y104.586 E0.02620
G1 X110.445 Y105.846 E0.03965
G1 X110.375 Y106.639 E0.02498
G1 X110.274 Y107.455 E0.02578
G1 X110.166 Y108.033 E0.01843
G1 X110.017 Y108.587 E0.01799
G1 X109.894 Y108.930 E0.01143
G1 X109.748 Y109.258 E0.01126
G1 X109.365 Y109.927 E0.02415
G1 X108.905 Y110.576 E0.02495
G1 X108.143 Y111.521 E0.03805
G1 X107.650 Y111.945 E0.02042
G1 X107.117 Y112.356 E0.02110
G1 X106.763 Y112.584 E0.01318
G1 X106.391 Y112.778 E0.01317
G1 X105.770 Y113.036 E0.02107
G1 X105.151 Y113.254 E0.02057
G1 X103.531 Y113.540 E0.05159
G1 X102.548 Y113.655 E0.03102
G1 X101.554 Y113.713 E0.03124
G1 X100.544 Y113.733 E0.03168
G1 X95.550 Y113.737 E0.15658
G1 X95.546 Y113.073 E0.02083
G1 X95.519 Y112.806 E0.00839
G1 X95.423 Y112.344 E0.01478
G1 X95.260 Y111.882 E0.01536
G1 X95.045 Y111.464 E0.01476
G1 X94.895 Y111.234 E0.00860
G1 X94.596 Y110.864 E0.01490
G1 X94.255 Y110.542 E0.01471
G1 X94.045 Y110.381 E0.00832
G1 X93.648 Y110.136 E0.01461
G1 X93.403 Y110.018 E0.00853
G1 X92.972 Y109.861 E0.01438
G1 X92.711 Y109.795 E0.00845
G1 X91.884 Y109.677 E0.02619
G1 X91.533 Y109.583 E0.01138
G1 X91.198 Y109.446 E0.01136
G1 X90.882 Y109.268 E0.01136
G1 X90.462 Y108.938 E0.01675
G1 X90.217 Y108.673 E0.01132
G1 X89.999 Y108.371 E0.01169
G1 X89.826 Y108.053 E0.01134
G1 X89.691 Y107.707 E0.01164
G1 X89.577 Y107.186 E0.01674
G1 X89.553 Y106.808 E0.01188
G1 X89.559 Y105.645 E0.03646
G1 X89.606 Y105.275 E0.01170
G1 X89.751 Y104.771 E0.01643
G1 X89.908 Y104.433 E0.01169
G1 X90.100 Y104.127 E0.01134
G1 X90.329 Y103.846 E0.01136
G1 X90.591 Y103.596 E0.01136
G1 X90.882 Y103.381 E0.01136
G1 X91.206 Y103.198 E0.01164
G1 X91.707 Y103.013 E0.01674
G1 X92.071 Y102.939 E0.01167
G1 X92.502 Y102.891 E0.01358
G1 X92.964 Y102.790 E0.01482
G1 X93.424 Y102.622 E0.01538
G1 X93.833 Y102.407 E0.01449
G1 X94.055 Y102.260 E0.00834
G1 X94.431 Y101.950 E0.01528
G1 X94.750 Y101.606 E0.01473
G1 X94.904 Y101.402 E0.00800
G1 X95.045 Y101.185 E0.00813
G1 X95.258 Y100.771 E0.01460
G1 X95.423 Y100.304 E0.01551
G1 X95.521 Y99.828 E0.01524
G1 X95.553 Y99.363 E0.01460
G1 X95.553 Y86.263 E0.41076
G1 X98.702 Y86.263 E0.09874
G1 X98.702 Y97.837 E0.36289
G1 X99.079 Y97.520 F7200.000
G1 F900
G1 X101.287 Y97.520 E0.06922
G1 X102.725 Y97.606 E0.04516
G1 X103.429 Y97.679 E0.02219
G1 X104.117 Y97.787 E0.02186
G1 X104.788 Y97.943 E0.02158
G1 X105.218 Y98.077 E0.01413
G1 X105.853 Y98.334 E0.02149
G1 X106.264 Y98.535 E0.01435
G1 X106.875 Y98.877 E0.02195
G1 X108.261 Y99.771 E0.05170
G1 X109.112 Y100.748 E0.04065
G1 X109.506 Y101.255 E0.02012
G1 X109.854 Y101.777 E0.01967
G1 X110.144 Y102.318 E0.01926
G1 X110.368 Y102.889 E0.01921
G1 X110.574 Y103.690 E0.02593
G1 X110.705 Y104.540 E0.02697
G1 X110.823 Y105.845 E0.04108
G1 X110.750 Y106.679 E0.02625
G1 X110.647 Y107.513 E0.02635
G1 X110.534 Y108.117 E0.01926
G1 X110.377 Y108.700 E0.01893
G1 X110.244 Y109.071 E0.01236
G1 X110.084 Y109.429 E0.01230
G1 X109.683 Y110.130 E0.02531
G1 X109.206 Y110.804 E0.02589
G1 X108.415 Y111.784 E0.03949
G1 X107.888 Y112.238 E0.02181
G1 X107.334 Y112.665 E0.02193
G1 X106.952 Y112.910 E0.01423
G1 X106.550 Y113.120 E0.01422
G1 X105.905 Y113.388 E0.02191
G1 X105.247 Y113.619 E0.02186
G1 X103.586 Y113.914 E0.05290
G1 X102.581 Y114.031 E0.03171
G1 X101.568 Y114.090 E0.03181
G1 X100.548 Y114.110 E0.03201
G1 X95.175 Y114.114 E0.16847
G1 X95.169 Y113.093 E0.03202
G1 X95.146 Y112.864 E0.00722
G1 X95.059 Y112.446 E0.01338
G1 X94.913 Y112.032 E0.01376
G1 X94.718 Y111.653 E0.01335
G1 X94.590 Y111.456 E0.00738
G1 X94.319 Y111.121 E0.01349
G1 X94.010 Y110.830 E0.01332
G1 X93.830 Y110.692 E0.00712
G1 X93.467 Y110.467 E0.01339
G1 X93.256 Y110.366 E0.00732
G1 X92.861 Y110.222 E0.01318
G1 X92.638 Y110.166 E0.00723
G1 X91.808 Y110.047 E0.02629
G1 X91.412 Y109.941 E0.01284
G1 X91.034 Y109.786 E0.01283
G1 X90.677 Y109.585 E0.01283
G1 X90.345 Y109.340 E0.01293
G1 X89.925 Y108.913 E0.01880
G1 X89.679 Y108.572 E0.01317
G1 X89.484 Y108.213 E0.01282
G1 X89.333 Y107.828 E0.01293
G1 X89.202 Y107.233 E0.01913
G1 X89.176 Y106.818 E0.01302
G1 X89.183 Y105.620 E0.03757
G1 X89.234 Y105.210 E0.01295
G1 X89.399 Y104.634 E0.01880
G1 X89.576 Y104.253 E0.01317
G1 X89.793 Y103.906 E0.01282
G1 X90.052 Y103.589 E0.01283
G1 X90.348 Y103.307 E0.01283
G1 X90.677 Y103.063 E0.01283
G1 X91.036 Y102.861 E0.01293
G1 X91.608 Y102.648 E0.01913
G1 X92.013 Y102.566 E0.01294
G1 X92.441 Y102.518 E0.01350
G1 X92.858 Y102.427 E0.01340
G1 X93.271 Y102.276 E0.01378
G1 X93.641 Y102.082 E0.01311
G1 X93.831 Y101.956 E0.00713
G1 X94.172 Y101.676 E0.01386
G1 X94.461 Y101.364 E0.01333
G1 X94.595 Y101.186 E0.00699
G1 X94.718 Y100.995 E0.00712
G1 X94.911 Y100.621 E0.01320
G1 X95.059 Y100.203 E0.01390
G1 X95.147 Y99.777 E0.01363
G1 X95.176 Y99.351 E0.01340
G1 X95.176 Y85.886 E0.42218
G1 X99.079 Y85.886 E0.12238
G1 X99.079 Y97.460 E0.36289
G1 X99.122 Y97.917 F7200.000
G1 X98.647 Y98.010 F7200.000
G1 F900
G1 X101.095 Y100.458 E0.10995
G1 X101.670 Y100.493 E0.01832
G1 X99.356 Y98.179 E0.10392
G1 X99.897 Y98.179 E0.01716
G1 X102.263 Y100.546 E0.10630
G1 X102.865 Y100.607 E0.01920
G1 X100.437 Y98.179 E0.10906
G1 X100.977 Y98.179 E0.01716
G1 X103.513 Y100.715 E0.11389
G1 X103.924 Y100.793 E0.01329
G1 X104.224 Y100.887 E0.01000
G1 X101.533 Y98.195 E0.12088
G1 X102.108 Y98.230 E0.01829
G1 X105.125 Y101.247 E0.13552
G1 F5760
G1 X103.574 Y99.696 E-0.76000
G1 E-0.04000 F2100.00000
G1 Z0.800 F7200.000
G1 X106.749 Y102.871 F7200.000
G1 Z0.200 F7200.000
G1 E0.80000 F2100.00000
G1 F900
G1 X110.126 Y106.248 E0.15167
G1 X110.078 Y106.740 E0.01571
G1 X107.165 Y103.827 E0.13082
G1 X107.421 Y104.624 E0.02657
G1 X110.018 Y107.221 E0.11664
G1 X109.943 Y107.686 E0.01497
G1 X107.616 Y105.358 E0.10454
G1 X107.763 Y105.916 E0.01834
G1 X107.733 Y106.016 E0.00330
G1 X109.847 Y108.130 E0.09495
G1 X109.729 Y108.552 E0.01392
G1 X107.608 Y106.431 E0.09529
G1 X107.482 Y106.845 E0.01376
G1 X109.579 Y108.942 E0.09419
G1 X109.398 Y109.301 E0.01277
G1 X107.356 Y107.260 E0.09168
G1 X107.224 Y107.667 E0.01361
G1 X109.201 Y109.644 E0.08882
G1 X108.987 Y109.971 E0.01239
G1 X107.076 Y108.059 E0.08586
G1 X106.908 Y108.432 E0.01298
G1 X108.763 Y110.287 E0.08332
G1 X108.529 Y110.593 E0.01223
G1 X106.726 Y108.790 E0.08095
G1 X106.527 Y109.131 E0.01254
G1 X108.287 Y110.891 E0.07908
G1 X108.046 Y111.190 E0.01220
G1 X106.299 Y109.443 E0.07849
G1 X106.045 Y109.729 E0.01215
G1 X107.778 Y111.462 E0.07782
G1 X107.487 Y111.712 E0.01216
G1 X105.765 Y109.989 E0.07737
G1 X105.456 Y110.221 E0.01225
G1 X107.183 Y111.948 E0.07757
G1 X106.954 Y112.125 E0.00921
G1 X106.872 Y112.177 E0.00307
G1 X105.117 Y110.422 E0.07883
G1 X104.749 Y110.594 E0.01291
G1 X106.537 Y112.383 E0.08034
G1 X106.176 Y112.561 E0.01281
G1 X104.358 Y110.743 E0.08164
G1 X103.937 Y110.862 E0.01391
G1 X105.794 Y112.719 E0.08342
G1 X105.400 Y112.866 E0.01334
G1 X103.496 Y110.962 E0.08554
G1 X103.033 Y111.038 E0.01492
G1 X104.989 Y112.995 E0.08788
G1 X104.530 Y113.076 E0.01480
G1 X102.547 Y111.093 E0.08909
G1 X102.050 Y111.136 E0.01584
G1 X104.071 Y113.158 E0.09080
G1 X103.612 Y113.239 E0.01480
G1 X101.537 Y111.163 E0.09324
G1 X101.023 Y111.190 E0.01632
G1 X103.135 Y113.302 E0.09487
G1 X102.652 Y113.358 E0.01547
G1 X100.498 Y111.205 E0.09673
G1 X99.958 Y111.205 E0.01716
G1 X102.148 Y113.395 E0.09838
G1 X101.638 Y113.425 E0.01624
G1 X99.418 Y111.205 E0.09971
G1 X98.878 Y111.205 E0.01716
G1 X101.112 Y113.439 E0.10035
G1 X100.582 Y113.450 E0.01682
G1 X95.836 Y108.703 E0.21319
G1 X95.836 Y108.163 E0.01716
G1 X98.419 Y110.746 E0.11604
G1 X98.419 Y110.206 E0.01716
G1 X95.836 Y107.623 E0.11604
G1 X95.836 Y107.083 E0.01716
G1 X98.419 Y109.666 E0.11604
G1 X98.419 Y109.126 E0.01716
G1 X95.836 Y106.542 E0.11604
G1 X95.836 Y106.002 E0.01716
G1 X98.419 Y108.586 E0.11604
G1 X98.419 Y108.046 E0.01716
G1 X95.836 Y105.462 E0.11604
G1 X95.836 Y104.922 E0.01716
G1 X98.419 Y107.505 E0.11604
G1 X98.419 Y106.965 E0.01716
G1 X95.836 Y104.382 E0.11604
G1 X95.836 Y103.842 E0.01716
G1 X98.419 Y106.425 E0.11604
G1 X98.419 Y105.885 E0.01716
G1 X94.657 Y102.123 E0.16897
G1 X94.917 Y101.842 E0.01214
G1 X98.419 Y105.345 E0.15731
G1 X98.419 Y104.805 E0.01716
G1 X95.153 Y101.538 E0.14672
G1 X95.355 Y101.200 E0.01251
G1 X98.419 Y104.264 E0.13763
G1 X98.419 Y103.724 E0.01716
G1 X95.534 Y100.839 E0.12959
G1 X95.675 Y100.440 E0.01344
G1 X98.419 Y103.184 E0.12325
G1 X98.419 Y102.644 E0.01716
G1 X95.775 Y99.999 E0.11878
G1 X95.802 Y99.866 E0.00432
G1 X95.826 Y99.511 E0.01131
G1 X98.419 Y102.104 E0.11646
G1 X98.419 Y101.564 E0.01716
G1 X95.836 Y98.980 E0.11604
G1 X95.836 Y98.440 E0.01716
