;FLAVOR:Marlin
;TIME:255
;Filament used:0.22447m
;Layer height: 0.3
;MINX:71.666
;MINY:68.376
;MINZ:0.2
;MAXX:93.334
;MAXY:96.624
;MAXZ:2.9
                                  
;Creative3D GCode Generated by CXEngineDEV
;Generated Time:2022-04-08 18:14:05
;----------Machine Config--------------
;Machine Name:Creality Ender-2 Pro
;Machine Height:180
;Machine Width:165
;Machine Depth:165
;Material name:PLA
;Number of Extruders:1
;ExtruderParams[0] Nozzle Diameter1000
;----------Profile Config---------------
;Layer Height:0.3
;Wall Thickness:0.8
;Top/Bottom Thickness:1
;Out Wall Line Width:0.4
;Inner Wall Line Width:0.4
;Inital Layer Height:200
;Wall Line Count:1
;Infill Line Distance:4
;Infill Pattern:grid
;Infill Sparse Density:20
;Infill Wipe Distance:0
;Print Temperature:200
;Bed Temperature:60
;Support Enable:false
;Support Density:30
;Support Angle:1.0472
;Adhesion Type:none
;machine is belt:false
;machine belt offset:10
;machine belt offset Y:0
;----------Shell Config----------------
;Outer Wall Wipe Distance:200
;Infill Before Walls:false
;Infill Overlap:0.16
;Fill Gaps Between Walls:everywhere
;Minimum Infill Area:1
;Top Surface Skin Layer:0
;Top Layers:2
;Z Seam Alignment:sharpest_corner
;Seam Corner Preference:z_seam_corner_inner
;Z Seam X:82.5
;Z Seam Y:82.5
;Horizontal Expansion:0
;Top/Bottom Pattern:zigzag
;Ironing Pattern:zigzag
;Vase Model:false
;----------Support Config----------------
;Support Type:everywhere
;Support Pattern:zigzag
;Support Infill Layer Thickness:0.3
;Minimum Support Area:10
;Enable Support Roof:false
;Support Roof Thickness:0.8
;Support Roof Pattern:lines
; ---------PrintSpeed & Travel----------
;Enable Print Cool:true
;Avoid Printed Parts Traveling:true
;Enable Retraction:true
;Retraction Distance:8
;Retraction Speed:100
;Retraction Prime Speed:100
;Maximum Retraction Count:100
;Minimum Extrusion Distance Window:1
;Z Hop When Retracted:false
;Z Hop Height:0.2
;Retract Before Outer Wall:true
;Print Speed:50
;Infill Speed:50

;Prime Tower Speed:50
;Travel Speed:120
;Initial Layer Speed:25
;Skirt/Brim Speed:25
;Combing Mode:off
;---------------------End of Head--------------------------
M140 S60
M104 S200
M105
M109 S200
M82 ;absolute extrusion mode
M220 S100 ;Reset Feedrate
M221 S100 ;Reset Flowrate

G28 ;Home

G92 E0 ;Reset Extruder
G1 Z2.0 F3000 ;Move Z Axis up
G1 X10.1 Y20 Z0.28 F5000.0 ;Move to start position
G1 X10.1 Y145.0 Z0.28 F1500.0 E15 ;Draw the first line
G1 X10.4 Y145.0 Z0.28 F5000.0 ;Move to side a little
G1 X10.4 Y20 Z0.28 F1500.0 E30 ;Draw the second line
G92 E0  ;Reset Extruder
G1 E-1.0000 F1800 ;Retract a bit
G1 Z2.0 F3000 ;Move Z Axis up
G1 E0.0000 F1800 

G92 E0
G92 E0
G1 F6000 E-8

;LAYER_COUNT:10

;LAYER:0
M107
;MESH:
G0 F3600 X77.555 Y86.624 Z0.2
;TYPE:WALL-OUTER
G1 F6000 E0
G1 F1500 X74.45 Y86.624 E0.1136
G1 X74.075 Y86.685 E0.1275
G1 X73.722 Y86.879 E0.14224
G1 X73.452 Y87.177 E0.15695
G1 X73.299 Y87.544 E0.1715
G1 X73.266 Y87.812 E0.18138
G1 X73.271 Y89.957 E0.25985
G1 X73.379 Y90.339 E0.27438
G1 X73.615 Y90.674 E0.28937
G1 X73.937 Y90.903 E0.30383
G1 X74.314 Y91.015 E0.31821
G1 X74.518 Y91.024 E0.32568
G1 X77.666 Y91.024 E0.44086
G1 X77.666 Y86.922 E0.59093
G1 X77.555 Y86.624 E0.60257
G0 F3600 X77.355 Y86.624
G0 X77.355 Y86.184
;;retract;;
G1 F6000 E-7.39743
G0 F3600 X81.589 Y83.617
G1 F6000 E0.60257
G1 F1500 X81.589 Y93.035 E0.94714
G1 X83.223 Y93.035 E1.00692
G1 X84.387 Y92.981 E1.04955
G1 X84.988 Y92.932 E1.07161
G1 X85.553 Y92.862 E1.09244
G1 X86.086 Y92.765 E1.11226
G1 X86.361 Y92.697 E1.12263
G1 X86.741 Y92.58 E1.13717
G1 X87.097 Y92.438 E1.1512
G1 X87.439 Y92.261 E1.16528
G1 X87.753 Y92.048 E1.17917
G1 X88.039 Y91.798 E1.19306
G1 X88.292 Y91.508 E1.20714
G1 X88.514 Y91.191 E1.2213
G1 X88.651 Y90.956 E1.23126
G1 X88.83 Y90.599 E1.24587
G1 X88.94 Y90.346 E1.25596
G1 X89.136 Y89.826 E1.27629
G1 X89.311 Y89.285 E1.29709
G1 X89.566 Y88.403 E1.33068
G1 X89.337 Y87.516 E1.3642
G1 X89.178 Y86.97 E1.38501
G1 X88.999 Y86.445 E1.4053
G1 X88.897 Y86.189 E1.41538
G1 X88.787 Y85.943 E1.42524
G1 X88.605 Y85.593 E1.43967
G1 X88.4 Y85.271 E1.45364
G1 X88.161 Y84.974 E1.46759
G1 X87.888 Y84.712 E1.48143
G1 X87.584 Y84.487 E1.49527
G1 X87.254 Y84.299 E1.50916
G1 X86.894 Y84.141 E1.52355
G1 X86.521 Y84.016 E1.53794
G1 X86.261 Y83.945 E1.5478
G1 X85.993 Y83.884 E1.55786
G1 X85.446 Y83.789 E1.57817
G1 X84.877 Y83.721 E1.59913
G1 X84.004 Y83.652 E1.63117
G1 X83.409 Y83.617 E1.65298
G1 X81.589 Y83.617 E1.71957
G0 F3600 X81.589 Y83.817
G0 X81.149 Y83.817
;;retract;;
G1 F6000 E-6.28043
G0 F3600 X81.589 Y80.01
G1 F6000 E1.71957
G1 F1500 X83.782 Y80.01 E1.7998
G1 X84.75 Y80.062 E1.83527
G1 X85.22 Y80.096 E1.85251
G1 X85.931 Y80.17 E1.87866
G1 X86.396 Y80.237 E1.89585
G1 X86.84 Y80.322 E1.91239
G1 X87.283 Y80.431 E1.92908
G1 X87.719 Y80.567 E1.94579
G1 X88.152 Y80.734 E1.96277
G1 X88.568 Y80.924 E1.9795
G1 X88.969 Y81.133 E1.99604
G1 X89.587 Y81.493 E2.02221
G1 X90.764 Y82.26 E2.07361
G1 X91.336 Y82.905 E2.10515
G1 X91.758 Y83.414 E2.12934
G1 X92.011 Y83.746 E2.14461
G1 X92.249 Y84.092 E2.15998
G1 X92.471 Y84.457 E2.17561
G1 X92.65 Y84.807 E2.18999
G1 X92.812 Y85.198 E2.20547
G1 X92.935 Y85.574 E2.21995
G1 X93.041 Y85.989 E2.23562
G1 X93.122 Y86.394 E2.25073
G1 X93.187 Y86.818 E2.26642
G1 X93.261 Y87.477 E2.29068
G1 X93.334 Y88.345 E2.32255
G1 X93.26 Y89.179 E2.35318
G1 X93.214 Y89.596 E2.36853
G1 X93.122 Y90.224 E2.39176
G1 X93.045 Y90.614 E2.4063
G1 X92.946 Y91.004 E2.42102
G1 X92.823 Y91.389 E2.43581
G1 X92.675 Y91.759 E2.45039
G1 X92.498 Y92.12 E2.4651
G1 X92.304 Y92.458 E2.47935
G1 X92.077 Y92.808 E2.49462
G1 X91.717 Y93.306 E2.5171
G1 X90.924 Y94.289 E2.56331
G1 X90.396 Y94.744 E2.58881
G1 X90.032 Y95.033 E2.60581
G1 X89.646 Y95.303 E2.62305
G1 X89.259 Y95.528 E2.63942
G1 X88.849 Y95.722 E2.65602
G1 X88.414 Y95.895 E2.67315
G1 X87.744 Y96.131 E2.69914
G1 X87.095 Y96.254 E2.7233
G1 X86.083 Y96.425 E2.76085
G1 X85.422 Y96.509 E2.78523
G1 X84.749 Y96.566 E2.80994
G1 X84.066 Y96.6 E2.83496
G1 X83.046 Y96.62 E2.87229
G1 X77.866 Y96.624 E3.0618
G1 X77.666 Y96.624 E3.06912
G1 X77.666 Y96.424 E3.07386
G1 X77.666 Y95.794 E3.09691
G1 X77.639 Y95.378 E3.11216
G1 X77.551 Y94.949 E3.12818
G1 X77.406 Y94.541 E3.14402
G1 X77.21 Y94.156 E3.15983
G1 X76.959 Y93.799 E3.17579
G1 X76.667 Y93.481 E3.19159
G1 X76.333 Y93.206 E3.20742
G1 X75.961 Y92.975 E3.22344
G1 X75.564 Y92.8 E3.23931
G1 X75.15 Y92.68 E3.25508
G1 X74.314 Y92.559 E3.28599
G1 X73.92 Y92.454 E3.30091
G1 X73.543 Y92.301 E3.31579
G1 X73.181 Y92.101 E3.33092
G1 X72.846 Y91.853 E3.34617
G1 X72.557 Y91.58 E3.36072
G1 X72.291 Y91.255 E3.37608
G1 X72.073 Y90.909 E3.39104
G1 X71.898 Y90.538 E3.40605
G1 X71.771 Y90.147 E3.42109
G1 X71.696 Y89.752 E3.4358
G1 X71.667 Y89.323 E3.45153
G1 X71.666 Y88.336 E3.48764
G1 X71.69 Y87.927 E3.50263
G1 X71.766 Y87.521 E3.51775
G1 X71.891 Y87.126 E3.5329
G1 X72.058 Y86.765 E3.54746
G1 X72.278 Y86.412 E3.56267
G1 X72.542 Y86.084 E3.57808
G1 X72.832 Y85.806 E3.59278
G1 X73.156 Y85.565 E3.60755
G1 X73.52 Y85.359 E3.62285
G1 X73.898 Y85.204 E3.6378
G1 X74.295 Y85.094 E3.65287
G1 X75.138 Y84.973 E3.68403
G1 X75.55 Y84.854 E3.69972
G1 X75.952 Y84.678 E3.71577
G1 X76.32 Y84.451 E3.73159
G1 X76.656 Y84.177 E3.74745
G1 X76.951 Y83.86 E3.7633
G1 X77.202 Y83.502 E3.77929
G1 X77.401 Y83.118 E3.79512
G1 X77.547 Y82.705 E3.81114
G1 X77.636 Y82.281 E3.82699
G1 X77.665 Y81.855 E3.84262
G1 X77.666 Y68.376 E4.33576
G1 X81.589 Y68.376 E4.47929
G1 X81.589 Y80.01 E4.90493
G0 F3600 X81.789 Y80.01
G0 X81.789 Y80.45
;;retract;;
G1 F6000 E-3.09507
G0 F3600 X81.348 Y68.616
;TYPE:SKIN
G1 F6000 E4.90493
G1 F1500 X81.061 Y68.616 E4.91543
G1 X81.348 Y68.903 E4.93028
G1 X81.348 Y69.468 E4.95095
G1 X80.495 Y68.616 E4.99506
G1 X79.929 Y68.616 E5.01577
G1 X81.348 Y70.034 E5.08916
G1 X81.348 Y70.6 E5.10987
G1 X79.364 Y68.616 E5.21252
G1 X78.798 Y68.616 E5.23323
G1 X81.348 Y71.166 E5.36517
G1 X81.348 Y71.731 E5.38584
G1 X78.232 Y68.616 E5.54704
G1 X77.905 Y68.615 E5.559
G1 X77.905 Y68.854 E5.56775
G1 X81.348 Y72.297 E5.74589
G1 X81.348 Y72.863 E5.7666
G1 X77.905 Y69.42 E5.94474
G1 X77.905 Y69.985 E5.96541
G1 X81.348 Y73.428 E6.14356
G1 X81.348 Y73.994 E6.16426
G1 X77.905 Y70.551 E6.34241
G1 X77.905 Y71.117 E6.36311
G1 X81.348 Y74.56 E6.54126
G1 X81.348 Y75.125 E6.56193
G1 X77.905 Y71.682 E6.74007
G1 X77.905 Y72.248 E6.76078
G1 X81.348 Y75.691 E6.93892
G1 X81.348 Y76.257 E6.95963
G1 X77.905 Y72.814 E7.13777
G1 X77.905 Y73.38 E7.15848
G1 X81.348 Y76.822 E7.3366
G1 X81.348 Y77.388 E7.35731
G1 X77.905 Y73.945 E7.53545
G1 X77.905 Y74.511 E7.55616
G1 X81.348 Y77.954 E7.7343
G1 X81.348 Y78.519 E7.75497
G1 X77.905 Y75.077 E7.93309
G1 X77.905 Y75.642 E7.95376
G1 X81.348 Y79.085 E8.1319
G1 X81.348 Y79.651 E8.15261
G1 X77.905 Y76.208 E8.33075
G1 X77.905 Y76.774 E8.35146
G1 X81.348 Y80.217 E8.5296
G1 X81.348 Y80.249 E8.53077
;;retract;;
G1 F6000 E0.53077
G0 F3600 X86.36 Y80.474
G1 F6000 E8.53077
G1 F1500 X86.093 Y80.436 E8.54064
G1 X93.004 Y87.347 E8.89822
G1 X93.021 Y87.501 E8.90389
G1 X93.06 Y87.969 E8.92107
G1 X85.453 Y80.361 E9.31469
G1 X85.168 Y80.331 E9.32517
G1 X84.833 Y80.308 E9.33746
G1 X93.074 Y88.548 E9.76383
G1 X93.028 Y89.068 E9.78292
G1 X84.234 Y80.275 E10.23791
G1 X83.768 Y80.249 E10.25498
G1 X83.643 Y80.249 E10.25956
G1 X87.632 Y84.238 E10.46595
G1 X87.36 Y84.084 E10.47738
G1 X86.979 Y83.917 E10.4926
G1 X86.628 Y83.799 E10.50615
G1 X83.077 Y80.249 E10.68986
G1 X82.512 Y80.249 E10.71053
G1 X85.884 Y83.621 E10.885
G1 X85.48 Y83.551 E10.9
G1 X85.216 Y83.519 E10.90973
G1 X81.946 Y80.249 E11.07892
G1 X81.38 Y80.249 E11.09963
G1 X84.588 Y83.456 E11.26559
G1 X84.02 Y83.412 E11.28643
G1 X83.975 Y83.409 E11.28808
G1 X77.905 Y77.339 E11.60214
G1 X77.905 Y77.905 E11.62285
G1 X83.376 Y83.376 E11.90593
G1 X82.81 Y83.376 E11.92663
G1 X77.905 Y78.471 E12.18042
G1 X77.905 Y79.036 E12.20109
G1 X82.245 Y83.376 E12.42565
G1 X81.679 Y83.376 E12.44635
G1 X77.905 Y79.602 E12.64162
G1 X77.905 Y80.168 E12.66233
G1 X81.349 Y83.611 E12.8405
G1 X81.349 Y84.177 E12.86121
G1 X77.905 Y80.733 E13.0394
G1 X77.905 Y81.299 E13.06011
G1 X81.349 Y84.743 E13.2383
G1 X81.349 Y85.308 E13.25898
G1 X77.904 Y81.864 E13.4372
G1 X77.875 Y82.312 E13.45362
G1 X77.859 Y82.385 E13.45636
G1 X81.349 Y85.874 E13.6369
G1 X81.349 Y86.44 E13.65761
G1 X77.752 Y82.843 E13.84372
G1 X77.621 Y83.213 E13.85808
G1 X77.599 Y83.256 E13.85985
G1 X81.349 Y87.005 E14.05385
G1 X81.349 Y87.571 E14.07456
G1 X77.405 Y83.628 E14.2786
G1 X77.172 Y83.96 E14.29344
G1 X81.349 Y88.137 E14.50956
G1 X81.349 Y88.703 E14.53027
G1 X76.904 Y84.258 E14.76025
G1 X76.82 Y84.35 E14.76481
G1 X76.606 Y84.526 E14.77495
G1 X81.349 Y89.268 E15.02033
G1 X81.349 Y89.834 E15.04104
G1 X76.275 Y84.76 E15.30357
G1 X76.064 Y84.891 E15.31266
G1 X75.908 Y84.959 E15.31888
G1 X77.332 Y86.382 E15.39253
G1 X76.766 Y86.382 E15.41324
G1 X75.5 Y85.117 E15.47872
G1 X75.188 Y85.207 E15.4906
G1 X75.045 Y85.228 E15.49589
G1 X76.2 Y86.382 E15.55562
G1 X75.634 Y86.382 E15.57633
G1 X74.551 Y85.299 E15.63237
G1 X74.345 Y85.328 E15.63998
G1 X74.087 Y85.401 E15.64979
G1 X75.069 Y86.382 E15.70057
G1 X74.503 Y86.382 E15.72128
G1 X73.675 Y85.554 E15.76412
G1 X73.628 Y85.573 E15.76597
G1 X73.309 Y85.754 E15.77939
G1 X74.006 Y86.451 E15.81546
G1 X73.995 Y86.453 E15.81586
G1 X73.638 Y86.649 E15.83076
G1 X72.982 Y85.993 E15.86471
G1 X72.719 Y86.245 E15.87803
G1 X72.696 Y86.272 E15.87933
G1 X73.353 Y86.929 E15.91332
G1 X73.247 Y87.045 E15.91907
G1 X73.145 Y87.288 E15.92871
G1 X72.448 Y86.59 E15.9648
G1 X72.269 Y86.88 E15.97727
G1 X72.238 Y86.945 E15.97991
G1 X73.032 Y87.74 E16.02101
G1 X73.025 Y87.797 E16.02312
G1 X73.027 Y88.3 E16.04152
G1 X72.071 Y87.345 E16.09096
G1 X71.999 Y87.579 E16.09991
G1 X71.958 Y87.797 E16.10803
G1 X73.028 Y88.867 E16.16339
G1 X73.029 Y89.434 E16.18414
G1 X71.907 Y88.312 E16.24219
G1 X71.906 Y88.349 E16.24354
G1 X71.906 Y88.876 E16.26282
G1 X73.035 Y90.006 E16.32127
G1 X73.159 Y90.442 E16.33785
G1 X73.442 Y90.845 E16.35587
G1 X73.829 Y91.119 E16.37321
G1 X74.273 Y91.252 E16.39017
;;retract;;
G1 F6000 E8.39017
G0 F3600 X72.998 Y91.666
G1 F6000 E16.39017
G1 F1500 X73.313 Y91.899 E16.40451
G1 X73.647 Y92.083 E16.41846
G1 X73.992 Y92.224 E16.43209
G1 X74.169 Y92.271 E16.43879
G1 X72.012 Y90.114 E16.5504
G1 X72.001 Y90.081 E16.55167
G1 X71.936 Y89.729 E16.56477
G1 X71.917 Y89.453 E16.57489
G1 X74.857 Y92.394 E16.72703
G1 X75.2 Y92.444 E16.73971
G1 X75.584 Y92.554 E16.75433
G1 X74.282 Y91.253 E16.82167
G1 X74.513 Y91.263 E16.83013
G1 X74.858 Y91.263 E16.84275
G1 X79.975 Y96.38 E17.10751
G1 X80.541 Y96.38 E17.12821
G1 X75.424 Y91.263 E17.39297
G1 X75.989 Y91.263 E17.41364
G1 X81.106 Y96.38 E17.6784
G1 X81.672 Y96.38 E17.69911
G1 X76.555 Y91.263 E17.96386
G1 X77.121 Y91.263 E17.98457
G1 X82.237 Y96.379 E18.24928
G1 X82.802 Y96.379 E18.26995
G1 X77.686 Y91.263 E18.53465
G1 X77.906 Y91.263 E18.5427
G1 X77.906 Y90.916 E18.5554
G1 X83.361 Y96.372 E18.83767
G1 X83.915 Y96.36 E18.85794
G1 X77.906 Y90.351 E19.16885
G1 X77.906 Y89.785 E19.18956
G1 X81.349 Y93.228 E19.3677
G1 X81.349 Y92.662 E19.38841
G1 X77.906 Y89.219 E19.56655
G1 X77.906 Y88.654 E19.58722
G1 X81.349 Y92.097 E19.76537
G1 X81.349 Y91.531 E19.78607
G1 X77.906 Y88.088 E19.96422
G1 X77.906 Y87.522 E19.98493
G1 X81.349 Y90.965 E20.16307
G1 X81.349 Y90.4 E20.18374
G1 X77.906 Y86.957 E20.36188
G1 X77.906 Y86.877 E20.36481
G1 X77.722 Y86.382 E20.38413
;;retract;;
G1 F6000 E12.38413
G0 F3600 X75.646 Y92.573
G1 F6000 E20.38413
G1 F1500 X76.074 Y92.761 E20.40123
G1 X76.472 Y93.009 E20.41839
G1 X76.832 Y93.305 E20.43544
G1 X77.146 Y93.647 E20.45243
G1 X77.416 Y94.031 E20.4696
G1 X77.626 Y94.444 E20.48655
G1 X77.711 Y94.681 E20.49577
G1 X79.41 Y96.381 E20.5837
G1 X78.845 Y96.382 E20.60437
G1 X77.882 Y95.418 E20.65422
G1 X77.906 Y95.786 E20.66771
G1 X77.906 Y96.008 E20.67584
G1 X78.28 Y96.382 E20.69519
G1 X77.906 Y96.382 E20.70887
;;retract;;
G1 F6000 E12.70887
G0 F3600 X81.349 Y93.273
G1 F6000 E20.70887
G1 F1500 X81.349 Y93.228 E20.71052
G0 F3600 X81.395 Y93.274
G1 F1500 X84.459 Y96.339 E20.86908
G1 X84.736 Y96.325 E20.87922
G1 X84.989 Y96.303 E20.88851
G1 X81.96 Y93.274 E21.04524
G1 X82.526 Y93.274 E21.06594
G1 X85.507 Y96.255 E21.22018
G1 X86.009 Y96.191 E21.2387
G1 X83.092 Y93.274 E21.38963
G1 X83.229 Y93.274 E21.39464
G1 X83.639 Y93.256 E21.40965
G1 X86.494 Y96.111 E21.55737
G1 X86.979 Y96.03 E21.57536
G1 X84.18 Y93.231 E21.72018
G1 X84.403 Y93.22 E21.72835
G1 X84.71 Y93.195 E21.73962
G1 X87.454 Y95.94 E21.88162
G1 X87.679 Y95.897 E21.89001
G1 X87.9 Y95.82 E21.89857
G1 X85.225 Y93.145 E22.03697
G1 X85.588 Y93.099 E22.05036
G1 X85.721 Y93.075 E22.05531
G1 X88.318 Y95.672 E22.18968
G1 X88.334 Y95.667 E22.19029
G1 X88.724 Y95.512 E22.20564
G1 X86.197 Y92.985 E22.33639
G1 X86.424 Y92.928 E22.34495
G1 X86.64 Y92.862 E22.35322
G1 X89.108 Y95.331 E22.48094
G1 X89.145 Y95.314 E22.48243
G1 X89.468 Y95.125 E22.49612
G1 X87.056 Y92.713 E22.62092
G1 X87.196 Y92.655 E22.62646
G1 X87.439 Y92.53 E22.63646
G1 X89.805 Y94.896 E22.75888
G1 X89.893 Y94.835 E22.7628
G1 X90.125 Y94.651 E22.77363
G1 X87.788 Y92.313 E22.89457
G1 X87.899 Y92.237 E22.8995
G1 X88.101 Y92.061 E22.9093
G1 X90.433 Y94.393 E23.02996
G1 X90.737 Y94.131 E23.04464
G1 X88.378 Y91.772 E23.1667
G1 X88.481 Y91.655 E23.1724
G1 X88.623 Y91.452 E23.18146
G1 X90.993 Y93.821 E23.30406
G1 X91.245 Y93.508 E23.31876
G1 X88.841 Y91.104 E23.44315
G1 X88.862 Y91.069 E23.44464
G1 X89.032 Y90.729 E23.45855
G1 X91.498 Y93.195 E23.58614
G1 X91.53 Y93.154 E23.58804
G1 X91.737 Y92.869 E23.60093
G1 X89.2 Y90.331 E23.73222
G1 X89.355 Y89.921 E23.74826
G1 X91.967 Y92.533 E23.88341
G1 X92.101 Y92.326 E23.89243
G1 X92.184 Y92.184 E23.89845
G1 X89.494 Y89.494 E24.03763
G1 X89.539 Y89.355 E24.04297
G1 X89.624 Y89.058 E24.05428
G1 X92.379 Y91.814 E24.19685
G1 X92.457 Y91.653 E24.20339
G1 X92.551 Y91.42 E24.21258
G1 X89.751 Y88.62 E24.35746
G1 X89.813 Y88.407 E24.36557
G1 X89.712 Y88.014 E24.38042
G1 X92.695 Y90.998 E24.53479
G1 X92.715 Y90.931 E24.53735
G1 X92.811 Y90.555 E24.55154
G1 X92.812 Y90.549 E24.55177
G1 X89.506 Y87.244 E24.7228
G1 X89.406 Y86.897 E24.73601
G1 X89.241 Y86.412 E24.75475
G1 X92.901 Y90.072 E24.94412
