; generated by Slic3r Prusa Edition 1.39.1-prusa3d on 2018-04-22 at 18:21:26

; 

; external perimeters extrusion width = 0.45mm
; perimeters extrusion width = 0.45mm
; infill extrusion width = 0.45mm
; solid infill extrusion width = 0.45mm
; top infill extrusion width = 0.33mm
; first layer extrusion width = 0.42mm

M107
M115 U3.1.0 ; tell printer latest fw version
M201 X9000 Y9000 Z500 E10000 ; sets maximum accelerations, mm/sec^2
M203 X500 Y500 Z12 E120 ; sets maximum feedrates, mm/sec
M204 S1500 T1500 ; sets acceleration (S) and retract acceleration (T)
M205 X10 Y10 Z0.2 E2.5 ; sets the jerk limits, mm/sec
M205 S0 T0 ; sets the minimum extruding and travel feed rate, mm/sec
M83  ; extruder relative mode
M104 S215 ; set extruder temp
M140 S60 ; set bed temp
M190 S60 ; wait for bed temp
M109 S215 ; wait for extruder temp
G28 W ; home all without mesh bed level
G80 ; mesh bed leveling
G1 Y-3.0 F1000.0 ; go outside print area
G92 E0.0
G1 E18.0 F1000.0;
G1 X60.0 E9.0  F1000.0 ; intro line
G1 X100.0 E12.5  F1000.0 ; intro line
G92 E0.0
M900 K30; Filament gcode
G21 ; set units to millimeters
G90 ; use absolute coordinates
M83 ; use relative distances for extrusion
;BEFORE_LAYER_CHANGE
;0.2


G1 E-0.80000 F2100.00000
G1 Z0.600 F7200.000
;AFTER_LAYER_CHANGE
;0.2
G1 X119.421 Y87.976 F7200.000
G1 Z0.200 F7200.000
G1 E0.80000 F2100.00000
M204 S1000
G1 F900
G1 X124.293 Y87.922 E0.15279
G1 X124.923 Y87.996 E0.01988
G1 X125.519 Y88.212 E0.01988
G1 X126.050 Y88.558 E0.01988
G1 X126.488 Y89.017 E0.01988
G1 X137.530 Y105.481 E0.62158
G1 X138.191 Y106.986 E0.05152
G1 X138.612 Y108.902 E0.06151
G1 X138.788 Y110.863 E0.06176
G1 X138.583 Y112.921 E0.06484
G1 X138.356 Y114.059 E0.03638
G1 X137.995 Y115.174 E0.03675
G1 X137.478 Y116.239 E0.03710
G1 X136.848 Y117.216 E0.03645
G1 X135.398 Y118.987 E0.07178
G1 X134.041 Y120.089 E0.05480
G1 X132.833 Y120.792 E0.04382
G1 X130.943 Y121.501 E0.06330
G1 X127.862 Y121.982 E0.09779
G1 X125.572 Y122.074 E0.07184
G1 X119.590 Y122.053 E0.18758
G1 X118.795 Y121.817 E0.02600
G1 X118.106 Y121.356 E0.02600
G1 X112.929 Y116.128 E0.23067
G1 X112.363 Y115.439 E0.02797
G1 X111.761 Y114.385 E0.03804
G1 X111.327 Y113.021 E0.04489
G1 X111.213 Y111.892 E0.03558
G1 X111.264 Y110.015 E0.05888
G1 X111.497 Y108.958 E0.03393
G1 X117.334 Y89.863 E0.62606
G1 X117.594 Y89.275 E0.02014
G1 X117.935 Y88.815 E0.01796
G1 X118.368 Y88.433 E0.01809
G1 X118.870 Y88.149 E0.01809
G1 X119.363 Y87.994 E0.01621
G1 X119.472 Y88.357 F7200.000
G1 F900
G1 X119.533 Y88.338 E0.00202
G1 X124.293 Y88.299 E0.14923
G1 X124.840 Y88.363 E0.01728
G1 X125.358 Y88.552 E0.01728
G1 X125.818 Y88.856 E0.01728
G1 X126.196 Y89.257 E0.01728
G1 X137.207 Y105.676 E0.61988
G1 X137.832 Y107.100 E0.04875
G1 X138.240 Y108.962 E0.05977
G1 X138.411 Y110.865 E0.05989
G1 X138.209 Y112.874 E0.06330
G1 X137.991 Y113.965 E0.03488
G1 X137.646 Y115.033 E0.03522
G1 X137.149 Y116.055 E0.03562
G1 X136.543 Y116.993 E0.03502
G1 X135.150 Y118.704 E0.06917
G1 X133.825 Y119.780 E0.05352
G1 X132.658 Y120.458 E0.04233
G1 X130.853 Y121.135 E0.06044
G1 X127.822 Y121.607 E0.09617
G1 X125.572 Y121.697 E0.07061
G1 X119.636 Y121.678 E0.18613
G1 X118.948 Y121.473 E0.02249
G1 X118.351 Y121.069 E0.02260
G1 X113.201 Y115.867 E0.22950
G1 X112.670 Y115.220 E0.02627
G1 X112.026 Y114.047 E0.04195
G1 X111.695 Y112.939 E0.03626
G1 X111.590 Y111.882 E0.03329
G1 X111.638 Y110.062 E0.05709
G1 X111.856 Y109.073 E0.03176
G1 X117.695 Y89.974 E0.62620
G1 X117.910 Y89.483 E0.01680
G1 X118.211 Y89.072 E0.01597
G1 X118.596 Y88.733 E0.01609
G1 X119.045 Y88.484 E0.01609
G1 X119.414 Y88.374 E0.01207
G1 F5760
G1 X119.533 Y88.338 E-0.04315
G1 F5760
G1 X121.603 Y88.321 E-0.71685
G1 E-0.04000 F2100.00000
G1 Z0.800 F7200.000
G1 X123.702 Y105.730 F7200.000
G1 Z0.200 F7200.000
G1 E0.80000 F2100.00000
G1 F900
G1 X125.921 Y105.730 E0.06959
G1 X126.830 Y105.786 E0.02854
G1 X128.002 Y105.906 E0.03693
G1 X128.855 Y106.068 E0.02723
G1 X129.537 Y106.280 E0.02238
G1 X130.162 Y106.578 E0.02172
G1 X130.517 Y106.818 E0.01343
G1 X130.741 Y107.005 E0.00915
G1 X130.947 Y107.213 E0.00917
G1 X131.214 Y107.544 E0.01334
G1 X131.513 Y108.027 E0.01782
G1 X131.859 Y108.802 E0.02662
G1 X132.131 Y109.631 E0.02733
G1 X132.470 Y110.911 E0.04153
G1 X132.003 Y112.449 E0.05038
G1 X131.797 Y112.997 E0.01837
G1 X131.557 Y113.520 E0.01804
G1 X131.271 Y114.008 E0.01774
G1 X131.011 Y114.355 E0.01357
G1 X130.715 Y114.666 E0.01349
G1 X130.376 Y114.940 E0.01364
G1 X129.894 Y115.226 E0.01758
G1 X129.369 Y115.447 E0.01787
G1 X128.687 Y115.639 E0.02220
G1 X128.109 Y115.745 E0.01843
G1 X127.233 Y115.843 E0.02762
G1 X125.730 Y115.922 E0.04720
G1 X123.702 Y115.922 E0.06358
G1 X123.702 Y105.790 E0.31767
G1 X124.079 Y106.107 F7200.000
G1 F900
G1 X125.910 Y106.107 E0.05740
G1 X126.799 Y106.162 E0.02794
G1 X127.947 Y106.279 E0.03618
G1 X128.764 Y106.435 E0.02605
G1 X129.399 Y106.632 E0.02086
G1 X129.974 Y106.907 E0.01999
G1 X130.290 Y107.119 E0.01194
G1 X130.486 Y107.283 E0.00800
G1 X130.666 Y107.464 E0.00802
G1 X130.906 Y107.762 E0.01198
G1 X131.179 Y108.204 E0.01630
G1 X131.507 Y108.938 E0.02521
G1 X131.769 Y109.738 E0.02638
G1 X132.078 Y110.904 E0.03784
G1 X131.646 Y112.328 E0.04664
G1 X131.449 Y112.852 E0.01756
G1 X131.222 Y113.346 E0.01703
G1 X130.956 Y113.799 E0.01649
G1 X130.723 Y114.111 E0.01220
G1 X130.459 Y114.389 E0.01202
G1 X130.160 Y114.629 E0.01202
G1 X129.724 Y114.889 E0.01591
G1 X129.244 Y115.090 E0.01632
G1 X128.602 Y115.271 E0.02093
G1 X128.054 Y115.372 E0.01747
G1 X127.201 Y115.467 E0.02690
G1 X126.320 Y115.520 E0.02768
G1 X125.722 Y115.545 E0.01876
G1 X124.079 Y115.545 E0.05152
G1 X124.079 Y106.167 E0.29403
G1 X124.056 Y105.708 F7200.000
G1 F5760
G1 X125.910 Y106.107 E-0.63442
G1 F5760
G1 X126.272 Y106.130 E-0.12558
G1 E-0.04000 F2100.00000
G1 Z0.800 F7200.000
G1 X120.553 Y108.737 F7200.000
G1 Z0.200 F7200.000
G1 E0.80000 F2100.00000
G1 F900
G1 X120.553 Y113.912 E0.16227
G1 X116.787 Y113.905 E0.11807
G1 X116.440 Y113.826 E0.01115
G1 X116.134 Y113.678 E0.01065
G1 X115.962 Y113.556 E0.00662
G1 X115.722 Y113.316 E0.01065
G1 X115.541 Y113.029 E0.01065
G1 X115.461 Y112.833 E0.00662
G1 X115.385 Y112.503 E0.01062
G1 X115.379 Y110.292 E0.06933
G1 X115.415 Y109.970 E0.01016
G1 X115.527 Y109.650 E0.01065
G1 X115.734 Y109.321 E0.01219
G1 X115.974 Y109.080 E0.01065
G1 X116.262 Y108.900 E0.01065
G1 X116.636 Y108.770 E0.01242
G1 X116.933 Y108.737 E0.00938
G1 X120.493 Y108.737 E0.11161
G1 X120.176 Y109.114 F7200.000
G1 F900
G1 X120.176 Y113.535 E0.13860
G1 X116.830 Y113.528 E0.10491
G1 X116.566 Y113.468 E0.00850
G1 X116.327 Y113.352 E0.00832
G1 X116.206 Y113.267 E0.00463
G1 X116.019 Y113.079 E0.00832
G1 X115.878 Y112.855 E0.00832
G1 X115.821 Y112.718 E0.00463
G1 X115.762 Y112.460 E0.00831
G1 X115.756 Y110.313 E0.06733
G1 X115.785 Y110.055 E0.00814
G1 X115.872 Y109.804 E0.00832
G1 X116.023 Y109.565 E0.00887
G1 X116.211 Y109.377 E0.00832
G1 X116.435 Y109.236 E0.00832
G1 X116.708 Y109.142 E0.00906
G1 X116.954 Y109.114 E0.00775
G1 X120.116 Y109.114 E0.09913
G1 X120.576 Y109.113 F7200.000
G1 F5760
G1 X120.146 Y111.308 E-0.76000
G1 E-0.04000 F2100.00000
G1 Z0.800 F7200.000
G1 X123.702 Y102.897 F7200.000
G1 Z0.200 F7200.000
G1 E0.80000 F2100.00000
G1 F900
G1 X126.275 Y102.897 E0.08069
G1 X127.694 Y102.982 E0.04455
G1 X128.380 Y103.053 E0.02163
G1 X129.045 Y103.158 E0.02113
G1 X129.689 Y103.307 E0.02071
G1 X130.091 Y103.432 E0.01320
G1 X130.700 Y103.678 E0.02058
G1 X131.089 Y103.869 E0.01360
G1 X131.681 Y104.200 E0.02125
G1 X133.011 Y105.059 E0.04966
G1 X133.821 Y105.988 E0.03864
G1 X134.199 Y106.476 E0.01937
G1 X134.530 Y106.971 E0.01868
G1 X134.801 Y107.477 E0.01798
G1 X135.010 Y108.011 E0.01797
G1 X135.203 Y108.760 E0.02427
G1 X135.331 Y109.586 E0.02620
G1 X135.445 Y110.846 E0.03965
G1 X135.375 Y111.639 E0.02498
G1 X135.274 Y112.455 E0.02578
G1 X135.166 Y113.033 E0.01843
G1 X135.017 Y113.587 E0.01799
G1 X134.894 Y113.930 E0.01143
G1 X134.748 Y114.258 E0.01126
G1 X134.365 Y114.927 E0.02415
G1 X133.905 Y115.576 E0.02495
G1 X133.143 Y116.521 E0.03805
G1 X132.650 Y116.945 E0.02042
G1 X132.117 Y117.356 E0.02110
G1 X131.763 Y117.584 E0.01318
G1 X131.391 Y117.778 E0.01317
G1 X130.770 Y118.036 E0.02107
G1 X130.151 Y118.254 E0.02057
G1 X128.531 Y118.540 E0.05159
G1 X127.548 Y118.655 E0.03102
G1 X126.554 Y118.713 E0.03124
G1 X125.544 Y118.733 E0.03168
G1 X120.550 Y118.737 E0.15658
G1 X120.546 Y118.073 E0.02083
G1 X120.519 Y117.806 E0.00839
G1 X120.423 Y117.344 E0.01478
G1 X120.260 Y116.882 E0.01536
G1 X120.045 Y116.464 E0.01476
G1 X119.895 Y116.234 E0.00860
G1 X119.596 Y115.864 E0.01490
G1 X119.255 Y115.542 E0.01471
G1 X119.045 Y115.381 E0.00832
G1 X118.648 Y115.136 E0.01461
G1 X118.403 Y115.018 E0.00853
G1 X117.972 Y114.861 E0.01438
G1 X117.711 Y114.795 E0.00845
G1 X116.884 Y114.677 E0.02619
G1 X116.533 Y114.583 E0.01138
G1 X116.198 Y114.446 E0.01136
G1 X115.882 Y114.268 E0.01136
G1 X115.591 Y114.052 E0.01136
G1 X115.329 Y113.802 E0.01136
G1 X115.003 Y113.379 E0.01674
G1 X114.826 Y113.053 E0.01164
G1 X114.694 Y112.716 E0.01136
G1 X114.604 Y112.365 E0.01133
G1 X114.553 Y111.808 E0.01757
G1 X114.559 Y110.645 E0.03646
G1 X114.606 Y110.275 E0.01170
G1 X114.751 Y109.771 E0.01643
G1 X114.908 Y109.433 E0.01169
G1 X115.100 Y109.127 E0.01134
G1 X115.329 Y108.846 E0.01136
G1 X115.591 Y108.596 E0.01136
G1 X115.882 Y108.381 E0.01136
G1 X116.206 Y108.198 E0.01165
G1 X116.707 Y108.013 E0.01674
G1 X117.071 Y107.939 E0.01167
G1 X117.502 Y107.891 E0.01358
G1 X117.964 Y107.790 E0.01482
G1 X118.424 Y107.622 E0.01538
G1 X118.833 Y107.407 E0.01449
G1 X119.055 Y107.260 E0.00834
G1 X119.431 Y106.950 E0.01528
G1 X119.750 Y106.606 E0.01473
G1 X119.904 Y106.402 E0.00800
G1 X120.045 Y106.185 E0.00813
G1 X120.258 Y105.771 E0.01460
G1 X120.423 Y105.304 E0.01551
G1 X120.521 Y104.828 E0.01524
G1 X120.553 Y104.363 E0.01460
G1 X120.553 Y91.263 E0.41076
G1 X123.702 Y91.263 E0.09874
G1 X123.702 Y102.837 E0.36289
G1 X124.079 Y102.520 F7200.000
G1 F900
G1 X126.287 Y102.520 E0.06922
G1 X127.725 Y102.606 E0.04516
G1 X128.429 Y102.679 E0.02219
G1 X129.117 Y102.787 E0.02186
G1 X129.788 Y102.943 E0.02158
G1 X130.218 Y103.077 E0.01413
G1 X130.853 Y103.334 E0.02149
G1 X131.264 Y103.535 E0.01435
G1 X131.875 Y103.877 E0.02195
G1 X133.261 Y104.771 E0.05170
G1 X134.112 Y105.748 E0.04065
G1 X134.506 Y106.255 E0.02012
G1 X134.854 Y106.777 E0.01967
G1 X135.144 Y107.318 E0.01926
G1 X135.368 Y107.889 E0.01921
G1 X135.574 Y108.690 E0.02593
G1 X135.705 Y109.540 E0.02697
G1 X135.823 Y110.845 E0.04108
G1 X135.750 Y111.679 E0.02625
G1 X135.647 Y112.513 E0.02635
G1 X135.534 Y113.117 E0.01926
G1 X135.377 Y113.700 E0.01893
G1 X135.244 Y114.071 E0.01236
G1 X135.084 Y114.429 E0.01230
G1 X134.683 Y115.130 E0.02531
G1 X134.206 Y115.804 E0.02589
G1 X133.415 Y116.784 E0.03949
G1 X132.888 Y117.238 E0.02181
G1 X132.334 Y117.665 E0.02193
G1 X131.952 Y117.910 E0.01423
G1 X131.550 Y118.120 E0.01422
G1 X130.905 Y118.388 E0.02191
G1 X130.247 Y118.619 E0.02186
G1 X128.586 Y118.914 E0.05290
G1 X127.581 Y119.031 E0.03171
G1 X126.568 Y119.090 E0.03181
G1 X125.548 Y119.110 E0.03201
G1 X120.175 Y119.114 E0.16847
G1 X120.169 Y118.093 E0.03202
G1 X120.146 Y117.864 E0.00722
G1 X120.059 Y117.446 E0.01338
G1 X119.913 Y117.032 E0.01376
G1 X119.718 Y116.653 E0.01335
G1 X119.590 Y116.456 E0.00738
G1 X119.319 Y116.121 E0.01349
G1 X119.010 Y115.830 E0.01332
G1 X118.830 Y115.692 E0.00712
G1 X118.467 Y115.467 E0.01339
G1 X118.256 Y115.366 E0.00732
G1 X117.861 Y115.222 E0.01318
G1 X117.638 Y115.166 E0.00723
G1 X116.808 Y115.047 E0.02629
G1 X116.412 Y114.941 E0.01284
G1 X116.034 Y114.786 E0.01283
G1 X115.677 Y114.585 E0.01283
G1 X115.348 Y114.341 E0.01283
G1 X115.052 Y114.059 E0.01283
G1 X114.791 Y113.740 E0.01293
G1 X114.484 Y113.213 E0.01913
G1 X114.334 Y112.831 E0.01283
G1 X114.235 Y112.442 E0.01260
G1 X114.202 Y112.236 E0.00655
G1 X114.176 Y111.818 E0.01311
G1 X114.183 Y110.620 E0.03757
G1 X114.234 Y110.210 E0.01295
G1 X114.399 Y109.634 E0.01880
G1 X114.576 Y109.253 E0.01317
G1 X114.793 Y108.906 E0.01282
G1 X115.052 Y108.589 E0.01283
G1 X115.348 Y108.307 E0.01283
G1 X115.677 Y108.063 E0.01283
G1 X116.036 Y107.861 E0.01293
G1 X116.608 Y107.648 E0.01913
G1 X117.013 Y107.566 E0.01294
G1 X117.441 Y107.518 E0.01350
G1 X117.858 Y107.427 E0.01340
G1 X118.271 Y107.276 E0.01378
G1 X118.641 Y107.082 E0.01311
G1 X118.831 Y106.956 E0.00713
G1 X119.172 Y106.676 E0.01386
G1 X119.461 Y106.364 E0.01333
G1 X119.595 Y106.186 E0.00699
G1 X119.718 Y105.995 E0.00712
G1 X119.911 Y105.621 E0.01320
G1 X120.059 Y105.203 E0.01390
G1 X120.147 Y104.777 E0.01363
G1 X120.176 Y104.351 E0.01340
G1 X120.176 Y90.886 E0.42218
G1 X124.079 Y90.886 E0.12238
G1 X124.079 Y102.460 E0.36289
G1 X124.122 Y102.917 F7200.000
G1 X123.647 Y103.010 F7200.000
G1 F900
G1 X126.095 Y105.458 E0.10995
G1 X126.670 Y105.493 E0.01832
G1 X124.356 Y103.179 E0.10392
G1 X124.897 Y103.179 E0.01716
G1 X127.263 Y105.546 E0.10630
G1 X127.865 Y105.607 E0.01920
G1 X125.437 Y103.179 E0.10906
G1 X125.977 Y103.179 E0.01716
G1 X128.513 Y105.715 E0.11389
G1 X128.924 Y105.793 E0.01329
G1 X129.224 Y105.887 E0.01000
G1 X126.533 Y103.195 E0.12088
G1 X127.108 Y103.230 E0.01829
G1 X130.125 Y106.247 E0.13552
G1 F5760
G1 X128.574 Y104.696 E-0.76000
G1 E-0.04000 F2100.00000
G1 Z0.800 F7200.000
G1 X131.749 Y107.871 F7200.000
G1 Z0.200 F7200.000
G1 E0.80000 F2100.00000
G1 F900
G1 X135.126 Y111.248 E0.15167
G1 X135.078 Y111.740 E0.01571
G1 X132.165 Y108.827 E0.13082
G1 X132.421 Y109.624 E0.02657
G1 X135.018 Y112.221 E0.11664
G1 X134.943 Y112.686 E0.01497
G1 X132.616 Y110.358 E0.10454
G1 X132.763 Y110.916 E0.01834
G1 X132.733 Y111.016 E0.00330
G1 X134.847 Y113.130 E0.09495
G1 X134.729 Y113.552 E0.01392
G1 X132.608 Y111.431 E0.09529
G1 X132.482 Y111.845 E0.01376
G1 X134.579 Y113.942 E0.09419
G1 X134.398 Y114.301 E0.01277
G1 X132.356 Y112.260 E0.09168
G1 X132.224 Y112.667 E0.01361
G1 X134.201 Y114.644 E0.08882
G1 X133.987 Y114.971 E0.01239
G1 X132.076 Y113.059 E0.08586
G1 X131.908 Y113.432 E0.01298
G1 X133.763 Y115.287 E0.08332
G1 X133.529 Y115.593 E0.01223
G1 X131.726 Y113.790 E0.08095
G1 X131.527 Y114.131 E0.01254
G1 X133.287 Y115.891 E0.07908
G1 X133.046 Y116.190 E0.01220
G1 X131.299 Y114.443 E0.07849
G1 X131.045 Y114.729 E0.01215
G1 X132.778 Y116.462 E0.07782
G1 X132.487 Y116.712 E0.01216
G1 X130.765 Y114.989 E0.07737
G1 X130.456 Y115.221 E0.01225
G1 X132.183 Y116.948 E0.07757
G1 X131.954 Y117.125 E0.00921
G1 X131.872 Y117.177 E0.00307
G1 X130.117 Y115.422 E0.07883
G1 X129.749 Y115.594 E0.01291
G1 X131.537 Y117.383 E0.08034
G1 X131.176 Y117.561 E0.01281
G1 X129.358 Y115.743 E0.08164
G1 X128.937 Y115.862 E0.01391
G1 X130.794 Y117.719 E0.08342
G1 X130.400 Y117.866 E0.01334
G1 X128.496 Y115.962 E0.08554
G1 X128.033 Y116.038 E0.01492
G1 X129.989 Y117.995 E0.08788
G1 X129.530 Y118.076 E0.01480
G1 X127.547 Y116.093 E0.08909
G1 X127.050 Y116.136 E0.01584
G1 X129.071 Y118.158 E0.09080
G1 X128.612 Y118.239 E0.01480
G1 X126.537 Y116.163 E0.09324
G1 X126.023 Y116.190 E0.01632
G1 X128.135 Y118.302 E0.09487
G1 X127.652 Y118.358 E0.01547
G1 X125.498 Y116.205 E0.09673
G1 X124.958 Y116.205 E0.01716
G1 X127.148 Y118.395 E0.09838
G1 X126.638 Y118.425 E0.01624
G1 X124.418 Y116.205 E0.09971
G1 X123.878 Y116.205 E0.01716
G1 X126.112 Y118.439 E0.10035
G1 X125.582 Y118.450 E0.01682
G1 X120.836 Y113.703 E0.21319
G1 X120.836 Y113.163 E0.01716
G1 X123.419 Y115.746 E0.11604
G1 X123.419 Y115.206 E0.01716
G1 X120.836 Y112.623 E0.11604
G1 X120.836 Y112.083 E0.01716
G1 X123.419 Y114.666 E0.11604
G1 X123.419 Y114.126 E0.01716
G1 X120.836 Y111.542 E0.11604
G1 X120.836 Y111.002 E0.01716
G1 X123.419 Y113.586 E0.11604
G1 X123.419 Y113.046 E0.01716
G1 X120.836 Y110.462 E0.11604
G1 X120.836 Y109.922 E0.01716
G1 X123.419 Y112.505 E0.11604
G1 X123.419 Y111.965 E0.01716
G1 X120.836 Y109.382 E0.11604
G1 X120.836 Y108.842 E0.01716
G1 X123.419 Y111.425 E0.11604
G1 X123.419 Y110.885 E0.01716
G1 X119.657 Y107.123 E0.16897
G1 X119.917 Y106.842 E0.01214
G1 X123.419 Y110.345 E0.15731
G1 X123.419 Y109.805 E0.01716
G1 X120.153 Y106.538 E0.14672
G1 X120.355 Y106.200 E0.01251
G1 X123.419 Y109.264 E0.13763
G1 X123.419 Y108.724 E0.01716
