; generated by Slic3r Prusa Edition 1.39.1-prusa3d on 2018-04-22 at 18:21:38

; 

; external perimeters extrusion width = 0.45mm
; perimeters extrusion width = 0.45mm
; infill extrusion width = 0.45mm
; solid infill extrusion width = 0.45mm
; top infill extrusion width = 0.33mm
; first layer extrusion width = 0.42mm

M107
M115 U3.1.0 ; tell printer latest fw version
M201 X9000 Y9000 Z500 E10000 ; sets maximum accelerations, mm/sec^2
M203 X500 Y500 Z12 E120 ; sets maximum feedrates, mm/sec
M204 S1500 T1500 ; sets acceleration (S) and retract acceleration (T)
M205 X10 Y10 Z0.2 E2.5 ; sets the jerk limits, mm/sec
M205 S0 T0 ; sets the minimum extruding and travel feed rate, mm/sec
M83  ; extruder relative mode
M104 S215 ; set extruder temp
M140 S60 ; set bed temp
M190 S60 ; wait for bed temp
M109 S215 ; wait for extruder temp
G28 W ; home all without mesh bed level
G80 ; mesh bed leveling
G1 Y-3.0 F1000.0 ; go outside print area
G92 E0.0
G1 E18.0 F1000.0;
G1 X60.0 E9.0  F1000.0 ; intro line
G1 X100.0 E12.5  F1000.0 ; intro line
G92 E0.0
M900 K30; Filament gcode
G21 ; set units to millimeters
G90 ; use absolute coordinates
M83 ; use relative distances for extrusion
;BEFORE_LAYER_CHANGE
;0.2


G1 E-0.80000 F2100.00000
G1 Z0.600 F7200.000
;AFTER_LAYER_CHANGE
;0.2
G1 X112.707 Y89.208 F7200.000
G1 Z0.200 F7200.000
G1 E0.80000 F2100.00000
M204 S1000
G1 F900
G1 X114.650 Y87.789 E0.07544
G1 X116.002 Y86.922 E0.05035
G1 X117.456 Y86.158 E0.05151
G1 X119.015 Y85.560 E0.05235
G1 X121.400 Y85.018 E0.07670
G1 X124.514 Y84.673 E0.09824
G1 X140.293 Y84.670 E0.49473
G1 X140.819 Y84.722 E0.01656
G1 X141.329 Y84.874 E0.01669
G1 X141.800 Y85.121 E0.01669
G1 X142.214 Y85.455 E0.01669
G1 X142.555 Y85.859 E0.01656
G1 X142.814 Y86.324 E0.01669
G1 X142.978 Y86.830 E0.01669
G1 X143.042 Y87.358 E0.01669
G1 X142.322 Y103.034 E0.49204
G1 X142.064 Y105.203 E0.06846
G1 X141.807 Y106.612 E0.04492
G1 X141.430 Y108.035 E0.04617
G1 X140.886 Y109.465 E0.04797
G1 X139.962 Y111.154 E0.06035
G1 X138.811 Y112.736 E0.06135
G1 X129.880 Y123.178 E0.43081
G1 X128.966 Y124.037 E0.03935
G1 X128.179 Y124.552 E0.02948
G1 X127.385 Y124.920 E0.02744
G1 X126.526 Y125.178 E0.02810
G1 X125.672 Y125.308 E0.02710
G1 X123.310 Y125.271 E0.07407
G1 X122.401 Y125.078 E0.02914
G1 X121.539 Y124.754 E0.02887
G1 X120.425 Y124.093 E0.04061
G1 X119.498 Y123.244 E0.03940
G1 X111.656 Y114.135 E0.37690
G1 X109.603 Y111.495 E0.10484
G1 X108.900 Y110.351 E0.04212
G1 X108.298 Y109.119 E0.04299
G1 X107.814 Y107.757 E0.04529
G1 X107.415 Y106.073 E0.05427
G1 X107.119 Y103.981 E0.06625
G1 X106.957 Y102.090 E0.05950
G1 X107.227 Y99.458 E0.08297
G1 X107.526 Y97.724 E0.05515
G1 X108.009 Y95.982 E0.05668
G1 X108.554 Y94.664 E0.04471
G1 X109.257 Y93.403 E0.04526
G1 X110.041 Y92.269 E0.04325
G1 X111.126 Y90.933 E0.05397
G1 X112.666 Y89.252 E0.07148
G1 F5760
G1 X114.432 Y87.950 E-0.76000
G1 E-0.04000 F2100.00000
G1 Z0.800 F7200.000
G1 X142.478 Y86.496 F7200.000
G1 Z0.200 F7200.000
G1 E0.80000 F2100.00000
G1 F900
G1 X142.666 Y87.400 E0.02896
G1 X141.947 Y102.995 E0.48947
G1 X141.691 Y105.149 E0.06802
G1 X141.436 Y106.543 E0.04441
G1 X141.072 Y107.919 E0.04464
G1 X140.539 Y109.317 E0.04690
G1 X139.635 Y110.964 E0.05891
G1 X138.519 Y112.497 E0.05945
G1 X129.597 Y122.928 E0.43039
G1 X128.742 Y123.733 E0.03682
G1 X127.997 Y124.222 E0.02796
G1 X127.239 Y124.572 E0.02617
G1 X126.424 Y124.815 E0.02665
G1 X125.636 Y124.933 E0.02497
G1 X123.350 Y124.897 E0.07170
G1 X122.504 Y124.715 E0.02712
G1 X121.688 Y124.408 E0.02736
G1 X120.644 Y123.786 E0.03809
G1 X119.769 Y122.982 E0.03725
G1 X111.940 Y113.887 E0.37626
G1 X109.917 Y111.287 E0.10331
G1 X109.226 Y110.162 E0.04138
G1 X108.645 Y108.971 E0.04154
G1 X108.176 Y107.649 E0.04398
G1 X107.783 Y105.989 E0.05348
G1 X107.494 Y103.941 E0.06485
G1 X107.334 Y102.096 E0.05807
G1 X107.602 Y99.505 E0.08168
G1 X107.894 Y97.806 E0.05407
G1 X108.367 Y96.102 E0.05541
G1 X108.900 Y94.814 E0.04373
G1 X109.578 Y93.601 E0.04356
G1 X110.351 Y92.484 E0.04258
G1 X111.418 Y91.171 E0.05306
G1 X112.958 Y89.489 E0.07153
G1 X114.866 Y88.098 E0.07401
G1 X116.195 Y87.246 E0.04949
G1 X117.607 Y86.503 E0.05006
G1 X119.134 Y85.918 E0.05124
G1 X121.461 Y85.390 E0.07484
G1 X124.531 Y85.049 E0.09685
G1 X140.293 Y85.047 E0.49419
G1 X141.195 Y85.227 E0.02884
G1 X141.961 Y85.735 E0.02884
G1 X142.444 Y86.447 E0.02696
G1 F5760
G1 X142.666 Y87.400 E-0.33917
G1 F5760
G1 X142.610 Y88.614 E-0.42083
G1 E-0.04000 F2100.00000
G1 Z0.800 F7200.000
G1 X127.248 Y116.280 F7200.000
G1 Z0.200 F7200.000
G1 E0.80000 F2100.00000
G1 F900
G1 X127.237 Y119.784 E0.10988
G1 X127.130 Y120.185 E0.01300
G1 X126.923 Y120.544 E0.01302
G1 X126.649 Y120.819 E0.01216
G1 X126.439 Y120.961 E0.00795
G1 X126.071 Y121.114 E0.01248
G1 X125.698 Y121.163 E0.01181
G1 X123.621 Y121.163 E0.06512
G1 X123.265 Y121.116 E0.01126
G1 X123.025 Y121.033 E0.00795
G1 X122.690 Y120.838 E0.01216
G1 X122.395 Y120.544 E0.01306
G1 X122.185 Y120.177 E0.01325
G1 X122.086 Y119.802 E0.01217
G1 X122.072 Y119.595 E0.00650
G1 X122.072 Y116.272 E0.10419
G1 X124.685 Y116.540 E0.08235
G1 X127.189 Y116.286 E0.07890
G1 X126.870 Y116.697 F7200.000
G1 F900
G1 X126.861 Y119.734 E0.09522
G1 X126.779 Y120.039 E0.00991
G1 X126.621 Y120.313 E0.00991
G1 X126.407 Y120.527 E0.00948
G1 X126.259 Y120.628 E0.00561
G1 X125.973 Y120.746 E0.00972
G1 X125.673 Y120.786 E0.00948
G1 X123.645 Y120.786 E0.06357
G1 X123.352 Y120.747 E0.00929
G1 X123.183 Y120.689 E0.00561
G1 X122.921 Y120.537 E0.00948
G1 X122.697 Y120.313 E0.00993
G1 X122.537 Y120.033 E0.01013
G1 X122.460 Y119.740 E0.00948
G1 X122.449 Y116.690 E0.09565
G1 X124.685 Y116.919 E0.07046
G1 X126.810 Y116.703 E0.06699
G1 X127.270 Y116.698 F7200.000
G1 F5760
G1 X126.847 Y118.897 E-0.76000
G1 E-0.04000 F2100.00000
G1 Z0.800 F7200.000
G1 X130.568 Y92.576 F7200.000
G1 Z0.200 F7200.000
G1 E0.80000 F2100.00000
G1 F900
G1 X124.259 Y98.694 E0.27552
G1 X128.153 Y98.694 E0.12209
G1 X132.612 Y94.255 E0.19728
G1 X133.925 Y95.974 E0.06783
G1 X134.359 Y96.606 E0.02404
G1 X134.867 Y97.481 E0.03173
G1 X135.183 Y98.188 E0.02426
G1 X135.423 Y98.923 E0.02424
G1 X135.637 Y99.911 E0.03171
G1 X135.745 Y100.670 E0.02403
G1 X135.887 Y102.213 E0.04858
G1 X135.728 Y103.901 E0.05316
G1 X135.609 Y104.724 E0.02606
G1 X135.503 Y105.272 E0.01751
G1 X135.367 Y105.818 E0.01764
G1 X135.104 Y106.611 E0.02621
G1 X134.756 Y107.372 E0.02622
G1 X134.482 Y107.864 E0.01766
G1 X134.185 Y108.337 E0.01752
G1 X133.708 Y109.018 E0.02606
G1 X132.658 Y110.364 E0.05351
G1 X131.345 Y111.428 E0.05302
G1 X130.679 Y111.913 E0.02582
G1 X130.215 Y112.215 E0.01736
G1 X129.732 Y112.495 E0.01750
G1 X128.983 Y112.849 E0.02597
G1 X128.200 Y113.119 E0.02596
G1 X127.660 Y113.258 E0.01749
G1 X127.118 Y113.368 E0.01735
G1 X126.304 Y113.491 E0.02582
G1 X124.630 Y113.657 E0.05274
G1 X122.959 Y113.497 E0.05263
G1 X122.146 Y113.376 E0.02576
G1 X121.605 Y113.268 E0.01731
G1 X121.066 Y113.130 E0.01744
G1 X120.285 Y112.862 E0.02590
G1 X119.538 Y112.507 E0.02591
G1 X119.057 Y112.226 E0.01747
G1 X118.596 Y111.921 E0.01732
G1 X117.935 Y111.433 E0.02576
G1 X116.632 Y110.359 E0.05296
G1 X115.595 Y108.985 E0.05397
G1 X115.125 Y108.291 E0.02627
G1 X114.833 Y107.810 E0.01766
G1 X114.564 Y107.309 E0.01780
G1 X114.226 Y106.537 E0.02642
G1 X113.972 Y105.734 E0.02640
G1 X113.842 Y105.183 E0.01777
G1 X113.741 Y104.630 E0.01764
G1 X113.628 Y103.799 E0.02626
G1 X113.482 Y102.099 E0.05351
G1 X113.636 Y100.432 E0.05249
G1 X113.753 Y99.619 E0.02576
G1 X113.859 Y99.077 E0.01731
G1 X113.994 Y98.538 E0.01744
G1 X114.259 Y97.755 E0.02590
G1 X114.609 Y97.007 E0.02591
G1 X114.887 Y96.524 E0.01747
G1 X115.189 Y96.061 E0.01733
G1 X115.673 Y95.397 E0.02576
G1 X116.737 Y94.092 E0.05280
G1 X118.013 Y93.083 E0.05099
G1 X118.663 Y92.618 E0.02507
G1 X119.563 Y92.067 E0.03309
G1 X120.289 Y91.718 E0.02525
G1 X121.044 Y91.447 E0.02516
G1 X121.820 Y91.247 E0.02511
G1 X122.858 Y91.065 E0.03306
G1 X124.467 Y90.880 E0.05078
G1 X125.189 Y90.922 E0.02266
G1 X126.207 Y91.017 E0.03206
G1 X126.898 Y91.129 E0.02197
G1 X127.580 Y91.300 E0.02204
G1 X128.241 Y91.528 E0.02191
G1 X128.878 Y91.792 E0.02164
G1 X130.513 Y92.551 E0.05652
G1 X129.911 Y92.688 F7200.000
G1 F900
G1 X123.329 Y99.071 E0.28750
G1 X128.309 Y99.071 E0.15615
G1 X132.573 Y94.825 E0.18867
G1 X133.619 Y96.195 E0.05404
G1 X134.040 Y96.808 E0.02330
G1 X134.531 Y97.654 E0.03067
G1 X134.831 Y98.323 E0.02301
G1 X135.058 Y99.021 E0.02301
G1 X135.266 Y99.978 E0.03068
G1 X135.370 Y100.714 E0.02331
G1 X135.509 Y102.213 E0.04719
G1 X135.354 Y103.856 E0.05177
G1 X135.237 Y104.661 E0.02548
G1 X135.134 Y105.190 E0.01692
G1 X135.005 Y105.713 E0.01688
G1 X134.752 Y106.473 E0.02511
G1 X134.420 Y107.202 E0.02511
G1 X134.158 Y107.672 E0.01688
G1 X133.871 Y108.129 E0.01691
G1 X133.405 Y108.794 E0.02546
G1 X132.387 Y110.098 E0.05186
G1 X131.115 Y111.129 E0.05136
G1 X130.465 Y111.602 E0.02521
G1 X130.017 Y111.894 E0.01674
G1 X129.556 Y112.161 E0.01670
G1 X128.841 Y112.500 E0.02483
G1 X128.092 Y112.758 E0.02484
G1 X127.576 Y112.891 E0.01670
G1 X127.052 Y112.997 E0.01675
G1 X126.257 Y113.117 E0.02522
G1 X124.629 Y113.278 E0.05128
G1 X123.004 Y113.122 E0.05118
G1 X122.211 Y113.005 E0.02516
G1 X121.688 Y112.900 E0.01670
G1 X121.174 Y112.769 E0.01665
G1 X120.427 Y112.512 E0.02475
G1 X119.715 Y112.173 E0.02474
G1 X119.256 Y111.905 E0.01665
G1 X118.812 Y111.612 E0.01669
G1 X118.167 Y111.136 E0.02513
G1 X116.906 Y110.096 E0.05125
G1 X115.901 Y108.765 E0.05228
G1 X115.442 Y108.088 E0.02566
G1 X115.160 Y107.622 E0.01705
G1 X114.904 Y107.144 E0.01702
G1 X114.580 Y106.404 E0.02532
G1 X114.336 Y105.634 E0.02533
G1 X114.212 Y105.106 E0.01703
G1 X114.113 Y104.570 E0.01707
G1 X114.003 Y103.758 E0.02570
G1 X113.860 Y102.100 E0.05217
G1 X114.011 Y100.477 E0.05113
G1 X114.125 Y99.682 E0.02516
G1 X114.227 Y99.159 E0.01670
G1 X114.357 Y98.644 E0.01666
G1 X114.609 Y97.896 E0.02476
G1 X114.944 Y97.181 E0.02475
G1 X115.209 Y96.721 E0.01665
G1 X115.499 Y96.275 E0.01669
G1 X115.972 Y95.627 E0.02513
G1 X117.003 Y94.362 E0.05119
G1 X118.239 Y93.384 E0.04941
G1 X118.871 Y92.932 E0.02436
G1 X119.744 Y92.399 E0.03207
G1 X120.435 Y92.066 E0.02404
G1 X121.155 Y91.808 E0.02400
G1 X121.900 Y91.616 E0.02411
G1 X122.914 Y91.438 E0.03227
G1 X124.476 Y91.259 E0.04930
G1 X125.160 Y91.298 E0.02150
G1 X126.159 Y91.391 E0.03144
G1 X126.822 Y91.499 E0.02106
G1 X127.473 Y91.662 E0.02104
G1 X128.107 Y91.880 E0.02103
G1 X128.726 Y92.138 E0.02103
G1 X129.857 Y92.662 E0.03908
G1 X130.224 Y92.937 F7200.000
G1 F5760
G1 X128.291 Y94.200 E-0.76000
G1 E-0.04000 F2100.00000
G1 Z0.800 F7200.000
G1 X134.769 Y91.994 F7200.000
G1 Z0.200 F7200.000
G1 E0.80000 F2100.00000
G1 F900
G1 X136.383 Y94.036 E0.08161
G1 X136.964 Y94.849 E0.03134
G1 X137.484 Y95.677 E0.03065
G1 X137.927 Y96.528 E0.03008
G1 X138.167 Y97.099 E0.01942
G1 X138.460 Y98.013 E0.03011
G1 X138.610 Y98.635 E0.02004
G1 X138.791 Y99.613 E0.03121
G1 X138.927 Y100.619 E0.03182
G1 X139.068 Y101.937 E0.04155
G1 X138.912 Y103.527 E0.05009
G1 X138.692 Y105.129 E0.05072
G1 X138.454 Y106.280 E0.03684
G1 X138.132 Y107.363 E0.03542
G1 X137.852 Y108.065 E0.02369
G1 X137.698 Y108.389 E0.01126
G1 X137.335 Y109.050 E0.02364
G1 X136.923 Y109.689 E0.02385
G1 X136.465 Y110.316 E0.02433
G1 X135.969 Y110.932 E0.02482
G1 X135.443 Y111.539 E0.02518
G1 X134.074 Y113.013 E0.06307
G1 X132.663 Y114.016 E0.05428
G1 X131.688 Y114.648 E0.03642
G1 X130.952 Y115.069 E0.02659
G1 X129.973 Y115.548 E0.03418
G1 X129.735 Y115.687 E0.00863
G1 X129.341 Y115.977 E0.01537
G1 X129.135 Y116.165 E0.00874
G1 X128.808 Y116.537 E0.01552
G1 X128.643 Y116.773 E0.00902
G1 X128.408 Y117.198 E0.01524
G1 X128.296 Y117.466 E0.00911
G1 X128.155 Y117.942 E0.01557
G1 X128.081 Y118.449 E0.01606
G1 X128.064 Y119.288 E0.02631
G1 X128.042 Y119.490 E0.00638
G1 X128.007 Y119.684 E0.00619
G1 X127.887 Y120.093 E0.01336
G1 X127.715 Y120.471 E0.01299
G1 X127.614 Y120.642 E0.00624
G1 X127.359 Y120.982 E0.01332
G1 X127.066 Y121.276 E0.01302
G1 X126.733 Y121.525 E0.01302
G1 X126.369 Y121.724 E0.01302
G1 X125.979 Y121.869 E0.01302
G1 X125.573 Y121.957 E0.01302
G1 X125.140 Y121.988 E0.01362
G1 X123.954 Y121.980 E0.03721
G1 X123.530 Y121.919 E0.01342
G1 X123.349 Y121.873 E0.00586
G1 X122.950 Y121.724 E0.01335
G1 X122.585 Y121.525 E0.01303
G1 X122.253 Y121.277 E0.01299
G1 X122.107 Y121.142 E0.00624
G1 X121.828 Y120.820 E0.01332
G1 X121.604 Y120.471 E0.01302
G1 X121.431 Y120.093 E0.01302
G1 X121.314 Y119.695 E0.01302
G1 X121.254 Y119.277 E0.01322
G1 X121.237 Y118.474 E0.02518
G1 X121.166 Y117.985 E0.01552
G1 X121.096 Y117.714 E0.00877
G1 X121.006 Y117.450 E0.00874
G1 X120.797 Y117.004 E0.01543
G1 X120.646 Y116.755 E0.00914
G1 X120.340 Y116.358 E0.01573
G1 X119.965 Y115.994 E0.01637
G1 X119.536 Y115.684 E0.01659
G1 X118.212 Y115.025 E0.04636
G1 X117.651 Y114.700 E0.02036
G1 X117.095 Y114.343 E0.02070
G1 X116.268 Y113.757 E0.03178
G1 X114.667 Y112.512 E0.06360
G1 X113.243 Y110.811 E0.06957
G1 X112.584 Y109.933 E0.03440
G1 X111.996 Y109.033 E0.03372
G1 X111.507 Y108.114 E0.03261
G1 X111.371 Y107.805 E0.01060
G1 X111.127 Y107.154 E0.02181
G1 X110.927 Y106.484 E0.02193
G1 X110.765 Y105.791 E0.02231
G1 X110.633 Y105.078 E0.02273
G1 X110.527 Y104.353 E0.02299
G1 X110.301 Y102.138 E0.06979
G1 X110.492 Y100.266 E0.05902
G1 X110.594 Y99.520 E0.02361
G1 X110.719 Y98.788 E0.02328
G1 X110.874 Y98.076 E0.02283
G1 X111.064 Y97.388 E0.02239
G1 X111.298 Y96.720 E0.02219
G1 X111.574 Y96.094 E0.02144
G1 X111.909 Y95.472 E0.02216
G1 X112.289 Y94.869 E0.02235
G1 X112.711 Y94.277 E0.02280
G1 X113.169 Y93.694 E0.02325
G1 X113.653 Y93.118 E0.02358
G1 X114.912 Y91.722 E0.05897
G1 X115.988 Y90.933 E0.04183
G1 X117.106 Y90.168 E0.04247
G1 X117.970 Y89.644 E0.03167
G1 X118.538 Y89.343 E0.02018
G1 X119.427 Y88.952 E0.03043
G1 X120.026 Y88.745 E0.01989
G1 X120.645 Y88.573 E0.02015
G1 X121.616 Y88.370 E0.03109
G1 X122.612 Y88.220 E0.03159
G1 X124.637 Y88.014 E0.06381
G1 X126.157 Y88.127 E0.04779
G1 X127.425 Y88.288 E0.04007
G1 X128.154 Y88.432 E0.02333
G1 X128.626 Y88.554 E0.01526
G1 X129.556 Y88.873 E0.03083
G1 X130.013 Y89.064 E0.01556
G1 X130.939 Y89.504 E0.03212
G1 X132.720 Y90.450 E0.06325
G1 X135.100 Y88.011 E0.10682
G1 X138.848 Y88.011 E0.11750
G1 X134.812 Y91.952 E0.17684
G1 X135.276 Y92.026 F7200.000
G1 F900
G1 X136.685 Y93.809 E0.07125
G1 X137.277 Y94.639 E0.03198
G1 X137.812 Y95.489 E0.03148
G1 X138.269 Y96.367 E0.03106
G1 X138.521 Y96.968 E0.02042
G1 X138.823 Y97.911 E0.03105
G1 X138.979 Y98.556 E0.02080
G1 X139.163 Y99.554 E0.03182
G1 X139.302 Y100.574 E0.03227
G1 X139.447 Y101.935 E0.04293
G1 X139.287 Y103.571 E0.05154
G1 X139.064 Y105.193 E0.05134
G1 X138.821 Y106.369 E0.03764
G1 X138.609 Y107.127 E0.02467
G1 X138.486 Y107.493 E0.01210
G1 X138.198 Y108.215 E0.02440
G1 X138.034 Y108.561 E0.01198
G1 X137.659 Y109.243 E0.02441
G1 X137.234 Y109.903 E0.02461
G1 X136.764 Y110.545 E0.02495
G1 X136.258 Y111.174 E0.02530
G1 X135.724 Y111.791 E0.02560
G1 X134.324 Y113.298 E0.06449
G1 X132.875 Y114.328 E0.05574
G1 X131.885 Y114.970 E0.03699
G1 X131.129 Y115.402 E0.02730
G1 X130.151 Y115.881 E0.03414
G1 X129.942 Y116.002 E0.00757
G1 X129.580 Y116.269 E0.01409
G1 X129.405 Y116.430 E0.00747
G1 X129.105 Y116.771 E0.01424
G1 X128.963 Y116.973 E0.00774
G1 X128.748 Y117.362 E0.01396
G1 X128.652 Y117.593 E0.00783
G1 X128.524 Y118.023 E0.01408
G1 X128.457 Y118.480 E0.01447
G1 X128.440 Y119.312 E0.02609
G1 X128.416 Y119.544 E0.00731
G1 X128.375 Y119.771 E0.00725
G1 X128.241 Y120.225 E0.01484
G1 X128.050 Y120.645 E0.01445
G1 X127.928 Y120.851 E0.00752
G1 X127.645 Y121.230 E0.01482
G1 X127.313 Y121.562 E0.01472
G1 X126.938 Y121.843 E0.01472
G1 X126.526 Y122.068 E0.01472
G1 X126.086 Y122.232 E0.01472
G1 X125.627 Y122.332 E0.01472
G1 X125.152 Y122.366 E0.01493
G1 X123.925 Y122.357 E0.03848
G1 X123.456 Y122.289 E0.01486
G1 X123.236 Y122.233 E0.00713
G1 X122.793 Y122.068 E0.01483
G1 X122.381 Y121.843 E0.01472
G1 X122.011 Y121.567 E0.01445
G1 X121.835 Y121.404 E0.00752
G1 X121.526 Y121.047 E0.01482
G1 X121.272 Y120.652 E0.01472
G1 X121.077 Y120.225 E0.01472
G1 X120.945 Y119.775 E0.01472
G1 X120.878 Y119.308 E0.01479
G1 X120.861 Y118.506 E0.02516
G1 X120.796 Y118.059 E0.01415
