;FLAVOR:Marlin
;TIME:405
;Filament used:0.349862m
;Layer height: 0.3
;MINX:67.368
;MINY:65.124
;MINZ:0.2
;MAXX:97.254
;MAXY:99.876
;MAXZ:2.9
                                 
;Creative3D GCode Generated by CXEngineDEV
;Generated Time:2022-04-08 18:14:05
;----------Machine Config--------------
;Machine Name:Creality Ender-2 Pro
;Machine Height:180
;Machine Width:165
;Machine Depth:165
;Material name:PLA
;Number of Extruders:1
;ExtruderParams[0] Nozzle Diameter1000
;----------Profile Config---------------
;Layer Height:0.3
;Wall Thickness:0.8
;Top/Bottom Thickness:1
;Out Wall Line Width:0.4
;Inner Wall Line Width:0.4
;Inital Layer Height:200
;Wall Line Count:1
;Infill Line Distance:4
;Infill Pattern:grid
;Infill Sparse Density:20
;Infill Wipe Distance:0
;Print Temperature:200
;Bed Temperature:60
;Support Enable:false
;Support Density:30
;Support Angle:1.0472
;Adhesion Type:none
;machine is belt:false
;machine belt offset:10
;machine belt offset Y:0
;----------Shell Config----------------
;Outer Wall Wipe Distance:200
;Infill Before Walls:false
;Infill Overlap:0.16
;Fill Gaps Between Walls:everywhere
;Minimum Infill Area:1
;Top Surface Skin Layer:0
;Top Layers:2
;Z Seam Alignment:sharpest_corner
;Seam Corner Preference:z_seam_corner_inner
;Z Seam X:82.5
;Z Seam Y:82.5
;Horizontal Expansion:0
;Top/Bottom Pattern:zigzag
;Ironing Pattern:zigzag
;Vase Model:false
;----------Support Config----------------
;Support Type:everywhere
;Support Pattern:zigzag
;Support Infill Layer Thickness:0.3
;Minimum Support Area:10
;Enable Support Roof:false
;Support Roof Thickness:0.8
;Support Roof Pattern:lines
; ---------PrintSpeed & Travel----------
;Enable Print Cool:true
;Avoid Printed Parts Traveling:true
;Enable Retraction:true
;Retraction Distance:8
;Retraction Speed:100
;Retraction Prime Speed:100
;Maximum Retraction Count:100
;Minimum Extrusion Distance Window:1
;Z Hop When Retracted:false
;Z Hop Height:0.2
;Retract Before Outer Wall:true
;Print Speed:50
;Infill Speed:50

;Prime Tower Speed:50
;Travel Speed:120
;Initial Layer Speed:25
;Skirt/Brim Speed:25
;Combing Mode:off
;---------------------End of Head--------------------------
M140 S60
M104 S200
M105
M109 S200
M82 ;absolute extrusion mode
M220 S100 ;Reset Feedrate
M221 S100 ;Reset Flowrate

G28 ;Home

G92 E0 ;Reset Extruder
G1 Z2.0 F3000 ;Move Z Axis up
G1 X10.1 Y20 Z0.28 F5000.0 ;Move to start position
G1 X10.1 Y145.0 Z0.28 F1500.0 E15 ;Draw the first line
G1 X10.4 Y145.0 Z0.28 F5000.0 ;Move to side a little
G1 X10.4 Y20 Z0.28 F1500.0 E30 ;Draw the second line
G92 E0  ;Reset Extruder
G1 E-1.0000 F1800 ;Retract a bit
G1 Z2.0 F3000 ;Move Z Axis up
G1 E0.0000 F1800 

G92 E0
G92 E0
G1 F6000 E-8

;LAYER_COUNT:10

;LAYER:0
M107
;MESH:
G0 F3600 X84.315 Y94.207 Z0.2
;TYPE:WALL-OUTER
G1 F6000 E0
G1 F1500 X84.094 Y94.231 E0.00813
G1 X83.109 Y94.34 E0.04439
G1 X82.142 Y94.429 E0.07992
G1 X80.661 Y94.286 E0.13435
G1 X80.138 Y94.222 E0.15363
G1 X79.915 Y94.196 E0.16185
G1 X79.915 Y94.42 E0.16698
G1 X79.915 Y94.421 E0.16701
G1 X79.915 Y97.089 E0.26463
G1 X79.952 Y97.379 E0.27532
G1 X80.07 Y97.669 E0.28678
G1 X80.265 Y97.925 E0.29855
G1 X80.508 Y98.111 E0.30975
G1 X80.796 Y98.233 E0.32119
G1 X81.094 Y98.275 E0.3322
G1 X83.128 Y98.276 E0.40662
G1 X83.418 Y98.239 E0.41731
G1 X83.708 Y98.121 E0.42877
G1 X83.964 Y97.926 E0.44054
G1 X84.15 Y97.684 E0.45171
G1 X84.272 Y97.396 E0.46315
G1 X84.314 Y97.097 E0.4742
G1 X84.315 Y94.43 E0.57177
G1 X84.315 Y94.429 E0.57181
G1 X84.315 Y94.207 E0.57691
G0 F3600 X84.116 Y94.228
G0 X84.069 Y93.791
;;retract;;
G1 F6000 E-7.42309
G0 F3600 X90.027 Y72.341
G1 F6000 E0.57691
G1 F1500 X89.867 Y72.5 E0.58517
G1 X85.769 Y76.581 E0.79676
G1 X81.254 Y76.581 E0.96195
G1 X81.253 Y76.581 E0.96198
G1 X80.761 Y76.581 E0.97998
G1 X81.114 Y76.238 E0.98965
G1 X87.142 Y70.392 E1.29687
G1 X87.35 Y70.19 E1.30748
G1 X87.087 Y70.069 E1.3137
G1 X87.086 Y70.068 E1.31376
G1 X86.178 Y69.647 E1.35037
G1 X85.562 Y69.391 E1.37478
G1 X85.246 Y69.275 E1.38709
G1 X84.926 Y69.172 E1.39939
G1 X84.603 Y69.083 E1.41165
G1 X84.276 Y69.009 E1.42392
G1 X83.946 Y68.949 E1.43619
G1 X83.613 Y68.9 E1.4485
G1 X82.948 Y68.833 E1.47296
G1 X81.933 Y68.768 E1.51017
G1 X80.886 Y68.881 E1.5487
G1 X80.372 Y68.948 E1.56766
G1 X79.619 Y69.072 E1.59558
G1 X79.108 Y69.184 E1.61472
G1 X78.615 Y69.318 E1.63341
G1 X78.132 Y69.481 E1.65206
G1 X77.661 Y69.678 E1.67074
G1 X77.206 Y69.907 E1.68938
G1 X76.763 Y70.163 E1.70809
G1 X76.331 Y70.443 E1.72693
G1 X75.703 Y70.891 E1.75515
G1 X75.291 Y71.208 E1.77417
G1 X74.467 Y71.869 E1.81282
G1 X73.768 Y72.712 E1.85289
G1 X73.435 Y73.134 E1.87255
G1 X73.116 Y73.563 E1.89211
G1 X72.815 Y74.002 E1.91159
G1 X72.538 Y74.453 E1.93095
G1 X72.289 Y74.919 E1.95028
G1 X72.076 Y75.398 E1.96946
G1 X71.981 Y75.648 E1.97924
G1 X71.821 Y76.148 E1.99845
G1 X71.694 Y76.661 E2.01779
G1 X71.591 Y77.183 E2.03725
G1 X71.477 Y77.976 E2.06656
G1 X71.419 Y78.512 E2.08629
G1 X71.326 Y79.6 E2.12624
G1 X71.415 Y80.711 E2.16702
G1 X71.469 Y81.258 E2.18713
G1 X71.577 Y82.058 E2.21666
G1 X71.677 Y82.604 E2.23697
G1 X71.802 Y83.13 E2.25675
G1 X71.955 Y83.647 E2.27648
G1 X72.141 Y84.142 E2.29582
G1 X72.365 Y84.632 E2.31553
G1 X72.625 Y85.117 E2.33567
G1 X72.907 Y85.582 E2.35556
G1 X73.365 Y86.259 E2.38547
G1 X74.009 Y87.123 E2.42489
G1 X74.37 Y87.59 E2.44649
G1 X75.21 Y88.293 E2.48656
G1 X75.631 Y88.629 E2.50627
G1 X76.273 Y89.104 E2.53549
G1 X76.717 Y89.397 E2.55495
G1 X77.174 Y89.663 E2.5743
G1 X77.644 Y89.898 E2.59352
G1 X78.135 Y90.098 E2.61292
G1 X78.634 Y90.259 E2.6321
G1 X79.146 Y90.39 E2.65144
G1 X79.669 Y90.495 E2.67095
G1 X80.461 Y90.613 E2.70025
G1 X81.532 Y90.721 E2.73963
G1 X82.086 Y90.768 E2.75997
G1 X83.177 Y90.668 E2.80006
G1 X83.713 Y90.606 E2.8198
G1 X84.497 Y90.489 E2.8488
G1 X85.03 Y90.381 E2.8687
G1 X85.544 Y90.249 E2.88811
G1 X86.038 Y90.089 E2.90711
G1 X86.536 Y89.886 E2.92679
G1 X87.01 Y89.651 E2.94614
G1 X87.469 Y89.385 E2.96555
G1 X87.916 Y89.094 E2.98506
G1 X88.564 Y88.622 E3.01439
G1 X89.405 Y87.949 E3.0538
G1 X89.837 Y87.591 E3.07433
G1 X90.525 Y86.721 E3.11491
G1 X90.854 Y86.287 E3.13484
G1 X91.319 Y85.624 E3.16446
G1 X91.605 Y85.167 E3.18419
G1 X91.866 Y84.699 E3.20379
G1 X92.096 Y84.219 E3.22327
G1 X92.2 Y83.967 E3.23324
G1 X92.376 Y83.465 E3.2527
G1 X92.52 Y82.949 E3.2723
G1 X92.635 Y82.424 E3.29196
G1 X92.727 Y81.893 E3.31168
G1 X92.8 Y81.355 E3.33155
G1 X92.859 Y80.815 E3.35142
G1 X92.955 Y79.712 E3.39193
G1 X92.869 Y78.708 E3.42879
G1 X92.817 Y78.213 E3.447
G1 X92.712 Y77.482 E3.47402
G1 X92.621 Y76.999 E3.492
G1 X92.505 Y76.523 E3.50993
G1 X92.361 Y76.057 E3.52777
G1 X92.19 Y75.61 E3.54528
G1 X91.978 Y75.158 E3.56355
G1 X91.744 Y74.73 E3.5814
G1 X91.487 Y74.311 E3.59938
G1 X91.068 Y73.702 E3.62642
G1 X90.772 Y73.303 E3.6446
G1 X90.165 Y72.519 E3.68088
G1 X90.027 Y72.341 E3.68603
G0 F3600 X89.885 Y72.482
G0 X89.576 Y72.171
;;retract;;
G1 F6000 E-4.31397
G0 F3600 X92.745 Y69.528
G1 F6000 E3.68603
G1 F1500 X93.727 Y70.754 E3.7435
G1 X94.35 Y71.575 E3.78121
G1 X94.744 Y72.137 E3.80632
G1 X95.104 Y72.694 E3.83058
G1 X95.442 Y73.278 E3.85527
G1 X95.733 Y73.859 E3.87904
G1 X95.865 Y74.159 E3.89103
G1 X95.986 Y74.464 E3.90304
G1 X96.099 Y74.779 E3.91528
G1 X96.288 Y75.401 E3.93907
G1 X96.445 Y76.05 E3.9635
G1 X96.573 Y76.713 E3.9882
G1 X96.681 Y77.393 E4.01339
G1 X96.767 Y78.069 E4.03832
G1 X96.913 Y79.434 E4.08855
G1 X96.756 Y81.042 E4.14766
G1 X96.653 Y81.887 E4.1788
G1 X96.529 Y82.699 E4.20885
G1 X96.381 Y83.466 E4.23743
G1 X96.287 Y83.872 E4.25268
G1 X96.187 Y84.249 E4.26695
G1 X96.076 Y84.625 E4.28129
G1 X95.953 Y84.994 E4.29552
G1 X95.813 Y85.364 E4.31
G1 X95.666 Y85.713 E4.32385
G1 X95.497 Y86.07 E4.3383
G1 X95.321 Y86.407 E4.35221
G1 X95.126 Y86.745 E4.36649
G1 X94.916 Y87.083 E4.38105
G1 X94.7 Y87.406 E4.39526
G1 X94.467 Y87.734 E4.40998
G1 X93.982 Y88.365 E4.4391
G1 X93.46 Y88.988 E4.46884
G1 X92.913 Y89.602 E4.49892
G1 X91.785 Y90.807 E4.55931
G1 X90.827 Y91.495 E4.60246
G1 X90.338 Y91.835 E4.62425
G1 X89.845 Y92.163 E4.64592
G1 X89.349 Y92.476 E4.66737
G1 X88.84 Y92.775 E4.68897
G1 X88.333 Y93.045 E4.70999
G1 X87.603 Y93.395 E4.73961
G1 X87.225 Y93.632 E4.75593
G1 X86.871 Y93.932 E4.77291
G1 X86.567 Y94.278 E4.78976
G1 X86.316 Y94.663 E4.80657
G1 X86.123 Y95.081 E4.82342
G1 X85.991 Y95.525 E4.84036
G1 X85.926 Y95.972 E4.85689
G1 X85.915 Y96.217 E4.86586
G1 X85.907 Y96.799 E4.88716
G1 X85.883 Y97.038 E4.89595
G1 X85.839 Y97.277 E4.90484
G1 X85.711 Y97.72 E4.92171
G1 X85.62 Y97.94 E4.93042
G1 X85.396 Y98.35 E4.94751
G1 X85.252 Y98.559 E4.9568
G1 X85.103 Y98.743 E4.96546
G1 X84.779 Y99.067 E4.98222
G1 X84.404 Y99.348 E4.99937
G1 X84.203 Y99.469 E5.00795
G1 X83.773 Y99.665 E5.02524
G1 X83.547 Y99.742 E5.03397
G1 X83.102 Y99.838 E5.05063
G1 X82.847 Y99.867 E5.06002
G1 X82.608 Y99.876 E5.06877
G1 X81.629 Y99.876 E5.10459
G1 X81.151 Y99.842 E5.12212
G1 X80.916 Y99.801 E5.13085
G1 X80.471 Y99.671 E5.14781
G1 X80.251 Y99.58 E5.15652
G1 X79.833 Y99.352 E5.17394
G1 X79.636 Y99.216 E5.1827
G1 X79.445 Y99.061 E5.1917
G1 X79.12 Y98.736 E5.20851
G1 X78.974 Y98.554 E5.21705
G1 X78.727 Y98.171 E5.23372
G1 X78.614 Y97.947 E5.2429
G1 X78.524 Y97.729 E5.25153
G1 X78.394 Y97.289 E5.26832
G1 X78.348 Y97.038 E5.27765
G1 X78.324 Y96.809 E5.28608
G1 X78.306 Y96 E5.31568
G1 X78.242 Y95.559 E5.33199
G1 X78.109 Y95.11 E5.34912
G1 X77.913 Y94.69 E5.36608
G1 X77.656 Y94.296 E5.38329
G1 X77.346 Y93.948 E5.40034
G1 X76.993 Y93.652 E5.41719
G1 X76.599 Y93.408 E5.43415
G1 X75.786 Y93.025 E5.46703
G1 X75.201 Y92.707 E5.49139
G1 X74.621 Y92.352 E5.51627
G1 X74.05 Y91.968 E5.54144
G1 X73.491 Y91.567 E5.56661
G1 X72.938 Y91.148 E5.592
G1 X71.85 Y90.29 E5.64269
G1 X70.875 Y89.142 E5.69779
G1 X70.167 Y88.257 E5.73926
G1 X69.72 Y87.651 E5.76681
G1 X69.309 Y87.039 E5.79378
G1 X69.119 Y86.731 E5.80702
G1 X68.938 Y86.416 E5.82031
G1 X68.772 Y86.104 E5.83324
G1 X68.611 Y85.774 E5.84668
G1 X68.466 Y85.446 E5.8598
G1 X68.336 Y85.117 E5.87274
G1 X68.215 Y84.774 E5.88605
G1 X68.107 Y84.43 E5.89924
G1 X68.009 Y84.081 E5.9125
G1 X67.841 Y83.365 E5.93941
G1 X67.707 Y82.638 E5.96645
G1 X67.599 Y81.896 E5.99389
G1 X67.511 Y81.144 E6.02159
G1 X67.368 Y79.638 E6.07693
G1 X67.518 Y78.102 E6.1334
G1 X67.613 Y77.342 E6.16142
G1 X67.728 Y76.582 E6.18954
G1 X67.865 Y75.865 E6.21625
G1 X68.046 Y75.128 E6.24401
G1 X68.15 Y74.774 E6.25751
G1 X68.263 Y74.428 E6.27083
G1 X68.391 Y74.087 E6.28415
G1 X68.533 Y73.744 E6.29774
G1 X68.683 Y73.423 E6.3107
G1 X68.853 Y73.093 E6.32428
G1 X69.029 Y72.78 E6.33742
G1 X69.218 Y72.468 E6.35076
G1 X69.631 Y71.855 E6.37781
G1 X70.081 Y71.254 E6.40528
G1 X70.566 Y70.658 E6.43339
G1 X71.07 Y70.075 E6.46158
G1 X72.11 Y68.931 E6.51815
G1 X73.219 Y68.118 E6.56846
G1 X74.072 Y67.525 E6.60647
G1 X74.647 Y67.155 E6.63148
G1 X75.23 Y66.811 E6.65625
G1 X75.832 Y66.491 E6.68119
G1 X76.428 Y66.217 E6.70519
G1 X76.737 Y66.093 E6.71737
G1 X77.055 Y65.977 E6.72976
G1 X77.364 Y65.876 E6.74165
G1 X77.69 Y65.781 E6.75407
G1 X78.339 Y65.62 E6.77854
G1 X78.999 Y65.49 E6.80315
G1 X79.678 Y65.383 E6.8283
G1 X80.712 Y65.256 E6.86641
G1 X82.084 Y65.125 E6.91684
G1 X83.131 Y65.197 E6.95523
G1 X84.153 Y65.293 E6.99279
G1 X84.939 Y65.405 E7.02183
G1 X85.451 Y65.5 E7.04089
G1 X85.949 Y65.616 E7.05959
G1 X86.427 Y65.753 E7.07779
G1 X86.91 Y65.919 E7.09647
G1 X87.395 Y66.111 E7.11556
G1 X88.098 Y66.427 E7.14376
G1 X88.567 Y66.657 E7.16287
G1 X89.037 Y66.9 E7.18222
G1 X90.102 Y67.473 E7.22647
G1 X92.393 Y65.124 E7.34652
G1 X96.763 Y65.124 E7.5064
G1 X96.764 Y65.124 E7.50644
G1 X97.254 Y65.124 E7.52436
G1 X96.903 Y65.467 E7.534
G1 X92.745 Y69.528 E7.74664
G0 F3600 X92.87 Y69.684
G0 X92.527 Y69.959
;;retract;;
G1 F6000 E-0.25336
G0 F3600 X96.663 Y65.364
;TYPE:SKIN
G1 F6000 E7.74664
G1 F1500 X96.476 Y65.364 E7.75348
G1 X95.911 Y65.364 E7.77416
G1 X96.282 Y65.735 E7.79335
G1 X95.996 Y66.015 E7.808
G1 X95.345 Y65.364 E7.84168
G1 X94.779 Y65.364 E7.86239
G1 X95.71 Y66.294 E7.91053
G1 X95.424 Y66.574 E7.92517
G1 X94.214 Y65.364 E7.98778
G1 X93.648 Y65.364 E8.00849
G1 X95.138 Y66.854 E8.08558
G1 X94.852 Y67.133 E8.1002
G1 X93.082 Y65.364 E8.19175
G1 X92.517 Y65.364 E8.21243
G1 X94.565 Y67.412 E8.31839
G1 X94.279 Y67.692 E8.33303
G1 X92.225 Y65.637 E8.43934
G1 X91.946 Y65.924 E8.45398
G1 X93.993 Y67.972 E8.55992
G1 X93.707 Y68.251 E8.57454
G1 X91.667 Y66.211 E8.68009
G1 X91.387 Y66.497 E8.69473
G1 X93.421 Y68.531 E8.79997
G1 X93.135 Y68.81 E8.81459
G1 X91.108 Y66.784 E8.91944
G1 X90.829 Y67.07 E8.93406
G1 X92.848 Y69.089 E9.03852
G1 X92.563 Y69.37 E9.05317
G1 X90.549 Y67.356 E9.15737
G1 X90.27 Y67.643 E9.17202
G1 X93.562 Y70.934 E9.34232
G1 X94.151 Y71.712 E9.37802
G1 X94.541 Y72.267 E9.40284
G1 X94.9 Y72.822 E9.42702
G1 X94.922 Y72.86 E9.42863
G1 X89.466 Y67.404 E9.71092
G1 X88.926 Y67.113 E9.73337
G1 X88.456 Y66.871 E9.75271
G1 X88.281 Y66.785 E9.75984
G1 X95.559 Y74.063 E10.13641
G1 X95.641 Y74.248 E10.14381
G1 X95.76 Y74.546 E10.15555
G0 F3600 X95.759 Y74.546
G1 F1500 X95.872 Y74.861 E10.1678
G0 F3600 X95.873 Y74.86
G1 F1500 X95.909 Y74.978 E10.17231
G1 X87.237 Y66.307 E10.62098
G1 X86.822 Y66.143 E10.63731
G1 X86.348 Y65.979 E10.65566
G1 X86.342 Y65.978 E10.65588
G1 X96.129 Y75.764 E11.16224
G1 X96.208 Y76.096 E11.17472
G1 X96.285 Y76.486 E11.18927
G1 X85.574 Y65.775 E11.74346
G1 X85.405 Y65.736 E11.74981
G1 X84.896 Y65.64 E11.76876
G0 F3600 X84.896 Y65.642
G1 F1500 X84.871 Y65.638 E11.76968
G1 X96.401 Y77.168 E12.36625
G1 X96.445 Y77.445 E12.37652
G1 X96.493 Y77.826 E12.39057
G1 X84.212 Y65.544 E13.02602
G1 X84.12 Y65.531 E13.02942
G1 X83.582 Y65.48 E13.04919
G1 X96.568 Y78.466 E13.72109
G1 X96.636 Y79.099 E13.74438
G1 X91.625 Y74.089 E14.00363
G1 X91.688 Y74.18 E14.00768
G1 X91.951 Y74.61 E14.02612
G1 X92.191 Y75.049 E14.04443
G1 X92.342 Y75.371 E14.05744
G1 X96.648 Y79.677 E14.28023
G1 X96.597 Y80.192 E14.29917
G1 X92.678 Y76.273 E14.50194
G1 X92.736 Y76.458 E14.50903
G1 X92.855 Y76.949 E14.52752
G1 X92.869 Y77.03 E14.53052
G1 X96.546 Y80.707 E14.72077
G1 X96.516 Y81.013 E14.73202
G1 X96.491 Y81.218 E14.73958
G1 X92.986 Y77.713 E14.92093
G1 X93.055 Y78.183 E14.93831
G1 X93.073 Y78.365 E14.945
G1 X96.43 Y81.723 E15.11872
G1 X96.414 Y81.851 E15.12344
G1 X96.358 Y82.216 E15.13695
G1 X93.133 Y78.99 E15.30384
G1 X93.186 Y79.609 E15.32657
G1 X96.283 Y82.706 E15.48681
G1 X96.191 Y83.181 E15.50451
G1 X93.157 Y80.146 E15.66152
G1 X93.112 Y80.667 E15.68065
G1 X96.092 Y83.647 E15.83484
G1 X96.052 Y83.816 E15.84119
G1 X95.978 Y84.099 E15.85189
G1 X93.06 Y81.18 E16.0029
G1 X93.038 Y81.383 E16.01037
G1 X92.997 Y81.683 E16.02145
G1 X95.851 Y84.538 E16.16914
G1 X95.848 Y84.548 E16.16952
G0 F3600 X95.846 Y84.548
G1 F1500 X95.727 Y84.91 E16.18346
G0 F3600 X95.728 Y84.91
G1 F1500 X95.709 Y84.961 E16.18545
G1 X92.92 Y82.172 E16.32976
G1 X92.869 Y82.47 E16.34082
G1 X92.83 Y82.648 E16.34749
G1 X95.549 Y85.367 E16.48817
G1 X95.447 Y85.611 E16.49785
G1 X95.377 Y85.76 E16.50387
G1 X92.724 Y83.107 E16.64114
G1 X92.604 Y83.536 E16.65743
G1 X92.599 Y83.548 E16.65791
G1 X95.19 Y86.139 E16.79197
G1 X95.112 Y86.286 E16.79806
G0 F3600 X95.112 Y86.287
G1 F1500 X94.988 Y86.503 E16.80717
G1 X92.452 Y83.967 E16.93838
G1 X92.423 Y84.052 E16.94167
G1 X92.314 Y84.316 E16.95212
G1 X92.288 Y84.369 E16.95428
G1 X94.774 Y86.855 E17.08291
G1 X94.712 Y86.955 E17.08721
G1 X94.55 Y87.196 E17.09784
G1 X92.106 Y84.752 E17.22429
G1 X92.079 Y84.808 E17.22656
G1 X91.905 Y85.117 E17.23954
G1 X94.317 Y87.529 E17.36434
G1 X94.275 Y87.587 E17.36696
G1 X94.073 Y87.85 E17.37909
G1 X91.695 Y85.472 E17.50213
G1 X91.518 Y85.757 E17.5144
G1 X91.475 Y85.818 E17.51713
G1 X93.827 Y88.17 E17.63883
G1 X93.782 Y88.228 E17.64151
G1 X93.571 Y88.48 E17.65354
G1 X91.242 Y86.151 E17.77404
G1 X91.047 Y86.428 E17.78644
G1 X91.006 Y86.481 E17.78889
G1 X93.314 Y88.788 E17.90828
G1 X93.28 Y88.828 E17.9102
G1 X93.048 Y89.089 E17.92298
G1 X90.762 Y86.803 E18.04126
G1 X90.713 Y86.868 E18.04423
G1 X90.513 Y87.119 E18.05598
G1 X92.782 Y89.388 E18.17337
G1 X92.736 Y89.438 E18.17586
G1 X92.509 Y89.68 E18.188
G1 X90.264 Y87.435 E18.30416
G1 X90.014 Y87.751 E18.3189
G1 X92.235 Y89.972 E18.43382
G1 X91.962 Y90.265 E18.44847
G1 X89.707 Y88.01 E18.56514
G1 X89.555 Y88.135 E18.57234
