; generated by Slic3r Prusa Edition 1.39.1-prusa3d on 2018-05-09 at 12:53:31

; 

; external perimeters extrusion width = 0.45mm
; perimeters extrusion width = 0.45mm
; infill extrusion width = 0.45mm
; solid infill extrusion width = 0.45mm
; top infill extrusion width = 0.33mm
; first layer extrusion width = 0.42mm

M107
M115 U3.1.0 ; tell printer latest fw version
M201 X9000 Y9000 Z500 E10000 ; sets maximum accelerations, mm/sec^2
M203 X500 Y500 Z12 E120 ; sets maximum feedrates, mm/sec
M204 S1500 T1500 ; sets acceleration (S) and retract acceleration (T)
M205 X10 Y10 Z0.2 E2.5 ; sets the jerk limits, mm/sec
M205 S0 T0 ; sets the minimum extruding and travel feed rate, mm/sec
M83  ; extruder relative mode
M104 S200 ; set extruder temp
M140 S65 ; set bed temp
M190 S65 ; wait for bed temp
M109 S200 ; wait for extruder temp
G28 W ; home all without mesh bed level
G80 ; mesh bed leveling
G1 Y-3.0 F1000.0 ; go outside print area
G92 E0.0
G1 E18.0 F1000.0;
G1 X60.0 E9.0  F1000.0 ; intro line
G1 X100.0 E12.5  F1000.0 ; intro line
G92 E0.0
M900 K30; Filament gcode
G21 ; set units to millimeters
G90 ; use absolute coordinates
M83 ; use relative distances for extrusion
;BEFORE_LAYER_CHANGE
;0.2


G1 E-0.80000 F2100.00000
G1 Z0.600 F7200.000
;AFTER_LAYER_CHANGE
;0.2
G1 X87.710 Y84.205 F7200.000
G1 Z0.200 F7200.000
G1 E0.80000 F2100.00000
M204 S1000
G1 F900
G1 X89.650 Y82.789 E0.07531
G1 X91.006 Y81.920 E0.05051
G1 X92.457 Y81.157 E0.05140
G1 X94.026 Y80.557 E0.05266
G1 X96.416 Y80.016 E0.07683
G1 X99.514 Y79.673 E0.09775
G1 X115.293 Y79.670 E0.49473
G1 X115.819 Y79.722 E0.01656
G1 X116.329 Y79.874 E0.01669
G1 X116.800 Y80.121 E0.01669
G1 X117.214 Y80.455 E0.01669
G1 X117.555 Y80.859 E0.01656
G1 X117.814 Y81.324 E0.01669
G1 X117.978 Y81.830 E0.01669
G1 X118.042 Y82.358 E0.01669
G1 X117.322 Y98.034 E0.49204
G1 X117.064 Y100.203 E0.06846
G1 X116.807 Y101.612 E0.04492
G1 X116.430 Y103.035 E0.04617
G1 X115.886 Y104.465 E0.04797
G1 X114.962 Y106.154 E0.06034
G1 X113.811 Y107.736 E0.06135
G1 X104.880 Y118.178 E0.43081
G1 X103.966 Y119.037 E0.03935
G1 X103.179 Y119.552 E0.02948
G1 X102.385 Y119.920 E0.02744
G1 X101.522 Y120.179 E0.02823
G1 X100.672 Y120.308 E0.02697
G1 X98.306 Y120.271 E0.07419
G1 X97.401 Y120.078 E0.02901
G1 X96.539 Y119.754 E0.02888
G1 X95.425 Y119.093 E0.04061
G1 X94.498 Y118.244 E0.03940
G1 X86.656 Y109.135 E0.37690
G1 X84.603 Y106.495 E0.10484
G1 X83.901 Y105.353 E0.04204
G1 X83.298 Y104.119 E0.04307
G1 X82.818 Y102.770 E0.04488
G1 X82.415 Y101.073 E0.05469
G1 X82.119 Y98.981 E0.06625
G1 X81.957 Y97.090 E0.05950
G1 X82.228 Y94.457 E0.08301
G1 X82.526 Y92.726 E0.05505
G1 X83.009 Y90.982 E0.05674
G1 X83.554 Y89.664 E0.04471
G1 X84.250 Y88.414 E0.04487
G1 X85.041 Y87.269 E0.04364
G1 X86.124 Y85.935 E0.05388
G1 X87.669 Y84.249 E0.07170
G1 F5760
G1 X89.436 Y82.947 E-0.76000
G1 E-0.04000 F2100.00000
G1 Z0.800 F7200.000
G1 X117.478 Y81.496 F7200.000
G1 Z0.200 F7200.000
G1 E0.80000 F2100.00000
G1 F900
G1 X117.666 Y82.400 E0.02896
G1 X116.947 Y97.995 E0.48947
G1 X116.691 Y100.149 E0.06802
G1 X116.436 Y101.543 E0.04441
G1 X116.072 Y102.919 E0.04464
G1 X115.539 Y104.317 E0.04690
G1 X114.637 Y105.961 E0.05879
G1 X113.519 Y107.497 E0.05957
G1 X104.597 Y117.928 E0.43039
G1 X103.742 Y118.733 E0.03682
G1 X102.997 Y119.222 E0.02796
G1 X102.239 Y119.572 E0.02617
G1 X101.424 Y119.815 E0.02665
G1 X100.636 Y119.933 E0.02497
G1 X98.350 Y119.897 E0.07169
G1 X97.504 Y119.715 E0.02712
G1 X96.688 Y119.408 E0.02736
G1 X95.644 Y118.786 E0.03809
G1 X94.769 Y117.982 E0.03725
G1 X86.940 Y108.887 E0.37626
G1 X84.917 Y106.287 E0.10330
G1 X84.224 Y105.159 E0.04150
G1 X83.645 Y103.971 E0.04142
G1 X83.176 Y102.649 E0.04399
G1 X82.783 Y100.989 E0.05348
G1 X82.494 Y98.941 E0.06485
G1 X82.334 Y97.096 E0.05806
G1 X82.602 Y94.505 E0.08168
G1 X82.894 Y92.806 E0.05407
G1 X83.367 Y91.102 E0.05541
G1 X83.900 Y89.814 E0.04373
G1 X84.578 Y88.601 E0.04356
G1 X85.351 Y87.484 E0.04258
G1 X86.418 Y86.171 E0.05306
G1 X87.958 Y84.489 E0.07153
G1 X89.866 Y83.098 E0.07401
G1 X91.195 Y82.246 E0.04949
G1 X92.609 Y81.502 E0.05011
G1 X94.144 Y80.915 E0.05155
G1 X96.477 Y80.388 E0.07496
G1 X99.531 Y80.049 E0.09637
G1 X115.293 Y80.047 E0.49419
G1 X116.195 Y80.227 E0.02884
G1 X116.961 Y80.735 E0.02884
G1 X117.444 Y81.447 E0.02696
G1 F5760
G1 X117.666 Y82.400 E-0.33917
G1 F5760
G1 X117.610 Y83.614 E-0.42083
G1 E-0.04000 F2100.00000
G1 Z0.800 F7200.000
G1 X102.248 Y111.280 F7200.000
G1 Z0.200 F7200.000
G1 E0.80000 F2100.00000
G1 F900
G1 X102.237 Y114.784 E0.10988
G1 X102.130 Y115.185 E0.01300
G1 X101.922 Y115.545 E0.01303
G1 X101.642 Y115.825 E0.01242
G1 X101.437 Y115.962 E0.00773
G1 X101.071 Y116.114 E0.01242
G1 X100.698 Y116.163 E0.01182
G1 X98.621 Y116.163 E0.06512
G1 X98.247 Y116.114 E0.01181
G1 X97.863 Y115.955 E0.01303
G1 X97.549 Y115.713 E0.01242
G1 X97.386 Y115.528 E0.00773
G1 X97.198 Y115.202 E0.01181
G1 X97.119 Y114.968 E0.00773
G1 X97.072 Y114.614 E0.01120
G1 X97.072 Y111.272 E0.10479
G1 X99.685 Y111.540 E0.08235
G1 X102.189 Y111.286 E0.07890
G1 X101.870 Y111.697 F7200.000
G1 F900
G1 X101.861 Y114.734 E0.09522
G1 X101.779 Y115.039 E0.00991
G1 X101.621 Y115.313 E0.00992
G1 X101.402 Y115.532 E0.00970
G1 X101.259 Y115.628 E0.00540
G1 X100.973 Y115.746 E0.00970
G1 X100.673 Y115.786 E0.00948
G1 X98.645 Y115.786 E0.06357
G1 X98.346 Y115.746 E0.00948
G1 X98.053 Y115.625 E0.00992
G1 X97.808 Y115.437 E0.00970
G1 X97.694 Y115.307 E0.00540
G1 X97.543 Y115.045 E0.00948
G1 X97.488 Y114.882 E0.00540
G1 X97.449 Y114.589 E0.00927
G1 X97.449 Y111.690 E0.09092
G1 X99.685 Y111.919 E0.07046
G1 X101.810 Y111.703 E0.06699
G1 X102.270 Y111.698 F7200.000
G1 F5760
G1 X101.847 Y113.897 E-0.76000
G1 E-0.04000 F2100.00000
G1 Z0.800 F7200.000
G1 X105.568 Y87.576 F7200.000
G1 Z0.200 F7200.000
G1 E0.80000 F2100.00000
G1 F900
G1 X99.259 Y93.694 E0.27552
G1 X103.153 Y93.694 E0.12209
G1 X107.612 Y89.255 E0.19728
G1 X108.925 Y90.974 E0.06783
G1 X109.359 Y91.606 E0.02404
G1 X109.867 Y92.481 E0.03173
G1 X110.183 Y93.188 E0.02426
G1 X110.423 Y93.923 E0.02424
G1 X110.637 Y94.911 E0.03171
G1 X110.745 Y95.670 E0.02403
G1 X110.887 Y97.213 E0.04858
G1 X110.728 Y98.901 E0.05316
G1 X110.609 Y99.724 E0.02606
G1 X110.503 Y100.272 E0.01751
G1 X110.367 Y100.818 E0.01764
G1 X110.104 Y101.611 E0.02621
G1 X109.756 Y102.372 E0.02622
G1 X109.482 Y102.864 E0.01766
G1 X109.185 Y103.337 E0.01752
G1 X108.708 Y104.018 E0.02606
G1 X107.658 Y105.364 E0.05351
G1 X106.345 Y106.428 E0.05302
G1 X105.679 Y106.913 E0.02582
G1 X105.215 Y107.215 E0.01736
G1 X104.732 Y107.495 E0.01750
G1 X103.983 Y107.849 E0.02597
G1 X103.200 Y108.119 E0.02596
G1 X102.660 Y108.258 E0.01749
G1 X102.118 Y108.368 E0.01735
G1 X101.304 Y108.491 E0.02582
G1 X99.630 Y108.657 E0.05274
G1 X97.959 Y108.497 E0.05263
G1 X97.146 Y108.376 E0.02576
G1 X96.605 Y108.268 E0.01731
G1 X96.066 Y108.130 E0.01744
G1 X95.285 Y107.862 E0.02590
G1 X94.538 Y107.507 E0.02591
G1 X94.057 Y107.226 E0.01747
G1 X93.596 Y106.921 E0.01732
G1 X92.935 Y106.433 E0.02576
G1 X91.632 Y105.359 E0.05296
G1 X90.595 Y103.985 E0.05397
G1 X90.125 Y103.291 E0.02627
G1 X89.833 Y102.810 E0.01766
G1 X89.564 Y102.309 E0.01780
G1 X89.226 Y101.537 E0.02642
G1 X88.972 Y100.734 E0.02640
G1 X88.842 Y100.183 E0.01777
G1 X88.741 Y99.630 E0.01764
G1 X88.628 Y98.799 E0.02626
G1 X88.482 Y97.099 E0.05351
G1 X88.636 Y95.432 E0.05249
G1 X88.753 Y94.619 E0.02576
G1 X88.859 Y94.077 E0.01731
G1 X88.994 Y93.538 E0.01744
G1 X89.259 Y92.755 E0.02590
G1 X89.609 Y92.007 E0.02591
G1 X89.887 Y91.524 E0.01747
G1 X90.189 Y91.061 E0.01733
G1 X90.673 Y90.397 E0.02576
G1 X91.737 Y89.092 E0.05280
G1 X93.013 Y88.083 E0.05099
G1 X93.663 Y87.618 E0.02507
G1 X94.563 Y87.067 E0.03309
G1 X95.289 Y86.718 E0.02525
G1 X96.044 Y86.447 E0.02516
G1 X96.820 Y86.247 E0.02511
G1 X97.858 Y86.065 E0.03306
G1 X99.467 Y85.880 E0.05078
G1 X100.189 Y85.922 E0.02266
G1 X101.207 Y86.017 E0.03206
G1 X101.898 Y86.129 E0.02197
G1 X102.580 Y86.300 E0.02204
G1 X103.241 Y86.528 E0.02191
G1 X103.878 Y86.792 E0.02164
G1 X105.513 Y87.551 E0.05652
G1 X104.911 Y87.688 F7200.000
G1 F900
G1 X98.329 Y94.071 E0.28750
G1 X103.309 Y94.071 E0.15615
G1 X107.573 Y89.825 E0.18867
G1 X108.619 Y91.195 E0.05404
G1 X109.040 Y91.808 E0.02330
G1 X109.531 Y92.654 E0.03067
G1 X109.831 Y93.323 E0.02301
G1 X110.058 Y94.021 E0.02301
G1 X110.266 Y94.978 E0.03068
G1 X110.370 Y95.714 E0.02331
G1 X110.509 Y97.213 E0.04719
G1 X110.354 Y98.856 E0.05177
G1 X110.237 Y99.661 E0.02548
G1 X110.134 Y100.190 E0.01692
G1 X110.005 Y100.713 E0.01688
G1 X109.752 Y101.473 E0.02511
G1 X109.420 Y102.202 E0.02511
G1 X109.158 Y102.672 E0.01688
G1 X108.871 Y103.129 E0.01691
G1 X108.405 Y103.794 E0.02546
G1 X107.387 Y105.098 E0.05186
G1 X106.115 Y106.129 E0.05136
G1 X105.465 Y106.602 E0.02521
G1 X105.017 Y106.894 E0.01674
G1 X104.556 Y107.161 E0.01670
G1 X103.841 Y107.500 E0.02483
G1 X103.092 Y107.758 E0.02484
G1 X102.576 Y107.891 E0.01670
G1 X102.052 Y107.997 E0.01675
G1 X101.257 Y108.117 E0.02522
G1 X99.629 Y108.278 E0.05128
G1 X98.004 Y108.122 E0.05118
G1 X97.211 Y108.005 E0.02516
G1 X96.688 Y107.900 E0.01670
G1 X96.174 Y107.769 E0.01665
G1 X95.427 Y107.512 E0.02475
G1 X94.715 Y107.173 E0.02474
G1 X94.256 Y106.905 E0.01665
G1 X93.812 Y106.612 E0.01669
G1 X93.167 Y106.136 E0.02513
G1 X91.906 Y105.096 E0.05125
G1 X90.901 Y103.765 E0.05228
G1 X90.442 Y103.088 E0.02566
G1 X90.160 Y102.622 E0.01705
G1 X89.904 Y102.144 E0.01702
G1 X89.580 Y101.404 E0.02532
G1 X89.336 Y100.634 E0.02533
G1 X89.212 Y100.106 E0.01703
G1 X89.113 Y99.570 E0.01707
G1 X89.003 Y98.758 E0.02570
G1 X88.860 Y97.100 E0.05217
G1 X89.011 Y95.477 E0.05113
G1 X89.125 Y94.682 E0.02516
G1 X89.227 Y94.159 E0.01670
G1 X89.357 Y93.644 E0.01666
G1 X89.609 Y92.896 E0.02476
G1 X89.944 Y92.181 E0.02475
G1 X90.209 Y91.721 E0.01665
G1 X90.499 Y91.275 E0.01669
G1 X90.972 Y90.627 E0.02513
G1 X92.003 Y89.362 E0.05119
G1 X93.239 Y88.384 E0.04941
G1 X93.871 Y87.932 E0.02436
G1 X94.744 Y87.399 E0.03207
G1 X95.435 Y87.066 E0.02404
G1 X96.155 Y86.808 E0.02400
G1 X96.900 Y86.616 E0.02411
G1 X97.914 Y86.438 E0.03227
G1 X99.476 Y86.259 E0.04930
G1 X100.160 Y86.298 E0.02150
G1 X101.159 Y86.391 E0.03144
G1 X101.822 Y86.499 E0.02106
G1 X102.473 Y86.662 E0.02104
G1 X103.107 Y86.880 E0.02103
G1 X103.726 Y87.138 E0.02103
G1 X104.857 Y87.662 E0.03908
G1 X105.224 Y87.937 F7200.000
G1 F5760
G1 X103.291 Y89.200 E-0.76000
G1 E-0.04000 F2100.00000
G1 Z0.800 F7200.000
G1 X109.769 Y86.994 F7200.000
G1 Z0.200 F7200.000
G1 E0.80000 F2100.00000
G1 F900
G1 X111.383 Y89.036 E0.08161
G1 X111.964 Y89.849 E0.03134
G1 X112.484 Y90.677 E0.03065
G1 X112.927 Y91.528 E0.03008
G1 X113.167 Y92.099 E0.01942
G1 X113.460 Y93.013 E0.03011
G1 X113.610 Y93.635 E0.02004
G1 X113.791 Y94.613 E0.03121
G1 X113.927 Y95.619 E0.03182
G1 X114.068 Y96.937 E0.04155
G1 X113.912 Y98.527 E0.05009
G1 X113.692 Y100.129 E0.05072
G1 X113.454 Y101.280 E0.03684
G1 X113.132 Y102.363 E0.03542
G1 X112.852 Y103.065 E0.02369
G1 X112.698 Y103.389 E0.01126
G1 X112.335 Y104.050 E0.02364
G1 X111.923 Y104.689 E0.02385
G1 X111.465 Y105.316 E0.02433
G1 X110.969 Y105.932 E0.02482
G1 X110.443 Y106.539 E0.02518
G1 X109.074 Y108.013 E0.06307
G1 X107.663 Y109.016 E0.05428
G1 X106.688 Y109.648 E0.03642
G1 X105.952 Y110.069 E0.02659
G1 X104.973 Y110.548 E0.03418
G1 X104.735 Y110.687 E0.00863
G1 X104.341 Y110.977 E0.01537
G1 X104.135 Y111.165 E0.00874
G1 X103.808 Y111.537 E0.01552
G1 X103.643 Y111.773 E0.00902
G1 X103.408 Y112.198 E0.01524
G1 X103.296 Y112.466 E0.00911
G1 X103.155 Y112.942 E0.01557
G1 X103.081 Y113.449 E0.01606
G1 X103.064 Y114.288 E0.02631
G1 X103.043 Y114.480 E0.00606
G1 X102.953 Y114.895 E0.01332
G1 X102.891 Y115.084 E0.00624
G1 X102.714 Y115.471 E0.01333
G1 X102.491 Y115.820 E0.01299
G1 X102.366 Y115.976 E0.00624
G1 X102.066 Y116.276 E0.01332
G1 X101.733 Y116.525 E0.01302
G1 X101.369 Y116.724 E0.01302
G1 X100.979 Y116.869 E0.01302
G1 X100.573 Y116.957 E0.01302
G1 X100.140 Y116.988 E0.01362
G1 X98.954 Y116.980 E0.03721
G1 X98.540 Y116.921 E0.01309
G1 X98.132 Y116.801 E0.01335
G1 X97.959 Y116.729 E0.00586
G1 X97.585 Y116.525 E0.01336
G1 X97.253 Y116.277 E0.01299
G1 X97.107 Y116.142 E0.00624
G1 X96.828 Y115.820 E0.01332
G1 X96.604 Y115.471 E0.01302
G1 X96.431 Y115.093 E0.01302
G1 X96.314 Y114.695 E0.01302
G1 X96.254 Y114.277 E0.01322
G1 X96.237 Y113.474 E0.02518
G1 X96.166 Y112.985 E0.01552
G1 X96.096 Y112.714 E0.00877
G1 X96.006 Y112.450 E0.00874
G1 X95.797 Y112.004 E0.01543
G1 X95.646 Y111.755 E0.00914
G1 X95.340 Y111.358 E0.01573
G1 X94.965 Y110.994 E0.01637
G1 X94.536 Y110.684 E0.01659
G1 X93.212 Y110.025 E0.04636
G1 X92.651 Y109.700 E0.02036
G1 X92.095 Y109.343 E0.02070
G1 X91.268 Y108.757 E0.03178
G1 X89.667 Y107.512 E0.06360
G1 X88.243 Y105.811 E0.06957
G1 X87.584 Y104.933 E0.03440
G1 X86.996 Y104.033 E0.03372
G1 X86.507 Y103.114 E0.03261
G1 X86.371 Y102.805 E0.01060
G1 X86.127 Y102.154 E0.02181
G1 X85.927 Y101.484 E0.02193
G1 X85.765 Y100.791 E0.02231
G1 X85.633 Y100.078 E0.02273
G1 X85.527 Y99.353 E0.02299
G1 X85.301 Y97.138 E0.06979
G1 X85.492 Y95.266 E0.05902
G1 X85.594 Y94.520 E0.02361
G1 X85.719 Y93.788 E0.02328
G1 X85.874 Y93.076 E0.02283
G1 X86.064 Y92.388 E0.02239
G1 X86.298 Y91.720 E0.02219
G1 X86.574 Y91.094 E0.02144
G1 X86.909 Y90.472 E0.02216
G1 X87.289 Y89.869 E0.02235
G1 X87.711 Y89.277 E0.02280
G1 X88.169 Y88.694 E0.02325
G1 X88.653 Y88.118 E0.02358
G1 X89.912 Y86.721 E0.05897
G1 X90.990 Y85.931 E0.04188
G1 X91.832 Y85.347 E0.03214
G1 X92.681 Y84.811 E0.03148
G1 X93.542 Y84.342 E0.03075
G1 X94.427 Y83.952 E0.03032
G1 X95.026 Y83.745 E0.01989
G1 X95.645 Y83.573 E0.02015
G1 X96.616 Y83.370 E0.03109
G1 X97.612 Y83.220 E0.03159
G1 X99.637 Y83.014 E0.06381
G1 X101.157 Y83.127 E0.04779
G1 X102.425 Y83.288 E0.04007
G1 X103.154 Y83.432 E0.02333
G1 X103.626 Y83.554 E0.01526
G1 X104.556 Y83.873 E0.03083
G1 X105.013 Y84.064 E0.01556
G1 X105.939 Y84.504 E0.03212
G1 X107.720 Y85.450 E0.06325
G1 X110.100 Y83.011 E0.10682
G1 X113.848 Y83.011 E0.11750
G1 X109.812 Y86.952 E0.17684
G1 X110.276 Y87.026 F7200.000
G1 F900
G1 X111.685 Y88.809 E0.07125
G1 X112.277 Y89.639 E0.03198
G1 X112.812 Y90.489 E0.03148
G1 X113.269 Y91.367 E0.03106
G1 X113.521 Y91.968 E0.02042
G1 X113.823 Y92.911 E0.03105
G1 X113.979 Y93.556 E0.02080
G1 X114.163 Y94.554 E0.03182
G1 X114.302 Y95.574 E0.03227
G1 X114.447 Y96.935 E0.04293
G1 X114.287 Y98.571 E0.05154
G1 X114.064 Y100.193 E0.05134
G1 X113.821 Y101.369 E0.03764
G1 X113.609 Y102.127 E0.02467
G1 X113.486 Y102.493 E0.01210
G1 X113.198 Y103.215 E0.02440
G1 X113.034 Y103.561 E0.01198
G1 X112.659 Y104.243 E0.02441
G1 X112.234 Y104.903 E0.02461
G1 X111.764 Y105.545 E0.02495
G1 X111.258 Y106.174 E0.02530
G1 X110.724 Y106.791 E0.02560
G1 X109.324 Y108.298 E0.06449
G1 X107.875 Y109.328 E0.05574
G1 X106.885 Y109.970 E0.03699
G1 X106.129 Y110.402 E0.02730
G1 X105.151 Y110.881 E0.03414
G1 X104.942 Y111.002 E0.00757
G1 X104.580 Y111.269 E0.01409
G1 X104.405 Y111.430 E0.00747
G1 X104.105 Y111.771 E0.01424
G1 X103.963 Y111.973 E0.00774
G1 X103.748 Y112.362 E0.01396
G1 X103.652 Y112.593 E0.00783
G1 X103.524 Y113.023 E0.01408
G1 X103.457 Y113.480 E0.01447
G1 X103.440 Y114.312 E0.02609
G1 X103.416 Y114.540 E0.00720
G1 X103.318 Y114.994 E0.01457
G1 X103.243 Y115.222 E0.00752
G1 X103.046 Y115.652 E0.01483
G1 X102.797 Y116.040 E0.01445
G1 X102.648 Y116.227 E0.00752
G1 X102.313 Y116.562 E0.01482
G1 X101.938 Y116.843 E0.01472
G1 X101.526 Y117.068 E0.01472
G1 X101.086 Y117.232 E0.01472
G1 X100.627 Y117.332 E0.01472
G1 X100.152 Y117.366 E0.01493
G1 X98.925 Y117.357 E0.03848
G1 X98.460 Y117.290 E0.01474
G1 X98.006 Y117.157 E0.01483
G1 X97.796 Y117.070 E0.00713
G1 X97.381 Y116.843 E0.01484
G1 X97.011 Y116.567 E0.01445
G1 X96.835 Y116.404 E0.00752
G1 X96.526 Y116.047 E0.01482
G1 X96.272 Y115.652 E0.01472
G1 X96.077 Y115.225 E0.01472
G1 X95.945 Y114.775 E0.01472
G1 X95.878 Y114.308 E0.01479
G1 X95.861 Y113.506 E0.02516
G1 X95.796 Y113.059 E0.01415
G1 X95.734 Y112.822 E0.00768
G1 X95.655 Y112.591 E0.00765
G1 X95.465 Y112.183 E0.01414
G1 X95.334 Y111.969 E0.00784
G1 X95.058 Y111.609 E0.01423
G1 X94.722 Y111.284 E0.01465
G1 X94.341 Y111.008 E0.01476
G1 X93.034 Y110.357 E0.04577
