;FLAVOR:Marlin
;TIME:327
;Filament used:0.272781m
;Layer height: 0.3
;MINX:70.294
;MINY:68.376
;MINZ:0.2
;MAXX:94.275
;MAXY:96.624
;MAXZ:2.9
                                 
;Creative3D GCode Generated by CXEngineDEV
;Generated Time:2022-04-08 18:14:05
;----------Machine Config--------------
;Machine Name:Creality Ender-2 Pro
;Machine Height:180
;Machine Width:165
;Machine Depth:165
;Material name:PLA
;Number of Extruders:1
;ExtruderParams[0] Nozzle Diameter1000
;----------Profile Config---------------
;Layer Height:0.3
;Wall Thickness:0.8
;Top/Bottom Thickness:1
;Out Wall Line Width:0.4
;Inner Wall Line Width:0.4
;Inital Layer Height:200
;Wall Line Count:1
;Infill Line Distance:4
;Infill Pattern:grid
;Infill Sparse Density:20
;Infill Wipe Distance:0
;Print Temperature:200
;Bed Temperature:60
;Support Enable:false
;Support Density:30
;Support Angle:1.0472
;Adhesion Type:none
;machine is belt:false
;machine belt offset:10
;machine belt offset Y:0
;----------Shell Config----------------
;Outer Wall Wipe Distance:200
;Infill Before Walls:false
;Infill Overlap:0.16
;Fill Gaps Between Walls:everywhere
;Minimum Infill Area:1
;Top Surface Skin Layer:0
;Top Layers:2
;Z Seam Alignment:sharpest_corner
;Seam Corner Preference:z_seam_corner_inner
;Z Seam X:82.5
;Z Seam Y:82.5
;Horizontal Expansion:0
;Top/Bottom Pattern:zigzag
;Ironing Pattern:zigzag
;Vase Model:false
;----------Support Config----------------
;Support Type:everywhere
;Support Pattern:zigzag
;Support Infill Layer Thickness:0.3
;Minimum Support Area:10
;Enable Support Roof:false
;Support Roof Thickness:0.8
;Support Roof Pattern:lines
; ---------PrintSpeed & Travel----------
;Enable Print Cool:true
;Avoid Printed Parts Traveling:true
;Enable Retraction:true
;Retraction Distance:8
;Retraction Speed:100
;Retraction Prime Speed:100
;Maximum Retraction Count:100
;Minimum Extrusion Distance Window:1
;Z Hop When Retracted:false
;Z Hop Height:0.2
;Retract Before Outer Wall:true
;Print Speed:50
;Infill Speed:50

;Prime Tower Speed:50
;Travel Speed:120
;Initial Layer Speed:25
;Skirt/Brim Speed:25
;Combing Mode:off
;---------------------End of Head--------------------------
M140 S60
M104 S200
M105
M109 S200
M82 ;absolute extrusion mode
M220 S100 ;Reset Feedrate
M221 S100 ;Reset Flowrate

G28 ;Home

G92 E0 ;Reset Extruder
G1 Z2.0 F3000 ;Move Z Axis up
G1 X10.1 Y20 Z0.28 F5000.0 ;Move to start position
G1 X10.1 Y145.0 Z0.28 F1500.0 E15 ;Draw the first line
G1 X10.4 Y145.0 Z0.28 F5000.0 ;Move to side a little
G1 X10.4 Y20 Z0.28 F1500.0 E30 ;Draw the second line
G92 E0  ;Reset Extruder
G1 E-1.0000 F1800 ;Retract a bit
G1 Z2.0 F3000 ;Move Z Axis up
G1 E0.0000 F1800 

G92 E0
G92 E0
G1 F6000 E-8

;LAYER_COUNT:10

;LAYER:0
M107
;MESH:
G0 F3600 X76.193 Y86.624 Z0.2
;TYPE:WALL-OUTER
G1 F6000 E0
G1 F1500 X73.076 Y86.624 E0.11404
G1 X72.681 Y86.695 E0.12872
G1 X72.401 Y86.842 E0.14029
G1 X72.104 Y87.141 E0.15571
G1 X71.931 Y87.523 E0.17105
G1 X71.894 Y87.811 E0.18168
G1 X71.894 Y89.842 E0.25598
G1 X71.965 Y90.238 E0.2707
G1 X72.112 Y90.517 E0.28224
G1 X72.411 Y90.814 E0.29766
G1 X72.794 Y90.987 E0.31303
G1 X73.121 Y91.024 E0.32507
G1 X76.294 Y91.024 E0.44116
G1 X76.294 Y86.925 E0.59113
G1 X76.193 Y86.624 E0.60274
G0 F3600 X75.993 Y86.624
G0 X75.993 Y86.184
;;retract;;
G1 F6000 E-7.39726
G0 F3600 X80.218 Y83.469
G1 F6000 E0.60274
G1 F1500 X80.218 Y92.961 E0.95002
G1 X81.963 Y92.961 E1.01386
G1 X83.124 Y92.9 E1.0564
G1 X83.693 Y92.85 E1.0773
G1 X84.246 Y92.779 E1.09769
G1 X84.767 Y92.68 E1.1171
G1 X85.037 Y92.612 E1.12728
G1 X85.287 Y92.535 E1.13685
G1 X85.646 Y92.401 E1.15087
G1 X85.982 Y92.237 E1.16455
G1 X86.297 Y92.037 E1.1782
G1 X86.583 Y91.8 E1.19179
G1 X86.839 Y91.526 E1.20551
G1 X87.065 Y91.217 E1.21952
G1 X87.317 Y90.776 E1.2381
G1 X87.436 Y90.527 E1.2482
G1 X87.542 Y90.279 E1.25807
G1 X87.73 Y89.766 E1.27806
G1 X87.896 Y89.232 E1.29851
G1 X88.139 Y88.365 E1.33146
G1 X87.901 Y87.455 E1.36587
G1 X87.736 Y86.895 E1.38723
G1 X87.55 Y86.355 E1.40813
G1 X87.338 Y85.852 E1.4281
G1 X87.144 Y85.484 E1.44332
G1 X87.001 Y85.256 E1.45316
G1 X86.771 Y84.946 E1.46728
G1 X86.501 Y84.666 E1.48152
G1 X86.197 Y84.423 E1.49575
G1 X85.868 Y84.221 E1.50988
G1 X85.624 Y84.1 E1.51984
G1 X85.255 Y83.954 E1.53436
G1 X84.995 Y83.871 E1.54435
G1 X84.729 Y83.799 E1.55443
G1 X84.454 Y83.738 E1.56474
G1 X83.891 Y83.641 E1.58564
G1 X83.305 Y83.573 E1.60722
G1 X82.408 Y83.503 E1.64014
G1 X81.797 Y83.469 E1.66253
G1 X80.218 Y83.469 E1.7203
G0 F3600 X80.218 Y83.669
G0 X79.778 Y83.669
;;retract;;
G1 F6000 E-6.2797
G0 F3600 X80.218 Y80.102
G1 F6000 E1.7203
G1 F1500 X81.301 Y80.102 E1.75992
G1 X89.484 Y68.376 E2.28306
G1 X93.883 Y68.376 E2.44401
G1 X93.884 Y68.376 E2.44404
G1 X94.275 Y68.376 E2.45835
G1 X94.045 Y68.693 E2.46629
G1 X85.635 Y80.268 E2.98975
G1 X85.471 Y80.494 E2.99997
G1 X85.738 Y80.575 E3.00602
G1 X86.715 Y80.874 E3.0434
G1 X87.368 Y81.112 E3.06883
G1 X87.821 Y81.314 E3.08698
G1 X88.112 Y81.467 E3.09901
G1 X88.383 Y81.631 E3.1106
G1 X88.645 Y81.813 E3.12227
G1 X89.038 Y82.126 E3.14065
G1 X89.283 Y82.346 E3.1527
G1 X89.773 Y82.824 E3.17774
G1 X90.241 Y83.31 E3.20243
G1 X90.805 Y84.191 E3.2407
G1 X90.975 Y84.482 E3.25303
G1 X91.216 Y84.935 E3.2718
G1 X91.357 Y85.24 E3.28409
G1 X91.486 Y85.561 E3.29675
G1 X91.589 Y85.875 E3.30884
G1 X91.672 Y86.186 E3.32062
G1 X91.771 Y86.688 E3.33934
G1 X91.821 Y87.026 E3.35184
G1 X91.893 Y87.729 E3.37769
G1 X91.944 Y88.415 E3.40286
G1 X91.862 Y89.296 E3.43523
G1 X91.779 Y89.956 E3.45957
G1 X91.707 Y90.384 E3.47545
G1 X91.616 Y90.813 E3.49149
G1 X91.508 Y91.208 E3.50648
G1 X91.367 Y91.613 E3.52216
G1 X91.211 Y91.971 E3.53645
G1 X91.008 Y92.347 E3.55209
G1 X90.78 Y92.708 E3.56771
G1 X90.531 Y93.052 E3.58324
G1 X90.129 Y93.548 E3.6066
G1 X89.522 Y94.226 E3.6399
G1 X89.238 Y94.53 E3.65512
G1 X88.314 Y95.053 E3.69396
G1 X87.603 Y95.429 E3.72339
G1 X87.133 Y95.654 E3.74245
G1 X86.642 Y95.865 E3.762
G1 X86.158 Y96.045 E3.7809
G1 X85.671 Y96.193 E3.79952
G1 X85.158 Y96.315 E3.81881
G1 X84.642 Y96.41 E3.83801
G1 X84.128 Y96.481 E3.85699
G1 X83.599 Y96.533 E3.87644
G1 X82.788 Y96.584 E3.90617
G1 X81.702 Y96.616 E3.94592
G1 X81.157 Y96.624 E3.96586
G1 X76.294 Y96.624 E4.14378
G1 X76.294 Y95.798 E4.174
G1 X76.264 Y95.355 E4.19024
G1 X76.169 Y94.911 E4.20685
G1 X76.011 Y94.486 E4.22344
G1 X75.794 Y94.084 E4.24016
G1 X75.521 Y93.718 E4.25686
G1 X75.203 Y93.397 E4.27339
G1 X74.838 Y93.121 E4.29014
G1 X74.441 Y92.902 E4.30672
G1 X74.019 Y92.742 E4.32324
G1 X73.578 Y92.643 E4.33977
G1 X73.128 Y92.591 E4.35635
G1 X72.721 Y92.507 E4.37155
G1 X72.317 Y92.367 E4.38719
G1 X71.927 Y92.171 E4.40316
G1 X71.581 Y91.939 E4.4184
G1 X71.257 Y91.652 E4.43424
G1 X70.97 Y91.324 E4.45018
G1 X70.739 Y90.977 E4.46544
G1 X70.547 Y90.585 E4.48141
G1 X70.409 Y90.183 E4.49696
G1 X70.325 Y89.762 E4.51266
G1 X70.302 Y89.528 E4.52126
G1 X70.294 Y89.324 E4.52873
G1 X70.294 Y88.327 E4.56521
G1 X70.324 Y87.89 E4.58124
G1 X70.4 Y87.494 E4.59599
G1 X70.539 Y87.078 E4.61203
G1 X70.725 Y86.695 E4.62761
G1 X70.959 Y86.339 E4.6432
G1 X71.24 Y86.012 E4.65897
G1 X71.556 Y85.73 E4.67447
G1 X71.909 Y85.488 E4.69013
G1 X72.299 Y85.291 E4.70611
G1 X72.691 Y85.152 E4.72133
G1 X73.121 Y85.06 E4.73742
G1 X73.577 Y85.008 E4.75421
G1 X74.004 Y84.912 E4.77022
G1 X74.428 Y84.753 E4.78679
G1 X74.831 Y84.532 E4.8036
G1 X75.192 Y84.26 E4.82014
G1 X75.516 Y83.936 E4.8369
G1 X75.787 Y83.573 E4.85348
G1 X76.005 Y83.172 E4.87018
G1 X76.163 Y82.749 E4.8867
G1 X76.261 Y82.301 E4.90348
G1 X76.293 Y81.855 E4.91984
G1 X76.294 Y68.376 E5.41298
G1 X80.218 Y68.376 E5.55654
G1 X80.218 Y80.102 E5.98555
G0 F3600 X80.418 Y80.102
G0 X80.418 Y80.542
;;retract;;
G1 F6000 E-2.01445
G0 F3600 X70.951 Y90.863
;TYPE:SKIN
G1 F6000 E5.98555
G1 F1500 X71.154 Y91.17 E5.99902
G1 X71.426 Y91.48 E6.01411
G1 X71.735 Y91.753 E6.02919
G1 X72.04 Y91.958 E6.04264
G1 X72.279 Y92.078 E6.05242
G1 X72.414 Y92.146 E6.05795
G1 X72.786 Y92.273 E6.07233
G1 X73.107 Y92.341 E6.08434
G1 X70.579 Y89.812 E6.21516
G1 X70.562 Y89.729 E6.21826
G1 X70.541 Y89.511 E6.22628
G1 X70.533 Y89.323 E6.23316
G1 X70.533 Y89.201 E6.23762
G1 X71.832 Y90.5 E6.30484
G1 X71.735 Y90.315 E6.31248
G1 X71.653 Y89.863 E6.32929
G1 X71.653 Y89.755 E6.33324
G1 X70.533 Y88.635 E6.39119
G1 X70.533 Y88.343 E6.40187
G1 X70.551 Y88.087 E6.41126
G1 X71.653 Y89.19 E6.4683
G1 X71.653 Y88.624 E6.48901
G1 X70.624 Y87.594 E6.54228
G1 X70.63 Y87.561 E6.5435
G1 X70.761 Y87.166 E6.55873
G1 X71.653 Y88.058 E6.60488
G1 X71.653 Y87.794 E6.61454
G1 X71.687 Y87.527 E6.62439
G1 X70.948 Y86.788 E6.66262
G1 X71.149 Y86.484 E6.67596
G1 X71.177 Y86.45 E6.67757
G1 X71.849 Y87.123 E6.71237
G1 X71.904 Y87.002 E6.71723
G1 X72.098 Y86.806 E6.72732
G1 X71.443 Y86.151 E6.76121
G1 X71.704 Y85.917 E6.77403
G1 X71.747 Y85.889 E6.77591
G1 X72.418 Y86.56 E6.81063
G1 X72.602 Y86.465 E6.8182
G1 X72.844 Y86.421 E6.8272
G1 X72.09 Y85.666 E6.86624
G1 X72.394 Y85.512 E6.87871
G1 X72.474 Y85.484 E6.88181
G1 X73.372 Y86.382 E6.92827
G1 X73.937 Y86.382 E6.94894
G1 X72.906 Y85.351 E7.00229
G1 X73.16 Y85.296 E7.0118
G1 X73.39 Y85.27 E7.02027
G1 X74.503 Y86.382 E7.07783
G1 X75.069 Y86.382 E7.09854
G1 X73.872 Y85.186 E7.16044
G1 X74.072 Y85.141 E7.16794
G1 X74.306 Y85.054 E7.17708
G1 X75.634 Y86.382 E7.24579
G1 X76.2 Y86.382 E7.2665
G1 X74.696 Y84.878 E7.34431
G1 X74.962 Y84.733 E7.3554
G1 X75.05 Y84.667 E7.35942
G1 X79.978 Y89.594 E7.61437
G1 X79.978 Y89.028 E7.63508
G1 X75.369 Y84.42 E7.87353
G1 X75.652 Y84.137 E7.88817
G1 X79.978 Y88.463 E8.112
G1 X79.978 Y87.897 E8.13271
G1 X75.901 Y83.821 E8.34363
G1 X75.99 Y83.702 E8.34907
G1 X76.115 Y83.469 E8.35874
G1 X79.978 Y87.331 E8.55859
G1 X79.978 Y86.766 E8.57926
G1 X76.293 Y83.081 E8.76992
G1 X76.392 Y82.816 E8.78027
G1 X76.429 Y82.651 E8.78646
G1 X79.978 Y86.2 E8.97009
G1 X79.978 Y85.634 E8.9908
G1 X76.51 Y82.167 E9.17021
G1 X76.532 Y81.861 E9.18143
G1 X76.532 Y81.624 E9.1901
G1 X79.978 Y85.069 E9.36837
G1 X79.978 Y84.503 E9.38908
G1 X76.532 Y81.058 E9.56735
G1 X76.532 Y80.492 E9.58806
G1 X79.978 Y83.937 E9.76633
G1 X79.978 Y83.372 E9.787
G1 X76.532 Y79.927 E9.96528
G1 X76.532 Y79.361 E9.98598
G1 X80.399 Y83.227 E10.18604
G1 X80.965 Y83.227 E10.20675
G1 X76.532 Y78.795 E10.43609
G1 X76.532 Y78.23 E10.45676
G1 X81.53 Y83.227 E10.71533
G1 X81.805 Y83.227 E10.72539
G1 X82.113 Y83.244 E10.73668
G1 X76.532 Y77.664 E11.02542
G1 X76.532 Y77.098 E11.04613
G1 X82.719 Y83.285 E11.36625
G1 X83.327 Y83.333 E11.38856
G1 X83.333 Y83.333 E11.38878
G1 X80.342 Y80.342 E11.54353
G1 X80.907 Y80.342 E11.56421
G1 X83.978 Y83.412 E11.72308
G1 X84.499 Y83.502 E11.74242
G1 X84.671 Y83.54 E11.74886
G1 X81.444 Y80.313 E11.91583
G1 X81.677 Y79.98 E11.9307
G1 X85.483 Y83.786 E12.12763
G0 F3600 X85.72 Y83.88
G1 F1500 X85.983 Y84.01 E12.13836
G1 X86.334 Y84.225 E12.15342
G1 X86.662 Y84.488 E12.1688
G1 X86.954 Y84.79 E12.18417
G1 X87.198 Y85.119 E12.19915
G1 X87.351 Y85.364 E12.20972
G1 X87.554 Y85.748 E12.22561
G1 X87.633 Y85.936 E12.23307
G1 X87.773 Y86.269 E12.24629
G1 X87.964 Y86.822 E12.2677
G1 X87.969 Y86.837 E12.26827
G1 X91.47 Y90.339 E12.44944
G1 X91.38 Y90.759 E12.46516
G1 X91.369 Y90.803 E12.46682
G1 X88.193 Y87.628 E12.63112
G1 X88.386 Y88.366 E12.65903
G1 X88.381 Y88.381 E12.65961
G1 X91.241 Y91.241 E12.80759
G1 X91.14 Y91.529 E12.81875
G1 X91.087 Y91.653 E12.82369
G1 X88.258 Y88.823 E12.97009
G1 X88.135 Y89.266 E12.98691
G1 X90.903 Y92.034 E13.13012
G1 X90.8 Y92.223 E13.138
G1 X90.694 Y92.391 E13.14527
G1 X88.002 Y89.699 E13.28455
G1 X87.958 Y89.842 E13.29003
G1 X87.855 Y90.118 E13.3008
G1 X90.467 Y92.73 E13.43595
G1 X90.344 Y92.9 E13.44363
G1 X90.223 Y93.051 E13.45071
G1 X87.696 Y90.525 E13.58143
G1 X87.653 Y90.624 E13.58538
G1 X87.528 Y90.887 E13.59603
G1 X87.515 Y90.909 E13.59697
G1 X89.969 Y93.363 E13.72394
G1 X89.949 Y93.387 E13.72508
G1 X89.703 Y93.663 E13.73861
G1 X87.31 Y91.269 E13.86245
G1 X87.266 Y91.346 E13.86569
G1 X87.078 Y91.603 E13.87734
G1 X89.436 Y93.961 E13.99935
G1 X89.346 Y94.061 E14.00427
G1 X89.165 Y94.256 E14.01401
G1 X86.812 Y91.903 E14.13575
G1 X86.747 Y91.974 E14.13927
G1 X86.512 Y92.169 E14.15045
G1 X88.828 Y94.485 E14.27028
G1 X88.466 Y94.689 E14.28548
G1 X86.175 Y92.398 E14.40402
G1 X86.099 Y92.446 E14.40731
G1 X85.803 Y92.591 E14.41936
G1 X88.103 Y94.891 E14.53837
G1 X87.733 Y95.087 E14.55369
G1 X85.396 Y92.75 E14.6746
G1 X85.364 Y92.761 E14.67584
G1 X85.101 Y92.843 E14.68592
G1 X84.959 Y92.879 E14.69128
G1 X87.359 Y95.279 E14.81546
G1 X87.066 Y95.42 E14.82735
G1 X86.974 Y95.459 E14.83101
G1 X84.491 Y92.976 E14.95948
G1 X84.283 Y93.016 E14.96723
G1 X84.001 Y93.052 E14.97763
G1 X86.578 Y95.629 E15.11097
G1 X86.547 Y95.643 E15.11221
G0 F3600 X86.547 Y95.644
G1 F1500 X86.168 Y95.784 E15.127
G1 X83.492 Y93.108 E15.26545
G1 X83.14 Y93.139 E15.27838
G1 X82.966 Y93.148 E15.28476
G1 X85.738 Y95.92 E15.42818
G1 X85.615 Y95.957 E15.43288
G1 X85.287 Y96.035 E15.44521
G1 X82.428 Y93.176 E15.59314
G1 X81.968 Y93.2 E15.60999
G1 X81.887 Y93.2 E15.61296
G1 X84.818 Y96.132 E15.76464
G1 X84.601 Y96.173 E15.77271
G0 F3600 X84.601 Y96.172
G1 F1500 X84.33 Y96.209 E15.78272
G1 X81.321 Y93.2 E15.93841
G1 X80.755 Y93.2 E15.95912
G1 X83.823 Y96.268 E16.11786
G1 X83.581 Y96.292 E16.12675
G1 X83.299 Y96.31 E16.13709
G1 X80.19 Y93.2 E16.29798
G0 F3600 X79.978 Y93.2
G1 F1500 X79.978 Y92.988 E16.30574
G1 X79.978 Y92.423 E16.32641
G1 X76.533 Y88.978 E16.50465
G1 X76.533 Y88.413 E16.52533
G1 X79.978 Y91.857 E16.70355
G1 X79.978 Y91.291 E16.72425
G1 X76.533 Y87.847 E16.90247
G1 X76.533 Y87.281 E16.92318
G1 X79.978 Y90.726 E17.10143
G1 X79.978 Y90.16 E17.12214
G1 X76.448 Y86.631 E17.30475
G1 X76.366 Y86.382 E17.31435
;;retract;;
G1 F6000 E9.31435
G0 F3600 X71.832 Y90.5
G1 F6000 E17.31435
G1 F1500 X71.916 Y90.66 E17.32096
G1 X72.273 Y91.013 E17.33933
G0 F3600 X72.405 Y91.073
G1 F1500 X73.773 Y92.44 E17.41008
G1 X74.088 Y92.511 E17.42189
G1 X74.541 Y92.683 E17.43962
G1 X74.629 Y92.731 E17.44329
G1 X73.161 Y91.263 E17.51925
G1 X73.727 Y91.263 E17.53995
G1 X78.846 Y96.382 E17.80481
G1 X79.412 Y96.382 E17.82552
G1 X74.292 Y91.263 E18.09041
G1 X74.858 Y91.263 E18.11112
G1 X79.978 Y96.382 E18.376
G1 X80.543 Y96.382 E18.39667
G1 X75.424 Y91.263 E18.66153
G1 X75.989 Y91.263 E18.6822
G1 X81.109 Y96.382 E18.94709
G1 X81.153 Y96.382 E18.9487
G1 X81.668 Y96.375 E18.96754
G1 X76.533 Y91.241 E19.23321
G1 X76.533 Y90.675 E19.25391
G1 X82.217 Y96.359 E19.54801
G1 X82.766 Y96.343 E19.5681
G1 X76.533 Y90.11 E19.8906
G1 X76.533 Y89.544 E19.91131
G1 X79.978 Y92.988 E20.08953
;;retract;;
G1 F6000 E12.08953
G0 F3600 X76.533 Y96.383
G1 F6000 E20.08953
G1 F1500 X76.583 Y96.382 E20.09136
G1 X77.149 Y96.382 E20.11207
G1 X76.531 Y95.764 E20.14404
G1 X76.502 Y95.32 E20.16032
G1 X76.461 Y95.129 E20.16747
G1 X77.715 Y96.382 E20.23233
G1 X78.28 Y96.382 E20.253
G1 X76.168 Y94.27 E20.36227
G1 X75.997 Y93.953 E20.37545
G1 X75.702 Y93.56 E20.39343
G1 X75.36 Y93.215 E20.4112
G1 X74.968 Y92.918 E20.42919
;;retract;;
G1 F6000 E12.42919
G0 F3600 X70.842 Y90.641
G1 F6000 E20.42919
G1 F1500 X72.279 Y92.078 E20.50355
;;retract;;
G1 F6000 E12.50355
G0 F3600 X79.978 Y80.341
G1 F6000 E20.50355
G1 F1500 X79.978 Y79.978 E20.51683
G1 X76.532 Y76.532 E20.69513
G1 X76.532 Y75.967 E20.7158
G1 X79.978 Y79.412 E20.89407
G1 X79.978 Y78.846 E20.91478
G1 X76.532 Y75.401 E21.09305
G1 X76.532 Y74.835 E21.11376
G1 X79.978 Y78.28 E21.29203
G1 X79.978 Y77.715 E21.3127
G1 X76.532 Y74.27 E21.49097
G1 X76.532 Y73.704 E21.51168
G1 X79.978 Y77.149 E21.68995
G1 X79.978 Y76.583 E21.71066
G1 X76.532 Y73.138 E21.88893
G1 X76.532 Y72.573 E21.9096
G1 X79.978 Y76.018 E22.08788
G1 X79.978 Y75.452 E22.10858
G1 X76.532 Y72.007 E22.28686
G1 X76.532 Y71.441 E22.30756
G1 X79.978 Y74.886 E22.48584
G1 X79.978 Y74.321 E22.50651
G1 X76.532 Y70.876 E22.68478
G1 X76.532 Y70.31 E22.70549
G1 X79.978 Y73.755 E22.88376
G1 X79.978 Y73.189 E22.90447
G1 X76.532 Y69.744 E23.08274
G1 X76.532 Y69.179 E23.10341
G1 X79.978 Y72.624 E23.28168
G1 X79.978 Y72.058 E23.30239
G1 X76.535 Y68.616 E23.48051
G1 X77.101 Y68.616 E23.50122
G1 X79.978 Y71.492 E23.65005
G1 X79.978 Y70.927 E23.67072
G1 X77.667 Y68.616 E23.79029
G1 X78.232 Y68.616 E23.81096
G1 X79.978 Y70.361 E23.90128
