; generated by Slic3r Prusa Edition 1.39.1-prusa3d on 2018-05-09 at 12:53:31

; 

; external perimeters extrusion width = 0.45mm
; perimeters extrusion width = 0.45mm
; infill extrusion width = 0.45mm
; solid infill extrusion width = 0.45mm
; top infill extrusion width = 0.33mm
; first layer extrusion width = 0.42mm

M107
M115 U3.1.0 ; tell printer latest fw version
M201 X9000 Y9000 Z500 E10000 ; sets maximum accelerations, mm/sec^2
M203 X500 Y500 Z12 E120 ; sets maximum feedrates, mm/sec
M204 S1500 T1500 ; sets acceleration (S) and retract acceleration (T)
M205 X10 Y10 Z0.2 E2.5 ; sets the jerk limits, mm/sec
M205 S0 T0 ; sets the minimum extruding and travel feed rate, mm/sec
M83  ; extruder relative mode
M104 S200 ; set extruder temp
M140 S65 ; set bed temp
M190 S65 ; wait for bed temp
M109 S200 ; wait for extruder temp
G28 W ; home all without mesh bed level
G80 ; mesh bed leveling
G1 Y-3.0 F1000.0 ; go outside print area
G92 E0.0
G1 E18.0 F1000.0;
G1 X60.0 E9.0  F1000.0 ; intro line
G1 X100.0 E12.5  F1000.0 ; intro line
G92 E0.0
M900 K30; Filament gcode
G21 ; set units to millimeters
G90 ; use absolute coordinates
M83 ; use relative distances for extrusion
;BEFORE_LAYER_CHANGE
;0.2


G1 E-0.80000 F2100.00000
G1 Z0.600 F7200.000
;AFTER_LAYER_CHANGE
;0.2
G1 X91.751 Y83.744 F7200.000
G1 Z0.200 F7200.000
G1 E0.80000 F2100.00000
M204 S1000
G1 F900
G1 X92.276 Y83.327 E0.02103
G1 X92.882 Y83.050 E0.02090
G1 X93.538 Y82.927 E0.02090
G1 X112.291 Y82.922 E0.58799
G1 X112.840 Y82.978 E0.01733
G1 X113.368 Y83.143 E0.01733
G1 X113.852 Y83.410 E0.01733
G1 X114.273 Y83.768 E0.01733
G1 X114.614 Y84.202 E0.01733
G1 X114.861 Y84.697 E0.01733
G1 X115.004 Y85.230 E0.01733
G1 X115.039 Y85.782 E0.01733
G1 X112.318 Y107.900 E0.69874
G1 X111.865 Y109.840 E0.06246
G1 X111.173 Y111.346 E0.05198
G1 X110.152 Y112.779 E0.05515
G1 X108.607 Y114.412 E0.07050
G1 X106.248 Y115.715 E0.08449
G1 X105.081 Y116.216 E0.03982
G1 X104.097 Y116.534 E0.03244
G1 X101.792 Y116.948 E0.07342
G1 X98.818 Y117.078 E0.09333
G1 X93.554 Y117.074 E0.16507
G1 X92.909 Y116.958 E0.02052
G1 X92.311 Y116.694 E0.02052
G1 X91.765 Y116.271 E0.02167
G1 X86.225 Y110.596 E0.24865
G1 X85.743 Y109.853 E0.02776
G1 X85.295 Y108.846 E0.03457
G1 X85.068 Y107.981 E0.02804
G1 X84.960 Y106.905 E0.03389
G1 X84.975 Y105.377 E0.04794
G1 X85.180 Y104.178 E0.03814
G1 X91.082 Y84.863 E0.63324
G1 X91.344 Y84.272 E0.02026
G1 X91.714 Y83.791 E0.01902
G1 F5760
G1 X92.276 Y83.327 E-0.25253
G1 F5760
G1 X92.882 Y83.050 E-0.23090
G1 F5760
G1 X93.538 Y82.927 E-0.23090
G1 F5760
G1 X93.669 Y82.927 E-0.04567
G1 E-0.04000 F2100.00000
G1 Z0.800 F7200.000
G1 X113.228 Y83.493 F7200.000
G1 Z0.200 F7200.000
G1 E0.80000 F2100.00000
G1 F900
G1 X114.012 Y84.041 E0.03001
G1 X114.517 Y84.854 E0.03001
G1 X114.660 Y85.800 E0.03001
G1 X111.946 Y107.842 E0.69633
G1 X111.507 Y109.722 E0.06052
G1 X110.840 Y111.167 E0.04990
G1 X109.864 Y112.536 E0.05273
G1 X108.385 Y114.108 E0.06767
G1 X106.083 Y115.376 E0.08239
G1 X104.946 Y115.864 E0.03880
G1 X103.993 Y116.172 E0.03139
G1 X102.033 Y116.542 E0.06256
G1 X99.369 Y116.692 E0.08365
G1 X93.599 Y116.699 E0.18091
G1 X93.026 Y116.600 E0.01823
G1 X92.491 Y116.363 E0.01835
G1 X92.030 Y116.003 E0.01835
G1 X86.529 Y110.373 E0.24680
G1 X86.077 Y109.680 E0.02594
G1 X85.651 Y108.722 E0.03287
G1 X85.439 Y107.914 E0.02618
G1 X85.337 Y106.886 E0.03239
G1 X85.351 Y105.410 E0.04630
G1 X85.543 Y104.279 E0.03597
G1 X91.442 Y84.974 E0.63292
G1 X91.675 Y84.453 E0.01787
G1 X92.030 Y83.998 E0.01811
G1 X92.484 Y83.641 E0.01811
G1 X93.011 Y83.405 E0.01811
G1 X93.580 Y83.302 E0.01811
G1 X112.290 Y83.299 E0.58667
G1 X113.169 Y83.481 E0.02813
G1 F5760
G1 X114.012 Y84.041 E-0.35069
G1 F5760
G1 X114.517 Y84.854 E-0.33149
G1 F5760
G1 X114.551 Y85.076 E-0.07782
G1 E-0.04000 F2100.00000
G1 Z0.800 F7200.000
G1 X97.450 Y100.582 F7200.000
G1 Z0.200 F7200.000
G1 E0.80000 F2100.00000
G1 F900
G1 X99.428 Y100.582 E0.06204
G1 X100.661 Y100.660 E0.03874
G1 X101.567 Y100.758 E0.02856
G1 X102.441 Y100.923 E0.02788
G1 X103.131 Y101.135 E0.02264
G1 X103.531 Y101.308 E0.01366
G1 X103.795 Y101.450 E0.00939
G1 X104.147 Y101.685 E0.01327
G1 X104.376 Y101.875 E0.00936
G1 X104.588 Y102.087 E0.00938
G1 X104.863 Y102.425 E0.01366
G1 X105.171 Y102.919 E0.01826
G1 X105.529 Y103.713 E0.02730
G1 X105.810 Y104.562 E0.02806
G1 X106.161 Y105.871 E0.04247
G1 X105.716 Y107.385 E0.04949
G1 X105.519 Y107.926 E0.01804
G1 X105.288 Y108.441 E0.01772
G1 X105.012 Y108.924 E0.01743
G1 X104.761 Y109.268 E0.01333
G1 X104.474 Y109.578 E0.01327
G1 X104.144 Y109.851 E0.01343
G1 X103.669 Y110.140 E0.01743
G1 X103.034 Y110.402 E0.02155
G1 X102.487 Y110.554 E0.01778
G1 X101.924 Y110.662 E0.01798
G1 X101.066 Y110.763 E0.02709
G1 X99.590 Y110.848 E0.04633
G1 X97.450 Y110.848 E0.06712
G1 X97.450 Y100.642 E0.32000
G1 X97.827 Y100.959 F7200.000
G1 F900
G1 X99.416 Y100.959 E0.04984
G1 X100.629 Y101.036 E0.03810
G1 X101.512 Y101.131 E0.02784
G1 X102.350 Y101.289 E0.02675
G1 X103.001 Y101.489 E0.02132
G1 X103.366 Y101.647 E0.01250
G1 X103.600 Y101.773 E0.00833
G1 X103.921 Y101.987 E0.01208
G1 X104.122 Y102.155 E0.00821
G1 X104.308 Y102.340 E0.00823
G1 X104.556 Y102.644 E0.01230
G1 X104.838 Y103.097 E0.01673
G1 X105.178 Y103.850 E0.02590
G1 X105.449 Y104.670 E0.02710
G1 X105.769 Y105.866 E0.03881
G1 X105.358 Y107.267 E0.04579
G1 X105.169 Y107.784 E0.01724
G1 X104.951 Y108.271 E0.01673
G1 X104.695 Y108.719 E0.01619
G1 X104.470 Y109.027 E0.01198
G1 X104.214 Y109.303 E0.01180
G1 X103.924 Y109.543 E0.01179
G1 X103.498 Y109.803 E0.01566
G1 X102.911 Y110.045 E0.01991
G1 X102.401 Y110.186 E0.01658
G1 X101.866 Y110.289 E0.01708
G1 X101.031 Y110.387 E0.02636
G1 X99.582 Y110.471 E0.04553
G1 X97.827 Y110.471 E0.05502
G1 X97.827 Y101.019 E0.29635
G1 X97.802 Y100.560 F7200.000
G1 F5760
G1 X99.416 Y100.959 E-0.55100
G1 F5760
G1 X100.019 Y100.997 E-0.20900
G1 E-0.04000 F2100.00000
G1 Z0.800 F7200.000
G1 X94.300 Y103.737 F7200.000
G1 Z0.200 F7200.000
G1 E0.80000 F2100.00000
G1 F900
G1 X94.300 Y108.913 E0.16228
G1 X90.537 Y108.904 E0.11800
G1 X90.308 Y108.861 E0.00731
G1 X89.973 Y108.733 E0.01122
G1 X89.658 Y108.515 E0.01201
G1 X89.403 Y108.227 E0.01207
G1 X89.223 Y107.881 E0.01223
G1 X89.138 Y107.533 E0.01124
G1 X89.126 Y107.342 E0.00600
G1 X89.126 Y105.289 E0.06438
G1 X89.168 Y104.943 E0.01091
G1 X89.298 Y104.601 E0.01147
G1 X89.416 Y104.407 E0.00713
G1 X89.646 Y104.146 E0.01090
G1 X89.825 Y104.006 E0.00713
G1 X90.149 Y103.836 E0.01147
G1 X90.504 Y103.749 E0.01147
G1 X94.240 Y103.737 E0.11715
G1 X93.923 Y104.114 F7200.000
G1 F900
G1 X93.923 Y108.535 E0.13860
G1 X90.573 Y108.527 E0.10505
G1 X90.411 Y108.496 E0.00517
G1 X90.150 Y108.397 E0.00875
G1 X89.910 Y108.231 E0.00915
G1 X89.716 Y108.012 E0.00917
G1 X89.579 Y107.747 E0.00935
G1 X89.512 Y107.476 E0.00875
G1 X89.503 Y107.331 E0.00458
G1 X89.503 Y105.312 E0.06331
G1 X89.537 Y105.034 E0.00876
G1 X89.638 Y104.767 E0.00896
G1 X89.721 Y104.631 E0.00498
G1 X89.906 Y104.422 E0.00876
G1 X90.031 Y104.324 E0.00498
G1 X90.284 Y104.191 E0.00896
G1 X90.561 Y104.123 E0.00896
G1 X93.863 Y104.114 E0.10354
G1 X94.323 Y104.111 F7200.000
G1 F5760
G1 X93.893 Y106.308 E-0.76000
G1 E-0.04000 F2100.00000
G1 Z0.800 F7200.000
G1 X97.450 Y97.989 F7200.000
G1 Z0.200 F7200.000
G1 E0.80000 F2100.00000
G1 F900
G1 X99.122 Y97.989 E0.05244
G1 X107.305 Y86.263 E0.44834
G1 X111.135 Y86.263 E0.12008
G1 X102.459 Y98.205 E0.46280
G1 X104.228 Y98.747 E0.05800
G1 X104.843 Y98.972 E0.02054
G1 X105.119 Y99.091 E0.00943
G1 X105.672 Y99.382 E0.01959
G1 X105.914 Y99.539 E0.00904
G1 X106.281 Y99.818 E0.01446
G1 X106.884 Y100.363 E0.02549
G1 X107.555 Y101.051 E0.03013
G1 X108.259 Y102.177 E0.04162
G1 X108.623 Y102.899 E0.02536
G1 X108.838 Y103.489 E0.01970
G1 X109.008 Y104.254 E0.02457
G1 X109.095 Y104.917 E0.02096
G1 X109.174 Y105.912 E0.03130
G1 X109.043 Y107.192 E0.04033
G1 X108.945 Y107.819 E0.01990
G1 X108.861 Y108.211 E0.01258
G1 X108.693 Y108.789 E0.01887
G1 X108.555 Y109.142 E0.01187
G1 X108.387 Y109.485 E0.01199
G1 X108.189 Y109.821 E0.01223
G1 X107.965 Y110.150 E0.01247
G1 X107.584 Y110.642 E0.01951
G1 X106.609 Y111.725 E0.04569
G1 X105.283 Y112.462 E0.04758
G1 X104.588 Y112.803 E0.02425
G1 X103.890 Y113.094 E0.02372
G1 X103.178 Y113.322 E0.02345
G1 X102.702 Y113.436 E0.01533
G1 X101.951 Y113.565 E0.02388
G1 X101.182 Y113.648 E0.02428
G1 X100.394 Y113.697 E0.02473
G1 X98.772 Y113.737 E0.05089
G1 X94.297 Y113.737 E0.14030
G1 X94.293 Y113.051 E0.02150
G1 X94.222 Y112.556 E0.01570
G1 X94.152 Y112.282 E0.00885
G1 X93.980 Y111.821 E0.01545
G1 X93.743 Y111.384 E0.01559
G1 X93.580 Y111.148 E0.00898
G1 X93.259 Y110.776 E0.01541
G1 X92.885 Y110.449 E0.01558
G1 X92.652 Y110.286 E0.00890
G1 X92.232 Y110.054 E0.01507
G1 X91.970 Y109.944 E0.00889
G1 X91.499 Y109.803 E0.01542
G1 X90.616 Y109.674 E0.02797
G1 X90.242 Y109.570 E0.01218
G1 X89.737 Y109.334 E0.01747
G1 X89.278 Y109.001 E0.01778
G1 X89.148 Y108.878 E0.00560
G1 X88.790 Y108.439 E0.01776
G1 X88.597 Y108.103 E0.01216
G1 X88.401 Y107.581 E0.01748
G1 X88.326 Y107.201 E0.01212
G1 X88.301 Y106.807 E0.01239
G1 X88.308 Y105.627 E0.03698
G1 X88.324 Y105.456 E0.00539
G1 X88.399 Y105.076 E0.01215
G1 X88.520 Y104.718 E0.01186
G1 X88.780 Y104.224 E0.01748
G1 X89.014 Y103.916 E0.01213
G1 X89.418 Y103.532 E0.01748
G1 X89.737 Y103.314 E0.01212
G1 X90.083 Y103.140 E0.01215
G1 X90.613 Y102.975 E0.01738
G1 X91.257 Y102.889 E0.02040
G1 X91.742 Y102.781 E0.01558
G1 X92.217 Y102.602 E0.01591
G1 X92.658 Y102.359 E0.01579
G1 X92.885 Y102.199 E0.00871
G1 X93.255 Y101.877 E0.01540
G1 X93.590 Y101.488 E0.01608
G1 X93.868 Y101.053 E0.01619
G1 X94.072 Y100.605 E0.01545
G1 X94.160 Y100.341 E0.00870
G1 X94.266 Y99.850 E0.01576
G1 X94.300 Y99.364 E0.01528
G1 X94.300 Y86.263 E0.41079
G1 X97.450 Y86.263 E0.09874
G1 X97.450 Y97.929 E0.36580
G1 X97.827 Y97.612 F7200.000
G1 F900
G1 X98.925 Y97.612 E0.03445
G1 X107.108 Y85.886 E0.44834
G1 X111.875 Y85.886 E0.14945
G1 X103.075 Y97.999 E0.46945
G1 X104.348 Y98.390 E0.04175
G1 X104.982 Y98.621 E0.02118
G1 X105.282 Y98.750 E0.01022
G1 X105.863 Y99.056 E0.02060
G1 X106.131 Y99.231 E0.01002
G1 X106.522 Y99.527 E0.01540
G1 X107.146 Y100.091 E0.02637
G1 X107.853 Y100.817 E0.03177
G1 X108.587 Y101.991 E0.04343
G1 X108.969 Y102.749 E0.02660
G1 X109.198 Y103.376 E0.02093
G1 X109.282 Y103.695 E0.01033
G1 X109.381 Y104.193 E0.01593
G1 X109.470 Y104.878 E0.02165
G1 X109.552 Y105.917 E0.03267
G1 X109.418 Y107.240 E0.04172
G1 X109.316 Y107.888 E0.02054
G1 X109.227 Y108.304 E0.01333
G1 X109.050 Y108.911 E0.01983
G1 X108.900 Y109.294 E0.01289
G1 X108.719 Y109.664 E0.01293
G1 X108.508 Y110.023 E0.01306
G1 X108.270 Y110.372 E0.01323
G1 X107.873 Y110.884 E0.02031
G1 X106.847 Y112.024 E0.04809
G1 X105.457 Y112.797 E0.04986
G1 X104.744 Y113.147 E0.02492
G1 X104.020 Y113.448 E0.02458
G1 X103.279 Y113.685 E0.02439
G1 X102.778 Y113.805 E0.01616
G1 X102.004 Y113.938 E0.02463
G1 X101.214 Y114.024 E0.02492
G1 X100.411 Y114.074 E0.02523
G1 X98.776 Y114.114 E0.05126
G1 X93.922 Y114.114 E0.15220
G1 X93.916 Y113.079 E0.03245
G1 X93.852 Y112.629 E0.01425
G1 X93.792 Y112.395 E0.00758
G1 X93.636 Y111.977 E0.01399
G1 X93.422 Y111.581 E0.01411
G1 X93.282 Y111.379 E0.00771
G1 X92.991 Y111.042 E0.01395
G1 X92.652 Y110.746 E0.01411
G1 X92.453 Y110.607 E0.00763
G1 X92.067 Y110.394 E0.01381
G1 X91.843 Y110.300 E0.00763
G1 X91.417 Y110.173 E0.01393
G1 X90.538 Y110.044 E0.02786
G1 X90.123 Y109.928 E0.01351
G1 X89.930 Y109.853 E0.00648
G1 X89.546 Y109.660 E0.01350
G1 X89.199 Y109.424 E0.01315
G1 X88.876 Y109.139 E0.01352
G1 X88.591 Y108.811 E0.01360
G1 X88.472 Y108.642 E0.00648
G1 X88.258 Y108.269 E0.01350
G1 X88.098 Y107.881 E0.01315
G1 X88.035 Y107.672 E0.00684
G1 X87.952 Y107.250 E0.01349
G1 X87.923 Y106.818 E0.01358
G1 X87.931 Y105.608 E0.03794
G1 X87.951 Y105.401 E0.00650
G1 X88.034 Y104.979 E0.01350
G1 X88.170 Y104.574 E0.01339
G1 X88.354 Y104.197 E0.01315
G1 X88.468 Y104.011 E0.00684
G1 X88.728 Y103.669 E0.01349
G1 X89.023 Y103.370 E0.01315
G1 X89.190 Y103.230 E0.00684
G1 X89.546 Y102.989 E0.01349
G1 X89.930 Y102.795 E0.01350
G1 X90.123 Y102.720 E0.00648
G1 X90.537 Y102.605 E0.01346
G1 X91.191 Y102.518 E0.02071
G1 X91.634 Y102.419 E0.01422
G1 X92.058 Y102.259 E0.01422
G1 X92.458 Y102.038 E0.01431
G1 X92.652 Y101.902 E0.00744
G1 X92.987 Y101.610 E0.01394
G1 X93.287 Y101.263 E0.01439
G1 X93.536 Y100.873 E0.01450
G1 X93.721 Y100.467 E0.01398
G1 X93.795 Y100.242 E0.00743
G1 X93.892 Y99.797 E0.01428
G1 X93.923 Y99.351 E0.01402
G1 X93.923 Y85.886 E0.42219
G1 X97.827 Y85.886 E0.12238
G1 X97.827 Y97.552 E0.36580
G1 X97.869 Y98.010 F7200.000
G1 F5760
G1 X98.925 Y97.612 E-0.38115
G1 F5760
G1 X99.551 Y96.715 E-0.37885
G1 E-0.04000 F2100.00000
G1 Z0.800 F7200.000
G1 X100.250 Y100.521 F7200.000
G1 Z0.200 F7200.000
G1 E0.80000 F2100.00000
G1 F900
G1 X98.001 Y98.272 E0.09997
G1 X98.536 Y98.272 E0.01681
G1 X100.639 Y100.376 E0.09351
G1 X101.237 Y100.438 E0.01888
G1 X99.071 Y98.272 E0.09629
G1 X99.270 Y98.272 E0.00625
G1 X99.408 Y98.074 E0.00758
G1 X101.859 Y100.525 E0.10897
G1 X102.519 Y100.651 E0.02112
G1 X99.627 Y97.759 E0.12854
G1 X99.847 Y97.445 E0.01207
G1 X103.641 Y101.239 E0.16869
G1 F5760
G1 X102.090 Y99.687 E-0.76000
G1 E-0.04000 F2100.00000
G1 Z0.800 F7200.000
G1 X103.044 Y98.503 F7200.000
G1 Z0.200 F7200.000
G1 E0.80000 F2100.00000
G1 F900
G1 X108.697 Y104.155 E0.25131
G1 X108.566 Y103.569 E0.01889
G1 X108.520 Y103.444 E0.00416
G1 X104.071 Y98.995 E0.19780
G1 X104.927 Y99.316 E0.02872
G1 X108.482 Y102.871 E0.15807
G1 F5760
G1 X106.931 Y101.320 E-0.76000
G1 E-0.04000 F2100.00000
G1 Z0.800 F7200.000
G1 X99.435 Y113.608 F7200.000
G1 Z0.200 F7200.000
G1 E0.80000 F2100.00000
G1 F900
G1 X94.583 Y108.756 E0.21571
G1 X94.583 Y109.196 E0.01384
G1 X94.489 Y109.196 E0.00298
G1 X98.747 Y113.454 E0.18933
G1 X98.212 Y113.454 E0.01681
G1 X93.953 Y109.195 E0.18939
G1 X93.417 Y109.193 E0.01685
G1 X97.678 Y113.454 E0.18944
G1 X97.143 Y113.454 E0.01681
G1 X92.881 Y109.192 E0.18950
G1 X92.345 Y109.191 E0.01685
G1 X96.608 Y113.454 E0.18955
G1 X96.074 Y113.454 E0.01681
G1 X94.139 Y111.520 E0.08600
G1 X94.239 Y111.703 E0.00656
G1 X94.423 Y112.198 E0.01659
G1 X94.471 Y112.386 E0.00612
G1 X95.539 Y113.454 E0.04749
G1 X95.004 Y113.454 E0.01681
G1 X94.375 Y112.825 E0.02798
G1 F5760
G1 X95.004 Y113.454 E-0.30828
G1 F5760
G1 X95.539 Y113.454 E-0.18519
G1 F5760
G1 X94.995 Y112.910 E-0.26653
G1 E-0.04000 F2100.00000
G1 Z0.800 F7200.000
G1 X93.146 Y110.527 F7200.000
G1 Z0.200 F7200.000
G1 E0.80000 F2100.00000
G1 F900
G1 X91.809 Y109.190 E0.05945
G1 X91.273 Y109.188 E0.01685
G1 X91.633 Y109.548 E0.01600
G1 X90.993 Y109.444 E0.02037
G1 X90.600 Y109.050 E0.01750
G1 X90.425 Y109.252 F7200.000
G1 F900
G1 X90.228 Y109.195 E0.00543
G1 F900
G1 X89.902 Y109.053 E0.00918
G1 F900
G1 X89.839 Y109.021 E0.00160
G1 F900
G1 X89.483 Y108.770 E0.00929
G1 F900
G1 X89.156 Y108.415 E0.00964
G1 X89.061 Y108.266 E0.00353
G1 X88.908 Y107.982 E0.00646
G1 X88.783 Y107.603 E0.00797
G1 F5760
G1 X88.908 Y107.982 E-0.13815
G1 F5760
G1 X89.061 Y108.266 E-0.11189
G1 F5760
G1 X89.156 Y108.415 E-0.06112
G1 F5760
G1 X89.483 Y108.770 E-0.16710
G1 E-0.32174 F2100.00000
G1 Z0.800 F7200.000
G1 X88.415 Y106.631 F7200.000
G1 Z0.200 F7200.000
G1 E0.80000 F2100.00000
G1 F900
G1 X88.853 Y107.068 E0.02136
G1 X88.850 Y106.479 E0.02034
G1 X88.587 Y106.216 E0.01282
G1 X88.591 Y105.634 E0.02009
G1 X89.017 Y106.060 E0.02078
G1 F5760
G1 X88.591 Y105.634 E-0.20865
G1 F5760
G1 X88.587 Y106.216 E-0.20172
G1 F5760
G1 X88.850 Y106.479 E-0.12868
G1 F5760
G1 X88.853 Y107.068 E-0.20425
G1 F5760
G1 X88.819 Y107.034 E-0.01669
G1 E-0.04000 F2100.00000
G1 Z0.800 F7200.000
G1 X88.792 Y105.043 F7200.000
G1 Z0.200 F7200.000
G1 E0.80000 F2100.00000
G1 F900
G1 X88.838 Y104.848 E0.00391
G1 X89.016 Y104.451 E0.00851
G1 X89.174 Y104.215 E0.00554
G1 X89.444 Y103.916 E0.00788
G1 F900
G1 X89.666 Y103.739 E0.00577
G1 F900
G1 X90.049 Y103.524 E0.01013
G1 F900
G1 X90.225 Y103.459 E0.00500
G1 F900
G1 X90.437 Y103.392 E0.00605
G1 X91.055 Y103.624 F7200.000
G1 F900
G1 X90.689 Y103.250 E0.01645
G1 X91.154 Y103.188 E0.01476
G1 X91.420 Y103.454 E0.01182
G1 X91.955 Y103.454 E0.01681
G1 X91.603 Y103.102 E0.01566
