; generated by Slic3r Prusa Edition 1.39.1-prusa3d on 2018-04-22 at 18:22:03

; 

; external perimeters extrusion width = 0.45mm
; perimeters extrusion width = 0.45mm
; infill extrusion width = 0.45mm
; solid infill extrusion width = 0.45mm
; top infill extrusion width = 0.33mm
; first layer extrusion width = 0.42mm

M107
M115 U3.1.0 ; tell printer latest fw version
M201 X9000 Y9000 Z500 E10000 ; sets maximum accelerations, mm/sec^2
M203 X500 Y500 Z12 E120 ; sets maximum feedrates, mm/sec
M204 S1500 T1500 ; sets acceleration (S) and retract acceleration (T)
M205 X10 Y10 Z0.2 E2.5 ; sets the jerk limits, mm/sec
M205 S0 T0 ; sets the minimum extruding and travel feed rate, mm/sec
M83  ; extruder relative mode
M104 S215 ; set extruder temp
M140 S60 ; set bed temp
M190 S60 ; wait for bed temp
M109 S215 ; wait for extruder temp
G28 W ; home all without mesh bed level
G80 ; mesh bed leveling
G1 Y-3.0 F1000.0 ; go outside print area
G92 E0.0
G1 E18.0 F1000.0;
G1 X60.0 E9.0  F1000.0 ; intro line
G1 X100.0 E12.5  F1000.0 ; intro line
G92 E0.0
M900 K30; Filament gcode
G21 ; set units to millimeters
G90 ; use absolute coordinates
M83 ; use relative distances for extrusion
;BEFORE_LAYER_CHANGE
;0.2


G1 E-0.80000 F2100.00000
G1 Z0.600 F7200.000
;AFTER_LAYER_CHANGE
;0.2
G1 X116.344 Y89.272 F7200.000
G1 Z0.200 F7200.000
G1 E0.80000 F2100.00000
M204 S1000
G1 F900
G1 X116.751 Y88.744 E0.02090
G1 X117.276 Y88.327 E0.02103
G1 X117.882 Y88.050 E0.02090
G1 X118.538 Y87.927 E0.02090
G1 X137.291 Y87.922 E0.58799
G1 X137.840 Y87.978 E0.01733
G1 X138.368 Y88.143 E0.01733
G1 X138.852 Y88.410 E0.01733
G1 X139.273 Y88.768 E0.01733
G1 X139.614 Y89.202 E0.01733
G1 X139.861 Y89.697 E0.01733
G1 X140.004 Y90.230 E0.01733
G1 X140.039 Y90.786 E0.01745
G1 X137.319 Y112.893 E0.69838
G1 X136.865 Y114.840 E0.06269
G1 X136.173 Y116.346 E0.05198
G1 X135.152 Y117.779 E0.05515
G1 X133.607 Y119.413 E0.07051
G1 X131.253 Y120.713 E0.08432
G1 X130.081 Y121.216 E0.03998
G1 X129.097 Y121.534 E0.03244
G1 X126.792 Y121.948 E0.07342
G1 X123.818 Y122.078 E0.09333
G1 X118.554 Y122.074 E0.16507
G1 X117.909 Y121.958 E0.02052
G1 X117.311 Y121.694 E0.02052
G1 X116.765 Y121.271 E0.02167
G1 X111.225 Y115.596 E0.24865
G1 X110.743 Y114.853 E0.02776
G1 X110.295 Y113.846 E0.03457
G1 X110.068 Y112.981 E0.02804
G1 X109.960 Y111.905 E0.03389
G1 X109.975 Y110.377 E0.04794
G1 X110.180 Y109.178 E0.03814
G1 X116.082 Y89.863 E0.63324
G1 X116.319 Y89.327 E0.01838
G1 F5760
G1 X116.751 Y88.744 E-0.25114
G1 F5760
G1 X117.276 Y88.327 E-0.23231
G1 F5760
G1 X117.882 Y88.050 E-0.23090
G1 F5760
G1 X118.012 Y88.026 E-0.04565
G1 E-0.04000 F2100.00000
G1 Z0.800 F7200.000
G1 X138.228 Y88.493 F7200.000
G1 Z0.200 F7200.000
G1 E0.80000 F2100.00000
G1 F900
G1 X139.012 Y89.041 E0.03001
G1 X139.517 Y89.854 E0.03001
G1 X139.660 Y90.800 E0.03001
G1 X136.947 Y112.835 E0.69610
G1 X136.507 Y114.722 E0.06075
G1 X135.840 Y116.167 E0.04990
G1 X134.864 Y117.536 E0.05273
G1 X133.384 Y119.108 E0.06768
G1 X130.842 Y120.490 E0.09073
G1 X128.993 Y121.172 E0.06178
G1 X127.033 Y121.542 E0.06256
G1 X124.369 Y121.692 E0.08365
G1 X118.599 Y121.699 E0.18091
G1 X118.026 Y121.600 E0.01823
G1 X117.491 Y121.363 E0.01835
G1 X117.030 Y121.003 E0.01835
G1 X111.529 Y115.373 E0.24680
G1 X111.076 Y114.676 E0.02606
G1 X110.651 Y113.722 E0.03275
G1 X110.439 Y112.914 E0.02618
G1 X110.337 Y111.886 E0.03239
G1 X110.351 Y110.410 E0.04630
G1 X110.543 Y109.278 E0.03597
G1 X116.442 Y89.974 E0.63292
G1 X116.675 Y89.453 E0.01787
G1 X117.030 Y88.998 E0.01811
G1 X117.484 Y88.641 E0.01811
G1 X118.011 Y88.405 E0.01811
G1 X118.580 Y88.302 E0.01811
G1 X137.290 Y88.299 E0.58667
G1 X138.169 Y88.481 E0.02813
G1 F5760
G1 X139.012 Y89.041 E-0.35069
G1 F5760
G1 X139.517 Y89.854 E-0.33149
G1 F5760
G1 X139.551 Y90.076 E-0.07782
G1 E-0.04000 F2100.00000
G1 Z0.800 F7200.000
G1 X122.450 Y105.582 F7200.000
G1 Z0.200 F7200.000
G1 E0.80000 F2100.00000
G1 F900
G1 X124.428 Y105.582 E0.06204
G1 X125.661 Y105.660 E0.03874
G1 X126.567 Y105.758 E0.02856
G1 X127.441 Y105.923 E0.02788
G1 X128.131 Y106.135 E0.02264
G1 X128.531 Y106.308 E0.01366
G1 X128.795 Y106.450 E0.00939
G1 X129.147 Y106.685 E0.01327
G1 X129.376 Y106.875 E0.00936
G1 X129.588 Y107.087 E0.00938
G1 X129.863 Y107.425 E0.01366
G1 X130.171 Y107.919 E0.01826
G1 X130.529 Y108.713 E0.02730
G1 X130.810 Y109.562 E0.02806
G1 X131.161 Y110.871 E0.04247
G1 X130.716 Y112.385 E0.04949
G1 X130.519 Y112.926 E0.01804
G1 X130.288 Y113.441 E0.01772
G1 X130.012 Y113.924 E0.01743
G1 X129.761 Y114.268 E0.01333
G1 X129.474 Y114.578 E0.01327
G1 X129.144 Y114.851 E0.01343
G1 X128.669 Y115.140 E0.01743
G1 X128.034 Y115.402 E0.02155
G1 X127.487 Y115.554 E0.01778
G1 X126.924 Y115.662 E0.01798
G1 X126.066 Y115.763 E0.02709
G1 X124.590 Y115.848 E0.04633
G1 X122.450 Y115.848 E0.06712
G1 X122.450 Y105.642 E0.32000
G1 X122.827 Y105.959 F7200.000
G1 F900
G1 X124.416 Y105.959 E0.04984
G1 X125.629 Y106.036 E0.03810
G1 X126.512 Y106.131 E0.02784
G1 X127.350 Y106.289 E0.02675
G1 X128.001 Y106.489 E0.02132
G1 X128.366 Y106.647 E0.01250
G1 X128.600 Y106.773 E0.00833
G1 X128.921 Y106.987 E0.01208
G1 X129.122 Y107.155 E0.00821
G1 X129.308 Y107.340 E0.00823
G1 X129.556 Y107.644 E0.01230
G1 X129.838 Y108.097 E0.01673
G1 X130.178 Y108.850 E0.02590
G1 X130.449 Y109.670 E0.02710
G1 X130.769 Y110.866 E0.03881
G1 X130.358 Y112.267 E0.04579
G1 X130.169 Y112.784 E0.01724
G1 X129.951 Y113.271 E0.01673
G1 X129.695 Y113.719 E0.01619
G1 X129.470 Y114.027 E0.01198
G1 X129.214 Y114.303 E0.01180
G1 X128.924 Y114.543 E0.01179
G1 X128.498 Y114.803 E0.01566
G1 X127.911 Y115.045 E0.01991
G1 X127.401 Y115.186 E0.01658
G1 X126.866 Y115.289 E0.01708
G1 X126.031 Y115.387 E0.02636
G1 X124.582 Y115.471 E0.04553
G1 X122.827 Y115.471 E0.05502
G1 X122.827 Y106.019 E0.29635
G1 X122.802 Y105.560 F7200.000
G1 F5760
G1 X124.416 Y105.959 E-0.55100
G1 F5760
G1 X125.019 Y105.997 E-0.20900
G1 E-0.04000 F2100.00000
G1 Z0.800 F7200.000
G1 X119.300 Y108.737 F7200.000
G1 Z0.200 F7200.000
G1 E0.80000 F2100.00000
G1 F900
G1 X119.300 Y113.913 E0.16228
G1 X115.521 Y113.904 E0.11851
G1 X115.149 Y113.812 E0.01201
G1 X114.809 Y113.634 E0.01203
G1 X114.536 Y113.391 E0.01147
G1 X114.395 Y113.212 E0.00713
G1 X114.234 Y112.904 E0.01090
G1 X114.166 Y112.687 E0.00713
G1 X114.126 Y112.360 E0.01034
G1 X114.126 Y110.289 E0.06494
G1 X114.168 Y109.943 E0.01091
G1 X114.298 Y109.601 E0.01147
G1 X114.406 Y109.422 E0.00657
G1 X114.536 Y109.257 E0.00657
G1 X114.810 Y109.014 E0.01151
G1 X115.157 Y108.834 E0.01223
G1 X115.505 Y108.749 E0.01124
G1 X119.240 Y108.737 E0.11714
G1 X118.923 Y109.114 F7200.000
G1 F900
G1 X118.923 Y113.535 E0.13860
G1 X115.567 Y113.527 E0.10523
G1 X115.284 Y113.457 E0.00915
G1 X115.025 Y113.321 E0.00916
G1 X114.811 Y113.132 E0.00896
G1 X114.713 Y113.007 E0.00498
G1 X114.584 Y112.760 E0.00876
G1 X114.536 Y112.608 E0.00498
G1 X114.503 Y112.337 E0.00856
G1 X114.503 Y110.312 E0.06351
G1 X114.537 Y110.034 E0.00876
G1 X114.638 Y109.767 E0.00896
G1 X114.811 Y109.517 E0.00955
G1 X115.025 Y109.327 E0.00897
G1 X115.290 Y109.189 E0.00935
G1 X115.561 Y109.123 E0.00875
G1 X118.863 Y109.114 E0.10354
G1 X119.323 Y109.111 F7200.000
G1 F5760
G1 X118.893 Y111.308 E-0.76000
G1 E-0.04000 F2100.00000
G1 Z0.800 F7200.000
G1 X122.450 Y102.989 F7200.000
G1 Z0.200 F7200.000
G1 E0.80000 F2100.00000
G1 F900
G1 X124.122 Y102.989 E0.05244
G1 X132.305 Y91.263 E0.44834
G1 X136.135 Y91.263 E0.12008
G1 X127.459 Y103.205 E0.46280
G1 X129.228 Y103.747 E0.05800
G1 X129.843 Y103.972 E0.02054
G1 X130.119 Y104.091 E0.00943
G1 X130.672 Y104.382 E0.01959
G1 X130.914 Y104.539 E0.00904
G1 X131.281 Y104.818 E0.01446
G1 X131.884 Y105.363 E0.02549
G1 X132.555 Y106.051 E0.03013
G1 X133.259 Y107.177 E0.04162
G1 X133.623 Y107.899 E0.02536
G1 X133.838 Y108.489 E0.01970
G1 X134.008 Y109.254 E0.02457
G1 X134.095 Y109.917 E0.02096
G1 X134.174 Y110.912 E0.03130
G1 X134.043 Y112.192 E0.04033
G1 X133.945 Y112.819 E0.01990
G1 X133.861 Y113.211 E0.01258
G1 X133.693 Y113.789 E0.01887
G1 X133.555 Y114.142 E0.01187
G1 X133.387 Y114.485 E0.01199
G1 X133.189 Y114.821 E0.01223
G1 X132.965 Y115.150 E0.01247
G1 X132.584 Y115.642 E0.01951
G1 X131.609 Y116.725 E0.04569
G1 X130.283 Y117.462 E0.04758
G1 X129.588 Y117.803 E0.02425
G1 X128.890 Y118.094 E0.02372
G1 X128.178 Y118.322 E0.02345
G1 X127.702 Y118.436 E0.01533
G1 X126.951 Y118.565 E0.02388
G1 X126.182 Y118.648 E0.02428
G1 X125.394 Y118.697 E0.02473
G1 X123.772 Y118.737 E0.05089
G1 X119.297 Y118.737 E0.14030
G1 X119.293 Y118.051 E0.02150
G1 X119.222 Y117.556 E0.01570
G1 X119.152 Y117.282 E0.00885
G1 X118.980 Y116.821 E0.01545
G1 X118.743 Y116.384 E0.01559
G1 X118.580 Y116.148 E0.00898
G1 X118.259 Y115.776 E0.01541
G1 X117.885 Y115.449 E0.01558
G1 X117.652 Y115.286 E0.00890
G1 X117.232 Y115.054 E0.01507
G1 X116.970 Y114.944 E0.00889
G1 X116.499 Y114.803 E0.01542
G1 X115.616 Y114.674 E0.02797
G1 X115.251 Y114.572 E0.01189
G1 X114.904 Y114.425 E0.01182
G1 X114.585 Y114.239 E0.01157
G1 X114.272 Y113.995 E0.01245
G1 X114.148 Y113.878 E0.00533
G1 X113.790 Y113.439 E0.01776
G1 X113.597 Y113.103 E0.01215
G1 X113.454 Y112.753 E0.01186
G1 X113.327 Y112.210 E0.01748
G1 X113.301 Y111.807 E0.01267
G1 X113.308 Y110.637 E0.03669
G1 X113.356 Y110.261 E0.01188
G1 X113.520 Y109.718 E0.01779
G1 X113.780 Y109.224 E0.01748
G1 X114.019 Y108.909 E0.01242
G1 X114.425 Y108.527 E0.01746
G1 X114.737 Y108.314 E0.01185
G1 X115.083 Y108.140 E0.01215
G1 X115.613 Y107.975 E0.01738
G1 X116.257 Y107.889 E0.02040
G1 X116.742 Y107.781 E0.01558
G1 X117.217 Y107.602 E0.01591
G1 X117.658 Y107.359 E0.01579
G1 X117.885 Y107.199 E0.00871
G1 X118.255 Y106.877 E0.01540
G1 X118.590 Y106.488 E0.01608
G1 X118.868 Y106.053 E0.01619
G1 X119.072 Y105.605 E0.01545
G1 X119.160 Y105.341 E0.00870
G1 X119.266 Y104.850 E0.01576
G1 X119.300 Y104.364 E0.01528
G1 X119.300 Y91.263 E0.41079
G1 X122.450 Y91.263 E0.09874
G1 X122.450 Y102.929 E0.36580
G1 X122.827 Y102.612 F7200.000
G1 F900
G1 X123.925 Y102.612 E0.03445
G1 X132.108 Y90.886 E0.44834
G1 X136.875 Y90.886 E0.14945
G1 X128.075 Y102.999 E0.46945
G1 X129.348 Y103.390 E0.04175
G1 X129.982 Y103.621 E0.02118
G1 X130.282 Y103.750 E0.01022
G1 X130.863 Y104.056 E0.02060
G1 X131.131 Y104.231 E0.01002
G1 X131.522 Y104.527 E0.01540
G1 X132.146 Y105.091 E0.02637
G1 X132.853 Y105.817 E0.03177
G1 X133.587 Y106.991 E0.04343
G1 X133.969 Y107.749 E0.02660
G1 X134.198 Y108.376 E0.02093
G1 X134.282 Y108.695 E0.01033
G1 X134.381 Y109.193 E0.01593
G1 X134.470 Y109.878 E0.02165
G1 X134.552 Y110.917 E0.03267
G1 X134.418 Y112.240 E0.04172
G1 X134.316 Y112.888 E0.02054
G1 X134.227 Y113.304 E0.01333
G1 X134.050 Y113.911 E0.01983
G1 X133.900 Y114.294 E0.01289
G1 X133.719 Y114.664 E0.01293
G1 X133.508 Y115.023 E0.01306
G1 X133.270 Y115.372 E0.01323
G1 X132.873 Y115.884 E0.02031
G1 X131.847 Y117.024 E0.04809
G1 X130.457 Y117.797 E0.04986
G1 X129.744 Y118.147 E0.02492
G1 X129.020 Y118.448 E0.02458
G1 X128.279 Y118.685 E0.02439
G1 X127.778 Y118.805 E0.01616
G1 X127.004 Y118.938 E0.02463
G1 X126.214 Y119.024 E0.02492
G1 X125.411 Y119.074 E0.02523
G1 X123.776 Y119.114 E0.05126
G1 X118.922 Y119.114 E0.15220
G1 X118.916 Y118.079 E0.03245
G1 X118.852 Y117.629 E0.01425
G1 X118.792 Y117.395 E0.00758
G1 X118.636 Y116.977 E0.01399
G1 X118.422 Y116.581 E0.01411
G1 X118.282 Y116.379 E0.00771
G1 X117.991 Y116.042 E0.01395
G1 X117.652 Y115.746 E0.01411
G1 X117.453 Y115.607 E0.00763
G1 X117.067 Y115.394 E0.01381
G1 X116.843 Y115.300 E0.00763
G1 X116.417 Y115.173 E0.01393
G1 X115.538 Y115.044 E0.02786
G1 X115.126 Y114.929 E0.01340
G1 X114.740 Y114.765 E0.01315
G1 X114.545 Y114.660 E0.00694
G1 X114.368 Y114.548 E0.00658
G1 X114.026 Y114.281 E0.01360
G1 X113.876 Y114.139 E0.00648
G1 X113.591 Y113.811 E0.01360
G1 X113.472 Y113.642 E0.00648
G1 X113.258 Y113.269 E0.01350
G1 X113.096 Y112.874 E0.01339
G1 X112.988 Y112.468 E0.01315
G1 X112.952 Y112.253 E0.00684
G1 X112.923 Y111.818 E0.01368
G1 X112.931 Y110.611 E0.03784
G1 X112.985 Y110.195 E0.01317
G1 X113.033 Y109.982 E0.00684
G1 X113.170 Y109.574 E0.01349
G1 X113.354 Y109.197 E0.01315
G1 X113.468 Y109.011 E0.00684
G1 X113.730 Y108.666 E0.01359
G1 X113.871 Y108.514 E0.00648
G1 X114.193 Y108.229 E0.01350
G1 X114.546 Y107.989 E0.01339
G1 X114.930 Y107.795 E0.01350
G1 X115.123 Y107.720 E0.00648
G1 X115.537 Y107.605 E0.01346
G1 X116.191 Y107.518 E0.02071
G1 X116.634 Y107.419 E0.01422
G1 X117.058 Y107.259 E0.01422
G1 X117.458 Y107.038 E0.01431
G1 X117.652 Y106.902 E0.00744
G1 X117.987 Y106.610 E0.01394
G1 X118.287 Y106.263 E0.01439
G1 X118.536 Y105.873 E0.01450
G1 X118.721 Y105.467 E0.01398
G1 X118.795 Y105.242 E0.00743
G1 X118.892 Y104.797 E0.01428
G1 X118.923 Y104.351 E0.01402
G1 X118.923 Y90.886 E0.42219
G1 X122.827 Y90.886 E0.12238
G1 X122.827 Y102.552 E0.36580
G1 X122.869 Y103.010 F7200.000
G1 F5760
G1 X123.925 Y102.612 E-0.38115
G1 F5760
G1 X124.551 Y101.715 E-0.37885
G1 E-0.04000 F2100.00000
G1 Z0.800 F7200.000
G1 X125.250 Y105.521 F7200.000
G1 Z0.200 F7200.000
G1 E0.80000 F2100.00000
G1 F900
G1 X123.001 Y103.272 E0.09997
G1 X123.536 Y103.272 E0.01681
G1 X125.639 Y105.376 E0.09351
G1 X126.237 Y105.438 E0.01888
G1 X124.071 Y103.272 E0.09629
G1 X124.270 Y103.272 E0.00625
G1 X124.408 Y103.074 E0.00758
G1 X126.859 Y105.525 E0.10897
G1 X127.519 Y105.651 E0.02112
G1 X124.627 Y102.759 E0.12854
G1 X124.847 Y102.445 E0.01207
G1 X128.641 Y106.239 E0.16869
G1 F5760
G1 X127.090 Y104.687 E-0.76000
G1 E-0.04000 F2100.00000
G1 Z0.800 F7200.000
G1 X128.044 Y103.503 F7200.000
G1 Z0.200 F7200.000
G1 E0.80000 F2100.00000
G1 F900
G1 X133.697 Y109.155 E0.25131
G1 X133.566 Y108.569 E0.01889
G1 X133.520 Y108.444 E0.00416
G1 X129.071 Y103.995 E0.19780
G1 X129.927 Y104.316 E0.02872
G1 X133.482 Y107.871 E0.15807
G1 F5760
G1 X131.931 Y106.320 E-0.76000
G1 E-0.04000 F2100.00000
G1 Z0.800 F7200.000
G1 X124.435 Y118.608 F7200.000
G1 Z0.200 F7200.000
G1 E0.80000 F2100.00000
G1 F900
G1 X119.583 Y113.756 E0.21571
G1 X119.583 Y114.196 E0.01384
G1 X119.489 Y114.196 E0.00298
G1 X123.747 Y118.454 E0.18933
G1 X123.212 Y118.454 E0.01681
G1 X118.953 Y114.195 E0.18939
G1 X118.417 Y114.193 E0.01685
G1 X122.678 Y118.454 E0.18944
G1 X122.143 Y118.454 E0.01681
G1 X117.881 Y114.192 E0.18950
G1 X117.345 Y114.191 E0.01685
G1 X121.608 Y118.454 E0.18955
G1 X121.074 Y118.454 E0.01681
G1 X119.139 Y116.520 E0.08600
G1 X119.239 Y116.703 E0.00656
G1 X119.423 Y117.198 E0.01659
G1 X119.471 Y117.386 E0.00612
G1 X120.539 Y118.454 E0.04749
G1 X120.004 Y118.454 E0.01681
G1 X119.375 Y117.825 E0.02798
G1 F5760
G1 X120.004 Y118.454 E-0.30828
G1 F5760
G1 X120.539 Y118.454 E-0.18519
G1 F5760
G1 X119.995 Y117.910 E-0.26653
G1 E-0.04000 F2100.00000
G1 Z0.800 F7200.000
G1 X118.146 Y115.527 F7200.000
G1 Z0.200 F7200.000
G1 E0.80000 F2100.00000
G1 F900
G1 X116.809 Y114.190 E0.05945
G1 X116.273 Y114.188 E0.01685
G1 X116.633 Y114.548 E0.01601
G1 X115.993 Y114.444 E0.02037
G1 X115.608 Y114.059 E0.01712
G1 X115.424 Y114.253 F7200.000
G1 F900
G1 X115.048 Y114.127 E0.01059
G1 F900
G1 X114.770 Y113.976 E0.00746
G1 F900
G1 X114.646 Y113.896 E0.00325
G1 F900
G1 X114.306 Y113.593 E0.00904
G1 X114.134 Y113.385 E0.00536
G1 X113.937 Y113.041 E0.00787
G1 X113.825 Y112.748 E0.00623
G1 X113.960 Y112.562 E0.00456
G1 F5760
G1 X113.825 Y112.748 E-0.07948
G1 F5760
G1 X113.937 Y113.041 E-0.10858
G1 F5760
G1 X114.134 Y113.385 E-0.13732
G1 F5760
G1 X114.306 Y113.593 E-0.09352
G1 F5760
G1 X114.646 Y113.896 E-0.15772
G1 E-0.22338 F2100.00000
G1 Z0.800 F7200.000
G1 X113.415 Y111.668 F7200.000
G1 Z0.200 F7200.000
G1 E0.80000 F2100.00000
G1 F900
G1 X113.844 Y112.097 E0.02221
G1 X113.844 Y111.474 E0.02280
G1 X113.587 Y111.217 E0.01329
G1 X113.597 Y110.605 E0.02243
G1 X114.013 Y111.021 E0.02155
G1 X113.959 Y110.042 F7200.000
G1 F900
G1 X113.833 Y109.863 E0.00439
G1 X114.004 Y109.472 E0.00860
G1 X114.304 Y109.054 E0.01035
G1 X114.647 Y108.750 E0.00922
G1 F900
G1 X115.057 Y108.521 E0.01088
G1 F900
G1 X115.225 Y108.459 E0.00477
G1 F900
G1 X115.437 Y108.392 E0.00605
G1 X116.055 Y108.624 F7200.000
G1 F900
G1 X115.689 Y108.250 E0.01645
G1 X116.154 Y108.188 E0.01476
G1 X116.420 Y108.454 E0.01182
G1 X116.955 Y108.454 E0.01681
G1 X116.603 Y108.102 E0.01566
