; generated by Slic3r Prusa Edition 1.39.1-prusa3d on 2018-05-09 at 07:50:46

; 

; external perimeters extrusion width = 0.45mm
; perimeters extrusion width = 0.45mm
; infill extrusion width = 0.45mm
; solid infill extrusion width = 0.45mm
; top infill extrusion width = 0.33mm
; first layer extrusion width = 0.42mm

M107
M115 U3.1.0 ; tell printer latest fw version
M201 X9000 Y9000 Z500 E10000 ; sets maximum accelerations, mm/sec^2
M203 X500 Y500 Z12 E120 ; sets maximum feedrates, mm/sec
M204 S1500 T1500 ; sets acceleration (S) and retract acceleration (T)
M205 X10 Y10 Z0.2 E2.5 ; sets the jerk limits, mm/sec
M205 S0 T0 ; sets the minimum extruding and travel feed rate, mm/sec
M83  ; extruder relative mode
M104 S200 ; set extruder temp
M140 S55 ; set bed temp
M190 S55 ; wait for bed temp
M109 S200 ; wait for extruder temp
G28 W ; home all without mesh bed level
G80 ; mesh bed leveling
G1 Y-3.0 F1000.0 ; go outside print area
G92 E0.0
G1 E18.0 F1000.0;
G1 X60.0 E9.0  F1000.0 ; intro line
G1 X100.0 E12.5  F1000.0 ; intro line
G92 E0.0
M900 K30; Filament gcode
G21 ; set units to millimeters
G90 ; use absolute coordinates
M83 ; use relative distances for extrusion
;BEFORE_LAYER_CHANGE
;0.2


G1 E-0.80000 F2100.00000
G1 Z0.600 F7200.000
;AFTER_LAYER_CHANGE
;0.2
G1 X91.910 Y82.798 F7200.000
G1 Z0.200 F7200.000
G1 E0.80000 F2100.00000
M204 S1000
G1 F900
G1 X93.954 Y81.365 E0.07826
G1 X95.710 Y80.520 E0.06110
G1 X97.624 Y80.051 E0.06179
G1 X99.966 Y79.836 E0.07373
G1 X102.504 Y80.106 E0.08003
G1 X103.614 Y80.352 E0.03567
G1 X104.543 Y80.660 E0.03068
G1 X105.414 Y81.058 E0.03002
G1 X106.402 Y81.641 E0.03596
G1 X108.484 Y83.227 E0.08206
G1 X110.097 Y85.278 E0.08181
G1 X110.693 Y86.261 E0.03607
G1 X111.099 Y87.127 E0.02999
G1 X111.625 Y88.949 E0.05946
G1 X111.938 Y91.641 E0.08497
G1 X111.192 Y107.641 E0.50220
G1 X111.017 Y108.468 E0.02651
G1 X106.480 Y116.989 E0.30269
G1 X105.778 Y117.987 E0.03824
G1 X104.856 Y118.862 E0.03987
G1 X103.761 Y119.538 E0.04036
G1 X102.365 Y120.020 E0.04631
G1 X101.114 Y120.163 E0.03946
G1 X99.297 Y120.119 E0.05698
G1 X98.030 Y119.833 E0.04074
G1 X96.637 Y119.158 E0.04854
G1 X95.577 Y118.294 E0.04288
G1 X95.065 Y117.704 E0.02449
G1 X94.610 Y117.019 E0.02578
G1 X90.209 Y108.838 E0.29127
G1 X89.746 Y107.512 E0.04402
G1 X89.447 Y105.845 E0.05310
G1 X88.062 Y91.094 E0.46454
G1 X88.108 Y90.511 E0.01835
G1 X88.532 Y88.584 E0.06187
G1 X88.846 Y87.538 E0.03422
G1 X89.268 Y86.489 E0.03546
G1 X90.310 Y84.738 E0.06388
G1 X91.872 Y82.844 E0.07699
G1 X92.161 Y83.082 F7200.000
G1 F900
G1 X94.149 Y81.688 E0.07614
G1 X95.841 Y80.874 E0.05885
G1 X97.684 Y80.423 E0.05949
G1 X99.967 Y80.213 E0.07189
G1 X102.436 Y80.477 E0.07787
G1 X103.514 Y80.715 E0.03459
G1 X104.401 Y81.010 E0.02930
G1 X105.235 Y81.390 E0.02876
G1 X106.197 Y81.958 E0.03501
G1 X108.219 Y83.496 E0.07965
G1 X109.785 Y85.490 E0.07951
G1 X110.363 Y86.442 E0.03491
G1 X110.751 Y87.272 E0.02873
G1 X111.254 Y89.018 E0.05698
G1 X111.561 Y91.650 E0.08308
G1 X110.816 Y107.618 E0.50119
G1 X110.670 Y108.320 E0.02249
G1 X106.150 Y116.805 E0.30145
G1 X105.501 Y117.731 E0.03546
G1 X104.630 Y118.559 E0.03767
G1 X103.603 Y119.196 E0.03790
G1 X102.278 Y119.653 E0.04394
G1 X101.107 Y119.786 E0.03696
G1 X99.343 Y119.745 E0.05531
G1 X98.156 Y119.478 E0.03815
G1 X96.837 Y118.838 E0.04597
G1 X95.839 Y118.023 E0.04039
G1 X94.936 Y116.830 E0.04692
G1 X90.546 Y108.668 E0.29057
G1 X90.110 Y107.412 E0.04168
G1 X89.819 Y105.785 E0.05182
G1 X88.439 Y91.083 E0.46300
G1 X88.481 Y90.568 E0.01621
G1 X88.899 Y88.673 E0.06084
G1 X89.612 Y86.642 E0.06749
G1 X90.617 Y84.957 E0.06152
G1 X92.123 Y83.129 E0.07428
G1 F5760
G1 X93.911 Y81.857 E-0.76000
G1 E-0.04000 F2100.00000
G1 Z0.800 F7200.000
G1 X97.947 Y111.409 F7200.000
G1 Z0.200 F7200.000
G1 E0.80000 F2100.00000
G1 F900
G1 X99.405 Y111.618 E0.04617
G1 X100.684 Y111.724 E0.04024
G1 X102.008 Y111.518 E0.04201
G1 X103.126 Y111.307 E0.03566
G1 X103.116 Y114.586 E0.10281
G1 X103.073 Y114.815 E0.00731
G1 X102.952 Y115.133 E0.01066
G1 X102.834 Y115.327 E0.00712
G1 X102.602 Y115.589 E0.01096
G1 X102.417 Y115.732 E0.00733
G1 X102.100 Y115.898 E0.01122
G1 X101.729 Y115.989 E0.01198
G1 X99.502 Y115.997 E0.06984
G1 X99.156 Y115.955 E0.01094
G1 X98.814 Y115.825 E0.01147
G1 X98.619 Y115.707 E0.00713
G1 X98.359 Y115.477 E0.01090
G1 X98.218 Y115.298 E0.00713
G1 X98.048 Y114.974 E0.01147
G1 X97.957 Y114.602 E0.01200
G1 X97.947 Y111.469 E0.09823
G1 X98.326 Y111.844 F7200.000
G1 F900
G1 X99.363 Y111.993 E0.03284
G1 X100.697 Y112.104 E0.04200
G1 X102.072 Y111.889 E0.04361
G1 X102.747 Y111.762 E0.02155
G1 X102.739 Y114.550 E0.08741
G1 X102.708 Y114.712 E0.00517
G1 X102.611 Y114.967 E0.00855
G1 X102.529 Y115.103 E0.00498
G1 X102.344 Y115.312 E0.00877
G1 X102.213 Y115.413 E0.00518
G1 X101.966 Y115.542 E0.00875
G1 X101.683 Y115.612 E0.00914
G1 X99.524 Y115.620 E0.06769
G1 X99.246 Y115.586 E0.00877
G1 X98.979 Y115.485 E0.00896
G1 X98.843 Y115.402 E0.00498
G1 X98.634 Y115.217 E0.00876
G1 X98.536 Y115.092 E0.00498
G1 X98.404 Y114.839 E0.00896
G1 X98.334 Y114.556 E0.00915
G1 X98.326 Y111.904 E0.08314
G1 X98.360 Y111.446 F7200.000
G1 F5760
G1 X99.363 Y111.993 E-0.36038
G1 F5760
G1 X100.512 Y112.088 E-0.39961
G1 E-0.04000 F2100.00000
G1 Z0.800 F7200.000
G1 X107.591 Y107.668 F7200.000
G1 Z0.200 F7200.000
G1 E0.80000 F2100.00000
G1 F900
G1 X107.018 Y108.463 E0.03070
G1 X106.536 Y109.067 E0.02425
G1 X106.207 Y109.439 E0.01556
G1 X105.873 Y109.781 E0.01499
G1 X105.169 Y110.387 E0.02911
G1 X104.890 Y110.659 E0.01222
G1 X104.631 Y110.976 E0.01286
G1 X104.403 Y111.332 E0.01324
G1 X104.156 Y111.876 E0.01872
G1 X104.002 Y112.461 E0.01897
G1 X103.955 Y112.873 E0.01302
G1 X103.942 Y114.107 E0.03867
G1 X103.847 Y114.673 E0.01799
G1 X103.644 Y115.206 E0.01790
G1 X103.342 Y115.689 E0.01787
G1 X102.956 Y116.099 E0.01762
G1 X102.654 Y116.331 E0.01195
G1 X102.160 Y116.597 E0.01760
G1 X101.790 Y116.722 E0.01224
G1 X101.416 Y116.796 E0.01194
G1 X101.017 Y116.823 E0.01255
G1 X100.056 Y116.823 E0.03015
G1 X99.656 Y116.796 E0.01255
G1 X99.283 Y116.722 E0.01194
G1 X98.922 Y116.600 E0.01194
G1 X98.580 Y116.431 E0.01195
G1 X98.123 Y116.105 E0.01762
G1 X97.847 Y115.829 E0.01222
G1 X97.610 Y115.520 E0.01224
G1 X97.342 Y115.015 E0.01790
G1 X97.181 Y114.478 E0.01760
G1 X97.131 Y114.098 E0.01201
G1 X97.123 Y113.055 E0.03271
G1 X97.098 Y112.634 E0.01322
G1 X96.968 Y112.026 E0.01948
G1 X96.807 Y111.597 E0.01436
G1 X96.498 Y111.047 E0.01979
G1 X96.218 Y110.689 E0.01424
G1 X95.764 Y110.261 E0.01956
G1 X94.953 Y109.682 E0.03124
G1 X94.469 Y109.161 E0.02230
G1 X93.985 Y108.599 E0.02326
G1 X93.667 Y108.174 E0.01663
G1 X93.324 Y107.606 E0.02083
G1 X93.189 Y107.310 E0.01018
G1 X92.984 Y106.686 E0.02060
G1 X92.811 Y105.798 E0.02837
G1 X92.690 Y104.757 E0.03287
G1 X92.945 Y103.607 E0.03693
G1 X93.097 Y103.020 E0.01901
G1 X93.368 Y102.174 E0.02785
G1 X93.581 Y101.663 E0.01736
G1 X93.829 Y101.188 E0.01678
G1 X94.118 Y100.756 E0.01630
G1 X94.456 Y100.360 E0.01633
G1 X94.844 Y99.990 E0.01680
G1 X95.278 Y99.642 E0.01744
G1 X95.753 Y99.314 E0.01812
G1 X96.262 Y99.003 E0.01870
G1 X97.083 Y98.555 E0.02933
G1 X98.222 Y97.987 E0.03989
G1 X100.978 Y96.840 E0.09362
G1 X101.719 Y96.498 E0.02557
G1 X102.211 Y96.237 E0.01747
G1 X102.920 Y95.810 E0.02595
G1 X103.473 Y95.416 E0.02130
G1 X103.832 Y95.106 E0.01487
G1 X104.309 Y94.603 E0.02174
G1 X104.684 Y94.100 E0.01968
G1 X104.902 Y93.715 E0.01385
G1 X105.139 Y93.135 E0.01964
G1 X105.258 Y92.711 E0.01380
G1 X105.351 Y92.276 E0.01395
G1 X105.413 Y91.420 E0.02692
G1 X105.369 Y90.880 E0.01697
G1 X105.269 Y90.129 E0.02375
G1 X105.146 Y89.621 E0.01640
G1 X104.945 Y89.099 E0.01754
G1 X104.695 Y88.642 E0.01633
G1 X104.404 Y88.214 E0.01624
G1 X103.910 Y87.575 E0.02530
G1 X103.283 Y87.073 E0.02518
G1 X102.657 Y86.653 E0.02363
G1 X102.294 Y86.468 E0.01280
G1 X101.908 Y86.322 E0.01293
G1 X101.163 Y86.154 E0.02395
G1 X100.134 Y86.045 E0.03244
G1 X99.490 Y86.104 E0.02027
G1 X98.894 Y86.182 E0.01887
G1 X98.438 Y86.276 E0.01459
G1 X97.986 Y86.413 E0.01480
G1 X97.547 Y86.606 E0.01503
G1 X97.136 Y86.857 E0.01511
G1 X96.654 Y87.240 E0.01931
G1 X96.216 Y87.660 E0.01902
G1 X95.750 Y88.147 E0.02111
G1 X95.389 Y88.849 E0.02478
G1 X95.182 Y89.303 E0.01564
G1 X94.937 Y90.005 E0.02331
G1 X94.774 Y90.731 E0.02331
G1 X94.700 Y91.269 E0.01704
G1 X91.510 Y90.566 E0.10241
G1 X91.662 Y89.844 E0.02315
G1 X91.878 Y89.025 E0.02655
G1 X92.071 Y88.444 E0.01919
G1 X92.301 Y87.891 E0.01879
G1 X92.578 Y87.367 E0.01856
G1 X93.028 Y86.682 E0.02571
G1 X93.407 Y86.185 E0.01958
G1 X94.204 Y85.234 E0.03892
G1 X95.165 Y84.553 E0.03694
G1 X95.837 Y84.135 E0.02482
G1 X96.520 Y83.791 E0.02396
G1 X97.034 Y83.600 E0.01720
G1 X97.772 Y83.416 E0.02383
G1 X98.758 Y83.274 E0.03124
G1 X99.962 Y83.179 E0.03787
G1 X101.267 Y83.302 E0.04109
G1 X102.123 Y83.434 E0.02715
G1 X102.932 Y83.634 E0.02614
G1 X103.495 Y83.843 E0.01882
G1 X104.041 Y84.114 E0.01911
G1 X104.579 Y84.441 E0.01974
G1 X105.110 Y84.812 E0.02033
G1 X106.135 Y85.609 E0.04071
G1 X106.946 Y86.618 E0.04056
G1 X107.320 Y87.137 E0.02009
G1 X107.754 Y87.852 E0.02621
G1 X108.006 Y88.393 E0.01869
G1 X108.197 Y88.959 E0.01875
G1 X108.380 Y89.779 E0.02633
G1 X108.472 Y90.415 E0.02017
G1 X108.595 Y91.726 E0.04126
G1 X108.527 Y92.671 E0.02971
G1 X108.450 Y93.295 E0.01973
G1 X108.331 Y93.887 E0.01892
G1 X108.150 Y94.453 E0.01865
G1 X108.041 Y94.712 E0.00879
G1 X107.762 Y95.261 E0.01932
G1 X107.106 Y96.326 E0.03922
G1 X106.062 Y97.347 E0.04579
G1 X105.355 Y97.943 E0.02899
G1 X104.922 Y98.251 E0.01667
G1 X104.300 Y98.627 E0.02279
G1 X103.291 Y99.135 E0.03542
G1 X102.237 Y99.603 E0.03615
G1 X99.380 Y100.772 E0.09678
G1 X98.777 Y101.039 E0.02069
G1 X98.184 Y101.332 E0.02073
G1 X97.742 Y101.593 E0.01609
G1 X97.216 Y101.995 E0.02078
G1 X96.962 Y102.250 E0.01129
G1 X96.742 Y102.525 E0.01103
G1 X96.556 Y102.821 E0.01096
G1 X96.395 Y103.138 E0.01113
G1 X96.111 Y103.902 E0.02558
G1 X95.897 Y104.637 E0.02400
G1 X96.011 Y105.526 E0.02810
G1 X96.108 Y105.933 E0.01311
G1 X96.261 Y106.339 E0.01362
G1 X96.480 Y106.722 E0.01381
G1 X96.857 Y107.198 E0.01905
G1 X97.300 Y107.664 E0.02015
G1 X97.876 Y108.050 E0.02174
G1 X98.259 Y108.276 E0.01395
G1 X98.673 Y108.474 E0.01438
G1 X99.113 Y108.622 E0.01456
G1 X99.563 Y108.716 E0.01441
G1 X100.663 Y108.821 E0.03467
G1 X101.350 Y108.785 E0.02156
G1 X101.865 Y108.718 E0.01629
G1 X102.222 Y108.632 E0.01152
G1 X102.565 Y108.514 E0.01136
G1 X103.027 Y108.310 E0.01584
G1 X103.384 Y108.135 E0.01247
G1 X104.022 Y107.601 E0.02610
G1 X104.449 Y107.175 E0.01889
G1 X104.711 Y106.854 E0.01299
G1 X104.945 Y106.523 E0.01272
G1 X105.135 Y106.213 E0.01139
G1 X107.539 Y107.638 E0.08763
G1 X108.138 Y107.554 F7200.000
G1 F900
G1 X107.319 Y108.691 E0.04393
G1 X106.825 Y109.310 E0.02483
G1 X106.483 Y109.696 E0.01616
G1 X106.131 Y110.056 E0.01580
G1 X105.424 Y110.665 E0.02925
G1 X105.169 Y110.914 E0.01117
G1 X104.937 Y111.198 E0.01150
G1 X104.735 Y111.513 E0.01172
G1 X104.512 Y112.003 E0.01687
G1 X104.373 Y112.531 E0.01712
G1 X104.331 Y112.897 E0.01156
G1 X104.319 Y114.127 E0.03858
G1 X104.298 Y114.336 E0.00657
G1 X104.213 Y114.764 E0.01371
G1 X104.153 Y114.964 E0.00653
G1 X103.985 Y115.368 E0.01371
G1 X103.887 Y115.552 E0.00653
G1 X103.644 Y115.915 E0.01370
G1 X103.504 Y116.084 E0.00689
G1 X103.205 Y116.383 E0.01325
G1 X102.864 Y116.645 E0.01349
G1 X102.488 Y116.862 E0.01360
G1 X102.298 Y116.948 E0.00653
G1 X101.888 Y117.087 E0.01360
G1 X101.466 Y117.171 E0.01349
G1 X101.030 Y117.200 E0.01371
G1 X100.043 Y117.200 E0.03092
G1 X99.607 Y117.171 E0.01371
G1 X99.185 Y117.087 E0.01349
G1 X98.778 Y116.949 E0.01349
G1 X98.392 Y116.758 E0.01349
G1 X98.040 Y116.524 E0.01325
G1 X97.870 Y116.385 E0.00689
G1 X97.563 Y116.079 E0.01359
G1 X97.299 Y115.734 E0.01360
G1 X97.189 Y115.557 E0.00653
G1 X96.996 Y115.165 E0.01371
G1 X96.922 Y114.970 E0.00653
G1 X96.810 Y114.551 E0.01360
G1 X96.754 Y114.124 E0.01351
G1 X96.746 Y113.068 E0.03313
G1 X96.723 Y112.685 E0.01202
G1 X96.605 Y112.133 E0.01771
G1 X96.464 Y111.757 E0.01257
G1 X96.183 Y111.257 E0.01799
G1 X95.938 Y110.944 E0.01245
G1 X95.524 Y110.553 E0.01786
G1 X94.703 Y109.967 E0.03164
G1 X94.188 Y109.413 E0.02373
G1 X93.691 Y108.835 E0.02388
G1 X93.357 Y108.391 E0.01742
G1 X93.161 Y108.088 E0.01132
G1 X92.987 Y107.776 E0.01119
G1 X92.840 Y107.454 E0.01111
G1 X92.617 Y106.775 E0.02241
G1 X92.438 Y105.856 E0.02936
G1 X92.308 Y104.737 E0.03531
G1 X92.578 Y103.519 E0.03913
G1 X92.734 Y102.915 E0.01956
G1 X93.014 Y102.044 E0.02868
G1 X93.239 Y101.503 E0.01838
G1 X93.504 Y100.996 E0.01794
G1 X93.817 Y100.528 E0.01762
G1 X94.181 Y100.100 E0.01763
G1 X94.595 Y99.706 E0.01793
G1 X95.053 Y99.340 E0.01837
G1 X95.548 Y98.998 E0.01886
G1 X96.073 Y98.676 E0.01932
G1 X96.909 Y98.221 E0.02984
G1 X98.065 Y97.644 E0.04051
G1 X100.827 Y96.495 E0.09379
G1 X101.551 Y96.159 E0.02503
G1 X102.026 Y95.909 E0.01682
G1 X102.713 Y95.495 E0.02516
G1 X103.240 Y95.119 E0.02030
G1 X103.572 Y94.833 E0.01373
G1 X104.020 Y94.360 E0.02045
G1 X104.368 Y93.893 E0.01824
G1 X104.562 Y93.550 E0.01236
G1 X104.782 Y93.012 E0.01822
G1 X104.892 Y92.621 E0.01274
G1 X104.977 Y92.223 E0.01276
G1 X105.035 Y91.421 E0.02520
G1 X104.994 Y90.920 E0.01576
G1 X104.898 Y90.199 E0.02283
G1 X104.783 Y89.727 E0.01523
G1 X104.703 Y89.492 E0.00777
G1 X104.605 Y89.264 E0.00778
G1 X104.373 Y88.839 E0.01519
G1 X104.098 Y88.435 E0.01531
G1 X103.639 Y87.842 E0.02353
G1 X103.060 Y87.378 E0.02327
G1 X102.466 Y86.979 E0.02242
G1 X102.141 Y86.814 E0.01144
G1 X101.799 Y86.684 E0.01147
G1 X101.101 Y86.527 E0.02243
G1 X100.131 Y86.424 E0.03058
G1 X98.957 Y86.554 E0.03706
G1 X98.531 Y86.642 E0.01363
G1 X98.117 Y86.767 E0.01354
G1 X97.722 Y86.941 E0.01353
G1 X97.352 Y87.167 E0.01359
G1 X96.902 Y87.525 E0.01804
G1 X96.482 Y87.926 E0.01821
G1 X96.061 Y88.368 E0.01914
G1 X95.728 Y89.014 E0.02279
G1 X95.532 Y89.444 E0.01482
G1 X95.300 Y90.109 E0.02208
G1 X95.145 Y90.798 E0.02214
G1 X95.017 Y91.725 E0.02935
G1 X91.064 Y90.854 E0.12693
G1 X91.295 Y89.757 E0.03516
G1 X91.516 Y88.917 E0.02721
G1 X91.717 Y88.312 E0.02001
G1 X91.960 Y87.730 E0.01977
G1 X92.253 Y87.175 E0.01966
G1 X92.720 Y86.464 E0.02669
G1 X93.112 Y85.950 E0.02027
G1 X93.946 Y84.954 E0.04072
G1 X94.957 Y84.239 E0.03882
G1 X95.653 Y83.805 E0.02571
G1 X96.369 Y83.445 E0.02515
G1 X96.923 Y83.240 E0.01851
G1 X97.699 Y83.046 E0.02509
G1 X98.716 Y82.899 E0.03222
G1 X99.963 Y82.801 E0.03920
G1 X101.314 Y82.928 E0.04256
G1 X102.197 Y83.064 E0.02800
G1 X103.043 Y83.274 E0.02734
G1 X103.644 Y83.496 E0.02010
G1 X104.223 Y83.783 E0.02025
G1 X104.785 Y84.125 E0.02062
G1 X105.334 Y84.509 E0.02100
G1 X106.402 Y85.339 E0.04240
G1 X107.246 Y86.389 E0.04226
G1 X107.635 Y86.929 E0.02086
G1 X108.087 Y87.674 E0.02733
G1 X108.356 Y88.252 E0.02000
G1 X108.561 Y88.858 E0.02003
G1 X108.751 Y89.710 E0.02740
G1 X108.847 Y90.371 E0.02092
G1 X108.974 Y91.722 E0.04254
G1 X108.902 Y92.707 E0.03099
G1 X108.823 Y93.356 E0.02048
G1 X108.696 Y93.982 E0.02003
G1 X108.504 Y94.584 E0.01983
G1 X108.383 Y94.871 E0.00975
G1 X108.091 Y95.446 E0.02022
G1 X107.404 Y96.561 E0.04107
G1 X106.314 Y97.628 E0.04783
G1 X105.586 Y98.241 E0.02984
G1 X105.129 Y98.566 E0.01759
G1 X104.482 Y98.957 E0.02369
G1 X103.452 Y99.476 E0.03616
G1 X102.385 Y99.950 E0.03661
G1 X99.528 Y101.119 E0.09679
G1 X98.937 Y101.380 E0.02028
G1 X98.364 Y101.664 E0.02004
G1 X97.953 Y101.906 E0.01494
G1 X97.465 Y102.279 E0.01928
G1 X97.244 Y102.502 E0.00984
G1 X97.050 Y102.744 E0.00973
G1 X96.884 Y103.007 E0.00975
G1 X96.741 Y103.289 E0.00991
G1 X96.469 Y104.021 E0.02448
G1 X96.280 Y104.671 E0.02121
G1 X96.382 Y105.455 E0.02479
G1 X96.469 Y105.823 E0.01186
G1 X96.603 Y106.178 E0.01191
G1 X96.793 Y106.510 E0.01199
G1 X97.142 Y106.951 E0.01763
G1 X97.544 Y107.374 E0.01831
G1 X98.077 Y107.731 E0.02009
G1 X98.436 Y107.943 E0.01309
G1 X98.814 Y108.124 E0.01314
G1 X99.212 Y108.257 E0.01316
G1 X99.623 Y108.344 E0.01317
G1 X100.666 Y108.443 E0.03286
G1 X101.316 Y108.409 E0.02038
G1 X101.796 Y108.346 E0.01521
G1 X102.117 Y108.270 E0.01033
G1 X102.427 Y108.163 E0.01029
G1 X102.868 Y107.968 E0.01510
G1 X103.177 Y107.816 E0.01080
G1 X103.768 Y107.322 E0.02416
G1 X104.169 Y106.922 E0.01777
G1 X104.411 Y106.626 E0.01197
