; generated by Slic3r Prusa Edition 1.39.1-prusa3d on 2018-04-22 at 18:22:24

; 

; external perimeters extrusion width = 0.45mm
; perimeters extrusion width = 0.45mm
; infill extrusion width = 0.45mm
; solid infill extrusion width = 0.45mm
; top infill extrusion width = 0.33mm
; first layer extrusion width = 0.42mm

M107
M115 U3.1.0 ; tell printer latest fw version
M201 X9000 Y9000 Z500 E10000 ; sets maximum accelerations, mm/sec^2
M203 X500 Y500 Z12 E120 ; sets maximum feedrates, mm/sec
M204 S1500 T1500 ; sets acceleration (S) and retract acceleration (T)
M205 X10 Y10 Z0.2 E2.5 ; sets the jerk limits, mm/sec
M205 S0 T0 ; sets the minimum extruding and travel feed rate, mm/sec
M83  ; extruder relative mode
M104 S215 ; set extruder temp
M140 S60 ; set bed temp
M190 S60 ; wait for bed temp
M109 S215 ; wait for extruder temp
G28 W ; home all without mesh bed level
G80 ; mesh bed leveling
G1 Y-3.0 F1000.0 ; go outside print area
G92 E0.0
G1 E18.0 F1000.0;
G1 X60.0 E9.0  F1000.0 ; intro line
G1 X100.0 E12.5  F1000.0 ; intro line
G92 E0.0
M900 K30; Filament gcode
G21 ; set units to millimeters
G90 ; use absolute coordinates
M83 ; use relative distances for extrusion
;BEFORE_LAYER_CHANGE
;0.2


G1 E-0.80000 F2100.00000
G1 Z0.600 F7200.000
;AFTER_LAYER_CHANGE
;0.2
G1 X116.910 Y87.798 F7200.000
G1 Z0.200 F7200.000
G1 E0.80000 F2100.00000
M204 S1000
G1 F900
G1 X118.948 Y86.369 E0.07804
G1 X120.716 Y85.518 E0.06150
G1 X122.624 Y85.051 E0.06161
G1 X124.966 Y84.836 E0.07373
G1 X127.504 Y85.106 E0.08003
G1 X128.614 Y85.352 E0.03567
G1 X129.532 Y85.656 E0.03032
G1 X130.410 Y86.056 E0.03025
G1 X131.400 Y86.640 E0.03602
G1 X133.484 Y88.227 E0.08212
G1 X135.097 Y90.278 E0.08181
G1 X135.695 Y91.263 E0.03615
G1 X136.099 Y92.127 E0.02991
G1 X136.625 Y93.949 E0.05946
G1 X136.938 Y96.641 E0.08497
G1 X136.192 Y112.641 E0.50220
G1 X136.017 Y113.468 E0.02651
G1 X131.480 Y121.989 E0.30269
G1 X130.778 Y122.987 E0.03824
G1 X129.852 Y123.864 E0.04000
G1 X128.751 Y124.544 E0.04059
G1 X127.360 Y125.021 E0.04608
G1 X126.114 Y125.163 E0.03933
G1 X124.297 Y125.119 E0.05698
G1 X123.030 Y124.833 E0.04074
G1 X121.637 Y124.159 E0.04851
G1 X120.577 Y123.294 E0.04291
G1 X120.065 Y122.704 E0.02449
G1 X119.610 Y122.019 E0.02578
G1 X115.206 Y113.832 E0.29147
G1 X114.745 Y112.508 E0.04396
G1 X114.445 Y110.832 E0.05338
G1 X113.062 Y96.094 E0.46413
G1 X113.108 Y95.507 E0.01848
G1 X113.532 Y93.584 E0.06175
G1 X113.847 Y92.535 E0.03434
G1 X114.271 Y91.482 E0.03556
G1 X115.310 Y89.738 E0.06366
G1 X116.872 Y87.844 E0.07699
G1 X117.161 Y88.082 F7200.000
G1 F900
G1 X119.147 Y86.689 E0.07605
G1 X120.850 Y85.871 E0.05925
G1 X122.688 Y85.423 E0.05931
G1 X124.967 Y85.213 E0.07177
G1 X127.436 Y85.477 E0.07787
G1 X128.514 Y85.715 E0.03459
G1 X129.394 Y86.007 E0.02907
G1 X130.235 Y86.390 E0.02900
G1 X131.196 Y86.957 E0.03495
G1 X133.219 Y88.496 E0.07971
G1 X134.785 Y90.490 E0.07951
G1 X135.362 Y91.441 E0.03486
G1 X135.751 Y92.272 E0.02878
G1 X136.254 Y94.018 E0.05698
G1 X136.561 Y96.650 E0.08308
G1 X135.816 Y112.618 E0.50119
G1 X135.670 Y113.320 E0.02249
G1 X131.150 Y121.805 E0.30145
G1 X130.501 Y122.731 E0.03546
G1 X129.627 Y123.562 E0.03779
G1 X128.593 Y124.201 E0.03814
G1 X127.274 Y124.654 E0.04371
G1 X126.107 Y124.786 E0.03684
G1 X124.347 Y124.745 E0.05519
G1 X123.156 Y124.478 E0.03827
G1 X121.837 Y123.838 E0.04596
G1 X120.839 Y123.023 E0.04040
G1 X119.936 Y121.830 E0.04692
G1 X115.544 Y113.662 E0.29077
G1 X115.110 Y112.412 E0.04149
G1 X114.819 Y110.785 E0.05182
G1 X113.439 Y96.083 E0.46300
G1 X113.481 Y95.568 E0.01621
G1 X113.899 Y93.673 E0.06084
G1 X114.615 Y91.636 E0.06771
G1 X115.617 Y89.957 E0.06129
G1 X117.123 Y88.129 E0.07428
G1 F5760
G1 X118.911 Y86.857 E-0.76000
G1 E-0.04000 F2100.00000
G1 Z0.800 F7200.000
G1 X122.947 Y116.409 F7200.000
G1 Z0.200 F7200.000
G1 E0.80000 F2100.00000
G1 F900
G1 X124.405 Y116.618 E0.04617
G1 X125.684 Y116.724 E0.04024
G1 X127.008 Y116.518 E0.04201
G1 X128.126 Y116.307 E0.03566
G1 X128.116 Y119.602 E0.10331
G1 X128.029 Y119.957 E0.01144
G1 X127.942 Y120.149 E0.00663
G1 X127.829 Y120.333 E0.00677
G1 X127.591 Y120.601 E0.01122
G1 X127.291 Y120.809 E0.01145
G1 X127.083 Y120.902 E0.00713
G1 X126.729 Y120.989 E0.01143
G1 X124.502 Y120.997 E0.06984
G1 X124.156 Y120.955 E0.01094
G1 X123.797 Y120.819 E0.01203
G1 X123.496 Y120.611 E0.01147
G1 X123.346 Y120.462 E0.00663
G1 X123.214 Y120.291 E0.00677
G1 X123.048 Y119.973 E0.01122
G1 X122.957 Y119.602 E0.01199
G1 X122.947 Y116.469 E0.09823
G1 X123.326 Y116.844 F7200.000
G1 F900
G1 X124.363 Y116.993 E0.03284
G1 X125.697 Y117.104 E0.04200
G1 X127.072 Y116.889 E0.04361
G1 X127.747 Y116.762 E0.02155
G1 X127.739 Y119.556 E0.08760
G1 X127.671 Y119.833 E0.00895
G1 X127.525 Y120.108 E0.00976
G1 X127.340 Y120.317 E0.00875
G1 X127.105 Y120.479 E0.00895
G1 X126.960 Y120.544 E0.00498
G1 X126.683 Y120.612 E0.00895
G1 X124.524 Y120.620 E0.06769
G1 X124.246 Y120.586 E0.00877
G1 X123.973 Y120.482 E0.00916
G1 X123.738 Y120.320 E0.00896
G1 X123.533 Y120.086 E0.00976
G1 X123.404 Y119.839 E0.00875
G1 X123.334 Y119.556 E0.00914
G1 X123.326 Y116.904 E0.08314
G1 X123.360 Y116.446 F7200.000
G1 F5760
G1 X124.363 Y116.993 E-0.36038
G1 F5760
G1 X125.512 Y117.088 E-0.39961
G1 E-0.04000 F2100.00000
G1 Z0.800 F7200.000
G1 X132.591 Y112.668 F7200.000
G1 Z0.200 F7200.000
G1 E0.80000 F2100.00000
G1 F900
G1 X132.018 Y113.463 E0.03070
G1 X131.536 Y114.067 E0.02425
G1 X131.207 Y114.439 E0.01556
G1 X130.873 Y114.781 E0.01499
G1 X130.169 Y115.387 E0.02911
G1 X129.890 Y115.659 E0.01222
G1 X129.631 Y115.976 E0.01286
G1 X129.403 Y116.332 E0.01324
G1 X129.156 Y116.876 E0.01872
G1 X129.002 Y117.461 E0.01897
G1 X128.955 Y117.873 E0.01302
G1 X128.942 Y119.107 E0.03867
G1 X128.847 Y119.673 E0.01799
G1 X128.644 Y120.206 E0.01790
G1 X128.346 Y120.682 E0.01760
G1 X128.095 Y120.969 E0.01195
G1 X127.810 Y121.219 E0.01191
G1 X127.662 Y121.326 E0.00572
G1 X127.160 Y121.597 E0.01787
G1 X126.790 Y121.722 E0.01224
G1 X126.416 Y121.796 E0.01194
G1 X126.017 Y121.823 E0.01255
G1 X125.056 Y121.823 E0.03015
G1 X124.656 Y121.796 E0.01255
G1 X124.283 Y121.722 E0.01194
G1 X123.922 Y121.600 E0.01194
G1 X123.581 Y121.431 E0.01194
G1 X123.264 Y121.220 E0.01194
G1 X122.978 Y120.968 E0.01194
G1 X122.720 Y120.675 E0.01224
G1 X122.425 Y120.198 E0.01758
G1 X122.349 Y120.032 E0.00573
G1 X122.182 Y119.486 E0.01789
G1 X122.131 Y119.098 E0.01228
G1 X122.123 Y118.055 E0.03271
G1 X122.098 Y117.634 E0.01322
G1 X121.968 Y117.026 E0.01948
G1 X121.807 Y116.597 E0.01436
G1 X121.498 Y116.047 E0.01979
G1 X121.218 Y115.689 E0.01424
G1 X120.764 Y115.261 E0.01956
G1 X119.953 Y114.682 E0.03124
G1 X119.469 Y114.161 E0.02230
G1 X118.985 Y113.599 E0.02326
G1 X118.667 Y113.174 E0.01663
G1 X118.324 Y112.606 E0.02083
G1 X118.189 Y112.310 E0.01018
G1 X117.984 Y111.686 E0.02060
G1 X117.811 Y110.798 E0.02837
G1 X117.690 Y109.757 E0.03287
G1 X117.945 Y108.607 E0.03693
G1 X118.097 Y108.020 E0.01901
G1 X118.368 Y107.174 E0.02785
G1 X118.581 Y106.663 E0.01736
G1 X118.829 Y106.188 E0.01678
G1 X119.118 Y105.756 E0.01630
G1 X119.456 Y105.360 E0.01633
G1 X119.844 Y104.990 E0.01680
G1 X120.278 Y104.642 E0.01744
G1 X120.753 Y104.314 E0.01812
G1 X121.262 Y104.003 E0.01870
G1 X122.083 Y103.555 E0.02933
G1 X123.222 Y102.987 E0.03989
G1 X125.978 Y101.840 E0.09362
G1 X126.719 Y101.498 E0.02557
G1 X127.211 Y101.237 E0.01747
G1 X127.920 Y100.810 E0.02595
G1 X128.473 Y100.416 E0.02130
G1 X128.832 Y100.106 E0.01487
G1 X129.309 Y99.603 E0.02174
G1 X129.684 Y99.100 E0.01968
G1 X129.902 Y98.715 E0.01385
G1 X130.139 Y98.135 E0.01964
G1 X130.258 Y97.711 E0.01380
G1 X130.351 Y97.276 E0.01395
G1 X130.413 Y96.420 E0.02692
G1 X130.369 Y95.880 E0.01697
G1 X130.269 Y95.129 E0.02375
G1 X130.146 Y94.621 E0.01640
G1 X129.945 Y94.099 E0.01754
G1 X129.695 Y93.642 E0.01633
G1 X129.404 Y93.214 E0.01624
G1 X128.910 Y92.575 E0.02530
G1 X128.283 Y92.073 E0.02518
G1 X127.657 Y91.653 E0.02363
G1 X127.294 Y91.468 E0.01280
G1 X126.908 Y91.322 E0.01293
G1 X126.163 Y91.154 E0.02395
G1 X125.134 Y91.045 E0.03244
G1 X124.490 Y91.104 E0.02027
G1 X123.894 Y91.182 E0.01887
G1 X123.438 Y91.276 E0.01459
G1 X122.986 Y91.413 E0.01480
G1 X122.547 Y91.606 E0.01503
G1 X122.136 Y91.857 E0.01511
G1 X121.654 Y92.240 E0.01931
G1 X121.216 Y92.660 E0.01902
G1 X120.750 Y93.147 E0.02111
G1 X120.389 Y93.849 E0.02478
G1 X120.182 Y94.303 E0.01564
G1 X119.937 Y95.005 E0.02331
G1 X119.774 Y95.731 E0.02331
G1 X119.700 Y96.269 E0.01704
G1 X116.510 Y95.566 E0.10241
G1 X116.662 Y94.844 E0.02315
G1 X116.878 Y94.025 E0.02655
G1 X117.071 Y93.444 E0.01919
G1 X117.301 Y92.891 E0.01879
G1 X117.578 Y92.367 E0.01856
G1 X118.028 Y91.682 E0.02571
G1 X118.407 Y91.185 E0.01958
G1 X119.204 Y90.234 E0.03892
G1 X120.165 Y89.553 E0.03694
G1 X120.837 Y89.135 E0.02482
G1 X121.520 Y88.791 E0.02396
G1 X122.034 Y88.600 E0.01720
G1 X122.772 Y88.416 E0.02383
G1 X123.758 Y88.274 E0.03124
G1 X124.962 Y88.179 E0.03787
G1 X126.267 Y88.302 E0.04109
G1 X127.123 Y88.434 E0.02715
G1 X127.932 Y88.634 E0.02614
G1 X128.495 Y88.843 E0.01882
G1 X129.041 Y89.114 E0.01911
G1 X129.579 Y89.441 E0.01974
G1 X130.110 Y89.812 E0.02033
G1 X131.135 Y90.609 E0.04071
G1 X131.946 Y91.618 E0.04056
G1 X132.320 Y92.137 E0.02009
G1 X132.754 Y92.852 E0.02621
G1 X133.006 Y93.393 E0.01869
G1 X133.197 Y93.959 E0.01875
G1 X133.380 Y94.779 E0.02633
G1 X133.472 Y95.415 E0.02017
G1 X133.595 Y96.726 E0.04126
G1 X133.527 Y97.671 E0.02971
G1 X133.450 Y98.295 E0.01973
G1 X133.331 Y98.887 E0.01892
G1 X133.150 Y99.453 E0.01865
G1 X133.041 Y99.712 E0.00879
G1 X132.762 Y100.261 E0.01932
G1 X132.106 Y101.326 E0.03922
G1 X131.062 Y102.347 E0.04579
G1 X130.355 Y102.943 E0.02899
G1 X129.922 Y103.251 E0.01667
G1 X129.300 Y103.627 E0.02279
G1 X128.291 Y104.135 E0.03542
G1 X127.237 Y104.603 E0.03615
G1 X124.380 Y105.772 E0.09678
G1 X123.777 Y106.039 E0.02069
G1 X123.184 Y106.332 E0.02073
G1 X122.742 Y106.593 E0.01609
G1 X122.216 Y106.995 E0.02078
G1 X121.962 Y107.250 E0.01129
G1 X121.742 Y107.525 E0.01103
G1 X121.556 Y107.821 E0.01096
G1 X121.395 Y108.138 E0.01113
G1 X121.111 Y108.902 E0.02558
G1 X120.897 Y109.637 E0.02400
G1 X121.011 Y110.526 E0.02810
G1 X121.108 Y110.933 E0.01311
G1 X121.261 Y111.340 E0.01362
G1 X121.480 Y111.722 E0.01381
G1 X121.857 Y112.198 E0.01905
G1 X122.300 Y112.664 E0.02015
G1 X122.876 Y113.050 E0.02174
G1 X123.259 Y113.276 E0.01395
G1 X123.673 Y113.474 E0.01438
G1 X124.113 Y113.622 E0.01456
G1 X124.563 Y113.716 E0.01441
G1 X125.663 Y113.821 E0.03467
G1 X126.350 Y113.785 E0.02156
G1 X126.865 Y113.718 E0.01629
G1 X127.222 Y113.632 E0.01152
G1 X127.565 Y113.514 E0.01136
G1 X128.027 Y113.310 E0.01584
G1 X128.384 Y113.135 E0.01247
G1 X129.022 Y112.601 E0.02610
G1 X129.449 Y112.175 E0.01889
G1 X129.711 Y111.854 E0.01299
G1 X129.945 Y111.523 E0.01272
G1 X130.135 Y111.213 E0.01139
G1 X132.539 Y112.638 E0.08763
G1 X133.138 Y112.554 F7200.000
G1 F900
G1 X132.319 Y113.691 E0.04393
G1 X131.825 Y114.310 E0.02483
G1 X131.483 Y114.696 E0.01616
G1 X131.131 Y115.056 E0.01580
G1 X130.424 Y115.665 E0.02925
G1 X130.169 Y115.914 E0.01117
G1 X129.937 Y116.198 E0.01150
G1 X129.735 Y116.513 E0.01172
G1 X129.512 Y117.003 E0.01687
G1 X129.373 Y117.531 E0.01712
G1 X129.331 Y117.897 E0.01156
G1 X129.319 Y119.127 E0.03858
G1 X129.298 Y119.336 E0.00657
G1 X129.213 Y119.764 E0.01371
G1 X129.153 Y119.964 E0.00653
G1 X128.985 Y120.368 E0.01371
G1 X128.887 Y120.552 E0.00653
G1 X128.646 Y120.912 E0.01360
G1 X128.362 Y121.236 E0.01349
G1 X128.045 Y121.515 E0.01325
G1 X127.867 Y121.643 E0.00689
G1 X127.488 Y121.862 E0.01370
G1 X127.298 Y121.948 E0.00653
G1 X126.888 Y122.087 E0.01360
G1 X126.466 Y122.171 E0.01349
G1 X126.030 Y122.200 E0.01371
G1 X125.043 Y122.200 E0.03092
G1 X124.607 Y122.171 E0.01371
G1 X124.185 Y122.087 E0.01349
G1 X123.778 Y121.949 E0.01349
G1 X123.392 Y121.758 E0.01349
G1 X123.034 Y121.519 E0.01349
G1 X122.710 Y121.236 E0.01349
G1 X122.424 Y120.910 E0.01360
G1 X122.303 Y120.740 E0.00654
G1 X122.090 Y120.371 E0.01336
G1 X121.998 Y120.171 E0.00689
G1 X121.861 Y119.768 E0.01335
G1 X121.810 Y119.554 E0.00689
G1 X121.754 Y119.124 E0.01361
G1 X121.746 Y118.068 E0.03313
G1 X121.723 Y117.685 E0.01202
G1 X121.605 Y117.133 E0.01771
G1 X121.464 Y116.757 E0.01257
G1 X121.183 Y116.257 E0.01799
G1 X120.938 Y115.944 E0.01245
G1 X120.524 Y115.553 E0.01786
G1 X119.703 Y114.967 E0.03164
G1 X119.188 Y114.413 E0.02373
G1 X118.691 Y113.835 E0.02388
G1 X118.357 Y113.391 E0.01742
G1 X118.161 Y113.088 E0.01132
G1 X117.987 Y112.776 E0.01119
G1 X117.840 Y112.454 E0.01111
G1 X117.717 Y112.119 E0.01118
G1 X117.617 Y111.775 E0.01124
G1 X117.438 Y110.856 E0.02936
G1 X117.308 Y109.737 E0.03531
G1 X117.578 Y108.519 E0.03913
G1 X117.734 Y107.915 E0.01956
G1 X118.014 Y107.044 E0.02868
G1 X118.239 Y106.503 E0.01838
G1 X118.504 Y105.996 E0.01794
G1 X118.817 Y105.528 E0.01762
G1 X119.181 Y105.101 E0.01763
G1 X119.595 Y104.706 E0.01793
G1 X120.053 Y104.340 E0.01837
G1 X120.548 Y103.998 E0.01886
G1 X121.073 Y103.676 E0.01932
G1 X121.909 Y103.221 E0.02984
G1 X123.065 Y102.644 E0.04051
G1 X125.827 Y101.495 E0.09379
G1 X126.551 Y101.159 E0.02503
G1 X127.026 Y100.909 E0.01682
G1 X127.713 Y100.495 E0.02516
G1 X128.240 Y100.119 E0.02030
G1 X128.572 Y99.833 E0.01373
G1 X129.020 Y99.360 E0.02045
G1 X129.368 Y98.893 E0.01824
G1 X129.562 Y98.550 E0.01236
G1 X129.782 Y98.012 E0.01822
G1 X129.892 Y97.621 E0.01274
G1 X129.977 Y97.223 E0.01276
G1 X130.035 Y96.421 E0.02520
G1 X129.994 Y95.920 E0.01576
G1 X129.898 Y95.199 E0.02283
G1 X129.783 Y94.727 E0.01523
G1 X129.703 Y94.492 E0.00777
G1 X129.606 Y94.264 E0.00778
G1 X129.373 Y93.839 E0.01519
G1 X129.098 Y93.435 E0.01531
G1 X128.639 Y92.842 E0.02353
G1 X128.060 Y92.378 E0.02327
G1 X127.466 Y91.979 E0.02242
G1 X127.141 Y91.814 E0.01144
G1 X126.799 Y91.684 E0.01147
G1 X126.101 Y91.527 E0.02243
G1 X125.131 Y91.424 E0.03058
G1 X123.957 Y91.554 E0.03706
G1 X123.531 Y91.642 E0.01363
G1 X123.117 Y91.767 E0.01354
G1 X122.722 Y91.941 E0.01353
G1 X122.352 Y92.167 E0.01359
G1 X121.902 Y92.525 E0.01804
G1 X121.482 Y92.926 E0.01821
G1 X121.061 Y93.368 E0.01914
G1 X120.728 Y94.014 E0.02279
G1 X120.532 Y94.444 E0.01482
G1 X120.300 Y95.109 E0.02208
G1 X120.145 Y95.798 E0.02214
G1 X120.017 Y96.725 E0.02935
G1 X116.064 Y95.854 E0.12693
G1 X116.295 Y94.757 E0.03516
G1 X116.516 Y93.917 E0.02721
G1 X116.717 Y93.312 E0.02001
G1 X116.960 Y92.730 E0.01977
G1 X117.253 Y92.175 E0.01966
G1 X117.720 Y91.464 E0.02669
G1 X118.112 Y90.950 E0.02027
G1 X118.946 Y89.954 E0.04072
G1 X119.957 Y89.239 E0.03882
G1 X120.653 Y88.805 E0.02571
G1 X121.369 Y88.445 E0.02515
G1 X121.923 Y88.240 E0.01851
G1 X122.699 Y88.046 E0.02509
G1 X123.716 Y87.899 E0.03222
G1 X124.963 Y87.801 E0.03920
G1 X126.314 Y87.928 E0.04256
G1 X127.197 Y88.064 E0.02800
G1 X128.043 Y88.274 E0.02734
G1 X128.644 Y88.496 E0.02010
G1 X129.223 Y88.783 E0.02025
G1 X129.785 Y89.125 E0.02062
G1 X130.334 Y89.509 E0.02100
G1 X131.402 Y90.339 E0.04240
G1 X132.246 Y91.389 E0.04226
G1 X132.635 Y91.929 E0.02086
G1 X133.087 Y92.674 E0.02733
G1 X133.356 Y93.252 E0.02000
G1 X133.561 Y93.858 E0.02003
G1 X133.751 Y94.710 E0.02740
G1 X133.847 Y95.371 E0.02092
G1 X133.974 Y96.722 E0.04254
G1 X133.902 Y97.707 E0.03099
G1 X133.823 Y98.356 E0.02048
G1 X133.696 Y98.982 E0.02003
G1 X133.504 Y99.584 E0.01983
G1 X133.383 Y99.871 E0.00975
G1 X133.091 Y100.446 E0.02022
G1 X132.404 Y101.561 E0.04107
G1 X131.314 Y102.628 E0.04783
G1 X130.586 Y103.241 E0.02984
G1 X130.129 Y103.566 E0.01759
G1 X129.482 Y103.957 E0.02369
G1 X128.452 Y104.476 E0.03616
G1 X127.385 Y104.950 E0.03661
G1 X124.528 Y106.119 E0.09679
G1 X123.937 Y106.380 E0.02028
G1 X123.364 Y106.664 E0.02004
G1 X122.953 Y106.906 E0.01494
G1 X122.465 Y107.279 E0.01928
G1 X122.244 Y107.502 E0.00984
G1 X122.050 Y107.744 E0.00973
G1 X121.884 Y108.007 E0.00975
G1 X121.741 Y108.289 E0.00991
G1 X121.469 Y109.021 E0.02448
G1 X121.280 Y109.671 E0.02121
G1 X121.382 Y110.455 E0.02479
G1 X121.469 Y110.823 E0.01186
G1 X121.603 Y111.178 E0.01191
G1 X121.793 Y111.510 E0.01199
G1 X122.142 Y111.951 E0.01763
G1 X122.544 Y112.374 E0.01831
G1 X123.077 Y112.731 E0.02009
G1 X123.436 Y112.943 E0.01309
G1 X123.814 Y113.124 E0.01314
G1 X124.212 Y113.257 E0.01316
