;FLAVOR:Marlin
;TIME:276
;Filament used:0.23153m
;Layer height: 0.3
;MINX:73.556
;MINY:65.291
;MINZ:0.2
;MAXX:91.49
;MAXY:99.71
;MAXZ:2.9
                                    
;Creative3D GCode Generated by CXEngineDEV
;Generated Time:2022-04-08 18:14:05
;----------Machine Config--------------
;Machine Name:Creality Ender-2 Pro
;Machine Height:180
;Machine Width:165
;Machine Depth:165
;Material name:PLA
;Number of Extruders:1
;ExtruderParams[0] Nozzle Diameter1000
;----------Profile Config---------------
;Layer Height:0.3
;Wall Thickness:0.8
;Top/Bottom Thickness:1
;Out Wall Line Width:0.4
;Inner Wall Line Width:0.4
;Inital Layer Height:200
;Wall Line Count:1
;Infill Line Distance:4
;Infill Pattern:grid
;Infill Sparse Density:20
;Infill Wipe Distance:0
;Print Temperature:200
;Bed Temperature:60
;Support Enable:false
;Support Density:30
;Support Angle:1.0472
;Adhesion Type:none
;machine is belt:false
;machine belt offset:10
;machine belt offset Y:0
;----------Shell Config----------------
;Outer Wall Wipe Distance:200
;Infill Before Walls:false
;Infill Overlap:0.16
;Fill Gaps Between Walls:everywhere
;Minimum Infill Area:1
;Top Surface Skin Layer:0
;Top Layers:2
;Z Seam Alignment:sharpest_corner
;Seam Corner Preference:z_seam_corner_inner
;Z Seam X:82.5
;Z Seam Y:82.5
;Horizontal Expansion:0
;Top/Bottom Pattern:zigzag
;Ironing Pattern:zigzag
;Vase Model:false
;----------Support Config----------------
;Support Type:everywhere
;Support Pattern:zigzag
;Support Infill Layer Thickness:0.3
;Minimum Support Area:10
;Enable Support Roof:false
;Support Roof Thickness:0.8
;Support Roof Pattern:lines
; ---------PrintSpeed & Travel----------
;Enable Print Cool:true
;Avoid Printed Parts Traveling:true
;Enable Retraction:true
;Retraction Distance:8
;Retraction Speed:100
;Retraction Prime Speed:100
;Maximum Retraction Count:100
;Minimum Extrusion Distance Window:1
;Z Hop When Retracted:false
;Z Hop Height:0.2
;Retract Before Outer Wall:true
;Print Speed:50
;Infill Speed:50

;Prime Tower Speed:50
;Travel Speed:120
;Initial Layer Speed:25
;Skirt/Brim Speed:25
;Combing Mode:off
;---------------------End of Head--------------------------
M140 S60
M104 S200
M105
M109 S200
M82 ;absolute extrusion mode
M220 S100 ;Reset Feedrate
M221 S100 ;Reset Flowrate

G28 ;Home

G92 E0 ;Reset Extruder
G1 Z2.0 F3000 ;Move Z Axis up
G1 X10.1 Y20 Z0.28 F5000.0 ;Move to start position
G1 X10.1 Y145.0 Z0.28 F1500.0 E15 ;Draw the first line
G1 X10.4 Y145.0 Z0.28 F5000.0 ;Move to side a little
G1 X10.4 Y20 Z0.28 F1500.0 E30 ;Draw the second line
G92 E0  ;Reset Extruder
G1 E-1.0000 F1800 ;Retract a bit
G1 Z2.0 F3000 ;Move Z Axis up
G1 E0.0000 F1800 

G92 E0
G92 E0
G1 F6000 E-8

;LAYER_COUNT:10

;LAYER:0
M107
;MESH:
G0 F3600 X80.842 Y94.354 Z0.2
;TYPE:WALL-OUTER
G1 F6000 E0
G1 F1500 X80.842 Y94.586 E0.00849
G1 X80.842 Y94.587 E0.00852
G1 X80.842 Y96.928 E0.09417
G1 X80.913 Y97.329 E0.10907
G1 X81.135 Y97.701 E0.12492
G1 X81.475 Y97.97 E0.14078
G1 X81.876 Y98.099 E0.15619
G1 X82.035 Y98.11 E0.16203
G1 X84.06 Y98.11 E0.23611
G1 X84.46 Y98.039 E0.25098
G1 X84.833 Y97.817 E0.26686
G1 X85.103 Y97.476 E0.28277
G1 X85.23 Y97.075 E0.29816
G1 X85.242 Y96.873 E0.30556
G1 X85.242 Y94.516 E0.3918
G1 X85.242 Y94.515 E0.39183
G1 X85.242 Y94.275 E0.40061
G1 X85.006 Y94.319 E0.40602
G1 X84.553 Y94.405 E0.42289
G1 X83.201 Y94.614 E0.47294
G1 X82.138 Y94.531 E0.51195
G1 X81.603 Y94.471 E0.53165
G1 X81.072 Y94.389 E0.55131
G1 X80.842 Y94.354 E0.55659
G0 F3600 X80.842 Y94.554
G0 X80.402 Y94.554
;;retract;;
G1 F6000 E-7.44341
G0 F3600 X78.795 Y87.172
G1 F6000 E0.55659
G1 F1500 X78.866 Y87.766 E0.57848
G1 X78.935 Y88.137 E0.59228
G1 X79.04 Y88.492 E0.60583
G1 X79.201 Y88.836 E0.61972
G1 X79.411 Y89.15 E0.63354
G1 X79.656 Y89.446 E0.6476
G1 X80.056 Y89.867 E0.66885
G1 X80.587 Y90.222 E0.69222
G1 X80.946 Y90.435 E0.70749
G1 X81.324 Y90.615 E0.72281
G1 X81.713 Y90.745 E0.73781
G1 X82.12 Y90.832 E0.75304
G1 X82.542 Y90.887 E0.76861
G1 X83.171 Y90.933 E0.79168
G1 X83.819 Y90.9 E0.81542
G1 X84.141 Y90.863 E0.82728
G1 X84.462 Y90.803 E0.83923
G1 X84.775 Y90.711 E0.85116
G1 X85.079 Y90.593 E0.86309
G1 X85.675 Y90.31 E0.88723
G1 X85.982 Y90.06 E0.90172
G1 X86.403 Y89.688 E0.92227
G1 X86.669 Y89.414 E0.93624
G1 X86.908 Y89.12 E0.9501
G1 X87.127 Y88.812 E0.96393
G1 X87.512 Y88.187 E0.99079
G1 X90.473 Y89.942 E1.11672
G1 X90.474 Y89.943 E1.11677
G1 X90.659 Y90.052 E1.12463
G1 X90.534 Y90.228 E1.12961
G1 X90.154 Y90.763 E1.15362
G1 X89.672 Y91.405 E1.18299
G1 X89.341 Y91.813 E1.20221
G1 X89 Y92.2 E1.22109
G1 X88.646 Y92.561 E1.23958
G1 X88.253 Y92.914 E1.25891
G1 X87.936 Y93.173 E1.27389
G1 X87.675 Y93.427 E1.28721
G1 X87.446 Y93.709 E1.3005
G1 X87.251 Y94.016 E1.31381
G1 X87.09 Y94.344 E1.32718
G1 X86.97 Y94.688 E1.34051
G1 X86.889 Y95.035 E1.35354
G1 X86.847 Y95.397 E1.36688
G1 X86.834 Y96.628 E1.41192
G1 X86.781 Y97.043 E1.42722
G1 X86.671 Y97.457 E1.44289
G1 X86.506 Y97.86 E1.45883
G1 X86.292 Y98.233 E1.47456
G1 X86.026 Y98.581 E1.49058
G1 X85.877 Y98.742 E1.49861
G1 X85.558 Y99.021 E1.51412
G1 X85.2 Y99.262 E1.5299
G1 X84.814 Y99.453 E1.54566
G1 X84.407 Y99.594 E1.56142
G1 X83.989 Y99.678 E1.57702
G1 X83.54 Y99.709 E1.59349
G1 X82.555 Y99.71 E1.62952
G1 X82.116 Y99.682 E1.64562
G1 X81.705 Y99.603 E1.66093
G1 X81.283 Y99.461 E1.67722
G1 X80.906 Y99.275 E1.6926
G1 X80.539 Y99.033 E1.70868
G1 X80.36 Y98.884 E1.7172
G1 X80.062 Y98.587 E1.7326
G1 X79.806 Y98.253 E1.74799
G1 X79.584 Y97.871 E1.76416
G1 X79.422 Y97.485 E1.77947
G1 X79.309 Y97.065 E1.79539
G1 X79.251 Y96.637 E1.81119
G1 X79.242 Y96.381 E1.82056
G1 X79.236 Y95.382 E1.85711
G1 X79.192 Y95.009 E1.87085
G1 X79.102 Y94.634 E1.88496
G1 X78.963 Y94.265 E1.89939
G1 X78.779 Y93.917 E1.91379
G1 X78.564 Y93.607 E1.92759
G1 X78.312 Y93.319 E1.94159
G1 X78.024 Y93.062 E1.95571
G1 X77.2 Y92.473 E1.99277
G1 X76.682 Y91.917 E2.02057
G1 X76.434 Y91.635 E2.03431
G1 X76.069 Y91.19 E2.05537
G1 X75.852 Y90.893 E2.06883
G1 X75.661 Y90.6 E2.08162
G1 X75.483 Y90.281 E2.09499
G1 X75.335 Y89.957 E2.10802
G1 X75.211 Y89.617 E2.12126
G1 X75.11 Y89.269 E2.13452
G1 X75.029 Y88.911 E2.14795
G1 X74.935 Y88.364 E2.16825
G1 X74.803 Y87.238 E2.20973
G1 X75.067 Y86.042 E2.25454
G1 X75.231 Y85.407 E2.27854
G1 X75.408 Y84.83 E2.30062
G1 X75.616 Y84.268 E2.32254
G1 X75.733 Y84.003 E2.33314
G1 X75.86 Y83.746 E2.34363
G1 X76.079 Y83.362 E2.3598
G1 X76.228 Y83.141 E2.36955
G1 X76.404 Y82.908 E2.38024
G1 X76.684 Y82.588 E2.39579
G1 X76.877 Y82.396 E2.40575
G1 X77.09 Y82.202 E2.41629
G1 X77.32 Y82.01 E2.42726
G1 X77.546 Y81.836 E2.43769
G1 X78.052 Y81.487 E2.46018
G1 X78.571 Y81.17 E2.48243
G1 X79.128 Y80.86 E2.50575
G1 X79.988 Y80.419 E2.54111
G1 X80.56 Y80.138 E2.56443
G1 X83.327 Y78.986 E2.67408
G1 X84.052 Y78.651 E2.7033
G1 X84.526 Y78.4 E2.72293
G1 X85.213 Y77.986 E2.75227
G1 X85.739 Y77.612 E2.77589
G1 X86.062 Y77.334 E2.79148
G1 X86.224 Y77.172 E2.79986
G1 X86.518 Y76.854 E2.8157
G1 X86.754 Y76.546 E2.8299
G1 X86.963 Y76.227 E2.84385
G1 X87.133 Y75.877 E2.85809
G1 X87.278 Y75.508 E2.87259
G1 X87.387 Y75.119 E2.88737
G1 X87.471 Y74.725 E2.90211
G1 X87.513 Y74.325 E2.91683
G1 X87.53 Y73.918 E2.93173
G1 X87.465 Y73.181 E2.9588
G1 X87.393 Y72.7 E2.97659
G1 X87.282 Y72.236 E2.99405
G1 X87.153 Y71.883 E3.0078
G1 X86.992 Y71.553 E3.02123
G1 X86.741 Y71.148 E3.03867
G1 X86.45 Y70.748 E3.05676
G1 X86.137 Y70.348 E3.07535
G1 X85.561 Y69.887 E3.10234
G1 X85.168 Y69.611 E3.11991
G1 X84.761 Y69.38 E3.13703
G1 X84.425 Y69.237 E3.15039
G1 X84.074 Y69.13 E3.16381
G1 X83.604 Y69.037 E3.18134
G1 X83.128 Y68.978 E3.19889
G1 X82.634 Y68.935 E3.21703
G1 X81.763 Y69.02 E3.24905
G1 X81.462 Y69.065 E3.26019
G1 X81.04 Y69.152 E3.27595
G1 X80.762 Y69.231 E3.28652
G1 X80.492 Y69.329 E3.29703
G1 X80.232 Y69.451 E3.30754
G1 X79.983 Y69.595 E3.31806
G1 X79.746 Y69.76 E3.32863
G1 X79.413 Y70.034 E3.34441
G1 X78.995 Y70.434 E3.36557
G1 X78.574 Y70.874 E3.38785
G1 X78.243 Y71.519 E3.41438
G1 X78.047 Y71.946 E3.43157
G1 X77.883 Y72.387 E3.44878
G1 X77.756 Y72.84 E3.46599
G1 X77.661 Y73.3 E3.48318
G1 X77.557 Y74.025 E3.50997
G1 X77.527 Y74.237 E3.51781
G1 X77.318 Y74.191 E3.52277
G1 X73.556 Y73.362 E3.6637
G1 X73.694 Y72.688 E3.68888
G1 X73.892 Y71.841 E3.7207
G1 X74.073 Y71.214 E3.74458
G1 X74.212 Y70.812 E3.76014
G1 X74.372 Y70.411 E3.77593
G1 X74.55 Y70.032 E3.79125
G1 X74.747 Y69.675 E3.80617
G1 X74.976 Y69.307 E3.82203
G1 X75.213 Y68.964 E3.83728
G1 X75.608 Y68.445 E3.86114
G1 X75.884 Y68.106 E3.87714
G1 X76.445 Y67.447 E3.9088
G1 X77.111 Y66.968 E3.93881
G1 X77.453 Y66.733 E3.954
G1 X77.975 Y66.401 E3.97663
G1 X78.326 Y66.201 E3.99141
G1 X78.69 Y66.018 E4.00632
G1 X79.054 Y65.861 E4.02082
G1 X79.423 Y65.731 E4.03513
G1 X79.815 Y65.621 E4.05003
G1 X80.198 Y65.537 E4.06437
G1 X80.608 Y65.466 E4.0796
G1 X81.216 Y65.39 E4.10201
G1 X81.638 Y65.351 E4.11752
G1 X82.465 Y65.291 E4.14786
G1 X83.368 Y65.37 E4.18102
G1 X83.825 Y65.419 E4.19784
G1 X84.493 Y65.515 E4.22253
G1 X84.916 Y65.597 E4.23829
G1 X85.342 Y65.702 E4.25434
G1 X85.756 Y65.831 E4.27021
G1 X86.139 Y65.981 E4.28526
G1 X86.548 Y66.175 E4.30182
G1 X86.927 Y66.386 E4.31769
G1 X87.291 Y66.614 E4.3334
G1 X87.842 Y66.999 E4.35799
G1 X88.917 Y67.834 E4.4078
G1 X89.479 Y68.525 E4.44038
G1 X89.76 Y68.885 E4.45709
G1 X90.147 Y69.421 E4.48128
G1 X90.384 Y69.789 E4.49729
G1 X90.598 Y70.163 E4.51306
G1 X90.792 Y70.56 E4.52922
G1 X90.946 Y70.948 E4.5445
G1 X91.074 Y71.35 E4.55993
G1 X91.183 Y71.782 E4.57623
G1 X91.265 Y72.202 E4.59189
G1 X91.362 Y72.866 E4.61644
G1 X91.49 Y74.22 E4.6662
G1 X91.418 Y75.204 E4.70229
G1 X91.339 Y75.854 E4.72625
G1 X91.249 Y76.326 E4.74383
G1 X91.171 Y76.632 E4.75538
G1 X91.076 Y76.932 E4.7669
G1 X90.958 Y77.236 E4.77883
G1 X90.759 Y77.662 E4.79603
G1 X90.603 Y77.955 E4.80817
G1 X90.269 Y78.517 E4.83209
G1 X89.919 Y79.065 E4.85588
G1 X89.107 Y79.873 E4.89779
G1 X88.823 Y80.139 E4.91203
G1 X88.543 Y80.387 E4.92571
G1 X88.102 Y80.746 E4.94652
G1 X87.791 Y80.973 E4.9606
G1 X87.324 Y81.275 E4.98095
G1 X86.997 Y81.464 E4.99477
G1 X86.308 Y81.822 E5.02318
G1 X85.61 Y82.145 E5.05132
G1 X84.897 Y82.459 E5.07982
G1 X82.038 Y83.628 E5.19283
G1 X81.446 Y83.89 E5.21651
G1 X80.884 Y84.167 E5.23943
G1 X80.472 Y84.409 E5.25692
G1 X80.211 Y84.593 E5.2686
G1 X79.974 Y84.79 E5.27987
G1 X79.757 Y85.009 E5.29115
G1 X79.564 Y85.25 E5.30245
G1 X79.398 Y85.512 E5.3138
G1 X79.257 Y85.79 E5.3252
G1 X79.136 Y86.08 E5.3367
G1 X78.983 Y86.527 E5.35398
G1 X78.795 Y87.172 E5.37856
G0 F3600 X78.818 Y87.37
G0 X78.381 Y87.421
;;retract;;
G1 F6000 E-2.62144
G0 F3600 X80.519 Y98.703
;TYPE:SKIN
G1 F6000 E5.37856
G1 F1500 X80.686 Y98.842 E5.38651
G1 X80.843 Y98.945 E5.39338
G1 X79.99 Y98.091 E5.43754
G1 X79.797 Y97.758 E5.45163
G1 X79.649 Y97.406 E5.4656
G1 X79.568 Y97.104 E5.47704
G1 X81.849 Y99.385 E5.59506
G1 X82.138 Y99.441 E5.60583
G1 X82.493 Y99.463 E5.61884
G1 X79.484 Y96.455 E5.7745
G1 X79.481 Y96.372 E5.77754
G1 X79.478 Y95.883 E5.79543
G1 X80.614 Y97.019 E5.85421
G1 X80.601 Y96.948 E5.85685
G1 X80.601 Y96.44 E5.87543
G1 X79.468 Y95.307 E5.93406
G1 X79.427 Y94.965 E5.94666
G1 X79.345 Y94.619 E5.95967
G1 X80.601 Y95.875 E6.02465
G1 X80.601 Y95.309 E6.04536
G1 X78.759 Y93.467 E6.14067
G1 X78.753 Y93.458 E6.14106
G1 X78.482 Y93.149 E6.1561
G1 X78.173 Y92.874 E6.17123
;;retract;;
G1 F6000 E-1.82877
G0 F3600 X76.255 Y91.037
G1 F6000 E6.17123
G1 F1500 X76.619 Y91.481 E6.19224
G1 X76.856 Y91.752 E6.20541
G1 X77.353 Y92.286 E6.2321
G1 X78.148 Y92.855 E6.26787
G1 X76.053 Y90.761 E6.37624
G1 X75.862 Y90.468 E6.38904
G1 X75.695 Y90.17 E6.40153
G1 X75.557 Y89.869 E6.41365
G0 F3600 X75.558 Y89.869
G1 F1500 X75.462 Y89.604 E6.42396
G1 X80.601 Y94.743 E6.68986
G1 X80.601 Y94.178 E6.71053
G1 X75.258 Y88.835 E6.98698
G1 X75.173 Y88.335 E7.00553
G0 F3600 X75.174 Y88.335
G1 F1500 X75.154 Y88.164 E7.01183
G1 X81.145 Y94.156 E7.32184
G1 X81.636 Y94.231 E7.34001
G1 X81.805 Y94.25 E7.34623
G1 X75.079 Y87.524 E7.69424
G1 X75.047 Y87.244 E7.70455
G1 X75.104 Y86.984 E7.71429
G1 X82.432 Y94.311 E8.09342
G1 X83.046 Y94.36 E8.11595
G1 X75.206 Y86.52 E8.5216
G1 X75.292 Y86.131 E8.53617
G1 X75.31 Y86.058 E8.53892
G1 X83.565 Y94.313 E8.96604
G1 X84.054 Y94.236 E8.98415
G1 X75.426 Y85.608 E9.43057
G1 X75.463 Y85.468 E9.43587
G1 X75.553 Y85.17 E9.44726
G1 X78.754 Y88.37 E9.61285
G1 X78.7 Y88.191 E9.6197
G1 X78.628 Y87.8 E9.63424
G1 X78.611 Y87.662 E9.63933
G1 X75.695 Y84.746 E9.7902
G1 X75.841 Y84.352 E9.80558
G1 X75.849 Y84.334 E9.8063
G1 X78.577 Y87.062 E9.94745
G1 X78.705 Y86.624 E9.96414
G1 X76.027 Y83.947 E10.10268
G1 X76.069 Y83.864 E10.10608
G1 X76.228 Y83.582 E10.11792
G1 X78.843 Y86.197 E10.25323
G1 X78.911 Y85.994 E10.26106
G1 X78.998 Y85.786 E10.26931
G1 X76.453 Y83.241 E10.40099
G1 X76.59 Y83.058 E10.40935
G1 X76.704 Y82.927 E10.4157
G1 X79.183 Y85.405 E10.54394
G1 X79.189 Y85.392 E10.54447
G1 X79.368 Y85.11 E10.55669
G1 X79.406 Y85.063 E10.5589
G1 X76.977 Y82.633 E10.6846
G1 X77.038 Y82.572 E10.68776
G0 F3600 X77.039 Y82.573
G1 F1500 X77.244 Y82.386 E10.69791
G1 X77.272 Y82.363 E10.69924
G1 X79.666 Y84.758 E10.82313
G1 X79.811 Y84.611 E10.83068
G1 X79.961 Y84.486 E10.83783
G1 X77.583 Y82.109 E10.96084
G1 X77.662 Y82.047 E10.96451
G1 X77.913 Y81.873 E10.97569
G1 X80.285 Y84.245 E11.09842
G1 X80.342 Y84.205 E11.10096
G1 X80.637 Y84.031 E11.11349
G1 X78.251 Y81.646 E11.23692
G1 X78.602 Y81.431 E11.25198
G1 X81.008 Y83.836 E11.37644
G1 X81.344 Y83.671 E11.39014
G1 X81.388 Y83.651 E11.39191
G1 X78.963 Y81.226 E11.51738
G1 X79.243 Y81.07 E11.5291
G1 X79.329 Y81.026 E11.53264
G1 X81.78 Y83.477 E11.65946
G1 X81.943 Y83.406 E11.66596
G1 X82.178 Y83.309 E11.67526
G1 X79.703 Y80.835 E11.80329
G1 X80.077 Y80.643 E11.81867
G1 X82.58 Y83.145 E11.94816
G1 X82.981 Y82.981 E11.96401
G1 X80.456 Y80.456 E12.09465
G1 X80.659 Y80.357 E12.10291
G1 X80.845 Y80.279 E12.11029
G1 X83.383 Y82.817 E12.24161
G1 X83.785 Y82.653 E12.2575
G1 X81.245 Y80.113 E12.38892
G1 X81.644 Y79.947 E12.40473
G1 X84.186 Y82.489 E12.53625
G1 X84.588 Y82.325 E12.55214
G1 X82.044 Y79.781 E12.68377
G1 X82.442 Y79.614 E12.69956
G1 X84.985 Y82.157 E12.83113
G1 X85.378 Y81.984 E12.84684
G1 X82.842 Y79.448 E12.97806
G1 X83.242 Y79.282 E12.9939
G1 X85.767 Y81.807 E13.12455
G1 X86.153 Y81.627 E13.14013
G1 X83.634 Y79.108 E13.27046
G1 X84.021 Y78.93 E13.28605
G1 X86.528 Y81.437 E13.41576
G1 X86.875 Y81.257 E13.43006
G0 F3600 X86.875 Y81.255
G1 F1500 X86.898 Y81.241 E13.43105
G1 X84.397 Y78.74 E13.56045
G1 X84.643 Y78.609 E13.57065
G1 X84.76 Y78.538 E13.57566
G1 X87.254 Y81.032 E13.7047
G1 X87.597 Y80.809 E13.71967
G1 X85.113 Y78.325 E13.84819
G1 X85.344 Y78.185 E13.85807
G1 X85.458 Y78.104 E13.86319
G1 X87.928 Y80.574 E13.99099
G1 X87.959 Y80.551 E13.9924
G1 X88.241 Y80.321 E14.00571
G1 X85.79 Y77.87 E14.13253
G1 X85.885 Y77.802 E14.1368
G1 X86.102 Y77.616 E14.14726
G1 X88.546 Y80.06 E14.27371
G1 X88.661 Y79.958 E14.27934
G0 F3600 X88.661 Y79.96
G1 F1500 X88.842 Y79.791 E14.2884
G1 X86.392 Y77.341 E14.41516
G0 F3600 X86.395 Y77.339
G1 F1500 X86.665 Y77.048 E14.42969
G1 X89.128 Y79.512 E14.55715
G1 X89.412 Y79.229 E14.57182
G1 X86.913 Y76.73 E14.70112
G1 X86.949 Y76.685 E14.70323
G1 X87.14 Y76.392 E14.71602
G1 X89.695 Y78.947 E14.84822
G1 X89.726 Y78.918 E14.84977
G1 X89.924 Y78.61 E14.86317
G1 X87.33 Y76.016 E14.99738
G1 X87.351 Y75.972 E14.99917
G1 X87.493 Y75.613 E15.01329
G1 X90.141 Y78.261 E15.1503
G1 X90.351 Y77.906 E15.16539
G1 X87.619 Y75.173 E15.30677
G1 X87.708 Y74.762 E15.32216
G1 X87.713 Y74.703 E15.32432
G1 X90.55 Y77.539 E15.47109
G1 X90.73 Y77.154 E15.48664
G1 X87.758 Y74.181 E15.64044
G1 X87.769 Y73.911 E15.65032
G1 X87.742 Y73.599 E15.66178
G1 X90.884 Y76.742 E15.82437
G1 X90.941 Y76.559 E15.83139
G1 X91.007 Y76.299 E15.8412
G1 X87.674 Y72.967 E16.01363
G1 X87.628 Y72.654 E16.0252
G1 X87.533 Y72.259 E16.04006
G1 X91.1 Y75.826 E16.22462
G1 X91.161 Y75.322 E16.2432
G1 X87.078 Y71.239 E16.45445
G1 X86.939 Y71.014 E16.46413
G1 X86.641 Y70.603 E16.4827
G1 X86.308 Y70.178 E16.50246
G1 X85.704 Y69.695 E16.53075
G1 X85.295 Y69.408 E16.54903
;;retract;;
G1 F6000 E8.54903
G0 F3600 X80.646 Y65.702
G1 F6000 E16.54903
G1 F1500 X80.445 Y65.737 E16.5565
G1 X83.488 Y68.78 E16.71394
