;FLAVOR:Marlin
;TIME:208
;Filament used:0.17946m
;Layer height: 0.3
;MINX:73.961
;MINY:65.376
;MINZ:0.2
;MAXX:91.039
;MAXY:99.624
;MAXZ:2.9
                                  
;Creative3D GCode Generated by CXEngineDEV
;Generated Time:2022-04-08 18:14:05
;----------Machine Config--------------
;Machine Name:Creality Ender-2 Pro
;Machine Height:180
;Machine Width:165
;Machine Depth:165
;Material name:PLA
;Number of Extruders:1
;ExtruderParams[0] Nozzle Diameter1000
;----------Profile Config---------------
;Layer Height:0.3
;Wall Thickness:0.8
;Top/Bottom Thickness:1
;Out Wall Line Width:0.4
;Inner Wall Line Width:0.4
;Inital Layer Height:200
;Wall Line Count:1
;Infill Line Distance:4
;Infill Pattern:grid
;Infill Sparse Density:20
;Infill Wipe Distance:0
;Print Temperature:200
;Bed Temperature:60
;Support Enable:false
;Support Density:30
;Support Angle:1.0472
;Adhesion Type:none
;machine is belt:false
;machine belt offset:10
;machine belt offset Y:0
;----------Shell Config----------------
;Outer Wall Wipe Distance:200
;Infill Before Walls:false
;Infill Overlap:0.16
;Fill Gaps Between Walls:everywhere
;Minimum Infill Area:1
;Top Surface Skin Layer:0
;Top Layers:2
;Z Seam Alignment:sharpest_corner
;Seam Corner Preference:z_seam_corner_inner
;Z Seam X:82.5
;Z Seam Y:82.5
;Horizontal Expansion:0
;Top/Bottom Pattern:zigzag
;Ironing Pattern:zigzag
;Vase Model:false
;----------Support Config----------------
;Support Type:everywhere
;Support Pattern:zigzag
;Support Infill Layer Thickness:0.3
;Minimum Support Area:10
;Enable Support Roof:false
;Support Roof Thickness:0.8
;Support Roof Pattern:lines
; ---------PrintSpeed & Travel----------
;Enable Print Cool:true
;Avoid Printed Parts Traveling:true
;Enable Retraction:true
;Retraction Distance:8
;Retraction Speed:100
;Retraction Prime Speed:100
;Maximum Retraction Count:100
;Minimum Extrusion Distance Window:1
;Z Hop When Retracted:false
;Z Hop Height:0.2
;Retract Before Outer Wall:true
;Print Speed:50
;Infill Speed:50

;Prime Tower Speed:50
;Travel Speed:120
;Initial Layer Speed:25
;Skirt/Brim Speed:25
;Combing Mode:off
;---------------------End of Head--------------------------
M140 S60
M104 S200
M105
M109 S200
M82 ;absolute extrusion mode
M220 S100 ;Reset Feedrate
M221 S100 ;Reset Flowrate

G28 ;Home

G92 E0 ;Reset Extruder
G1 Z2.0 F3000 ;Move Z Axis up
G1 X10.1 Y20 Z0.28 F5000.0 ;Move to start position
G1 X10.1 Y145.0 Z0.28 F1500.0 E15 ;Draw the first line
G1 X10.4 Y145.0 Z0.28 F5000.0 ;Move to side a little
G1 X10.4 Y20 Z0.28 F1500.0 E30 ;Draw the second line
G92 E0  ;Reset Extruder
G1 E-1.0000 F1800 ;Retract a bit
G1 Z2.0 F3000 ;Move Z Axis up
G1 E0.0000 F1800 

G92 E0
G92 E0
G1 F6000 E-8

;LAYER_COUNT:10

;LAYER:0
M107
;MESH:
G0 F3600 X84.7 Y93.624 Z0.2
;TYPE:WALL-OUTER
G1 F6000 E0
G1 F1500 X84.5 Y93.624 E0.00732
G1 X80.3 Y93.629 E0.16098
G1 X80.3 Y96.842 E0.27853
G1 X80.371 Y97.238 E0.29325
G1 X80.518 Y97.517 E0.30479
G1 X80.817 Y97.814 E0.32021
G1 X81.199 Y97.987 E0.33555
G1 X81.487 Y98.024 E0.34617
G1 X83.518 Y98.024 E0.42048
G1 X83.914 Y97.953 E0.4352
G1 X84.193 Y97.806 E0.44674
G1 X84.49 Y97.507 E0.46215
G1 X84.663 Y97.125 E0.4775
G1 X84.7 Y96.797 E0.48957
G1 X84.7 Y93.824 E0.59834
G1 X84.7 Y93.624 E0.60308
G0 F3600 X84.5 Y93.624
G0 X84.5 Y93.184
;;retract;;
G1 F6000 E-7.39692
G0 F3600 X84.471 Y89.961
G1 F6000 E0.60308
G1 F1500 X91.039 Y89.961 E0.84338
G1 X91.039 Y93.624 E0.97739
G1 X89.474 Y93.624 E1.03465
G1 X89.03 Y93.655 E1.05094
G1 X88.587 Y93.75 E1.06751
G1 X88.162 Y93.907 E1.08409
G1 X87.76 Y94.125 E1.10082
G1 X87.394 Y94.397 E1.1175
G1 X87.073 Y94.715 E1.13403
G1 X86.797 Y95.081 E1.1508
G1 X86.578 Y95.477 E1.16736
G1 X86.417 Y95.899 E1.18389
G1 X86.319 Y96.34 E1.20041
G1 X86.267 Y96.788 E1.21691
G1 X86.182 Y97.199 E1.23227
G1 X86.04 Y97.605 E1.24801
G1 X85.851 Y97.985 E1.26353
G1 X85.609 Y98.344 E1.27937
G1 X85.332 Y98.659 E1.29472
G1 X85.001 Y98.948 E1.3108
G1 X84.809 Y99.083 E1.31938
G1 X84.461 Y99.283 E1.33407
G1 X84.064 Y99.447 E1.34978
G1 X83.65 Y99.558 E1.36546
G1 X83.225 Y99.615 E1.38115
G1 X82.993 Y99.624 E1.38965
G1 X81.795 Y99.618 E1.43348
G1 X81.373 Y99.565 E1.44904
G1 X80.958 Y99.455 E1.46475
G1 X80.558 Y99.294 E1.48052
G1 X80.359 Y99.187 E1.48879
G1 X80.004 Y98.952 E1.50436
G1 X79.688 Y98.679 E1.51964
G1 X79.405 Y98.362 E1.53519
G1 X79.164 Y98.01 E1.5508
G1 X78.965 Y97.615 E1.56698
G1 X78.828 Y97.228 E1.582
G1 X78.736 Y96.797 E1.59812
G1 X78.682 Y96.341 E1.61492
G1 X78.588 Y95.914 E1.63092
G1 X78.429 Y95.49 E1.64749
G1 X78.208 Y95.088 E1.66427
G1 X77.936 Y94.726 E1.68084
G1 X77.612 Y94.403 E1.69757
G1 X77.249 Y94.132 E1.71415
G1 X76.848 Y93.913 E1.73086
G1 X76.423 Y93.756 E1.74744
G1 X75.977 Y93.658 E1.76415
G1 X75.531 Y93.625 E1.78051
G1 X73.961 Y93.624 E1.83795
G1 X73.961 Y89.961 E1.97196
G1 X80.548 Y89.961 E2.21296
G1 X80.548 Y65.376 E3.11243
G1 X84.471 Y65.376 E3.25596
G1 X84.471 Y89.961 E4.15543
G0 F3600 X84.671 Y89.961
G0 X84.671 Y90.401
;;retract;;
G1 F6000 E-3.84457
G0 F3600 X74.2 Y93.383
;TYPE:SKIN
G1 F6000 E4.15543
G1 F1500 X74.715 Y93.383 E4.17427
G1 X75.282 Y93.384 E4.19501
G1 X74.2 Y92.302 E4.251
G1 X74.2 Y91.737 E4.27167
G1 X75.872 Y93.408 E4.35815
G1 X76.011 Y93.419 E4.36325
G1 X76.489 Y93.525 E4.38117
G1 X76.591 Y93.562 E4.38514
G1 X74.2 Y91.171 E4.50885
G1 X74.2 Y90.605 E4.52955
G1 X80.06 Y96.464 E4.83273
G1 X80.06 Y95.899 E4.8534
G1 X74.36 Y90.199 E5.14832
G1 X74.926 Y90.199 E5.16903
G1 X80.06 Y95.333 E5.43467
G1 X80.06 Y94.767 E5.45537
G1 X75.492 Y90.199 E5.69172
G1 X76.057 Y90.199 E5.7124
G1 X80.06 Y94.202 E5.91951
G1 X80.06 Y93.636 E5.94022
G1 X76.623 Y90.199 E6.11805
G1 X77.189 Y90.199 E6.13876
G1 X80.376 Y93.387 E6.30368
G1 X80.941 Y93.386 E6.32436
G1 X77.754 Y90.199 E6.48925
G1 X78.32 Y90.199 E6.50996
G1 X81.506 Y93.386 E6.67483
G1 X82.072 Y93.386 E6.69554
G1 X78.886 Y90.199 E6.86041
G1 X79.451 Y90.199 E6.88108
G1 X82.637 Y93.385 E7.04593
G1 X83.202 Y93.384 E7.0666
G1 X80.017 Y90.199 E7.23139
G1 X80.583 Y90.199 E7.2521
G1 X83.767 Y93.384 E7.41687
G1 X84.332 Y93.383 E7.43754
G1 X80.787 Y89.838 E7.62096
G1 X80.787 Y89.272 E7.64167
G1 X84.898 Y93.383 E7.85437
G0 F3600 X84.939 Y93.425
G1 F1500 X84.939 Y93.99 E7.87505
G1 X86.35 Y95.401 E7.94805
G1 X86.194 Y95.81 E7.96407
G1 X84.939 Y94.556 E8.02898
G1 X84.939 Y95.122 E8.04968
G1 X86.089 Y96.271 E8.10916
G1 X86.083 Y96.299 E8.11021
G1 X86.029 Y96.749 E8.12679
G1 X86.025 Y96.773 E8.12768
G1 X84.939 Y95.687 E8.18387
G1 X84.939 Y96.253 E8.20458
G1 X85.917 Y97.23 E8.25515
G1 X85.818 Y97.51 E8.26602
G1 X85.756 Y97.635 E8.27112
G1 X84.938 Y96.817 E8.31345
G1 X84.896 Y97.188 E8.32711
G1 X84.848 Y97.293 E8.33133
G1 X85.552 Y97.997 E8.36776
G1 X85.418 Y98.197 E8.37657
G1 X85.31 Y98.321 E8.38258
G1 X84.661 Y97.672 E8.41616
G1 X84.38 Y97.956 E8.43078
G1 X85.027 Y98.603 E8.46425
G1 X84.852 Y98.758 E8.47281
G1 X84.712 Y98.854 E8.47902
G1 X84.024 Y98.166 E8.51462
G1 X83.992 Y98.181 E8.51591
G1 X83.553 Y98.26 E8.53223
G1 X84.357 Y99.064 E8.57383
G1 X84.353 Y99.067 E8.57401
G1 X83.988 Y99.218 E8.58846
G1 X83.953 Y99.226 E8.58978
G1 X82.989 Y98.263 E8.63963
G1 X82.423 Y98.263 E8.66034
G1 X83.495 Y99.335 E8.7158
G1 X83.205 Y99.374 E8.72651
G1 X82.983 Y99.383 E8.73464
G1 X82.977 Y99.382 E8.73486
G1 X81.858 Y98.263 E8.79276
G1 X81.47 Y98.263 E8.80695
G1 X81.267 Y98.237 E8.81444
G1 X82.409 Y99.38 E8.87355
G1 X81.841 Y99.377 E8.89433
G1 X78.939 Y96.475 E9.04449
G1 X78.973 Y96.757 E9.05488
G1 X79.058 Y97.159 E9.06991
G0 F3600 X79.059 Y97.161
G1 F1500 X81.156 Y99.258 E9.17841
G1 X81.037 Y99.227 E9.18291
G1 X80.654 Y99.072 E9.19803
G1 X80.48 Y98.979 E9.20524
G1 X80.149 Y98.76 E9.21976
G1 X79.857 Y98.507 E9.2339
G1 X79.594 Y98.212 E9.24836
G1 X79.371 Y97.886 E9.26281
G1 X79.186 Y97.518 E9.27788
;;retract;;
G1 F6000 E1.27788
G0 F3600 X81.132 Y98.22
G1 F6000 E9.27788
G1 F1500 X80.679 Y98.013 E9.2961
G1 X80.321 Y97.659 E9.31452
G1 X80.142 Y97.316 E9.32868
G1 X80.097 Y97.068 E9.3379
G1 X78.784 Y95.754 E9.40586
G1 X78.647 Y95.388 E9.42016
G1 X78.409 Y94.955 E9.43823
G1 X78.116 Y94.567 E9.45602
G1 X77.769 Y94.22 E9.47398
G1 X77.379 Y93.928 E9.4918
G1 X76.948 Y93.692 E9.50978
;;retract;;
G1 F6000 E1.50978
G0 F3600 X74.2 Y92.868
G1 F6000 E9.50978
G1 F1500 X74.715 Y93.383 E9.53643
;;retract;;
G1 F6000 E1.53643
G0 F3600 X84.231 Y90.2
G1 F6000 E9.53643
G1 F1500 X84.231 Y89.888 E9.54784
G1 X80.787 Y86.444 E9.72603
G1 X80.787 Y85.878 E9.74674
G1 X84.231 Y89.322 E9.92494
G1 X84.231 Y88.756 E9.94564
G1 X80.787 Y85.313 E10.12381
G1 X80.787 Y84.747 E10.14452
G1 X84.231 Y88.191 E10.32272
G1 X84.231 Y87.625 E10.34342
G1 X80.787 Y84.181 E10.52162
G1 X80.787 Y83.616 E10.54229
G1 X84.231 Y87.059 E10.72046
G1 X84.231 Y86.494 E10.74113
G1 X80.787 Y83.05 E10.91932
G1 X80.787 Y82.484 E10.94003
G1 X84.231 Y85.928 E11.11823
G1 X84.231 Y85.362 E11.13893
G1 X80.787 Y81.919 E11.3171
G1 X80.787 Y81.353 E11.33781
G1 X84.231 Y84.796 E11.51598
G1 X84.231 Y84.231 E11.53665
G1 X80.787 Y80.787 E11.71485
G1 X80.787 Y80.221 E11.73555
G1 X84.231 Y83.665 E11.91375
G1 X84.231 Y83.099 E11.93446
G1 X80.787 Y79.656 E12.11263
G1 X80.787 Y79.09 E12.13333
G1 X84.231 Y82.534 E12.31153
G1 X84.231 Y81.968 E12.33224
G1 X80.787 Y78.524 E12.51043
G1 X80.787 Y77.959 E12.5311
G1 X84.231 Y81.402 E12.70927
G1 X84.231 Y80.837 E12.72994
G1 X80.787 Y77.393 E12.90814
G1 X80.787 Y76.827 E12.92884
G1 X84.231 Y80.271 E13.10704
G1 X84.231 Y79.705 E13.12775
G1 X80.787 Y76.262 E13.30592
G1 X80.787 Y75.696 E13.32662
G1 X84.231 Y79.14 E13.50482
G1 X84.231 Y78.574 E13.52553
G1 X80.787 Y75.13 E13.70372
G1 X80.787 Y74.565 E13.72439
G1 X84.231 Y78.008 E13.90256
G1 X84.23 Y77.442 E13.92327
G1 X80.787 Y73.999 E14.10141
G1 X80.787 Y73.433 E14.12212
G1 X84.23 Y76.876 E14.30026
G1 X84.23 Y76.31 E14.32097
G1 X80.787 Y72.868 E14.49909
G1 X80.787 Y72.302 E14.51979
G1 X84.23 Y75.745 E14.69794
G1 X84.23 Y75.179 E14.71865
G1 X80.787 Y71.736 E14.89679
G1 X80.787 Y71.171 E14.91746
G1 X84.23 Y74.613 E15.09558
G1 X84.23 Y74.048 E15.11625
G1 X80.787 Y70.605 E15.29439
G1 X80.787 Y70.039 E15.3151
G1 X84.23 Y73.482 E15.49324
G1 X84.23 Y72.916 E15.51395
G1 X80.787 Y69.473 E15.69209
G1 X80.787 Y68.908 E15.71276
G1 X84.23 Y72.351 E15.89091
G1 X84.23 Y71.785 E15.91161
G1 X80.787 Y68.342 E16.08976
G1 X80.787 Y67.776 E16.11046
G1 X84.23 Y71.219 E16.28861
G1 X84.23 Y70.654 E16.30928
G1 X80.787 Y67.211 E16.48742
G1 X80.787 Y66.645 E16.50813
G1 X84.23 Y70.088 E16.68627
G1 X84.23 Y69.522 E16.70698
G1 X80.787 Y66.079 E16.88512
G1 X80.787 Y65.615 E16.9021
G1 X80.889 Y65.615 E16.90583
G1 X84.23 Y68.957 E17.07872
G1 X84.23 Y68.391 E17.09943
G1 X81.455 Y65.615 E17.24304
G1 X82.02 Y65.615 E17.26371
G1 X84.23 Y67.825 E17.37805
G1 X84.23 Y67.259 E17.39876
G1 X82.586 Y65.615 E17.48382
G1 X83.152 Y65.615 E17.50453
G1 X84.23 Y66.694 E17.56033
G1 X84.23 Y66.128 E17.58104
G1 X83.717 Y65.615 E17.60758
G1 X84.229 Y65.615 E17.62632
;;retract;;
G1 F6000 E9.62632
G0 F3600 X90.798 Y90.201
G1 F6000 E17.62632
G1 F1500 X90.767 Y90.201 E17.62745
G1 X90.201 Y90.201 E17.64816
G1 X90.798 Y90.798 E17.67905
G1 X90.798 Y91.364 E17.69976
G1 X89.635 Y90.201 E17.75993
G1 X89.069 Y90.201 E17.78064
G1 X90.799 Y91.93 E17.87012
G1 X90.799 Y92.496 E17.89083
G1 X88.504 Y90.201 E18.00958
G1 X87.938 Y90.201 E18.03028
G1 X90.799 Y93.062 E18.17831
G1 X90.799 Y93.383 E18.19006
G1 X90.554 Y93.383 E18.19902
G1 X87.372 Y90.201 E18.36366
G1 X86.807 Y90.201 E18.38433
G1 X89.989 Y93.383 E18.54897
G1 X89.465 Y93.383 E18.56814
G1 X89.425 Y93.385 E18.56961
G1 X86.241 Y90.201 E18.73435
G1 X85.675 Y90.201 E18.75506
G1 X88.908 Y93.433 E18.92231
G1 X88.519 Y93.517 E18.93687
G1 X88.451 Y93.542 E18.93952
G1 X85.11 Y90.201 E19.11238
G1 X84.544 Y90.201 E19.13309
G1 X88.04 Y93.697 E19.31398
G1 X87.674 Y93.896 E19.32922
G1 X80.787 Y87.01 E19.68553
G1 X80.787 Y87.575 E19.7062
G1 X87.344 Y94.132 E20.04546
G1 X87.236 Y94.214 E20.05043
G1 X87.046 Y94.4 E20.06015
G1 X80.787 Y88.141 E20.384
G1 X80.787 Y88.707 E20.40471
G1 X86.782 Y94.702 E20.71489
G1 X86.595 Y94.948 E20.7262
G1 X86.548 Y95.033 E20.72975
G1 X84.939 Y93.425 E20.81297
G1 X84.94 Y93.383 E20.81451
;MESH:NONMESH
G0 F600 X84.94 Y93.383 Z0.5
G0 F3600 X84.7 Y93.624
;TIME_ELAPSED:36.201635

;LAYER:1
M140 S60
M106 S127.5
;TYPE:WALL-OUTER
;MESH:
G1 F1500 X80.5 Y93.624 E21.02405
G1 X80.3 Y93.624 E21.03403
G1 X80.3 Y93.824 E21.04049
G1 X80.305 Y96.946 E21.19625
G1 X80.376 Y97.251 E21.21187
G1 X80.529 Y97.531 E21.22779
G1 X80.817 Y97.814 E21.24793
G1 X81.183 Y97.982 E21.26802
G1 X81.486 Y98.024 E21.28329
G1 X83.622 Y98.019 E21.38985
G1 X83.927 Y97.948 E21.40548
G1 X84.207 Y97.795 E21.42139
G1 X84.49 Y97.507 E21.44154
G1 X84.658 Y97.142 E21.46158
G1 X84.7 Y96.838 E21.4769
G1 X84.7 Y93.624 E21.63724
G0 F5400 X84.5 Y93.624
G0 X84.5 Y93.184
;;retract;;
G1 F6000 E13.63724
G0 F5400 X84.471 Y89.961
G1 F6000 E21.63724
G1 F1500 X91.039 Y89.961 E21.96492
G1 X91.039 Y93.624 E22.14767
G1 X89.474 Y93.624 E22.22575
G1 X89.034 Y93.654 E22.24775
G1 X88.596 Y93.748 E22.2701
G1 X88.179 Y93.901 E22.29226
G1 X87.935 Y94.023 E22.30587
G1 X87.58 Y94.25 E22.32689
G1 X87.245 Y94.536 E22.34887
G1 X87.054 Y94.739 E22.36277
G1 X86.8 Y95.077 E22.38387
G1 X86.583 Y95.466 E22.40609
G1 X86.424 Y95.877 E22.42808
G1 X86.355 Y96.143 E22.44179
G1 X86.296 Y96.535 E22.46156
G1 X86.268 Y96.782 E22.47396
G1 X86.185 Y97.181 E22.4943
G1 X86.118 Y97.404 E22.50591
G1 X85.959 Y97.784 E22.52646
G1 X85.851 Y97.987 E22.53794
G1 X85.626 Y98.32 E22.55799
G1 X85.466 Y98.516 E22.57061
G1 X85.189 Y98.791 E22.59008
G1 X84.998 Y98.95 E22.60248
G1 X84.787 Y99.096 E22.61528
G1 X84.474 Y99.275 E22.63327
G1 X84.264 Y99.373 E22.64483
G1 X83.875 Y99.504 E22.66531
G1 X83.64 Y99.562 E22.67739
G1 X83.256 Y99.612 E22.69671
G1 X82.992 Y99.624 E22.70989
G1 X81.821 Y99.619 E22.76831
G1 X81.573 Y99.597 E22.78074
G1 X81.195 Y99.524 E22.79994
G1 X80.943 Y99.45 E22.81305
G1 X80.584 Y99.305 E22.83236
G1 X80.339 Y99.174 E22.84622
G1 X80 Y98.949 E22.86652
G1 X79.71 Y98.698 E22.88566
G1 X79.528 Y98.51 E22.89871
G1 X79.297 Y98.215 E22.9174
G1 X79.157 Y98 E22.9302
G1 X78.981 Y97.65 E22.94975
G1 X78.887 Y97.415 E22.96238
G1 X78.78 Y97.037 E22.98198
G1 X78.732 Y96.782 E22.99492
G1 X78.68 Y96.323 E23.01797
G1 X78.592 Y95.926 E23.03825
G1 X78.438 Y95.511 E23.06034
G1 X78.31 Y95.257 E23.07453
G1 X78.094 Y94.924 E23.09433
G1 X77.917 Y94.705 E23.10838
G1 X77.617 Y94.407 E23.12948
G1 X77.262 Y94.14 E23.15164
G1 X76.857 Y93.917 E23.1747
G1 X76.437 Y93.76 E23.19707
G1 X75.984 Y93.659 E23.22023
G1 X75.542 Y93.625 E23.24234
G1 X73.961 Y93.624 E23.32122
G1 X73.961 Y89.961 E23.50397
G1 X80.548 Y89.961 E23.8326
G1 X80.548 Y65.376 E25.05915
G1 X84.471 Y65.376 E25.25487
G1 X84.471 Y89.961 E26.48142
G0 F5400 X84.671 Y89.961
G0 X84.671 Y90.401
;;retract;;
G1 F6000 E18.48142
G0 F5400 X90.799 Y93.383
;TYPE:SKIN
G1 F6000 E26.48142
G1 F1500 X90.798 Y93.048 E26.49813
G1 X90.798 Y92.483 E26.52632
G1 X89.898 Y93.383 E26.58982
G1 X89.465 Y93.383 E26.61142
G1 X89.323 Y93.393 E26.61852
G1 X90.798 Y91.917 E26.72263
G1 X90.798 Y91.352 E26.75081
G1 X88.664 Y93.486 E26.90138
G1 X88.529 Y93.515 E26.90827
G1 X88.084 Y93.678 E26.93191
G1 X87.815 Y93.813 E26.94693
G1 X87.692 Y93.892 E26.95422
G1 X87.436 Y94.056 E26.96939
G1 X87.079 Y94.361 E26.99281
G1 X86.87 Y94.583 E27.00803
G1 X86.597 Y94.944 E27.03061
G0 F5400 X86.544 Y95.04
G1 F1500 X84.94 Y96.644 E27.14378
G1 X84.939 Y96.854 E27.15425
G1 X84.89 Y97.208 E27.17208
G1 X84.847 Y97.302 E27.17724
G1 X86.141 Y96.008 E27.26854
G1 X86.119 Y96.094 E27.27297
G1 X86.057 Y96.503 E27.29361
G1 X86.037 Y96.679 E27.30244
G1 X83.36 Y99.355 E27.49128
G1 X83.594 Y99.325 E27.50305
G1 X83.801 Y99.274 E27.51369
G1 X84.112 Y99.169 E27.53007
G1 X85.841 Y97.44 E27.65206
G1 X85.742 Y97.678 E27.66492
G1 X85.644 Y97.862 E27.67532
G1 X85.431 Y98.178 E27.69433
G1 X85.289 Y98.353 E27.70557
G1 X85.028 Y98.61 E27.72385
G0 F5400 X85.029 Y98.61
G1 F1500 X84.846 Y98.762 E27.73572
G1 X84.665 Y98.888 E27.74672
G1 X84.358 Y99.062 E27.76432
G1 X84.181 Y99.146 E27.7741
;;retract;;
G1 F6000 E19.7741
G0 F5400 X84.69 Y97.644
G1 F6000 E27.7741
G1 F1500 X84.352 Y97.987 E27.79812
G1 X84.012 Y98.174 E27.81748
G1 X83.965 Y98.185 E27.81989
G1 X82.768 Y99.382 E27.90435
G1 X82.204 Y99.38 E27.93248
