; generated by Slic3r Prusa Edition 1.39.1-prusa3d on 2018-05-09 at 12:53:31

; 

; external perimeters extrusion width = 0.45mm
; perimeters extrusion width = 0.45mm
; infill extrusion width = 0.45mm
; solid infill extrusion width = 0.45mm
; top infill extrusion width = 0.33mm
; first layer extrusion width = 0.42mm

M107
M115 U3.1.0 ; tell printer latest fw version
M201 X9000 Y9000 Z500 E10000 ; sets maximum accelerations, mm/sec^2
M203 X500 Y500 Z12 E120 ; sets maximum feedrates, mm/sec
M204 S1500 T1500 ; sets acceleration (S) and retract acceleration (T)
M205 X10 Y10 Z0.2 E2.5 ; sets the jerk limits, mm/sec
M205 S0 T0 ; sets the minimum extruding and travel feed rate, mm/sec
M83  ; extruder relative mode
M104 S200 ; set extruder temp
M140 S65 ; set bed temp
M190 S65 ; wait for bed temp
M109 S200 ; wait for extruder temp
G28 W ; home all without mesh bed level
G80 ; mesh bed leveling
G1 Y-3.0 F1000.0 ; go outside print area
G92 E0.0
G1 E18.0 F1000.0;
G1 X60.0 E9.0  F1000.0 ; intro line
G1 X100.0 E12.5  F1000.0 ; intro line
G92 E0.0
M900 K30; Filament gcode
G21 ; set units to millimeters
G90 ; use absolute coordinates
M83 ; use relative distances for extrusion
;BEFORE_LAYER_CHANGE
;0.2


G1 E-0.80000 F2100.00000
G1 Z0.600 F7200.000
;AFTER_LAYER_CHANGE
;0.2
G1 X103.041 Y80.063 F7200.000
G1 Z0.200 F7200.000
G1 E0.80000 F2100.00000
M204 S1000
G1 F900
G1 X103.823 Y80.472 E0.02765
G1 X104.434 Y81.107 E0.02765
G1 X104.813 Y81.899 E0.02752
G1 X111.427 Y106.657 E0.80351
G1 X111.493 Y107.226 E0.01796
G1 X111.485 Y111.537 E0.13516
G1 X111.241 Y112.477 E0.03044
G1 X110.686 Y113.273 E0.03044
G1 X103.988 Y119.015 E0.27662
G1 X102.894 Y119.602 E0.03892
G1 X101.761 Y119.949 E0.03715
G1 X100.856 Y120.067 E0.02863
G1 X99.061 Y120.063 E0.05629
G1 X98.280 Y119.958 E0.02468
G1 X97.491 Y119.747 E0.02561
G1 X96.745 Y119.438 E0.02532
G1 X95.981 Y118.993 E0.02772
G1 X89.120 Y113.057 E0.28447
G1 X88.714 Y112.372 E0.02498
G1 X88.520 Y111.599 E0.02498
G1 X88.515 Y107.048 E0.14270
G1 X95.187 Y81.963 E0.81386
G1 X95.387 Y81.439 E0.01758
G1 X95.719 Y80.928 E0.01912
G1 X96.156 Y80.502 E0.01912
G1 X96.672 Y80.185 E0.01899
G1 X97.248 Y79.988 E0.01912
G1 X97.809 Y79.922 E0.01771
G1 X102.175 Y79.922 E0.13688
G1 X102.982 Y80.053 E0.02564
G1 X102.922 Y80.421 F7200.000
G1 F900
G1 X103.601 Y80.777 E0.02406
G1 X104.131 Y81.331 E0.02402
G1 X104.456 Y82.021 E0.02390
G1 X111.058 Y106.736 E0.80210
G1 X111.116 Y107.234 E0.01574
G1 X111.109 Y111.511 E0.13408
G1 X110.892 Y112.331 E0.02661
G1 X110.404 Y113.021 E0.02649
G1 X103.769 Y118.708 E0.27400
G1 X102.748 Y119.254 E0.03632
G1 X101.676 Y119.582 E0.03513
G1 X100.833 Y119.691 E0.02665
G1 X99.085 Y119.687 E0.05479
G1 X98.344 Y119.587 E0.02344
G1 X97.572 Y119.375 E0.02511
G1 X96.663 Y118.970 E0.03120
G1 X96.008 Y118.550 E0.02439
G1 X89.412 Y112.818 E0.27399
G1 X89.058 Y112.217 E0.02190
G1 X88.893 Y111.538 E0.02190
G1 X88.891 Y107.074 E0.13996
G1 X95.718 Y81.619 E0.82633
G1 X96.011 Y81.166 E0.01692
G1 X96.396 Y80.793 E0.01680
G1 X96.858 Y80.514 E0.01692
G1 X97.371 Y80.347 E0.01692
G1 X102.175 Y80.299 E0.15062
G1 X102.862 Y80.412 E0.02185
G1 F5760
G1 X103.601 Y80.777 E-0.28558
G1 F5760
G1 X104.131 Y81.331 E-0.26533
G1 F5760
G1 X104.388 Y81.877 E-0.20909
G1 E-0.04000 F2100.00000
G1 Z0.800 F7200.000
G1 X102.588 Y110.737 F7200.000
G1 Z0.200 F7200.000
G1 E0.80000 F2100.00000
G1 F900
G1 X102.580 Y114.517 E0.11851
G1 X102.492 Y114.871 E0.01144
G1 X102.406 Y115.062 E0.00657
G1 X102.298 Y115.242 E0.00657
G1 X102.055 Y115.515 E0.01147
G1 X101.754 Y115.723 E0.01147
G1 X101.547 Y115.816 E0.00713
G1 X101.193 Y115.904 E0.01143
G1 X98.965 Y115.911 E0.06984
G1 X98.619 Y115.869 E0.01094
G1 X98.260 Y115.733 E0.01203
G1 X97.959 Y115.526 E0.01147
G1 X97.810 Y115.376 E0.00663
G1 X97.678 Y115.205 E0.00677
G1 X97.512 Y114.888 E0.01122
G1 X97.420 Y114.517 E0.01199
G1 X97.412 Y110.737 E0.11851
G1 X102.528 Y110.737 E0.16044
G1 X102.210 Y111.114 F7200.000
G1 F900
G1 X102.203 Y114.470 E0.10523
G1 X102.134 Y114.748 E0.00895
G1 X102.072 Y114.887 E0.00478
G1 X101.993 Y115.017 E0.00478
G1 X101.803 Y115.231 E0.00896
G1 X101.568 Y115.393 E0.00896
G1 X101.423 Y115.459 E0.00498
G1 X101.146 Y115.527 E0.00895
G1 X98.988 Y115.534 E0.06769
G1 X98.710 Y115.501 E0.00877
G1 X98.437 Y115.397 E0.00916
G1 X98.202 Y115.235 E0.00896
G1 X97.996 Y115.001 E0.00976
G1 X97.867 Y114.754 E0.00875
G1 X97.797 Y114.470 E0.00914
G1 X97.790 Y111.114 E0.10523
G1 X102.150 Y111.114 E0.13674
G1 X102.601 Y111.029 F7200.000
G1 F5760
G1 X102.185 Y113.308 E-0.76000
G1 E-0.04000 F2100.00000
G1 Z0.800 F7200.000
G1 X101.584 Y107.848 F7200.000
G1 Z0.200 F7200.000
G1 E0.80000 F2100.00000
G1 F900
G1 X108.152 Y107.848 E0.20595
G1 X108.152 Y110.737 E0.09059
G1 X106.956 Y110.737 E0.03752
G1 X106.484 Y110.771 E0.01482
G1 X106.211 Y110.820 E0.00869
G1 X105.743 Y110.957 E0.01529
G1 X105.483 Y111.064 E0.00884
G1 X105.046 Y111.302 E0.01558
G1 X104.648 Y111.598 E0.01557
G1 X104.441 Y111.790 E0.00887
G1 X104.114 Y112.165 E0.01559
G1 X103.847 Y112.577 E0.01539
G1 X103.723 Y112.821 E0.00858
G1 X103.620 Y113.068 E0.00839
G1 X103.479 Y113.539 E0.01541
G1 X103.350 Y114.421 E0.02797
G1 X103.248 Y114.786 E0.01188
G1 X103.100 Y115.134 E0.01185
G1 X102.904 Y115.468 E0.01215
G1 X102.554 Y115.888 E0.01714
G1 X102.253 Y116.150 E0.01250
G1 X101.788 Y116.435 E0.01712
G1 X101.428 Y116.584 E0.01220
G1 X101.064 Y116.681 E0.01183
G1 X100.689 Y116.730 E0.01185
G1 X99.311 Y116.730 E0.04320
G1 X98.936 Y116.681 E0.01186
G1 X98.572 Y116.584 E0.01182
G1 X98.054 Y116.352 E0.01778
G1 X97.739 Y116.143 E0.01185
G1 X97.454 Y115.895 E0.01185
G1 X97.203 Y115.613 E0.01185
G1 X96.990 Y115.300 E0.01185
G1 X96.820 Y114.963 E0.01185
G1 X96.695 Y114.606 E0.01185
G1 X96.614 Y114.220 E0.01238
G1 X96.525 Y113.561 E0.02085
G1 X96.451 Y113.279 E0.00912
G1 X96.284 Y112.836 E0.01485
G1 X96.153 Y112.578 E0.00909
G1 X95.886 Y112.165 E0.01540
G1 X95.559 Y111.790 E0.01559
G1 X95.352 Y111.598 E0.00887
G1 X94.954 Y111.302 E0.01557
G1 X94.517 Y111.064 E0.01558
G1 X94.257 Y110.957 E0.00884
G1 X93.789 Y110.820 E0.01529
G1 X93.516 Y110.771 E0.00869
G1 X93.044 Y110.737 E0.01482
G1 X91.848 Y110.737 E0.03752
G1 X91.848 Y107.848 E0.09059
G1 X98.435 Y107.848 E0.20653
G1 X98.435 Y83.263 E0.77084
G1 X101.584 Y83.263 E0.09874
G1 X101.584 Y107.788 E0.76896
G1 X101.961 Y107.471 F7200.000
G1 F900
G1 X108.529 Y107.471 E0.20595
G1 X108.529 Y111.114 E0.11424
G1 X106.969 Y111.114 E0.04892
G1 X106.531 Y111.146 E0.01377
G1 X106.298 Y111.187 E0.00743
G1 X105.869 Y111.313 E0.01402
G1 X105.645 Y111.405 E0.00757
G1 X105.250 Y111.620 E0.01411
G1 X104.890 Y111.889 E0.01409
G1 X104.712 Y112.053 E0.00760
G1 X104.416 Y112.393 E0.01412
G1 X104.174 Y112.766 E0.01393
G1 X104.066 Y112.979 E0.00752
G1 X103.976 Y113.195 E0.00733
G1 X103.848 Y113.621 E0.01392
G1 X103.720 Y114.500 E0.02786
G1 X103.605 Y114.911 E0.01340
G1 X103.438 Y115.304 E0.01339
G1 X103.220 Y115.675 E0.01350
G1 X103.098 Y115.843 E0.00649
G1 X102.820 Y116.156 E0.01315
G1 X102.487 Y116.446 E0.01385
G1 X102.318 Y116.566 E0.00648
G1 X101.954 Y116.774 E0.01315
G1 X101.549 Y116.942 E0.01374
G1 X101.137 Y117.052 E0.01338
G1 X100.713 Y117.107 E0.01339
G1 X99.286 Y117.107 E0.04474
G1 X98.863 Y117.052 E0.01339
G1 X98.458 Y116.944 E0.01315
G1 X98.253 Y116.869 E0.00684
G1 X97.867 Y116.680 E0.01349
G1 X97.511 Y116.444 E0.01339
G1 X97.188 Y116.164 E0.01339
G1 X96.904 Y115.845 E0.01339
G1 X96.664 Y115.492 E0.01339
G1 X96.472 Y115.110 E0.01339
G1 X96.331 Y114.707 E0.01339
G1 X96.242 Y114.284 E0.01358
G1 X96.155 Y113.634 E0.02055
G1 X96.092 Y113.394 E0.00778
G1 X95.938 Y112.989 E0.01360
G1 X95.826 Y112.766 E0.00783
G1 X95.584 Y112.393 E0.01393
G1 X95.288 Y112.053 E0.01412
G1 X95.110 Y111.889 E0.00760
G1 X94.750 Y111.620 E0.01409
G1 X94.355 Y111.405 E0.01411
G1 X94.131 Y111.313 E0.00757
G1 X93.702 Y111.187 E0.01402
G1 X93.469 Y111.146 E0.00743
G1 X93.031 Y111.114 E0.01377
G1 X91.471 Y111.114 E0.04892
G1 X91.471 Y107.471 E0.11424
G1 X98.058 Y107.471 E0.20653
G1 X98.058 Y82.886 E0.77084
G1 X101.961 Y82.886 E0.12238
G1 X101.961 Y107.411 E0.76896
G1 X101.982 Y107.870 F7200.000
G1 F5760
G1 X104.155 Y107.431 E-0.76000
G1 E-0.04000 F2100.00000
G1 Z0.800 F7200.000
G1 X102.333 Y110.624 F7200.000
G1 Z0.200 F7200.000
G1 E0.80000 F2100.00000
G1 F900
G1 X98.718 Y107.009 E0.16046
G1 X98.718 Y107.543 E0.01675
G1 X101.629 Y110.454 E0.12923
G1 X101.095 Y110.454 E0.01675
G1 X98.718 Y108.077 E0.10554
G1 X98.718 Y108.131 E0.00169
G1 X98.238 Y108.131 E0.01506
G1 X100.561 Y110.454 E0.10314
G1 X100.028 Y110.454 E0.01675
G1 X97.704 Y108.131 E0.10314
G1 X97.170 Y108.131 E0.01675
G1 X99.494 Y110.454 E0.10314
G1 X98.960 Y110.454 E0.01675
G1 X96.636 Y108.131 E0.10314
G1 X96.102 Y108.131 E0.01675
G1 X98.426 Y110.454 E0.10314
G1 X97.892 Y110.454 E0.01675
G1 X95.569 Y108.131 E0.10314
G1 X95.035 Y108.131 E0.01675
G1 X97.358 Y110.454 E0.10314
G1 X97.128 Y110.454 E0.00723
G1 X97.129 Y110.758 E0.00955
G1 X94.501 Y108.131 E0.11664
G1 X93.967 Y108.131 E0.01675
G1 X97.130 Y111.294 E0.14039
G1 X97.131 Y111.829 E0.01679
G1 X93.433 Y108.131 E0.16414
G1 X92.899 Y108.131 E0.01675
G1 X97.133 Y112.364 E0.18789
G1 X97.134 Y112.899 E0.01679
G1 X92.366 Y108.131 E0.21164
G1 X92.131 Y108.131 E0.00738
G1 X92.131 Y108.429 E0.00938
G1 X94.419 Y110.718 E0.10156
G1 X93.853 Y110.544 E0.01856
G1 X93.681 Y110.513 E0.00551
G1 X92.131 Y108.963 E0.06880
G1 X92.131 Y109.497 E0.01675
G1 X93.091 Y110.457 E0.04261
G1 X92.554 Y110.454 E0.01684
G1 X91.961 Y109.861 E0.02633
G1 F5760
G1 X92.554 Y110.454 E-0.29061
G1 F5760
G1 X93.091 Y110.457 E-0.18580
G1 F5760
G1 X92.512 Y109.878 E-0.28360
G1 E-0.04000 F2100.00000
G1 Z0.800 F7200.000
G1 X96.709 Y114.075 F7200.000
G1 Z0.200 F7200.000
G1 E0.80000 F2100.00000
G1 F900
G1 X96.981 Y114.347 E0.01207
G1 X97.137 Y114.301 E0.00512
G1 X97.136 Y113.969 E0.01041
G1 X96.823 Y113.656 E0.01389
G1 X96.803 Y113.506 E0.00475
G1 X96.721 Y113.193 E0.01014
G1 X96.616 Y112.914 E0.00935
G1 X97.305 Y113.604 E0.03060
G1 F5760
G1 X96.616 Y112.914 E-0.33768
G1 F5760
G1 X96.721 Y113.193 E-0.10322
G1 F5760
G1 X96.803 Y113.506 E-0.11191
G1 F5760
G1 X96.823 Y113.656 E-0.05245
G1 F5760
G1 X97.136 Y113.969 E-0.15331
G1 F5760
G1 X97.136 Y113.973 E-0.00142
G1 E-0.04000 F2100.00000
G1 Z0.800 F7200.000
G1 X97.076 Y114.614 F7200.000
G1 Z0.200 F7200.000
G1 E0.80000 F2100.00000
G1 F900
G1 X97.213 Y115.019 E0.00831
G1 X97.410 Y115.364 E0.00773
G1 X97.585 Y115.584 E0.00547
G1 X97.772 Y115.767 E0.00508
G1 F900
G1 X98.127 Y116.021 E0.00925
G1 F900
G1 X98.217 Y116.067 E0.00234
G1 F900
G1 X98.537 Y116.205 E0.00900
G1 F900
G1 X98.729 Y116.252 E0.00525
G1 X99.111 Y116.024 F7200.000
G1 F900
G1 X99.534 Y116.447 E0.02028
G1 X100.110 Y116.447 E0.01955
G1 X99.854 Y116.191 E0.01227
G1 X100.429 Y116.189 E0.01948
G1 X100.836 Y116.596 E0.01953
G1 X101.286 Y116.252 F7200.000
G1 F900
G1 X101.643 Y116.135 E0.00721
G1 X101.900 Y116.005 E0.00552
G1 X102.268 Y115.734 E0.00876
G1 F900
G1 X102.560 Y115.410 E0.00896
G1 F900
G1 X102.691 Y115.203 E0.00527
G1 F900
G1 X102.811 Y114.967 E0.00631
G1 F900
G1 X102.929 Y114.613 E0.00995
G1 X103.264 Y114.225 F7200.000
G1 F900
G1 X102.864 Y113.825 E0.01777
G1 X102.865 Y113.292 E0.01672
G1 X103.183 Y113.610 E0.01410
G1 X103.202 Y113.477 E0.00420
G1 X103.290 Y113.183 E0.00963
G1 X102.867 Y112.759 E0.01881
G1 X102.868 Y112.227 E0.01672
G1 X103.430 Y112.789 E0.02496
G1 X103.605 Y112.431 E0.01253
G1 X102.869 Y111.694 E0.03268
G1 X102.870 Y111.162 E0.01672
G1 X103.815 Y112.107 E0.04194
G1 X104.050 Y111.808 E0.01193
G1 X98.718 Y106.475 E0.23671
G1 X98.718 Y105.941 E0.01675
G1 X104.306 Y111.530 E0.24805
G1 X104.595 Y111.285 E0.01189
G1 X98.718 Y105.408 E0.26089
G1 X98.718 Y104.874 E0.01675
G1 X101.301 Y107.457 E0.11467
G1 X101.301 Y106.923 E0.01675
G1 X98.718 Y104.340 E0.11467
G1 X98.718 Y103.806 E0.01675
G1 X101.301 Y106.390 E0.11467
G1 X101.301 Y105.856 E0.01675
G1 X98.718 Y103.272 E0.11467
G1 X98.718 Y102.739 E0.01675
G1 X101.301 Y105.322 E0.11467
G1 X101.301 Y104.788 E0.01675
G1 X98.718 Y102.205 E0.11467
G1 X98.718 Y101.671 E0.01675
G1 X101.301 Y104.254 E0.11467
G1 X101.301 Y103.721 E0.01675
G1 X98.718 Y101.137 E0.11467
G1 X98.718 Y100.603 E0.01675
G1 X101.301 Y103.187 E0.11467
G1 X101.301 Y102.653 E0.01675
G1 X98.718 Y100.069 E0.11467
G1 X98.718 Y99.536 E0.01675
G1 X101.301 Y102.119 E0.11467
G1 X101.301 Y101.585 E0.01675
G1 X98.718 Y99.002 E0.11467
G1 X98.718 Y98.468 E0.01675
G1 X101.301 Y101.051 E0.11467
G1 X101.301 Y100.518 E0.01675
G1 X98.718 Y97.934 E0.11467
G1 X98.718 Y97.400 E0.01675
G1 X101.301 Y99.984 E0.11467
G1 X101.301 Y99.450 E0.01675
G1 X98.718 Y96.867 E0.11467
G1 X98.718 Y96.333 E0.01675
G1 X101.301 Y98.916 E0.11467
G1 X101.301 Y98.382 E0.01675
G1 X98.718 Y95.799 E0.11467
G1 X98.718 Y95.265 E0.01675
G1 X101.301 Y97.849 E0.11467
G1 X101.301 Y97.315 E0.01675
G1 X98.718 Y94.731 E0.11467
G1 X98.718 Y94.197 E0.01675
G1 X101.301 Y96.781 E0.11467
G1 X101.301 Y96.247 E0.01675
G1 X98.718 Y93.664 E0.11467
G1 X98.718 Y93.130 E0.01675
G1 X101.301 Y95.713 E0.11467
G1 X101.301 Y95.180 E0.01675
G1 X98.718 Y92.596 E0.11467
G1 X98.718 Y92.062 E0.01675
G1 X101.301 Y94.646 E0.11467
G1 X101.301 Y94.112 E0.01675
G1 X98.718 Y91.528 E0.11467
G1 X98.718 Y90.995 E0.01675
G1 X101.301 Y93.578 E0.11467
G1 X101.301 Y93.044 E0.01675
G1 X98.718 Y90.461 E0.11467
G1 X98.718 Y89.927 E0.01675
G1 X101.301 Y92.510 E0.11467
G1 X101.301 Y91.977 E0.01675
G1 X98.718 Y89.393 E0.11467
G1 X98.718 Y88.859 E0.01675
G1 X101.301 Y91.443 E0.11467
G1 X101.301 Y90.909 E0.01675
G1 X98.718 Y88.325 E0.11467
G1 X98.718 Y87.792 E0.01675
G1 X101.301 Y90.375 E0.11467
G1 X101.301 Y89.841 E0.01675
G1 X98.718 Y87.258 E0.11467
G1 X98.718 Y86.724 E0.01675
G1 X101.301 Y89.308 E0.11467
G1 X101.301 Y88.774 E0.01675
G1 X98.718 Y86.190 E0.11467
G1 X98.718 Y85.656 E0.01675
G1 X101.301 Y88.240 E0.11467
G1 X101.301 Y87.706 E0.01675
G1 X98.718 Y85.123 E0.11467
G1 X98.718 Y84.589 E0.01675
G1 X101.301 Y87.172 E0.11467
G1 X101.301 Y86.638 E0.01675
G1 X98.718 Y84.055 E0.11467
G1 X98.718 Y83.546 E0.01598
G1 X98.742 Y83.546 E0.00077
G1 X101.301 Y86.105 E0.11359
G1 X101.301 Y85.571 E0.01675
G1 X99.276 Y83.546 E0.08989
G1 X99.810 Y83.546 E0.01675
G1 X101.301 Y85.037 E0.06620
G1 X101.301 Y84.503 E0.01675
G1 X100.343 Y83.546 E0.04250
G1 X100.877 Y83.546 E0.01675
G1 X101.471 Y84.139 E0.02634
G1 F5760
G1 X100.877 Y83.546 E-0.29066
G1 F5760
G1 X100.343 Y83.546 E-0.18489
G1 F5760
G1 X100.924 Y84.126 E-0.28445
G1 E-0.04000 F2100.00000
G1 Z0.800 F7200.000
G1 X108.039 Y108.323 F7200.000
G1 Z0.200 F7200.000
G1 E0.80000 F2100.00000
G1 F900
G1 X107.846 Y108.131 E0.00856
G1 X107.313 Y108.131 E0.01675
G1 X107.869 Y108.687 E0.02472
G1 X107.869 Y109.221 E0.01675
G1 X106.779 Y108.131 E0.04841
G1 X106.245 Y108.131 E0.01675
G1 X107.869 Y109.755 E0.07211
G1 X107.869 Y110.289 E0.01675
G1 X105.711 Y108.131 E0.09580
G1 X105.177 Y108.131 E0.01675
G1 X107.501 Y110.454 E0.10315
G1 X106.967 Y110.454 E0.01675
G1 X104.643 Y108.131 E0.10315
G1 X104.110 Y108.131 E0.01675
G1 X106.468 Y110.489 E0.10466
G1 X106.025 Y110.580 E0.01419
G1 X103.576 Y108.131 E0.10871
G1 X103.042 Y108.131 E0.01675
G1 X105.615 Y110.704 E0.11421
G1 X105.248 Y110.870 E0.01266
G1 X102.508 Y108.131 E0.12160
G1 X101.974 Y108.131 E0.01675
G1 X105.027 Y111.183 E0.13550
M106 S255
;BEFORE_LAYER_CHANGE
;0.5


G1 F5760
G1 X103.476 Y109.632 E-0.76000
G1 E-0.04000 F2100.00000
G1 Z0.800 F7200.000
;AFTER_LAYER_CHANGE
;0.5
G1 X97.388 Y110.714 F7200.000
G1 Z0.500 F7200.000
G1 E0.80000 F2100.00000
M204 S800
G1 F1562
G1 X102.612 Y110.714 E0.25126
G1 X102.603 Y114.520 E0.18306
G1 X102.515 Y114.879 E0.01779
G1 X102.427 Y115.073 E0.01025
G1 X102.317 Y115.256 E0.01025
G1 X102.068 Y115.537 E0.01805
G1 X101.726 Y115.766 E0.01981
G1 X101.402 Y115.886 E0.01660
G1 X101.177 Y115.927 E0.01101
G1 X98.964 Y115.935 E0.10644
G1 X98.613 Y115.892 E0.01699
G1 X98.249 Y115.754 E0.01873
G1 X97.944 Y115.544 E0.01783
G1 X97.790 Y115.389 E0.01052
G1 X97.648 Y115.201 E0.01135
G1 X97.489 Y114.895 E0.01655
G1 X97.397 Y114.520 E0.01861
G1 X97.388 Y110.774 E0.18017
M204 S1000
G1 X97.774 Y111.099 F7200.000
M204 S800
G1 F4800
G1 X102.226 Y111.099 E0.21408
G1 X102.218 Y114.472 E0.16224
G1 X102.149 Y114.753 E0.01388
