; generated by Slic3r Prusa Edition 1.39.1-prusa3d on 2018-04-22 at 18:22:40

; 

; external perimeters extrusion width = 0.45mm
; perimeters extrusion width = 0.45mm
; infill extrusion width = 0.45mm
; solid infill extrusion width = 0.45mm
; top infill extrusion width = 0.33mm
; first layer extrusion width = 0.42mm

M107
M115 U3.1.0 ; tell printer latest fw version
M201 X9000 Y9000 Z500 E10000 ; sets maximum accelerations, mm/sec^2
M203 X500 Y500 Z12 E120 ; sets maximum feedrates, mm/sec
M204 S1500 T1500 ; sets acceleration (S) and retract acceleration (T)
M205 X10 Y10 Z0.2 E2.5 ; sets the jerk limits, mm/sec
M205 S0 T0 ; sets the minimum extruding and travel feed rate, mm/sec
M83  ; extruder relative mode
M104 S215 ; set extruder temp
M140 S60 ; set bed temp
M190 S60 ; wait for bed temp
M109 S215 ; wait for extruder temp
G28 W ; home all without mesh bed level
G80 ; mesh bed leveling
G1 Y-3.0 F1000.0 ; go outside print area
G92 E0.0
G1 E18.0 F1000.0;
G1 X60.0 E9.0  F1000.0 ; intro line
G1 X100.0 E12.5  F1000.0 ; intro line
G92 E0.0
M900 K30; Filament gcode
G21 ; set units to millimeters
G90 ; use absolute coordinates
M83 ; use relative distances for extrusion
;BEFORE_LAYER_CHANGE
;0.2


G1 E-0.80000 F2100.00000
G1 Z0.600 F7200.000
;AFTER_LAYER_CHANGE
;0.2
G1 X128.041 Y85.063 F7200.000
G1 Z0.200 F7200.000
G1 E0.80000 F2100.00000
M204 S1000
G1 F900
G1 X128.823 Y85.472 E0.02765
G1 X129.434 Y86.107 E0.02765
G1 X129.813 Y86.899 E0.02752
G1 X136.427 Y111.657 E0.80351
G1 X136.493 Y112.226 E0.01796
G1 X136.485 Y116.537 E0.13516
G1 X136.241 Y117.477 E0.03044
G1 X135.686 Y118.273 E0.03044
G1 X128.991 Y124.013 E0.27649
G1 X127.898 Y124.600 E0.03892
G1 X126.761 Y124.949 E0.03728
G1 X125.856 Y125.067 E0.02863
G1 X124.061 Y125.063 E0.05629
G1 X123.280 Y124.958 E0.02468
G1 X122.491 Y124.747 E0.02561
G1 X121.745 Y124.438 E0.02532
G1 X120.984 Y123.996 E0.02760
G1 X114.120 Y118.057 E0.28459
G1 X113.714 Y117.372 E0.02498
G1 X113.520 Y116.599 E0.02498
G1 X113.515 Y112.048 E0.14270
G1 X120.187 Y86.963 E0.81386
G1 X120.389 Y86.435 E0.01771
G1 X120.719 Y85.928 E0.01899
G1 X121.156 Y85.502 E0.01912
G1 X121.672 Y85.185 E0.01899
G1 X122.248 Y84.988 E0.01912
G1 X122.809 Y84.922 E0.01771
G1 X127.175 Y84.922 E0.13688
G1 X127.982 Y85.053 E0.02564
G1 X127.922 Y85.421 F7200.000
G1 F900
G1 X128.601 Y85.777 E0.02406
G1 X129.131 Y86.331 E0.02402
G1 X129.456 Y87.021 E0.02390
G1 X136.058 Y111.736 E0.80210
G1 X136.116 Y112.234 E0.01574
G1 X136.109 Y116.511 E0.13408
G1 X135.892 Y117.331 E0.02661
G1 X135.404 Y118.021 E0.02649
G1 X128.769 Y123.708 E0.27400
G1 X127.744 Y124.256 E0.03644
G1 X126.676 Y124.582 E0.03502
G1 X125.837 Y124.691 E0.02653
G1 X124.085 Y124.687 E0.05492
G1 X123.344 Y124.587 E0.02344
G1 X122.572 Y124.375 E0.02511
G1 X121.663 Y123.970 E0.03120
G1 X121.008 Y123.550 E0.02439
G1 X114.412 Y117.818 E0.27399
G1 X114.058 Y117.217 E0.02190
G1 X113.893 Y116.538 E0.02190
G1 X113.891 Y112.074 E0.13996
G1 X120.718 Y86.619 E0.82633
G1 X121.011 Y86.166 E0.01692
G1 X121.396 Y85.793 E0.01680
G1 X121.858 Y85.514 E0.01692
G1 X122.371 Y85.347 E0.01692
G1 X127.175 Y85.299 E0.15062
G1 X127.862 Y85.412 E0.02185
G1 F5760
G1 X128.601 Y85.777 E-0.28558
G1 F5760
G1 X129.131 Y86.331 E-0.26533
G1 F5760
G1 X129.388 Y86.877 E-0.20909
G1 E-0.04000 F2100.00000
G1 Z0.800 F7200.000
G1 X127.588 Y115.737 F7200.000
G1 Z0.200 F7200.000
G1 E0.80000 F2100.00000
G1 F900
G1 X127.580 Y119.517 E0.11851
G1 X127.492 Y119.871 E0.01144
G1 X127.399 Y120.079 E0.00713
G1 X127.201 Y120.365 E0.01090
G1 X127.052 Y120.514 E0.00663
G1 X126.881 Y120.646 E0.00677
G1 X126.564 Y120.812 E0.01122
G1 X126.193 Y120.904 E0.01198
G1 X123.965 Y120.911 E0.06984
G1 X123.619 Y120.869 E0.01094
G1 X123.261 Y120.733 E0.01201
G1 X122.966 Y120.531 E0.01122
G1 X122.800 Y120.366 E0.00733
G1 X122.601 Y120.079 E0.01096
G1 X122.508 Y119.871 E0.00713
G1 X122.420 Y119.517 E0.01144
G1 X122.412 Y115.737 E0.11851
G1 X127.528 Y115.737 E0.16044
G1 X127.210 Y116.114 F7200.000
G1 F900
G1 X127.203 Y119.470 E0.10523
G1 X127.134 Y119.748 E0.00895
G1 X127.069 Y119.893 E0.00498
G1 X126.910 Y120.122 E0.00876
G1 X126.677 Y120.328 E0.00976
G1 X126.429 Y120.457 E0.00875
G1 X126.146 Y120.527 E0.00914
G1 X123.988 Y120.534 E0.06769
G1 X123.710 Y120.501 E0.00877
G1 X123.437 Y120.397 E0.00915
G1 X123.207 Y120.239 E0.00875
G1 X123.090 Y120.123 E0.00518
G1 X122.931 Y119.893 E0.00877
G1 X122.866 Y119.748 E0.00498
G1 X122.797 Y119.470 E0.00895
G1 X122.790 Y116.114 E0.10523
G1 X127.150 Y116.114 E0.13674
G1 X127.601 Y116.029 F7200.000
G1 F5760
G1 X127.185 Y118.308 E-0.76000
G1 E-0.04000 F2100.00000
G1 Z0.800 F7200.000
G1 X126.584 Y112.848 F7200.000
G1 Z0.200 F7200.000
G1 E0.80000 F2100.00000
G1 F900
G1 X133.152 Y112.848 E0.20595
G1 X133.152 Y115.737 E0.09059
G1 X131.956 Y115.737 E0.03752
G1 X131.484 Y115.771 E0.01482
G1 X131.211 Y115.820 E0.00869
G1 X130.743 Y115.957 E0.01529
G1 X130.483 Y116.064 E0.00884
G1 X130.046 Y116.302 E0.01558
G1 X129.648 Y116.598 E0.01557
G1 X129.441 Y116.790 E0.00887
G1 X129.114 Y117.165 E0.01559
G1 X128.847 Y117.577 E0.01539
G1 X128.723 Y117.821 E0.00858
G1 X128.620 Y118.068 E0.00839
G1 X128.479 Y118.539 E0.01541
G1 X128.350 Y119.421 E0.02797
G1 X128.248 Y119.786 E0.01188
G1 X128.100 Y120.134 E0.01185
G1 X127.904 Y120.468 E0.01215
G1 X127.554 Y120.888 E0.01714
G1 X127.253 Y121.150 E0.01250
G1 X126.788 Y121.435 E0.01712
G1 X126.428 Y121.584 E0.01220
G1 X126.064 Y121.681 E0.01183
G1 X125.689 Y121.730 E0.01185
G1 X124.311 Y121.730 E0.04320
G1 X123.936 Y121.681 E0.01186
G1 X123.572 Y121.584 E0.01182
G1 X123.054 Y121.352 E0.01778
G1 X122.739 Y121.143 E0.01185
G1 X122.454 Y120.895 E0.01185
G1 X122.203 Y120.613 E0.01185
G1 X121.990 Y120.300 E0.01185
G1 X121.820 Y119.963 E0.01185
G1 X121.695 Y119.606 E0.01185
G1 X121.614 Y119.220 E0.01238
G1 X121.525 Y118.561 E0.02085
G1 X121.451 Y118.279 E0.00912
G1 X121.284 Y117.836 E0.01485
G1 X121.153 Y117.578 E0.00909
G1 X120.886 Y117.165 E0.01540
G1 X120.559 Y116.790 E0.01559
G1 X120.352 Y116.598 E0.00887
G1 X119.954 Y116.302 E0.01557
G1 X119.517 Y116.064 E0.01558
G1 X119.257 Y115.957 E0.00884
G1 X118.789 Y115.820 E0.01529
G1 X118.516 Y115.771 E0.00869
G1 X118.044 Y115.737 E0.01482
G1 X116.848 Y115.737 E0.03752
G1 X116.848 Y112.848 E0.09059
G1 X123.435 Y112.848 E0.20653
G1 X123.435 Y88.263 E0.77084
G1 X126.584 Y88.263 E0.09874
G1 X126.584 Y112.788 E0.76896
G1 X126.961 Y112.471 F7200.000
G1 F900
G1 X133.529 Y112.471 E0.20595
G1 X133.529 Y116.114 E0.11424
G1 X131.969 Y116.114 E0.04892
G1 X131.531 Y116.146 E0.01377
G1 X131.298 Y116.187 E0.00743
G1 X130.869 Y116.313 E0.01402
G1 X130.645 Y116.405 E0.00757
G1 X130.250 Y116.620 E0.01411
G1 X129.890 Y116.889 E0.01409
G1 X129.712 Y117.053 E0.00760
G1 X129.416 Y117.393 E0.01412
G1 X129.174 Y117.766 E0.01393
G1 X129.066 Y117.979 E0.00752
G1 X128.976 Y118.195 E0.00733
G1 X128.848 Y118.621 E0.01392
G1 X128.720 Y119.500 E0.02786
G1 X128.605 Y119.911 E0.01340
G1 X128.438 Y120.304 E0.01339
G1 X128.220 Y120.675 E0.01350
G1 X128.098 Y120.843 E0.00649
G1 X127.820 Y121.156 E0.01315
G1 X127.487 Y121.446 E0.01385
G1 X127.318 Y121.566 E0.00648
G1 X126.954 Y121.774 E0.01315
G1 X126.549 Y121.942 E0.01374
G1 X126.137 Y122.052 E0.01338
G1 X125.713 Y122.107 E0.01339
G1 X124.287 Y122.107 E0.04474
G1 X123.863 Y122.052 E0.01339
G1 X123.458 Y121.944 E0.01315
G1 X123.253 Y121.869 E0.00684
G1 X122.867 Y121.680 E0.01349
G1 X122.511 Y121.444 E0.01339
G1 X122.188 Y121.164 E0.01339
G1 X121.904 Y120.845 E0.01339
G1 X121.664 Y120.492 E0.01339
G1 X121.472 Y120.110 E0.01339
G1 X121.331 Y119.707 E0.01339
G1 X121.242 Y119.284 E0.01358
G1 X121.155 Y118.634 E0.02055
G1 X121.092 Y118.394 E0.00778
G1 X120.938 Y117.989 E0.01360
G1 X120.826 Y117.766 E0.00783
G1 X120.584 Y117.393 E0.01393
G1 X120.288 Y117.053 E0.01412
G1 X120.110 Y116.889 E0.00760
G1 X119.750 Y116.620 E0.01409
G1 X119.355 Y116.405 E0.01411
G1 X119.131 Y116.313 E0.00757
G1 X118.702 Y116.187 E0.01402
G1 X118.469 Y116.146 E0.00743
G1 X118.031 Y116.114 E0.01377
G1 X116.471 Y116.114 E0.04892
G1 X116.471 Y112.471 E0.11424
G1 X123.058 Y112.471 E0.20653
G1 X123.058 Y87.886 E0.77084
G1 X126.961 Y87.886 E0.12238
G1 X126.961 Y112.411 E0.76896
G1 X126.982 Y112.870 F7200.000
G1 F5760
G1 X129.155 Y112.431 E-0.76000
G1 E-0.04000 F2100.00000
G1 Z0.800 F7200.000
G1 X127.333 Y115.624 F7200.000
G1 Z0.200 F7200.000
G1 E0.80000 F2100.00000
G1 F900
G1 X123.718 Y112.009 E0.16046
G1 X123.718 Y112.543 E0.01675
G1 X126.629 Y115.454 E0.12923
G1 X126.095 Y115.454 E0.01675
G1 X123.718 Y113.077 E0.10554
G1 X123.718 Y113.131 E0.00169
G1 X123.238 Y113.131 E0.01506
G1 X125.561 Y115.454 E0.10314
G1 X125.028 Y115.454 E0.01675
G1 X122.704 Y113.131 E0.10314
G1 X122.170 Y113.131 E0.01675
G1 X124.494 Y115.454 E0.10314
G1 X123.960 Y115.454 E0.01675
G1 X121.636 Y113.131 E0.10314
G1 X121.102 Y113.131 E0.01675
G1 X123.426 Y115.454 E0.10314
G1 X122.892 Y115.454 E0.01675
G1 X120.569 Y113.131 E0.10314
G1 X120.035 Y113.131 E0.01675
G1 X122.358 Y115.454 E0.10314
G1 X122.128 Y115.454 E0.00723
G1 X122.129 Y115.758 E0.00955
G1 X119.501 Y113.131 E0.11664
G1 X118.967 Y113.131 E0.01675
G1 X122.130 Y116.294 E0.14039
G1 X122.131 Y116.829 E0.01679
G1 X118.433 Y113.131 E0.16414
G1 X117.899 Y113.131 E0.01675
G1 X122.133 Y117.364 E0.18789
G1 X122.134 Y117.899 E0.01679
G1 X117.366 Y113.131 E0.21164
G1 X117.131 Y113.131 E0.00738
G1 X117.131 Y113.429 E0.00938
G1 X119.419 Y115.718 E0.10156
G1 X118.853 Y115.544 E0.01856
G1 X118.681 Y115.513 E0.00551
G1 X117.131 Y113.963 E0.06880
G1 X117.131 Y114.497 E0.01675
G1 X118.091 Y115.457 E0.04261
G1 X117.554 Y115.454 E0.01684
G1 X116.961 Y114.861 E0.02633
G1 F5760
G1 X117.554 Y115.454 E-0.29061
G1 F5760
G1 X118.091 Y115.457 E-0.18580
G1 F5760
G1 X117.512 Y114.878 E-0.28360
G1 E-0.04000 F2100.00000
G1 Z0.800 F7200.000
G1 X121.709 Y119.075 F7200.000
G1 Z0.200 F7200.000
G1 E0.80000 F2100.00000
G1 F900
G1 X121.981 Y119.347 E0.01207
G1 X122.137 Y119.301 E0.00512
G1 X122.136 Y118.969 E0.01041
G1 X121.823 Y118.656 E0.01389
G1 X121.803 Y118.506 E0.00475
G1 X121.721 Y118.193 E0.01014
G1 X121.616 Y117.914 E0.00935
G1 X122.305 Y118.604 E0.03060
G1 F5760
G1 X121.616 Y117.914 E-0.33768
G1 F5760
G1 X121.721 Y118.193 E-0.10322
G1 F5760
G1 X121.803 Y118.506 E-0.11191
G1 F5760
G1 X121.823 Y118.656 E-0.05245
G1 F5760
G1 X122.136 Y118.969 E-0.15331
G1 F5760
G1 X122.136 Y118.973 E-0.00142
G1 E-0.04000 F2100.00000
G1 Z0.800 F7200.000
G1 X122.076 Y119.614 F7200.000
G1 Z0.200 F7200.000
G1 E0.80000 F2100.00000
G1 F900
G1 X122.192 Y119.967 E0.00723
G1 X122.320 Y120.224 E0.00560
G1 X122.558 Y120.554 E0.00794
G1 X122.779 Y120.773 E0.00605
G1 F900
G1 X123.128 Y121.021 E0.00908
G1 F900
G1 X123.217 Y121.067 E0.00232
G1 F900
G1 X123.537 Y121.205 E0.00900
G1 F900
G1 X123.730 Y121.252 E0.00525
G1 X124.111 Y121.024 F7200.000
G1 F900
G1 X124.534 Y121.447 E0.02028
G1 X125.110 Y121.447 E0.01955
G1 X124.854 Y121.191 E0.01227
G1 X125.429 Y121.189 E0.01948
G1 X125.836 Y121.596 E0.01953
G1 X126.286 Y121.252 F7200.000
G1 F900
G1 X126.665 Y121.126 E0.00776
G1 X126.942 Y120.977 E0.00612
G1 X127.248 Y120.748 E0.00744
G1 X127.443 Y120.552 E0.00537
G1 F900
G1 X127.680 Y120.224 E0.00862
G1 F900
G1 X127.811 Y119.967 E0.00687
G1 F900
G1 X127.929 Y119.613 E0.00995
G1 X128.264 Y119.225 F7200.000
G1 F900
G1 X127.864 Y118.825 E0.01777
G1 X127.865 Y118.292 E0.01672
G1 X128.183 Y118.610 E0.01410
G1 X128.202 Y118.477 E0.00420
G1 X128.290 Y118.183 E0.00963
G1 X127.867 Y117.759 E0.01881
G1 X127.868 Y117.227 E0.01672
G1 X128.430 Y117.789 E0.02496
G1 X128.605 Y117.431 E0.01253
G1 X127.869 Y116.694 E0.03268
G1 X127.870 Y116.162 E0.01672
G1 X128.815 Y117.107 E0.04194
G1 X129.050 Y116.808 E0.01193
G1 X123.718 Y111.475 E0.23671
G1 X123.718 Y110.941 E0.01675
G1 X129.306 Y116.530 E0.24805
G1 X129.595 Y116.285 E0.01189
G1 X123.718 Y110.408 E0.26089
G1 X123.718 Y109.874 E0.01675
G1 X126.301 Y112.457 E0.11467
G1 X126.301 Y111.923 E0.01675
G1 X123.718 Y109.340 E0.11467
G1 X123.718 Y108.806 E0.01675
G1 X126.301 Y111.390 E0.11467
G1 X126.301 Y110.856 E0.01675
G1 X123.718 Y108.272 E0.11467
G1 X123.718 Y107.739 E0.01675
G1 X126.301 Y110.322 E0.11467
G1 X126.301 Y109.788 E0.01675
G1 X123.718 Y107.205 E0.11467
G1 X123.718 Y106.671 E0.01675
G1 X126.301 Y109.254 E0.11467
G1 X126.301 Y108.721 E0.01675
G1 X123.718 Y106.137 E0.11467
G1 X123.718 Y105.603 E0.01675
G1 X126.301 Y108.187 E0.11467
G1 X126.301 Y107.653 E0.01675
G1 X123.718 Y105.069 E0.11467
G1 X123.718 Y104.536 E0.01675
G1 X126.301 Y107.119 E0.11467
G1 X126.301 Y106.585 E0.01675
G1 X123.718 Y104.002 E0.11467
G1 X123.718 Y103.468 E0.01675
G1 X126.301 Y106.051 E0.11467
G1 X126.301 Y105.518 E0.01675
G1 X123.718 Y102.934 E0.11467
G1 X123.718 Y102.400 E0.01675
G1 X126.301 Y104.984 E0.11467
G1 X126.301 Y104.450 E0.01675
G1 X123.718 Y101.867 E0.11467
G1 X123.718 Y101.333 E0.01675
G1 X126.301 Y103.916 E0.11467
G1 X126.301 Y103.382 E0.01675
G1 X123.718 Y100.799 E0.11467
G1 X123.718 Y100.265 E0.01675
G1 X126.301 Y102.849 E0.11467
G1 X126.301 Y102.315 E0.01675
G1 X123.718 Y99.731 E0.11467
G1 X123.718 Y99.197 E0.01675
G1 X126.301 Y101.781 E0.11467
G1 X126.301 Y101.247 E0.01675
G1 X123.718 Y98.664 E0.11467
G1 X123.718 Y98.130 E0.01675
G1 X126.301 Y100.713 E0.11467
G1 X126.301 Y100.180 E0.01675
G1 X123.718 Y97.596 E0.11467
G1 X123.718 Y97.062 E0.01675
G1 X126.301 Y99.646 E0.11467
G1 X126.301 Y99.112 E0.01675
G1 X123.718 Y96.528 E0.11467
G1 X123.718 Y95.995 E0.01675
G1 X126.301 Y98.578 E0.11467
G1 X126.301 Y98.044 E0.01675
G1 X123.718 Y95.461 E0.11467
G1 X123.718 Y94.927 E0.01675
G1 X126.301 Y97.510 E0.11467
G1 X126.301 Y96.977 E0.01675
G1 X123.718 Y94.393 E0.11467
G1 X123.718 Y93.859 E0.01675
G1 X126.301 Y96.443 E0.11467
G1 X126.301 Y95.909 E0.01675
G1 X123.718 Y93.325 E0.11467
G1 X123.718 Y92.792 E0.01675
G1 X126.301 Y95.375 E0.11467
G1 X126.301 Y94.841 E0.01675
G1 X123.718 Y92.258 E0.11467
G1 X123.718 Y91.724 E0.01675
G1 X126.301 Y94.308 E0.11467
G1 X126.301 Y93.774 E0.01675
G1 X123.718 Y91.190 E0.11467
G1 X123.718 Y90.656 E0.01675
G1 X126.301 Y93.240 E0.11467
G1 X126.301 Y92.706 E0.01675
G1 X123.718 Y90.123 E0.11467
G1 X123.718 Y89.589 E0.01675
G1 X126.301 Y92.172 E0.11467
G1 X126.301 Y91.638 E0.01675
G1 X123.718 Y89.055 E0.11467
G1 X123.718 Y88.546 E0.01598
G1 X123.742 Y88.546 E0.00077
G1 X126.301 Y91.105 E0.11359
G1 X126.301 Y90.571 E0.01675
G1 X124.276 Y88.546 E0.08989
G1 X124.810 Y88.546 E0.01675
G1 X126.301 Y90.037 E0.06620
G1 X126.301 Y89.503 E0.01675
G1 X125.343 Y88.546 E0.04250
G1 X125.877 Y88.546 E0.01675
G1 X126.471 Y89.139 E0.02634
G1 F5760
G1 X125.877 Y88.546 E-0.29066
G1 F5760
G1 X125.343 Y88.546 E-0.18489
G1 F5760
G1 X125.924 Y89.126 E-0.28445
G1 E-0.04000 F2100.00000
G1 Z0.800 F7200.000
G1 X133.039 Y113.323 F7200.000
G1 Z0.200 F7200.000
G1 E0.80000 F2100.00000
G1 F900
G1 X132.846 Y113.131 E0.00856
G1 X132.313 Y113.131 E0.01675
G1 X132.869 Y113.687 E0.02472
G1 X132.869 Y114.221 E0.01675
G1 X131.779 Y113.131 E0.04841
G1 X131.245 Y113.131 E0.01675
G1 X132.869 Y114.755 E0.07211
G1 X132.869 Y115.289 E0.01675
G1 X130.711 Y113.131 E0.09580
G1 X130.177 Y113.131 E0.01675
G1 X132.501 Y115.454 E0.10315
G1 X131.967 Y115.454 E0.01675
G1 X129.643 Y113.131 E0.10315
G1 X129.110 Y113.131 E0.01675
G1 X131.468 Y115.489 E0.10466
G1 X131.025 Y115.580 E0.01419
G1 X128.576 Y113.131 E0.10871
G1 X128.042 Y113.131 E0.01675
G1 X130.615 Y115.704 E0.11421
G1 X130.248 Y115.870 E0.01266
G1 X127.508 Y113.131 E0.12160
G1 X126.974 Y113.131 E0.01675
G1 X130.027 Y116.183 E0.13550
M106 S255
;BEFORE_LAYER_CHANGE
;0.5


G1 F5760
G1 X128.476 Y114.632 E-0.76000
G1 E-0.04000 F2100.00000
G1 Z0.800 F7200.000
;AFTER_LAYER_CHANGE
;0.5
M104 S210 ; set temperature
G1 X122.388 Y115.714 F7200.000
G1 Z0.500 F7200.000
G1 E0.80000 F2100.00000
M204 S800
G1 F4800
G1 X127.612 Y115.714 E0.25126
G1 X127.603 Y119.520 E0.18306
G1 X127.515 Y119.879 E0.01780
G1 X127.420 Y120.090 E0.01115
G1 X127.220 Y120.380 E0.01693
G1 X127.069 Y120.531 E0.01025
G1 X126.901 Y120.662 E0.01025
G1 X126.573 Y120.834 E0.01783
G1 X126.196 Y120.927 E0.01868
G1 X123.964 Y120.935 E0.10733
G1 X123.613 Y120.892 E0.01699
G1 X123.249 Y120.754 E0.01873
G1 X122.944 Y120.544 E0.01783
G1 X122.780 Y120.380 E0.01115
