; generated by Slic3r Prusa Edition 1.39.1-prusa3d on 2018-05-09 at 12:53:31

; 

; external perimeters extrusion width = 0.45mm
; perimeters extrusion width = 0.45mm
; infill extrusion width = 0.45mm
; solid infill extrusion width = 0.45mm
; top infill extrusion width = 0.33mm
; first layer extrusion width = 0.42mm

M107
M115 U3.1.0 ; tell printer latest fw version
M201 X9000 Y9000 Z500 E10000 ; sets maximum accelerations, mm/sec^2
M203 X500 Y500 Z12 E120 ; sets maximum feedrates, mm/sec
M204 S1500 T1500 ; sets acceleration (S) and retract acceleration (T)
M205 X10 Y10 Z0.2 E2.5 ; sets the jerk limits, mm/sec
M205 S0 T0 ; sets the minimum extruding and travel feed rate, mm/sec
M83  ; extruder relative mode
M104 S200 ; set extruder temp
M140 S65 ; set bed temp
M190 S65 ; wait for bed temp
M109 S200 ; wait for extruder temp
G28 W ; home all without mesh bed level
G80 ; mesh bed leveling
G1 Y-3.0 F1000.0 ; go outside print area
G92 E0.0
G1 E18.0 F1000.0;
G1 X60.0 E9.0  F1000.0 ; intro line
G1 X100.0 E12.5  F1000.0 ; intro line
G92 E0.0
M900 K30; Filament gcode
G21 ; set units to millimeters
G90 ; use absolute coordinates
M83 ; use relative distances for extrusion
;BEFORE_LAYER_CHANGE
;0.2


G1 E-0.80000 F2100.00000
G1 Z0.600 F7200.000
;AFTER_LAYER_CHANGE
;0.2
G1 X93.410 Y86.602 F7200.000
G1 Z0.200 F7200.000
G1 E0.80000 F2100.00000
M204 S1000
G1 F900
G1 X95.301 Y85.070 E0.07632
G1 X97.008 Y84.003 E0.06311
G1 X98.060 Y83.539 E0.03603
G1 X99.414 Y83.136 E0.04433
G1 X100.979 Y82.858 E0.04981
G1 X102.997 Y82.662 E0.06358
G1 X105.319 Y82.902 E0.07320
G1 X107.273 Y83.322 E0.06265
G1 X108.924 Y83.975 E0.05567
G1 X110.423 Y84.878 E0.05487
G1 X111.698 Y85.853 E0.05033
G1 X112.945 Y86.975 E0.05259
G1 X114.644 Y89.366 E0.09197
G1 X115.241 Y90.486 E0.03979
G1 X115.634 Y91.481 E0.03354
G1 X116.090 Y93.390 E0.06155
G1 X116.357 Y96.053 E0.08393
G1 X116.355 Y114.707 E0.58487
G1 X116.194 Y115.520 E0.02600
G1 X115.801 Y116.245 E0.02587
G1 X115.210 Y116.821 E0.02587
G1 X114.471 Y117.198 E0.02600
G1 X113.609 Y117.338 E0.02739
G1 X92.384 Y117.338 E0.66550
G1 X91.687 Y117.245 E0.02205
G1 X91.068 Y116.997 E0.02090
G1 X90.527 Y116.607 E0.02090
G1 X85.403 Y111.434 E0.22828
G1 X84.506 Y110.256 E0.04644
G1 X83.969 Y109.078 E0.04058
G1 X83.687 Y107.828 E0.04018
G1 X83.643 Y106.023 E0.05661
G1 X83.758 Y104.884 E0.03593
G1 X84.091 Y103.757 E0.03683
G1 X91.020 Y89.960 E0.48407
G1 X92.048 Y88.315 E0.06083
G1 X93.373 Y86.649 E0.06673
G1 X93.656 Y86.888 F7200.000
G1 F900
G1 X95.518 Y85.379 E0.07517
G1 X97.179 Y84.339 E0.06145
G1 X98.186 Y83.895 E0.03449
G1 X99.498 Y83.503 E0.04293
G1 X101.025 Y83.232 E0.04865
G1 X102.994 Y83.039 E0.06202
G1 X105.261 Y83.275 E0.07145
G1 X107.164 Y83.683 E0.06104
G1 X108.758 Y84.313 E0.05374
G1 X110.205 Y85.186 E0.05300
G1 X111.452 Y86.140 E0.04922
G1 X112.648 Y87.207 E0.05025
G1 X114.318 Y89.555 E0.09034
G1 X114.900 Y90.647 E0.03879
G1 X115.274 Y91.592 E0.03186
G1 X115.717 Y93.447 E0.05982
G1 X115.980 Y96.069 E0.08261
G1 X115.979 Y114.672 E0.58327
G1 X115.845 Y115.376 E0.02249
G1 X115.509 Y116.005 E0.02237
G1 X114.999 Y116.509 E0.02249
G1 X114.361 Y116.837 E0.02249
G1 X113.609 Y116.961 E0.02390
G1 X92.388 Y116.961 E0.66535
G1 X91.793 Y116.883 E0.01882
G1 X91.250 Y116.666 E0.01835
G1 X90.773 Y116.321 E0.01846
G1 X85.677 Y111.175 E0.22706
G1 X84.830 Y110.062 E0.04387
G1 X84.330 Y108.971 E0.03763
G1 X84.062 Y107.789 E0.03799
G1 X84.019 Y106.032 E0.05513
G1 X84.129 Y104.955 E0.03394
G1 X84.445 Y103.887 E0.03490
G1 X91.244 Y90.348 E0.47502
G1 X92.353 Y88.536 E0.06662
G1 X93.619 Y86.935 E0.06398
G1 F5760
G1 X95.316 Y85.544 E-0.76000
G1 E-0.04000 F2100.00000
G1 Z0.800 F7200.000
G1 X92.983 Y103.997 F7200.000
G1 Z0.200 F7200.000
G1 E0.80000 F2100.00000
G1 F900
G1 X92.983 Y109.172 E0.16228
G1 X89.203 Y109.164 E0.11851
G1 X88.832 Y109.072 E0.01201
G1 X88.506 Y108.901 E0.01152
G1 X88.323 Y108.756 E0.00733
G1 X88.085 Y108.487 E0.01127
G1 X87.906 Y108.141 E0.01221
G1 X87.820 Y107.793 E0.01124
G1 X87.809 Y107.602 E0.00600
G1 X87.809 Y105.548 E0.06438
G1 X87.851 Y105.203 E0.01091
G1 X87.981 Y104.861 E0.01147
G1 X88.090 Y104.680 E0.00663
G1 X88.224 Y104.511 E0.00677
G1 X88.493 Y104.273 E0.01127
G1 X88.839 Y104.094 E0.01222
G1 X89.187 Y104.008 E0.01124
G1 X92.923 Y103.997 E0.11714
G1 X92.606 Y104.374 F7200.000
G1 F900
G1 X92.606 Y108.794 E0.13860
G1 X89.250 Y108.787 E0.10523
G1 X88.966 Y108.717 E0.00915
G1 X88.713 Y108.584 E0.00898
G1 X88.584 Y108.481 E0.00518
G1 X88.399 Y108.272 E0.00876
G1 X88.261 Y108.007 E0.00934
G1 X88.195 Y107.736 E0.00875
G1 X88.186 Y107.590 E0.00458
G1 X88.186 Y105.571 E0.06331
G1 X88.220 Y105.294 E0.00876
G1 X88.321 Y105.027 E0.00896
G1 X88.499 Y104.772 E0.00976
G1 X88.708 Y104.587 E0.00876
G1 X88.973 Y104.449 E0.00934
G1 X89.244 Y104.383 E0.00875
G1 X92.546 Y104.374 E0.10354
G1 X93.006 Y104.371 F7200.000
G1 F5760
G1 X92.576 Y106.568 E-0.76000
G1 E-0.04000 F2100.00000
G1 Z0.800 F7200.000
G1 X92.979 Y113.997 F7200.000
G1 Z0.200 F7200.000
G1 E0.80000 F2100.00000
G1 F900
G1 X92.975 Y113.307 E0.02164
G1 X92.906 Y112.820 E0.01541
G1 X92.837 Y112.547 E0.00883
G1 X92.669 Y112.094 E0.01515
G1 X92.541 Y111.838 E0.00898
G1 X92.273 Y111.420 E0.01558
G1 X91.948 Y111.043 E0.01558
G1 X91.741 Y110.850 E0.00888
G1 X91.357 Y110.560 E0.01508
G1 X91.113 Y110.415 E0.00890
G1 X90.668 Y110.209 E0.01538
G1 X90.169 Y110.060 E0.01632
G1 X89.501 Y109.970 E0.02116
G1 X89.114 Y109.889 E0.01238
G1 X88.757 Y109.764 E0.01185
G1 X88.420 Y109.594 E0.01185
G1 X88.107 Y109.381 E0.01185
G1 X87.825 Y109.130 E0.01185
G1 X87.577 Y108.845 E0.01185
G1 X87.369 Y108.530 E0.01185
G1 X87.203 Y108.190 E0.01185
G1 X87.041 Y107.657 E0.01746
G1 X86.990 Y107.271 E0.01221
G1 X86.983 Y106.101 E0.03668
G1 X87.009 Y105.707 E0.01239
G1 X87.082 Y105.336 E0.01185
G1 X87.203 Y104.978 E0.01185
G1 X87.462 Y104.485 E0.01747
G1 X87.690 Y104.184 E0.01182
G1 X87.962 Y103.907 E0.01220
G1 X88.260 Y103.675 E0.01183
G1 X88.586 Y103.484 E0.01185
G1 X88.934 Y103.336 E0.01185
G1 X89.295 Y103.235 E0.01176
G1 X89.940 Y103.149 E0.02039
G1 X90.408 Y103.045 E0.01504
G1 X90.677 Y102.954 E0.00891
G1 X91.123 Y102.749 E0.01538
G1 X91.555 Y102.470 E0.01611
G1 X91.942 Y102.132 E0.01611
G1 X92.273 Y101.748 E0.01591
G1 X92.543 Y101.326 E0.01573
G1 X92.669 Y101.073 E0.00883
G1 X92.837 Y100.621 E0.01514
G1 X92.906 Y100.348 E0.00883
G1 X92.975 Y99.860 E0.01545
G1 X92.983 Y96.164 E0.11588
G1 X93.061 Y95.159 E0.03161
G1 X93.173 Y94.162 E0.03146
G1 X93.296 Y93.444 E0.02282
G1 X93.402 Y92.988 E0.01469
G1 X93.533 Y92.544 E0.01451
G1 X93.693 Y92.116 E0.01434
G1 X93.883 Y91.697 E0.01442
G1 X94.104 Y91.284 E0.01469
G1 X94.350 Y90.876 E0.01492
G1 X94.761 Y90.265 E0.02311
G1 X95.644 Y89.089 E0.04610
G1 X96.848 Y88.090 E0.04906
G1 X97.692 Y87.474 E0.03277
G1 X98.113 Y87.208 E0.01559
G1 X98.539 Y86.973 E0.01526
G1 X99.213 Y86.675 E0.02312
G1 X99.671 Y86.522 E0.01513
G1 X100.146 Y86.396 E0.01542
G1 X101.168 Y86.205 E0.03258
G1 X101.956 Y86.106 E0.02492
G1 X102.992 Y86.006 E0.03262
G1 X104.559 Y86.170 E0.04942
G1 X105.334 Y86.291 E0.02458
G1 X106.081 Y86.457 E0.02400
G1 X106.551 Y86.597 E0.01537
G1 X107.001 Y86.766 E0.01508
G1 X107.669 Y87.090 E0.02325
G1 X108.090 Y87.339 E0.01536
G1 X108.727 Y87.773 E0.02417
G1 X109.568 Y88.427 E0.03338
G1 X110.355 Y89.088 E0.03222
G1 X111.237 Y90.263 E0.04606
G1 X111.778 Y91.083 E0.03083
G1 X112.010 Y91.490 E0.01467
G1 X112.213 Y91.901 E0.01437
G1 X112.467 Y92.545 E0.02171
G1 X112.654 Y93.217 E0.02187
G1 X112.791 Y93.922 E0.02252
G1 X112.889 Y94.653 E0.02311
G1 X113.017 Y96.165 E0.04760
G1 X113.017 Y113.997 E0.55909
G1 X109.868 Y113.997 E0.09875
G1 X109.859 Y96.607 E0.54524
G1 X109.832 Y95.877 E0.02292
G1 X109.771 Y95.144 E0.02306
G1 X109.657 Y94.417 E0.02308
G1 X109.465 Y93.676 E0.02398
G1 X109.210 Y92.981 E0.02322
G1 X108.566 Y91.592 E0.04801
G1 X107.700 Y90.695 E0.03909
G1 X107.115 Y90.173 E0.02457
G1 X106.635 Y89.822 E0.01864
G1 X106.284 Y89.613 E0.01281
G1 X105.914 Y89.436 E0.01288
G1 X105.354 Y89.237 E0.01864
G1 X104.776 Y89.096 E0.01863
G1 X104.192 Y88.999 E0.01857
G1 X102.990 Y88.870 E0.03790
G1 X101.792 Y89.000 E0.03779
G1 X101.210 Y89.098 E0.01852
G1 X100.634 Y89.239 E0.01858
G1 X100.075 Y89.438 E0.01859
G1 X99.706 Y89.616 E0.01285
G1 X99.356 Y89.825 E0.01277
G1 X98.878 Y90.176 E0.01859
G1 X98.296 Y90.697 E0.02450
G1 X97.433 Y91.593 E0.03901
G1 X96.795 Y92.985 E0.04800
G1 X96.542 Y93.679 E0.02318
G1 X96.434 Y94.053 E0.01220
G1 X96.285 Y94.778 E0.02319
G1 X96.197 Y95.511 E0.02317
G1 X96.154 Y96.242 E0.02295
G1 X96.132 Y97.322 E0.03388
G1 X96.132 Y113.997 E0.52283
G1 X93.039 Y113.997 E0.09697
G1 X92.605 Y114.374 F7200.000
G1 F900
G1 X92.598 Y113.335 E0.03258
G1 X92.535 Y112.893 E0.01398
G1 X92.476 Y112.659 E0.00757
G1 X92.322 Y112.244 E0.01388
G1 X92.212 Y112.024 E0.00771
G1 X91.970 Y111.646 E0.01410
G1 X91.676 Y111.305 E0.01411
G1 X91.499 Y111.139 E0.00762
G1 X91.146 Y110.874 E0.01382
G1 X90.937 Y110.749 E0.00764
G1 X90.534 Y110.563 E0.01391
G1 X90.090 Y110.430 E0.01455
G1 X89.437 Y110.342 E0.02067
G1 X89.013 Y110.253 E0.01358
G1 X88.610 Y110.112 E0.01339
G1 X88.228 Y109.920 E0.01339
G1 X87.875 Y109.680 E0.01339
G1 X87.556 Y109.396 E0.01339
G1 X87.276 Y109.073 E0.01339
G1 X87.041 Y108.717 E0.01339
G1 X86.853 Y108.334 E0.01339
G1 X86.716 Y107.926 E0.01350
G1 X86.669 Y107.724 E0.00648
G1 X86.613 Y107.297 E0.01352
G1 X86.606 Y106.090 E0.03784
G1 X86.634 Y105.658 E0.01358
G1 X86.717 Y105.239 E0.01339
G1 X86.853 Y104.834 E0.01339
G1 X87.042 Y104.448 E0.01350
G1 X87.151 Y104.271 E0.00649
G1 X87.404 Y103.937 E0.01315
G1 X87.711 Y103.625 E0.01374
G1 X88.048 Y103.363 E0.01338
G1 X88.416 Y103.146 E0.01339
G1 X88.809 Y102.979 E0.01339
G1 X89.219 Y102.865 E0.01336
G1 X89.874 Y102.778 E0.02070
G1 X90.307 Y102.682 E0.01390
G1 X90.538 Y102.604 E0.00764
G1 X90.941 Y102.418 E0.01391
G1 X91.327 Y102.168 E0.01443
G1 X91.674 Y101.866 E0.01441
G1 X91.970 Y101.522 E0.01422
G1 X92.215 Y101.140 E0.01425
G1 X92.322 Y100.923 E0.00757
G1 X92.476 Y100.509 E0.01387
G1 X92.535 Y100.275 E0.00757
G1 X92.598 Y99.833 E0.01399
G1 X92.606 Y96.149 E0.11550
G1 X92.686 Y95.123 E0.03225
G1 X92.799 Y94.109 E0.03200
G1 X92.926 Y93.370 E0.02352
G1 X93.037 Y92.892 E0.01539
G1 X93.175 Y92.425 E0.01526
G1 X93.344 Y91.972 E0.01517
G1 X93.545 Y91.530 E0.01521
G1 X93.776 Y91.098 E0.01537
G1 X94.032 Y90.673 E0.01553
G1 X94.454 Y90.046 E0.02371
G1 X95.369 Y88.827 E0.04779
G1 X96.617 Y87.792 E0.05082
G1 X97.480 Y87.162 E0.03353
G1 X97.921 Y86.884 E0.01634
G1 X98.371 Y86.635 E0.01613
G1 X99.077 Y86.323 E0.02419
G1 X99.563 Y86.161 E0.01606
G1 X100.063 Y86.028 E0.01623
G1 X101.109 Y85.832 E0.03338
G1 X101.915 Y85.731 E0.02545
G1 X102.991 Y85.627 E0.03391
G1 X104.609 Y85.796 E0.05101
G1 X105.404 Y85.920 E0.02522
G1 X106.176 Y86.092 E0.02480
G1 X106.671 Y86.240 E0.01620
G1 X107.150 Y86.419 E0.01604
G1 X107.847 Y86.757 E0.02429
G1 X108.293 Y87.021 E0.01623
G1 X108.950 Y87.468 E0.02493
G1 X109.805 Y88.134 E0.03397
G1 X110.630 Y88.827 E0.03379
G1 X111.545 Y90.045 E0.04778
G1 X112.100 Y90.886 E0.03158
G1 X112.343 Y91.313 E0.01540
G1 X112.558 Y91.748 E0.01522
G1 X112.825 Y92.425 E0.02282
G1 X113.022 Y93.130 E0.02294
G1 X113.164 Y93.861 E0.02335
G1 X113.264 Y94.612 E0.02375
G1 X113.394 Y96.150 E0.04838
G1 X113.394 Y114.374 E0.57142
G1 X109.491 Y114.374 E0.12239
G1 X109.482 Y96.614 E0.55685
G1 X109.456 Y95.899 E0.02243
G1 X109.396 Y95.189 E0.02235
G1 X109.286 Y94.488 E0.02223
G1 X109.106 Y93.794 E0.02250
G1 X108.861 Y93.126 E0.02231
G1 X108.250 Y91.808 E0.04553
G1 X107.438 Y90.967 E0.03666
G1 X106.878 Y90.467 E0.02356
G1 X106.427 Y90.137 E0.01750
G1 X106.106 Y89.946 E0.01172
G1 X105.769 Y89.784 E0.01172
G1 X105.246 Y89.599 E0.01741
G1 X104.701 Y89.466 E0.01759
G1 X104.141 Y89.373 E0.01778
G1 X102.991 Y89.250 E0.03628
G1 X101.844 Y89.374 E0.03617
G1 X101.286 Y89.467 E0.01773
G1 X100.742 Y89.601 E0.01754
G1 X100.221 Y89.787 E0.01736
G1 X99.885 Y89.948 E0.01169
G1 X99.565 Y90.139 E0.01168
G1 X99.116 Y90.469 E0.01745
G1 X98.558 Y90.969 E0.02349
G1 X97.749 Y91.809 E0.03657
G1 X97.144 Y93.128 E0.04552
G1 X96.900 Y93.796 E0.02230
G1 X96.800 Y94.144 E0.01133
G1 X96.657 Y94.838 E0.02223
G1 X96.573 Y95.545 E0.02232
G1 X96.531 Y96.257 E0.02237
G1 X96.509 Y97.326 E0.03353
G1 X96.509 Y114.374 E0.53453
G1 X92.665 Y114.374 E0.12054
G1 X92.633 Y113.975 F7200.000
G1 F5760
G1 X92.598 Y113.335 E-0.36066
G1 F5760
G1 X92.535 Y112.893 E-0.15444
G1 F5760
G1 X92.476 Y112.659 E-0.08360
G1 F5760
G1 X92.322 Y112.244 E-0.15331
G1 F5760
G1 X92.312 Y112.224 E-0.00799
G1 E-0.04000 F2100.00000
G1 Z0.800 F7200.000
G1 X93.057 Y113.080 F7200.000
G1 Z0.200 F7200.000
G1 E0.80000 F2100.00000
G1 F900
G1 X93.691 Y113.714 E0.02839
G1 X94.229 Y113.714 E0.01702
G1 X93.150 Y112.635 E0.04827
G1 X93.107 Y112.463 E0.00561
G1 X92.928 Y111.982 E0.01624
G1 X92.823 Y111.769 E0.00751
G1 X94.937 Y113.884 E0.09459
G1 F5760
G1 X93.386 Y112.332 E-0.76000
G1 E-0.04000 F2100.00000
G1 Z0.800 F7200.000
G1 X89.885 Y109.908 F7200.000
G1 Z0.200 F7200.000
G1 E0.80000 F2100.00000
G1 F900
G1 X89.424 Y109.447 E0.02061
G1 X89.964 Y109.448 E0.01706
G1 X90.328 Y109.812 E0.01629
G1 X90.768 Y109.944 E0.01454
G1 X91.194 Y110.140 E0.01482
G1 X90.503 Y109.449 E0.03091
G1 X91.042 Y109.451 E0.01706
G1 X95.305 Y113.714 E0.19072
G1 X95.843 Y113.714 E0.01702
G1 X91.581 Y109.452 E0.19066
G1 X92.120 Y109.453 E0.01706
G1 X95.849 Y113.182 E0.16681
G1 X95.849 Y112.644 E0.01702
G1 X92.660 Y109.454 E0.14268
G1 X93.199 Y109.456 E0.01706
G1 X95.849 Y112.106 E0.11856
G1 X95.849 Y111.568 E0.01702
G1 X93.266 Y108.985 E0.11557
G1 X93.266 Y108.447 E0.01702
G1 X95.849 Y111.030 E0.11557
G1 X95.849 Y110.492 E0.01702
G1 X93.266 Y107.909 E0.11557
G1 X93.266 Y107.371 E0.01702
G1 X95.849 Y109.954 E0.11557
G1 X95.849 Y109.416 E0.01702
G1 X93.266 Y106.833 E0.11557
G1 X93.266 Y106.295 E0.01702
G1 X95.849 Y108.878 E0.11557
G1 X95.849 Y108.340 E0.01702
G1 X93.266 Y105.757 E0.11557
G1 X93.266 Y105.219 E0.01702
G1 X95.849 Y107.802 E0.11557
G1 X95.849 Y107.264 E0.01702
G1 X93.266 Y104.681 E0.11557
G1 X93.266 Y104.143 E0.01702
G1 X96.019 Y106.896 E0.12316
G1 F5760
G1 X94.467 Y105.345 E-0.76000
G1 E-0.04000 F2100.00000
G1 Z0.800 F7200.000
G1 X89.779 Y103.884 F7200.000
G1 Z0.200 F7200.000
G1 E0.80000 F2100.00000
G1 F900
G1 X89.401 Y103.506 E0.01689
G1 X89.876 Y103.443 E0.01515
G1 X90.147 Y103.714 E0.01213
G1 X90.685 Y103.714 E0.01702
G1 X90.325 Y103.354 E0.01613
G1 X90.741 Y103.232 E0.01371
G1 X91.223 Y103.714 E0.02159
G1 X91.761 Y103.714 E0.01702
G1 X91.112 Y103.065 E0.02903
G1 X91.259 Y102.997 E0.00513
G1 X91.456 Y102.871 E0.00738
G1 X92.299 Y103.714 E0.03773
G1 X92.837 Y103.714 E0.01702
G1 X91.776 Y102.653 E0.04749
G1 X92.063 Y102.402 E0.01206
G1 X95.849 Y106.188 E0.16938
G1 X95.849 Y105.650 E0.01702
G1 X92.323 Y102.124 E0.15776
G1 X92.560 Y101.824 E0.01211
G1 X95.849 Y105.113 E0.14712
G1 X95.849 Y104.575 E0.01702
G1 X92.770 Y101.496 E0.13773
G1 X92.948 Y101.135 E0.01271
G1 X95.849 Y104.037 E0.12981
G1 X95.849 Y103.499 E0.01702
G1 X93.093 Y100.742 E0.12330
G1 X93.197 Y100.308 E0.01412
G1 X95.849 Y102.961 E0.11865
G1 X95.849 Y102.423 E0.01702
G1 X93.258 Y99.831 E0.11591
G1 X93.259 Y99.295 E0.01698
G1 X95.849 Y101.885 E0.11586
G1 X95.849 Y101.347 E0.01702
G1 X93.260 Y98.758 E0.11581
G1 X93.262 Y98.221 E0.01698
G1 X95.849 Y100.809 E0.11576
G1 X95.849 Y100.271 E0.01702
G1 X93.263 Y97.684 E0.11571
G1 X93.264 Y97.147 E0.01698
G1 X95.849 Y99.733 E0.11566
G1 X95.849 Y99.195 E0.01702
G1 X93.265 Y96.610 E0.11561
G1 X93.273 Y96.081 E0.01676
G1 X95.849 Y98.657 E0.11524
G1 X95.849 Y98.119 E0.01702
G1 X93.312 Y95.581 E0.11351
G1 X93.354 Y95.085 E0.01575
G1 X95.849 Y97.581 E0.11163
G1 X95.855 Y97.048 E0.01684
G1 X93.408 Y94.602 E0.10945
G1 X93.453 Y94.202 E0.01273
G1 X93.466 Y94.122 E0.00255
G1 X95.866 Y96.521 E0.10732
G1 X95.885 Y96.003 E0.01641
G1 X93.545 Y93.663 E0.10467
G1 X93.639 Y93.218 E0.01437
G1 X95.915 Y95.495 E0.10183
G1 X95.972 Y95.014 E0.01533
G1 X93.754 Y92.795 E0.09922
G1 X93.891 Y92.394 E0.01341
G1 X96.044 Y94.547 E0.09630
G1 X96.135 Y94.101 E0.01441
G1 X94.049 Y92.015 E0.09331
G1 X94.227 Y91.654 E0.01271
G1 X96.248 Y93.676 E0.09043
G1 X96.387 Y93.277 E0.01336
G1 X94.419 Y91.309 E0.08805
