;FLAVOR:Marlin
;TIME:291
;Filament used:0.260893m
;Layer height: 0.3
;MINX:69.096
;MINY:68.117
;MINZ:0.2
;MAXX:95.904
;MAXY:96.884
;MAXZ:2.9
                                 
;Creative3D GCode Generated by CXEngineDEV
;Generated Time:2022-04-08 18:14:05
;----------Machine Config--------------
;Machine Name:Creality Ender-2 Pro
;Machine Height:180
;Machine Width:165
;Machine Depth:165
;Material name:PLA
;Number of Extruders:1
;ExtruderParams[0] Nozzle Diameter1000
;----------Profile Config---------------
;Layer Height:0.3
;Wall Thickness:0.8
;Top/Bottom Thickness:1
;Out Wall Line Width:0.4
;Inner Wall Line Width:0.4
;Inital Layer Height:200
;Wall Line Count:1
;Infill Line Distance:4
;Infill Pattern:grid
;Infill Sparse Density:20
;Infill Wipe Distance:0
;Print Temperature:200
;Bed Temperature:60
;Support Enable:false
;Support Density:30
;Support Angle:1.0472
;Adhesion Type:none
;machine is belt:false
;machine belt offset:10
;machine belt offset Y:0
;----------Shell Config----------------
;Outer Wall Wipe Distance:200
;Infill Before Walls:false
;Infill Overlap:0.16
;Fill Gaps Between Walls:everywhere
;Minimum Infill Area:1
;Top Surface Skin Layer:0
;Top Layers:2
;Z Seam Alignment:sharpest_corner
;Seam Corner Preference:z_seam_corner_inner
;Z Seam X:82.5
;Z Seam Y:82.5
;Horizontal Expansion:0
;Top/Bottom Pattern:zigzag
;Ironing Pattern:zigzag
;Vase Model:false
;----------Support Config----------------
;Support Type:everywhere
;Support Pattern:zigzag
;Support Infill Layer Thickness:0.3
;Minimum Support Area:10
;Enable Support Roof:false
;Support Roof Thickness:0.8
;Support Roof Pattern:lines
; ---------PrintSpeed & Travel----------
;Enable Print Cool:true
;Avoid Printed Parts Traveling:true
;Enable Retraction:true
;Retraction Distance:8
;Retraction Speed:100
;Retraction Prime Speed:100
;Maximum Retraction Count:100
;Minimum Extrusion Distance Window:1
;Z Hop When Retracted:false
;Z Hop Height:0.2
;Retract Before Outer Wall:true
;Print Speed:50
;Infill Speed:50

;Prime Tower Speed:50
;Travel Speed:120
;Initial Layer Speed:25
;Skirt/Brim Speed:25
;Combing Mode:off
;---------------------End of Head--------------------------
M140 S60
M104 S200
M105
M109 S200
M82 ;absolute extrusion mode
M220 S100 ;Reset Feedrate
M221 S100 ;Reset Flowrate

G28 ;Home

G92 E0 ;Reset Extruder
G1 Z2.0 F3000 ;Move Z Axis up
G1 X10.1 Y20 Z0.28 F5000.0 ;Move to start position
G1 X10.1 Y145.0 Z0.28 F1500.0 E15 ;Draw the first line
G1 X10.4 Y145.0 Z0.28 F5000.0 ;Move to side a little
G1 X10.4 Y20 Z0.28 F1500.0 E30 ;Draw the second line
G92 E0  ;Reset Extruder
G1 E-1.0000 F1800 ;Retract a bit
G1 Z2.0 F3000 ;Move Z Axis up
G1 E0.0000 F1800 

G92 E0
G92 E0
G1 F6000 E-8

;LAYER_COUNT:10

;LAYER:0
M107
;MESH:
G0 F3600 X75.091 Y86.884 Z0.2
;TYPE:WALL-OUTER
G1 F6000 E0
G1 F1500 X71.878 Y86.884 E0.11755
G1 X71.477 Y86.955 E0.13245
G1 X71.105 Y87.177 E0.1483
G1 X70.836 Y87.517 E0.16416
G1 X70.707 Y87.918 E0.17957
G1 X70.696 Y88.077 E0.1854
G1 X70.696 Y90.102 E0.25949
G1 X70.767 Y90.503 E0.27439
G1 X70.989 Y90.875 E0.29024
G1 X71.329 Y91.144 E0.3061
G1 X71.732 Y91.273 E0.32158
G1 X71.949 Y91.284 E0.32953
G1 X74.896 Y91.284 E0.43735
G1 X75.096 Y91.284 E0.44467
G1 X75.096 Y91.084 E0.44941
G1 X75.091 Y86.884 E0.60307
G0 F3600 X74.891 Y86.884
G0 X74.891 Y86.444
;;retract;;
G1 F6000 E-7.39693
G0 F3600 X90.742 Y74.314
G1 F6000 E0.60307
G1 F1500 X90.199 Y73.742 E0.63192
G1 X89.93 Y73.474 E0.64582
G1 X89.516 Y73.094 E0.66638
G1 X89.224 Y72.859 E0.68009
G1 X88.92 Y72.645 E0.69369
G1 X88.602 Y72.455 E0.70724
G1 X88.266 Y72.295 E0.72086
G1 X87.919 Y72.164 E0.73443
G1 X87.563 Y72.059 E0.74801
G1 X87.197 Y71.976 E0.76174
G1 X86.641 Y71.883 E0.78236
G1 X85.888 Y71.797 E0.81009
G1 X85.49 Y71.76 E0.82472
G1 X84.72 Y71.836 E0.85302
G1 X84.343 Y71.884 E0.86693
G1 X83.789 Y71.977 E0.88748
G1 X83.425 Y72.06 E0.90114
G1 X83.069 Y72.165 E0.91472
G1 X82.723 Y72.297 E0.92827
G1 X82.39 Y72.457 E0.94178
G1 X82.072 Y72.647 E0.95534
G1 X81.769 Y72.862 E0.96893
G1 X81.479 Y73.096 E0.98256
G1 X81.065 Y73.476 E1.00312
G1 X80.537 Y74.016 E1.03075
G1 X80.257 Y74.315 E1.04574
G1 X79.793 Y75.304 E1.08571
G1 X79.654 Y75.633 E1.09878
G1 X79.525 Y75.965 E1.11181
G1 X79.358 Y76.47 E1.13127
G1 X79.268 Y76.818 E1.14442
G1 X79.168 Y77.34 E1.16386
G1 X79.119 Y77.692 E1.17687
G1 X79.083 Y78.047 E1.18992
G1 X79.041 Y78.757 E1.21594
G1 X79.019 Y79.826 E1.25506
G1 X79.019 Y96.884 E1.87915
G1 X75.096 Y96.884 E2.02268
G1 X75.096 Y96.054 E2.05304
G1 X75.066 Y95.614 E2.06918
G1 X74.969 Y95.171 E2.08577
G1 X74.813 Y94.746 E2.10233
G1 X74.595 Y94.344 E2.11906
G1 X74.323 Y93.978 E2.13575
G1 X74.005 Y93.657 E2.15228
G1 X73.639 Y93.381 E2.16905
G1 X73.243 Y93.162 E2.18561
G1 X72.821 Y93.001 E2.20213
G1 X72.38 Y92.903 E2.21866
G1 X71.932 Y92.851 E2.23516
G1 X71.521 Y92.766 E2.25051
G1 X71.115 Y92.624 E2.26625
G1 X70.732 Y92.433 E2.28191
G1 X70.379 Y92.196 E2.29746
G1 X70.058 Y91.912 E2.31315
G1 X69.775 Y91.588 E2.32888
G1 X69.537 Y91.232 E2.34455
G1 X69.35 Y90.851 E2.36008
G1 X69.21 Y90.443 E2.37586
G1 X69.127 Y90.027 E2.39138
G1 X69.097 Y89.582 E2.4077
G1 X69.096 Y88.596 E2.44377
G1 X69.123 Y88.163 E2.45965
G1 X69.202 Y87.752 E2.47496
G1 X69.338 Y87.343 E2.49073
G1 X69.528 Y86.953 E2.5066
G1 X69.761 Y86.598 E2.52213
G1 X70.041 Y86.272 E2.53786
G1 X70.358 Y85.989 E2.5534
G1 X70.716 Y85.744 E2.56928
G1 X71.094 Y85.553 E2.58477
G1 X71.492 Y85.412 E2.60022
G1 X71.923 Y85.32 E2.61634
G1 X72.375 Y85.267 E2.63299
G1 X72.592 Y85.228 E2.64106
G1 X73.024 Y85.099 E2.65755
G1 X73.434 Y84.911 E2.67406
G1 X73.815 Y84.665 E2.69065
G1 X74.162 Y84.363 E2.70748
G1 X74.458 Y84.021 E2.72403
G1 X74.705 Y83.637 E2.74073
G1 X74.894 Y83.221 E2.75745
G1 X75.022 Y82.787 E2.774
G1 X75.085 Y82.341 E2.79048
G1 X75.096 Y82.108 E2.79902
G1 X75.096 Y78.641 E2.92586
G1 X75.176 Y77.623 E2.96322
G1 X75.225 Y77.116 E2.98186
G1 X75.326 Y76.363 E3.00965
G1 X75.415 Y75.873 E3.02787
G1 X75.526 Y75.395 E3.04583
G1 X75.668 Y74.916 E3.0641
G1 X75.832 Y74.474 E3.08135
G1 X76.034 Y74.031 E3.09917
G1 X76.27 Y73.588 E3.11753
G1 X76.521 Y73.171 E3.13534
G1 X76.798 Y72.752 E3.15371
G1 X77.246 Y72.128 E3.18182
G1 X77.861 Y71.322 E3.21891
G1 X78.684 Y70.627 E3.25832
G1 X79.327 Y70.117 E3.28835
G1 X79.751 Y69.806 E3.30758
G1 X80.189 Y69.514 E3.32684
G1 X80.641 Y69.246 E3.34607
G1 X81.096 Y69.014 E3.36475
G1 X81.33 Y68.91 E3.37412
G1 X81.817 Y68.728 E3.39314
G1 X82.308 Y68.582 E3.41189
G1 X82.82 Y68.461 E3.43113
G1 X83.346 Y68.363 E3.45071
G1 X83.871 Y68.286 E3.47012
G1 X84.416 Y68.221 E3.4902
G1 X85.491 Y68.117 E3.52972
G1 X86.573 Y68.221 E3.56949
G1 X87.375 Y68.322 E3.59906
G1 X87.902 Y68.41 E3.61861
G1 X88.429 Y68.52 E3.6383
G1 X88.925 Y68.652 E3.65708
G1 X89.178 Y68.731 E3.66678
G1 X89.655 Y68.91 E3.68542
G1 X89.884 Y69.01 E3.69456
G1 X90.35 Y69.247 E3.71369
G1 X90.804 Y69.515 E3.73298
G1 X91.235 Y69.803 E3.75194
G1 X91.674 Y70.123 E3.77182
G1 X92.308 Y70.624 E3.80138
G1 X93.139 Y71.322 E3.84109
G1 X93.751 Y72.124 E3.878
G1 X94.197 Y72.745 E3.90597
G1 X94.479 Y73.171 E3.92466
G1 X94.73 Y73.588 E3.94247
G1 X94.966 Y74.031 E3.96083
G1 X95.168 Y74.474 E3.97864
G1 X95.332 Y74.916 E3.99589
G1 X95.474 Y75.395 E4.01417
G1 X95.583 Y75.864 E4.03179
G1 X95.674 Y76.363 E4.05034
G1 X95.774 Y77.107 E4.07781
G1 X95.867 Y78.136 E4.11561
G1 X95.904 Y78.641 E4.13414
G1 X95.904 Y96.884 E4.80158
G1 X91.981 Y96.884 E4.9451
G1 X91.981 Y79.826 E5.56919
G1 X91.962 Y78.757 E5.60831
G1 X91.923 Y78.06 E5.63385
G1 X91.887 Y77.691 E5.64741
G1 X91.838 Y77.337 E5.66049
G1 X91.74 Y76.822 E5.67967
G1 X91.649 Y76.469 E5.693
G1 X91.487 Y75.975 E5.71202
G1 X91.352 Y75.629 E5.72561
G1 X91.07 Y74.993 E5.75107
G1 X90.742 Y74.314 E5.77865
G0 F3600 X90.605 Y74.169
G0 X90.924 Y73.867
;;retract;;
G1 F6000 E-2.22135
G0 F3600 X94.277 Y73.301
;TYPE:SKIN
G1 F6000 E5.77865
G1 F1500 X93.996 Y72.876 E5.7973
G1 X93.555 Y72.264 E5.82489
G1 X92.965 Y71.49 E5.8605
G1 X92.152 Y70.807 E5.89935
G1 X91.53 Y70.316 E5.92834
G1 X91.092 Y69.996 E5.94819
G1 X90.678 Y69.72 E5.96639
G1 X90.609 Y69.679 E5.96933
G1 X90.234 Y69.456 E5.98529
G0 F3600 X90.234 Y69.458
G1 F1500 X89.774 Y69.224 E6.00417
G1 X89.562 Y69.132 E6.01263
G0 F3600 X89.562 Y69.131
G1 F1500 X89.456 Y69.091 E6.01677
G1 X94.952 Y74.587 E6.30114
G1 X95.105 Y74.999 E6.31722
G1 X95.234 Y75.435 E6.33385
G1 X88.618 Y68.819 E6.67617
G1 X88.377 Y68.754 E6.6853
G1 X87.884 Y68.651 E6.70373
G1 X95.392 Y76.159 E7.0922
G1 X95.437 Y76.403 E7.10127
G0 F3600 X95.436 Y76.403
G1 F1500 X95.493 Y76.825 E7.11685
G1 X87.211 Y68.543 E7.54537
G1 X86.564 Y68.462 E7.56922
G1 X95.564 Y77.462 E8.03489
G1 X95.621 Y78.085 E8.05778
G1 X85.937 Y68.401 E8.55884
G1 X85.491 Y68.358 E8.57523
G1 X85.343 Y68.372 E8.58067
G1 X95.664 Y78.693 E9.11468
G1 X95.664 Y79.259 E9.13539
G1 X91.277 Y74.872 E9.36238
G1 X91.287 Y74.892 E9.36319
G1 X91.573 Y75.537 E9.38901
G1 X91.698 Y75.859 E9.40165
G1 X95.664 Y79.825 E9.60685
G1 X95.664 Y80.39 E9.62752
G1 X91.948 Y76.675 E9.81976
G1 X91.973 Y76.769 E9.82332
G1 X92.073 Y77.298 E9.84302
G1 X92.084 Y77.376 E9.8459
G1 X95.664 Y80.956 E10.03113
G1 X95.664 Y81.522 E10.05184
G1 X92.158 Y78.016 E10.23324
G1 X92.161 Y78.041 E10.23416
G1 X92.193 Y78.616 E10.25523
G1 X95.664 Y82.088 E10.43485
G1 X95.664 Y82.653 E10.45552
G1 X92.208 Y79.198 E10.63431
G1 X92.219 Y79.774 E10.65539
G1 X95.664 Y83.219 E10.83363
G1 X95.664 Y83.785 E10.85434
G1 X92.22 Y80.341 E11.03254
G1 X92.22 Y80.907 E11.05324
G1 X95.664 Y84.35 E11.23141
G1 X95.664 Y84.916 E11.25212
G1 X92.22 Y81.472 E11.43032
G1 X92.22 Y82.038 E11.45102
G1 X95.664 Y85.482 E11.62922
G1 X95.664 Y86.047 E11.64989
G1 X92.22 Y82.604 E11.82806
G1 X92.22 Y83.169 E11.84873
G1 X95.664 Y86.613 E12.02692
G1 X95.664 Y87.179 E12.04763
G1 X92.22 Y83.735 E12.22583
G1 X92.22 Y84.301 E12.24653
G1 X95.664 Y87.744 E12.4247
G1 X95.664 Y88.31 E12.44541
G1 X92.22 Y84.866 E12.62361
G1 X92.22 Y85.432 E12.64431
G1 X95.664 Y88.876 E12.82251
G1 X95.664 Y89.441 E12.84318
G1 X92.22 Y85.998 E13.02135
G1 X92.22 Y86.564 E13.04206
G1 X95.664 Y90.007 E13.22023
G1 X95.664 Y90.573 E13.24093
G1 X92.22 Y87.129 E13.41913
G1 X92.22 Y87.695 E13.43984
G1 X95.664 Y91.138 E13.618
G1 X95.664 Y91.704 E13.63871
G1 X92.22 Y88.261 E13.81688
G1 X92.22 Y88.826 E13.83755
G1 X95.664 Y92.27 E14.01575
G1 X95.664 Y92.836 E14.03645
G1 X92.22 Y89.392 E14.21465
G1 X92.22 Y89.958 E14.23536
G1 X95.664 Y93.401 E14.41353
G1 X95.664 Y93.967 E14.43423
G1 X92.22 Y90.523 E14.61243
G1 X92.22 Y91.089 E14.63314
G1 X95.664 Y94.533 E14.81133
G1 X95.664 Y95.098 E14.832
G1 X92.22 Y91.655 E15.01017
G1 X92.22 Y92.22 E15.03084
G1 X95.664 Y95.664 E15.20904
G1 X95.664 Y96.23 E15.22974
G1 X92.22 Y92.786 E15.40794
G1 X92.22 Y93.352 E15.42865
G1 X95.511 Y96.643 E15.59893
G1 X94.946 Y96.643 E15.6196
G1 X92.22 Y93.917 E15.76064
G1 X92.22 Y94.483 E15.78135
G1 X94.38 Y96.643 E15.89311
G1 X93.814 Y96.643 E15.91382
G1 X92.22 Y95.049 E15.99629
G1 X92.22 Y95.614 E16.01696
G1 X93.248 Y96.643 E16.07018
G1 X92.683 Y96.643 E16.09085
G1 X92.22 Y96.643 E16.10779
G0 F3600 X92.22 Y96.18
G1 F1500 X92.683 Y96.643 E16.13174
;;retract;;
G1 F6000 E8.13174
G0 F3600 X75.712 Y96.643
G1 F6000 E16.13174
G1 F1500 X76.278 Y96.643 E16.15245
G1 X75.311 Y95.675 E16.20251
G1 X75.304 Y95.578 E16.20607
G1 X75.199 Y95.103 E16.22387
G1 X75.138 Y94.937 E16.23034
G1 X75.032 Y94.646 E16.24167
G1 X74.797 Y94.213 E16.25969
G1 X74.505 Y93.82 E16.27761
G1 X74.162 Y93.475 E16.2954
G1 X73.769 Y93.178 E16.31343
G1 X73.343 Y92.943 E16.33123
G0 F3600 X73.02 Y92.819
G1 F1500 X71.712 Y91.511 E16.3989
G0 F3600 X71.688 Y91.51
G1 F1500 X71.214 Y91.358 E16.41712
G1 X70.804 Y91.035 E16.43621
G1 X70.538 Y90.587 E16.45527
G1 X70.485 Y90.284 E16.46653
G1 X70.456 Y90.122 E16.47255
G1 X70.456 Y89.689 E16.48839
G1 X69.338 Y88.571 E16.54624
G1 X69.362 Y88.184 E16.56042
G1 X69.386 Y88.054 E16.56526
G1 X70.456 Y89.123 E16.6206
G1 X70.456 Y88.558 E16.64127
G1 X69.502 Y87.604 E16.69063
G1 X69.558 Y87.437 E16.69707
G1 X69.671 Y87.207 E16.70645
G1 X70.461 Y87.997 E16.74732
G1 X70.468 Y87.87 E16.75198
G1 X70.574 Y87.545 E16.76448
G1 X69.88 Y86.851 E16.80039
G1 X69.95 Y86.744 E16.80507
G1 X70.13 Y86.535 E16.81516
G1 X70.787 Y87.191 E16.84913
G1 X70.944 Y86.992 E16.8584
G1 X71.074 Y86.914 E16.86395
G1 X70.418 Y86.257 E16.89792
G1 X70.507 Y86.177 E16.90229
G1 X70.743 Y86.016 E16.91275
G1 X71.442 Y86.716 E16.94894
G1 X71.857 Y86.643 E16.96436
G1 X71.935 Y86.643 E16.96721
G1 X71.107 Y85.815 E17.01005
G1 X71.187 Y85.774 E17.01334
G1 X71.516 Y85.658 E17.0261
G1 X72.501 Y86.643 E17.07707
G1 X73.066 Y86.643 E17.09774
G1 X71.979 Y85.555 E17.15401
G1 X72.409 Y85.504 E17.16985
G1 X72.48 Y85.491 E17.17249
G1 X73.632 Y86.643 E17.23209
G1 X74.198 Y86.643 E17.2528
G1 X72.931 Y85.376 E17.31836
G1 X73.108 Y85.324 E17.32511
G1 X73.338 Y85.218 E17.33437
G1 X74.763 Y86.643 E17.4081
G1 X75.329 Y86.643 E17.42881
G1 X73.706 Y85.02 E17.51279
G1 X73.959 Y84.856 E17.52382
G1 X74.039 Y84.787 E17.52768
G1 X78.778 Y89.526 E17.77288
G1 X78.778 Y88.961 E17.79355
G1 X74.34 Y84.522 E18.0232
G1 X74.602 Y84.219 E18.03786
G1 X78.778 Y88.395 E18.25393
G1 X78.778 Y87.829 E18.27463
G1 X74.831 Y83.882 E18.47885
G1 X74.916 Y83.751 E18.48457
G1 X75.025 Y83.51 E18.49424
G1 X78.778 Y87.264 E18.68845
G1 X78.778 Y86.698 E18.70916
G1 X75.179 Y83.099 E18.89538
G1 X75.257 Y82.837 E18.90538
G1 X75.284 Y82.638 E18.91272
G1 X78.778 Y86.132 E19.09351
G1 X78.778 Y85.566 E19.11421
G1 X75.335 Y82.123 E19.29236
G1 X75.335 Y82.112 E19.29276
G1 X75.335 Y81.558 E19.31303
G1 X78.778 Y85.001 E19.49117
G1 X78.778 Y84.435 E19.51188
G1 X75.335 Y80.992 E19.69002
G1 X75.335 Y80.427 E19.71069
G1 X78.778 Y83.869 E19.88881
G1 X78.778 Y83.304 E19.90948
G1 X75.335 Y79.861 E20.08762
G1 X75.335 Y79.295 E20.10833
G1 X78.778 Y82.738 E20.28647
G1 X78.778 Y82.172 E20.30718
G1 X75.335 Y78.729 E20.48533
G1 X75.335 Y78.643 E20.48847
G1 X75.37 Y78.198 E20.5048
G1 X78.778 Y81.607 E20.68116
G1 X78.778 Y81.041 E20.70187
G1 X75.412 Y77.674 E20.87605
G1 X75.415 Y77.643 E20.87719
G1 X75.461 Y77.158 E20.89502
G1 X78.778 Y80.475 E21.06664
G1 X78.778 Y79.91 E21.08731
G1 X75.528 Y76.659 E21.25549
G1 X75.562 Y76.402 E21.26498
G0 F3600 X75.562 Y76.403
G1 F1500 X75.604 Y76.17 E21.27364
G1 X78.788 Y79.354 E21.43838
G1 X78.799 Y78.799 E21.45869
G1 X75.7 Y75.7 E21.61904
G1 X75.756 Y75.461 E21.62802
G1 X75.817 Y75.251 E21.63602
G1 X78.829 Y78.263 E21.79186
G1 X78.843 Y78.028 E21.80047
G1 X78.872 Y77.74 E21.81106
G1 X75.957 Y74.826 E21.96186
G1 X76.057 Y74.558 E21.97233
G0 F3600 X76.055 Y74.558
G1 F1500 X76.117 Y74.42 E21.97786
G1 X78.942 Y77.245 E22.12403
G1 X79.032 Y76.769 E22.14175
G1 X76.301 Y74.038 E22.28306
G1 X76.48 Y73.703 E22.29695
G1 X76.499 Y73.67 E22.29835
G1 X79.153 Y76.325 E22.43569
G1 X79.293 Y75.899 E22.4521
G1 X76.711 Y73.317 E22.58569
G1 X76.719 Y73.302 E22.58631
G1 X76.935 Y72.975 E22.60065
G1 X79.452 Y75.492 E22.73088
G1 X79.572 Y75.206 E22.74223
G1 X79.623 Y75.098 E22.7466
G1 X77.168 Y72.643 E22.87362
G1 X77.405 Y72.314 E22.88846
G1 X79.804 Y74.712 E23.01256
G1 X79.985 Y74.328 E23.02809
G1 X77.649 Y71.992 E23.14896
G1 X77.894 Y71.672 E23.1637
G1 X80.222 Y74 E23.28415
G1 X80.362 Y73.85 E23.29166
G1 X80.499 Y73.71 E23.29883
G1 X78.167 Y71.378 E23.41949
G1 X78.473 Y71.119 E23.43415
G1 X80.778 Y73.424 E23.55342
G1 X80.897 Y73.302 E23.55965
G1 X81.066 Y73.147 E23.56804
G1 X78.78 Y70.86 E23.68635
G1 X78.833 Y70.814 E23.68891
G1 X79.094 Y70.608 E23.70108
G1 X81.363 Y72.878 E23.8185
G1 X81.623 Y72.67 E23.83068
G1 X81.68 Y72.629 E23.83325
G1 X79.409 Y70.358 E23.95076
G1 X79.474 Y70.306 E23.9538
G1 X79.733 Y70.116 E23.96555
G1 X82.015 Y72.399 E24.08365
G1 X82.275 Y72.245 E24.09471
G1 X82.377 Y72.195 E24.09886
G1 X80.066 Y69.884 E24.21844
G1 X80.312 Y69.718 E24.22929
G1 X80.409 Y69.661 E24.23341
G1 X82.769 Y72.021 E24.35552
G1 X82.991 Y71.936 E24.36422
G1 X83.191 Y71.877 E24.37184
G1 X80.765 Y69.452 E24.49734
G1 X81.139 Y69.26 E24.51272
G1 X83.642 Y71.763 E24.64223
G1 X83.741 Y71.741 E24.64594
G1 X84.122 Y71.677 E24.66007
G1 X81.534 Y69.089 E24.79398
G1 X81.884 Y68.958 E24.80765
G1 X81.95 Y68.939 E24.81016
G1 X84.617 Y71.606 E24.94816
G1 X84.693 Y71.597 E24.95096
G1 X85.129 Y71.553 E24.96699
G1 X82.387 Y68.81 E25.10889
