; generated by Slic3r Prusa Edition 1.39.1-prusa3d on 2018-04-22 at 18:22:52

; 

; external perimeters extrusion width = 0.45mm
; perimeters extrusion width = 0.45mm
; infill extrusion width = 0.45mm
; solid infill extrusion width = 0.45mm
; top infill extrusion width = 0.33mm
; first layer extrusion width = 0.42mm

M107
M115 U3.1.0 ; tell printer latest fw version
M201 X9000 Y9000 Z500 E10000 ; sets maximum accelerations, mm/sec^2
M203 X500 Y500 Z12 E120 ; sets maximum feedrates, mm/sec
M204 S1500 T1500 ; sets acceleration (S) and retract acceleration (T)
M205 X10 Y10 Z0.2 E2.5 ; sets the jerk limits, mm/sec
M205 S0 T0 ; sets the minimum extruding and travel feed rate, mm/sec
M83  ; extruder relative mode
M104 S215 ; set extruder temp
M140 S60 ; set bed temp
M190 S60 ; wait for bed temp
M109 S215 ; wait for extruder temp
G28 W ; home all without mesh bed level
G80 ; mesh bed leveling
G1 Y-3.0 F1000.0 ; go outside print area
G92 E0.0
G1 E18.0 F1000.0;
G1 X60.0 E9.0  F1000.0 ; intro line
G1 X100.0 E12.5  F1000.0 ; intro line
G92 E0.0
M900 K30; Filament gcode
G21 ; set units to millimeters
G90 ; use absolute coordinates
M83 ; use relative distances for extrusion
;BEFORE_LAYER_CHANGE
;0.2


G1 E-0.80000 F2100.00000
G1 Z0.600 F7200.000
;AFTER_LAYER_CHANGE
;0.2
G1 X118.410 Y91.602 F7200.000
G1 Z0.200 F7200.000
G1 E0.80000 F2100.00000
M204 S1000
G1 F900
G1 X120.306 Y90.066 E0.07652
G1 X122.008 Y89.003 E0.06291
G1 X123.060 Y88.539 E0.03603
G1 X124.414 Y88.136 E0.04433
G1 X125.975 Y87.858 E0.04968
G1 X127.997 Y87.662 E0.06371
G1 X130.319 Y87.902 E0.07320
G1 X132.273 Y88.322 E0.06265
G1 X133.932 Y88.978 E0.05594
G1 X135.423 Y89.878 E0.05460
G1 X136.698 Y90.853 E0.05033
G1 X137.945 Y91.975 E0.05259
G1 X139.644 Y94.366 E0.09197
G1 X140.241 Y95.486 E0.03979
G1 X140.634 Y96.481 E0.03354
G1 X141.090 Y98.390 E0.06155
G1 X141.357 Y101.053 E0.08393
G1 X141.355 Y119.707 E0.58487
G1 X141.194 Y120.520 E0.02600
G1 X140.801 Y121.245 E0.02587
G1 X140.210 Y121.821 E0.02587
G1 X139.471 Y122.198 E0.02600
G1 X138.609 Y122.338 E0.02739
G1 X117.384 Y122.338 E0.66550
G1 X116.687 Y122.245 E0.02205
G1 X116.068 Y121.997 E0.02090
G1 X115.527 Y121.607 E0.02090
G1 X110.403 Y116.434 E0.22828
G1 X109.506 Y115.256 E0.04644
G1 X108.969 Y114.078 E0.04058
G1 X108.689 Y112.840 E0.03981
G1 X108.643 Y111.023 E0.05698
G1 X108.758 Y109.884 E0.03593
G1 X109.091 Y108.757 E0.03683
G1 X116.020 Y94.960 E0.48407
G1 X117.048 Y93.315 E0.06083
G1 X118.373 Y91.649 E0.06673
G1 X118.656 Y91.888 F7200.000
G1 F900
G1 X120.527 Y90.372 E0.07549
G1 X122.179 Y89.339 E0.06113
G1 X123.186 Y88.895 E0.03449
G1 X124.498 Y88.503 E0.04293
G1 X126.025 Y88.232 E0.04865
G1 X127.994 Y88.039 E0.06202
G1 X130.261 Y88.275 E0.07145
G1 X132.164 Y88.683 E0.06104
G1 X133.766 Y89.317 E0.05401
G1 X135.205 Y90.186 E0.05272
G1 X136.452 Y91.140 E0.04922
G1 X137.648 Y92.207 E0.05025
G1 X139.318 Y94.555 E0.09034
G1 X139.900 Y95.647 E0.03879
G1 X140.274 Y96.592 E0.03186
G1 X140.717 Y98.447 E0.05983
G1 X140.980 Y101.069 E0.08261
G1 X140.979 Y119.672 E0.58327
G1 X140.845 Y120.376 E0.02249
G1 X140.509 Y121.005 E0.02237
G1 X139.999 Y121.509 E0.02249
G1 X139.361 Y121.837 E0.02249
G1 X138.609 Y121.961 E0.02390
G1 X117.388 Y121.961 E0.66535
G1 X116.793 Y121.883 E0.01882
G1 X116.250 Y121.666 E0.01835
G1 X115.773 Y121.321 E0.01846
G1 X110.677 Y116.175 E0.22706
G1 X109.830 Y115.062 E0.04387
G1 X109.330 Y113.971 E0.03763
G1 X109.064 Y112.801 E0.03763
G1 X109.019 Y111.032 E0.05549
G1 X109.129 Y109.955 E0.03394
G1 X109.445 Y108.887 E0.03490
G1 X116.244 Y95.348 E0.47502
G1 X117.353 Y93.536 E0.06662
G1 X118.619 Y91.935 E0.06398
G1 F5760
G1 X120.316 Y90.545 E-0.76000
G1 E-0.04000 F2100.00000
G1 Z0.800 F7200.000
G1 X117.983 Y108.997 F7200.000
G1 Z0.200 F7200.000
G1 E0.80000 F2100.00000
G1 F900
G1 X117.983 Y114.172 E0.16228
G1 X114.203 Y114.164 E0.11851
G1 X113.832 Y114.072 E0.01201
G1 X113.492 Y113.894 E0.01203
G1 X113.218 Y113.651 E0.01147
G1 X113.077 Y113.471 E0.00717
G1 X112.906 Y113.141 E0.01167
G1 X112.820 Y112.793 E0.01124
G1 X112.809 Y110.548 E0.07037
G1 X112.849 Y110.219 E0.01040
G1 X112.920 Y109.996 E0.00733
G1 X113.079 Y109.694 E0.01072
G1 X113.224 Y109.511 E0.00732
G1 X113.493 Y109.273 E0.01127
G1 X113.839 Y109.094 E0.01222
G1 X114.187 Y109.008 E0.01124
G1 X117.923 Y108.997 E0.11714
G1 X117.606 Y109.374 F7200.000
G1 F900
G1 X117.606 Y113.794 E0.13860
G1 X114.250 Y113.787 E0.10523
G1 X113.966 Y113.717 E0.00915
G1 X113.708 Y113.581 E0.00916
G1 X113.494 Y113.392 E0.00896
G1 X113.396 Y113.266 E0.00500
G1 X113.261 Y113.007 E0.00915
G1 X113.195 Y112.736 E0.00875
G1 X113.186 Y110.571 E0.06788
G1 X113.219 Y110.300 E0.00857
G1 X113.269 Y110.142 E0.00518
G1 X113.396 Y109.901 E0.00857
G1 X113.499 Y109.772 E0.00517
G1 X113.708 Y109.587 E0.00876
G1 X113.973 Y109.449 E0.00934
G1 X114.244 Y109.383 E0.00875
G1 X117.546 Y109.374 E0.10354
G1 X118.006 Y109.371 F7200.000
G1 F5760
G1 X117.576 Y111.568 E-0.76000
G1 E-0.04000 F2100.00000
G1 Z0.800 F7200.000
G1 X117.979 Y118.997 F7200.000
G1 Z0.200 F7200.000
G1 E0.80000 F2100.00000
G1 F900
G1 X117.975 Y118.307 E0.02164
G1 X117.906 Y117.820 E0.01541
G1 X117.837 Y117.547 E0.00883
G1 X117.669 Y117.094 E0.01515
G1 X117.541 Y116.838 E0.00898
G1 X117.273 Y116.420 E0.01558
G1 X116.948 Y116.043 E0.01558
G1 X116.741 Y115.850 E0.00888
G1 X116.357 Y115.560 E0.01508
G1 X116.113 Y115.415 E0.00890
G1 X115.668 Y115.209 E0.01538
G1 X115.169 Y115.060 E0.01632
G1 X114.501 Y114.970 E0.02116
G1 X114.114 Y114.889 E0.01238
G1 X113.757 Y114.764 E0.01185
G1 X113.420 Y114.594 E0.01185
G1 X113.107 Y114.381 E0.01185
G1 X112.825 Y114.130 E0.01185
G1 X112.577 Y113.845 E0.01185
G1 X112.369 Y113.530 E0.01185
G1 X112.203 Y113.190 E0.01185
G1 X112.082 Y112.832 E0.01186
G1 X111.990 Y112.280 E0.01754
G1 X111.983 Y111.101 E0.03695
G1 X112.009 Y110.707 E0.01239
G1 X112.082 Y110.336 E0.01185
G1 X112.203 Y109.978 E0.01185
G1 X112.369 Y109.638 E0.01185
G1 X112.577 Y109.323 E0.01185
G1 X112.825 Y109.037 E0.01186
G1 X113.107 Y108.787 E0.01182
G1 X113.586 Y108.484 E0.01778
G1 X113.934 Y108.336 E0.01185
G1 X114.295 Y108.235 E0.01176
G1 X114.940 Y108.149 E0.02039
G1 X115.408 Y108.045 E0.01504
G1 X115.677 Y107.954 E0.00891
G1 X116.123 Y107.749 E0.01538
G1 X116.555 Y107.470 E0.01611
G1 X116.942 Y107.132 E0.01611
G1 X117.273 Y106.748 E0.01591
G1 X117.543 Y106.326 E0.01573
G1 X117.669 Y106.073 E0.00883
G1 X117.837 Y105.621 E0.01514
G1 X117.906 Y105.348 E0.00883
G1 X117.975 Y104.860 E0.01545
G1 X117.983 Y101.164 E0.11588
G1 X118.061 Y100.159 E0.03161
G1 X118.173 Y99.162 E0.03146
G1 X118.296 Y98.444 E0.02282
G1 X118.402 Y97.988 E0.01469
G1 X118.533 Y97.544 E0.01451
G1 X118.693 Y97.116 E0.01434
G1 X118.883 Y96.697 E0.01442
G1 X119.104 Y96.284 E0.01469
G1 X119.350 Y95.876 E0.01492
G1 X119.761 Y95.265 E0.02311
G1 X120.644 Y94.089 E0.04610
G1 X121.848 Y93.090 E0.04906
G1 X122.692 Y92.474 E0.03277
G1 X123.113 Y92.208 E0.01559
G1 X123.539 Y91.973 E0.01526
G1 X124.213 Y91.675 E0.02312
G1 X124.671 Y91.522 E0.01513
G1 X125.146 Y91.396 E0.01542
G1 X126.168 Y91.205 E0.03258
G1 X126.956 Y91.106 E0.02492
G1 X127.992 Y91.006 E0.03262
G1 X129.559 Y91.170 E0.04942
G1 X130.334 Y91.291 E0.02458
G1 X131.081 Y91.457 E0.02400
G1 X131.551 Y91.597 E0.01537
G1 X132.001 Y91.766 E0.01508
G1 X132.669 Y92.090 E0.02325
G1 X133.090 Y92.339 E0.01536
G1 X133.727 Y92.773 E0.02417
G1 X134.568 Y93.427 E0.03338
G1 X135.355 Y94.088 E0.03222
G1 X136.237 Y95.263 E0.04606
G1 X136.778 Y96.083 E0.03083
G1 X137.010 Y96.490 E0.01467
G1 X137.213 Y96.901 E0.01437
G1 X137.467 Y97.545 E0.02171
G1 X137.654 Y98.217 E0.02187
G1 X137.791 Y98.922 E0.02252
G1 X137.889 Y99.653 E0.02311
G1 X138.017 Y101.165 E0.04760
G1 X138.017 Y118.997 E0.55909
G1 X134.868 Y118.997 E0.09875
G1 X134.859 Y101.607 E0.54524
G1 X134.832 Y100.877 E0.02292
G1 X134.771 Y100.144 E0.02306
G1 X134.657 Y99.417 E0.02308
G1 X134.465 Y98.676 E0.02398
G1 X134.210 Y97.981 E0.02322
G1 X133.566 Y96.592 E0.04801
G1 X132.700 Y95.695 E0.03909
G1 X132.115 Y95.173 E0.02457
G1 X131.635 Y94.822 E0.01864
G1 X131.284 Y94.613 E0.01281
G1 X130.914 Y94.436 E0.01288
G1 X130.354 Y94.237 E0.01864
G1 X129.776 Y94.096 E0.01863
G1 X129.192 Y93.999 E0.01857
G1 X127.990 Y93.870 E0.03790
G1 X126.792 Y94.000 E0.03779
G1 X126.210 Y94.098 E0.01852
G1 X125.634 Y94.239 E0.01858
G1 X125.075 Y94.438 E0.01859
G1 X124.706 Y94.616 E0.01285
G1 X124.356 Y94.825 E0.01277
G1 X123.878 Y95.176 E0.01859
G1 X123.296 Y95.697 E0.02450
G1 X122.433 Y96.593 E0.03901
G1 X121.795 Y97.985 E0.04800
G1 X121.542 Y98.679 E0.02318
G1 X121.434 Y99.053 E0.01220
G1 X121.285 Y99.778 E0.02319
G1 X121.197 Y100.511 E0.02317
G1 X121.154 Y101.242 E0.02295
G1 X121.132 Y102.322 E0.03388
G1 X121.132 Y118.997 E0.52283
G1 X118.039 Y118.997 E0.09697
G1 X117.605 Y119.374 F7200.000
G1 F900
G1 X117.598 Y118.335 E0.03258
G1 X117.535 Y117.893 E0.01398
G1 X117.476 Y117.659 E0.00757
G1 X117.322 Y117.244 E0.01388
G1 X117.212 Y117.024 E0.00771
G1 X116.970 Y116.646 E0.01410
G1 X116.676 Y116.305 E0.01411
G1 X116.499 Y116.139 E0.00762
G1 X116.146 Y115.874 E0.01382
G1 X115.937 Y115.749 E0.00764
G1 X115.534 Y115.563 E0.01391
G1 X115.090 Y115.430 E0.01455
G1 X114.437 Y115.342 E0.02067
G1 X114.013 Y115.253 E0.01358
G1 X113.610 Y115.112 E0.01339
G1 X113.228 Y114.920 E0.01339
G1 X112.875 Y114.680 E0.01339
G1 X112.556 Y114.396 E0.01339
G1 X112.276 Y114.073 E0.01339
G1 X112.041 Y113.717 E0.01339
G1 X111.853 Y113.334 E0.01339
G1 X111.717 Y112.929 E0.01339
G1 X111.635 Y112.518 E0.01315
G1 X111.613 Y112.300 E0.00686
G1 X111.606 Y111.090 E0.03793
G1 X111.634 Y110.658 E0.01358
G1 X111.717 Y110.239 E0.01339
G1 X111.853 Y109.834 E0.01339
G1 X112.041 Y109.451 E0.01339
G1 X112.276 Y109.095 E0.01339
G1 X112.556 Y108.772 E0.01339
G1 X112.869 Y108.493 E0.01315
G1 X113.045 Y108.364 E0.00684
G1 X113.416 Y108.146 E0.01349
G1 X113.809 Y107.979 E0.01339
G1 X114.219 Y107.865 E0.01336
G1 X114.874 Y107.778 E0.02070
G1 X115.307 Y107.682 E0.01390
G1 X115.538 Y107.604 E0.00764
G1 X115.941 Y107.418 E0.01391
G1 X116.327 Y107.168 E0.01443
G1 X116.674 Y106.866 E0.01441
G1 X116.970 Y106.522 E0.01422
G1 X117.215 Y106.140 E0.01425
G1 X117.322 Y105.923 E0.00757
G1 X117.476 Y105.509 E0.01387
G1 X117.535 Y105.275 E0.00757
G1 X117.598 Y104.833 E0.01399
G1 X117.606 Y101.149 E0.11550
G1 X117.686 Y100.123 E0.03225
G1 X117.799 Y99.109 E0.03200
G1 X117.926 Y98.370 E0.02352
G1 X118.037 Y97.892 E0.01539
G1 X118.175 Y97.425 E0.01526
G1 X118.344 Y96.972 E0.01517
G1 X118.545 Y96.530 E0.01521
G1 X118.776 Y96.098 E0.01537
G1 X119.032 Y95.673 E0.01553
G1 X119.454 Y95.046 E0.02371
G1 X120.369 Y93.827 E0.04779
G1 X121.617 Y92.792 E0.05082
G1 X122.480 Y92.162 E0.03353
G1 X122.921 Y91.884 E0.01634
G1 X123.371 Y91.635 E0.01613
G1 X124.077 Y91.323 E0.02419
G1 X124.563 Y91.161 E0.01606
G1 X125.063 Y91.028 E0.01623
G1 X126.109 Y90.832 E0.03338
G1 X126.915 Y90.731 E0.02545
G1 X127.991 Y90.627 E0.03391
G1 X129.609 Y90.796 E0.05101
G1 X130.404 Y90.920 E0.02522
G1 X131.176 Y91.092 E0.02480
G1 X131.671 Y91.240 E0.01620
G1 X132.150 Y91.419 E0.01604
G1 X132.847 Y91.757 E0.02429
G1 X133.293 Y92.021 E0.01623
G1 X133.950 Y92.468 E0.02493
G1 X134.805 Y93.134 E0.03397
G1 X135.630 Y93.827 E0.03379
G1 X136.545 Y95.045 E0.04778
G1 X137.100 Y95.886 E0.03158
G1 X137.343 Y96.313 E0.01540
G1 X137.558 Y96.748 E0.01522
G1 X137.825 Y97.425 E0.02282
G1 X138.022 Y98.130 E0.02294
G1 X138.164 Y98.861 E0.02335
G1 X138.264 Y99.612 E0.02375
G1 X138.394 Y101.150 E0.04838
G1 X138.394 Y119.374 E0.57142
G1 X134.491 Y119.374 E0.12239
G1 X134.482 Y101.614 E0.55685
G1 X134.456 Y100.899 E0.02243
G1 X134.396 Y100.189 E0.02235
G1 X134.286 Y99.488 E0.02223
G1 X134.106 Y98.794 E0.02250
G1 X133.861 Y98.126 E0.02231
G1 X133.250 Y96.808 E0.04553
G1 X132.438 Y95.967 E0.03666
G1 X131.878 Y95.467 E0.02356
G1 X131.427 Y95.137 E0.01750
G1 X131.106 Y94.946 E0.01172
G1 X130.769 Y94.784 E0.01172
G1 X130.246 Y94.599 E0.01741
G1 X129.701 Y94.466 E0.01759
G1 X129.141 Y94.373 E0.01778
G1 X127.991 Y94.250 E0.03628
G1 X126.844 Y94.374 E0.03617
G1 X126.286 Y94.467 E0.01773
G1 X125.742 Y94.601 E0.01754
G1 X125.221 Y94.787 E0.01736
G1 X124.885 Y94.948 E0.01169
G1 X124.565 Y95.139 E0.01168
G1 X124.116 Y95.469 E0.01745
G1 X123.558 Y95.969 E0.02349
G1 X122.749 Y96.809 E0.03657
G1 X122.144 Y98.128 E0.04552
G1 X121.900 Y98.796 E0.02230
G1 X121.800 Y99.144 E0.01133
G1 X121.657 Y99.838 E0.02223
G1 X121.573 Y100.545 E0.02232
G1 X121.531 Y101.257 E0.02237
G1 X121.509 Y102.326 E0.03353
G1 X121.509 Y119.374 E0.53453
G1 X117.665 Y119.374 E0.12054
G1 X117.633 Y118.975 F7200.000
G1 F5760
G1 X117.598 Y118.335 E-0.36066
G1 F5760
G1 X117.535 Y117.893 E-0.15444
G1 F5760
G1 X117.476 Y117.659 E-0.08360
G1 F5760
G1 X117.322 Y117.244 E-0.15331
G1 F5760
G1 X117.312 Y117.224 E-0.00799
G1 E-0.04000 F2100.00000
G1 Z0.800 F7200.000
G1 X118.057 Y118.080 F7200.000
G1 Z0.200 F7200.000
G1 E0.80000 F2100.00000
G1 F900
G1 X118.691 Y118.714 E0.02839
G1 X119.229 Y118.714 E0.01702
G1 X118.150 Y117.635 E0.04827
G1 X118.107 Y117.463 E0.00561
G1 X117.928 Y116.982 E0.01624
G1 X117.823 Y116.769 E0.00751
G1 X119.937 Y118.884 E0.09459
G1 F5760
G1 X118.386 Y117.332 E-0.76000
G1 E-0.04000 F2100.00000
G1 Z0.800 F7200.000
G1 X114.885 Y114.908 F7200.000
G1 Z0.200 F7200.000
G1 E0.80000 F2100.00000
G1 F900
G1 X114.424 Y114.447 E0.02061
G1 X114.964 Y114.448 E0.01706
G1 X115.328 Y114.812 E0.01629
G1 X115.768 Y114.944 E0.01454
G1 X116.194 Y115.140 E0.01482
G1 X115.503 Y114.449 E0.03091
G1 X116.042 Y114.451 E0.01706
G1 X120.305 Y118.714 E0.19072
G1 X120.843 Y118.714 E0.01702
G1 X116.581 Y114.452 E0.19066
G1 X117.120 Y114.453 E0.01706
G1 X120.849 Y118.182 E0.16681
G1 X120.849 Y117.644 E0.01702
G1 X117.660 Y114.454 E0.14268
G1 X118.199 Y114.456 E0.01706
G1 X120.849 Y117.106 E0.11856
G1 X120.849 Y116.568 E0.01702
G1 X118.266 Y113.985 E0.11557
G1 X118.266 Y113.447 E0.01702
G1 X120.849 Y116.030 E0.11557
G1 X120.849 Y115.492 E0.01702
G1 X118.266 Y112.909 E0.11557
G1 X118.266 Y112.371 E0.01702
G1 X120.849 Y114.954 E0.11557
G1 X120.849 Y114.416 E0.01702
G1 X118.266 Y111.833 E0.11557
G1 X118.266 Y111.295 E0.01702
G1 X120.849 Y113.878 E0.11557
G1 X120.849 Y113.340 E0.01702
G1 X118.266 Y110.757 E0.11557
G1 X118.266 Y110.219 E0.01702
G1 X120.849 Y112.802 E0.11557
G1 X120.849 Y112.264 E0.01702
G1 X118.266 Y109.681 E0.11557
G1 X118.266 Y109.143 E0.01702
G1 X121.019 Y111.896 E0.12316
G1 F5760
G1 X119.467 Y110.345 E-0.76000
G1 E-0.04000 F2100.00000
G1 Z0.800 F7200.000
G1 X114.779 Y108.884 F7200.000
G1 Z0.200 F7200.000
G1 E0.80000 F2100.00000
G1 F900
G1 X114.401 Y108.506 E0.01689
G1 X114.876 Y108.443 E0.01515
G1 X115.147 Y108.714 E0.01213
G1 X115.685 Y108.714 E0.01702
G1 X115.325 Y108.354 E0.01613
G1 X115.741 Y108.232 E0.01371
G1 X116.223 Y108.714 E0.02159
G1 X116.761 Y108.714 E0.01702
G1 X116.112 Y108.065 E0.02903
G1 X116.259 Y107.997 E0.00513
G1 X116.456 Y107.871 E0.00738
G1 X117.299 Y108.714 E0.03773
G1 X117.837 Y108.714 E0.01702
G1 X116.776 Y107.653 E0.04749
G1 X117.063 Y107.402 E0.01206
G1 X120.849 Y111.188 E0.16938
G1 X120.849 Y110.650 E0.01702
G1 X117.323 Y107.124 E0.15776
G1 X117.560 Y106.824 E0.01211
G1 X120.849 Y110.113 E0.14712
G1 X120.849 Y109.575 E0.01702
G1 X117.770 Y106.496 E0.13773
G1 X117.948 Y106.135 E0.01271
G1 X120.849 Y109.037 E0.12981
G1 X120.849 Y108.499 E0.01702
G1 X118.093 Y105.742 E0.12330
G1 X118.197 Y105.308 E0.01412
G1 X120.849 Y107.961 E0.11865
G1 X120.849 Y107.423 E0.01702
G1 X118.258 Y104.831 E0.11591
G1 X118.259 Y104.295 E0.01698
G1 X120.849 Y106.885 E0.11586
G1 X120.849 Y106.347 E0.01702
G1 X118.260 Y103.758 E0.11581
G1 X118.262 Y103.221 E0.01698
G1 X120.849 Y105.809 E0.11576
G1 X120.849 Y105.271 E0.01702
G1 X118.263 Y102.684 E0.11571
G1 X118.264 Y102.147 E0.01698
G1 X120.849 Y104.733 E0.11566
G1 X120.849 Y104.195 E0.01702
G1 X118.265 Y101.610 E0.11561
G1 X118.273 Y101.081 E0.01676
G1 X120.849 Y103.657 E0.11524
G1 X120.849 Y103.119 E0.01702
G1 X118.312 Y100.581 E0.11351
G1 X118.354 Y100.085 E0.01575
G1 X120.849 Y102.581 E0.11163
G1 X120.855 Y102.048 E0.01684
G1 X118.408 Y99.602 E0.10945
G1 X118.453 Y99.202 E0.01273
G1 X118.466 Y99.122 E0.00255
G1 X120.866 Y101.521 E0.10732
G1 X120.885 Y101.003 E0.01641
G1 X118.545 Y98.663 E0.10467
