; generated by Slic3r Prusa Edition 1.39.1-prusa3d on 2018-04-22 at 18:23:02

; 

; external perimeters extrusion width = 0.45mm
; perimeters extrusion width = 0.45mm
; infill extrusion width = 0.45mm
; solid infill extrusion width = 0.45mm
; top infill extrusion width = 0.33mm
; first layer extrusion width = 0.42mm

M107
M115 U3.1.0 ; tell printer latest fw version
M201 X9000 Y9000 Z500 E10000 ; sets maximum accelerations, mm/sec^2
M203 X500 Y500 Z12 E120 ; sets maximum feedrates, mm/sec
M204 S1500 T1500 ; sets acceleration (S) and retract acceleration (T)
M205 X10 Y10 Z0.2 E2.5 ; sets the jerk limits, mm/sec
M205 S0 T0 ; sets the minimum extruding and travel feed rate, mm/sec
M83  ; extruder relative mode
M104 S215 ; set extruder temp
M140 S60 ; set bed temp
M190 S60 ; wait for bed temp
M109 S215 ; wait for extruder temp
G28 W ; home all without mesh bed level
G80 ; mesh bed leveling
G1 Y-3.0 F1000.0 ; go outside print area
G92 E0.0
G1 E18.0 F1000.0;
G1 X60.0 E9.0  F1000.0 ; intro line
G1 X100.0 E12.5  F1000.0 ; intro line
G92 E0.0
M900 K30; Filament gcode
G21 ; set units to millimeters
G90 ; use absolute coordinates
M83 ; use relative distances for extrusion
;BEFORE_LAYER_CHANGE
;0.2


G1 E-0.80000 F2100.00000
G1 Z0.600 F7200.000
;AFTER_LAYER_CHANGE
;0.2
G1 X127.112 Y86.955 F7200.000
G1 Z0.200 F7200.000
G1 E0.80000 F2100.00000
M204 S1000
G1 F900
G1 X127.816 Y87.273 E0.02422
G1 X128.404 Y87.774 E0.02422
G1 X128.832 Y88.422 E0.02434
G1 X141.773 Y119.415 E1.05310
G1 X141.916 Y119.937 E0.01694
G1 X141.954 Y120.471 E0.01681
G1 X141.887 Y121.008 E0.01694
G1 X141.717 Y121.520 E0.01694
G1 X141.450 Y121.990 E0.01694
G1 X141.096 Y122.399 E0.01694
G1 X140.670 Y122.730 E0.01694
G1 X140.186 Y122.972 E0.01694
G1 X139.213 Y123.155 E0.03107
G1 X113.773 Y123.155 E0.79765
G1 X113.091 Y123.067 E0.02154
G1 X112.569 Y122.874 E0.01745
G1 X112.097 Y122.580 E0.01745
G1 X111.693 Y122.196 E0.01745
G1 X111.374 Y121.740 E0.01745
G1 X108.451 Y114.729 E0.23816
G1 X108.206 Y113.923 E0.02643
G1 X108.071 Y113.085 E0.02659
G1 X108.050 Y112.237 E0.02661
G1 X108.134 Y111.463 E0.02441
G1 X108.497 Y110.176 E0.04192
G1 X109.035 Y108.887 E0.04380
G1 X109.444 Y108.160 E0.02619
G1 X124.185 Y87.888 E0.78587
G1 X124.620 Y87.450 E0.01937
G1 X125.147 Y87.119 E0.01950
G1 X125.730 Y86.914 E0.01937
G1 X126.348 Y86.845 E0.01950
G1 X127.053 Y86.947 E0.02234
G1 X127.000 Y87.316 F7200.000
G1 F900
G1 X127.620 Y87.595 E0.02133
G1 X128.130 Y88.033 E0.02107
G1 X128.497 Y88.596 E0.02107
G1 X141.417 Y119.541 E1.05145
G1 X141.577 Y120.454 E0.02907
G1 X141.376 Y121.360 E0.02907
G1 X140.843 Y122.119 E0.02907
G1 X140.061 Y122.616 E0.02907
G1 X139.209 Y122.777 E0.02720
G1 X113.773 Y122.777 E0.79751
G1 X113.189 Y122.703 E0.01846
G1 X112.729 Y122.532 E0.01538
G1 X112.317 Y122.273 E0.01526
G1 X111.966 Y121.936 E0.01526
G1 X111.690 Y121.531 E0.01538
G1 X108.806 Y114.604 E0.23525
G1 X108.573 Y113.836 E0.02517
G1 X108.446 Y113.048 E0.02502
G1 X108.427 Y112.251 E0.02500
G1 X108.507 Y111.515 E0.02321
G1 X108.849 Y110.311 E0.03925
G1 X109.376 Y109.048 E0.04289
G1 X109.762 Y108.364 E0.02463
G1 X124.473 Y88.131 E0.78434
G1 X124.849 Y87.750 E0.01680
G1 X125.305 Y87.461 E0.01692
G1 X125.811 Y87.283 E0.01680
G1 X126.347 Y87.223 E0.01692
G1 X126.940 Y87.308 E0.01879
G1 F5760
G1 X127.620 Y87.595 E-0.25570
G1 F5760
G1 X128.130 Y88.033 E-0.23273
G1 F5760
G1 X128.497 Y88.596 E-0.23273
G1 F5760
G1 X128.540 Y88.699 E-0.03884
G1 E-0.04000 F2100.00000
G1 Z0.800 F7200.000
G1 X118.323 Y110.819 F7200.000
G1 Z0.200 F7200.000
G1 E0.80000 F2100.00000
G1 F900
G1 X116.368 Y115.611 E0.16228
G1 X112.887 Y114.182 E0.11800
G1 X112.691 Y114.055 E0.00731
G1 X112.429 Y113.811 E0.01122
G1 X112.229 Y113.505 E0.01145
G1 X112.141 Y113.296 E0.00713
G1 X112.066 Y112.956 E0.01090
G1 X112.058 Y112.729 E0.00713
G1 X112.111 Y112.367 E0.01147
G1 X113.011 Y110.160 E0.07474
G1 X113.237 Y109.849 E0.01203
G1 X113.531 Y109.602 E0.01203
G1 X113.876 Y109.432 E0.01207
G1 X114.257 Y109.350 E0.01223
G1 X114.633 Y109.359 E0.01180
G1 X114.968 Y109.451 E0.01089
G1 X118.267 Y110.796 E0.11170
G1 X117.831 Y111.026 F7200.000
G1 F900
G1 X116.162 Y115.119 E0.13860
G1 X113.062 Y113.846 E0.10505
G1 X112.924 Y113.757 E0.00517
G1 X112.720 Y113.566 E0.00875
G1 X112.564 Y113.327 E0.00895
G1 X112.502 Y113.181 E0.00498
G1 X112.442 Y112.908 E0.00876
G1 X112.436 Y112.749 E0.00498
G1 X112.478 Y112.467 E0.00896
G1 X113.343 Y110.344 E0.07187
G1 X113.515 Y110.108 E0.00916
G1 X113.738 Y109.920 E0.00916
G1 X114.001 Y109.791 E0.00917
G1 X114.292 Y109.728 E0.00935
G1 X114.578 Y109.735 E0.00895
G1 X114.847 Y109.809 E0.00875
G1 X117.776 Y111.003 E0.09916
G1 X118.202 Y111.176 F7200.000
G1 F5760
G1 X116.975 Y113.046 E-0.76000
G1 E-0.04000 F2100.00000
G1 Z0.800 F7200.000
G1 X126.431 Y98.972 F7200.000
G1 Z0.200 F7200.000
G1 E0.80000 F2100.00000
G1 F900
G1 X118.115 Y119.813 E0.70356
G1 X114.648 Y119.813 E0.10869
G1 X114.802 Y119.429 E0.01299
G1 X114.926 Y118.919 E0.01645
G1 X114.963 Y118.626 E0.00927
G1 X114.970 Y118.104 E0.01636
G1 X114.900 Y117.588 E0.01633
G1 X114.827 Y117.302 E0.00924
G1 X114.650 Y116.830 E0.01581
G1 X114.516 Y116.566 E0.00929
G1 X114.235 Y116.140 E0.01602
G1 X114.051 Y115.920 E0.00899
G1 X113.855 Y115.719 E0.00878
G1 X113.458 Y115.392 E0.01615
G1 X112.655 Y114.915 E0.02926
G1 X112.344 Y114.670 E0.01242
G1 X112.070 Y114.385 E0.01240
G1 X111.837 Y114.067 E0.01236
G1 X111.736 Y113.896 E0.00625
G1 X111.652 Y113.728 E0.00586
G1 X111.506 Y113.340 E0.01301
G1 X111.461 Y113.168 E0.00557
G1 X111.398 Y112.768 E0.01270
G1 X111.390 Y112.373 E0.01239
G1 X111.437 Y111.970 E0.01270
G1 X111.475 Y111.797 E0.00557
G1 X111.608 Y111.395 E0.01327
G1 X112.064 Y110.298 E0.03724
G1 X112.148 Y110.140 E0.00563
G1 X112.374 Y109.803 E0.01270
G1 X112.642 Y109.501 E0.01267
G1 X112.782 Y109.374 E0.00594
G1 X113.099 Y109.138 E0.01236
G1 X113.445 Y108.947 E0.01240
G1 X113.812 Y108.805 E0.01236
G1 X113.995 Y108.754 E0.00594
G1 X114.403 Y108.686 E0.01298
G1 X114.591 Y108.674 E0.00589
G1 X114.779 Y108.675 E0.00589
G1 X115.179 Y108.718 E0.01261
G1 X115.847 Y108.890 E0.02163
G1 X116.352 Y108.971 E0.01603
G1 X116.889 Y108.977 E0.01686
G1 X117.417 Y108.904 E0.01669
G1 X117.937 Y108.750 E0.01703
G1 X118.404 Y108.532 E0.01616
G1 X118.652 Y108.380 E0.00910
G1 X119.071 Y108.055 E0.01662
G1 X119.427 Y107.680 E0.01621
G1 X119.596 Y107.458 E0.00878
G1 X119.751 Y107.219 E0.00892
G1 X119.974 Y106.771 E0.01568
G1 X126.349 Y91.139 E0.52933
G1 X138.320 Y119.813 E0.97427
G1 X134.865 Y119.813 E0.10831
G1 X126.454 Y99.028 E0.70305
G1 X126.434 Y99.984 F7200.000
G1 F900
G1 X118.370 Y120.190 E0.68215
G1 X114.091 Y120.190 E0.13416
G1 X114.442 Y119.314 E0.02961
G1 X114.555 Y118.851 E0.01493
G1 X114.586 Y118.600 E0.00794
G1 X114.593 Y118.127 E0.01481
G1 X114.529 Y117.660 E0.01479
G1 X114.467 Y117.415 E0.00792
G1 X114.304 Y116.982 E0.01450
G1 X114.189 Y116.756 E0.00796
G1 X113.932 Y116.365 E0.01468
G1 X113.771 Y116.172 E0.00787
G1 X113.600 Y115.997 E0.00767
G1 X113.240 Y115.701 E0.01460
G1 X112.441 Y115.227 E0.02914
G1 X112.090 Y114.950 E0.01401
G1 X111.781 Y114.629 E0.01400
G1 X111.522 Y114.275 E0.01375
G1 X111.404 Y114.075 E0.00726
G1 X111.306 Y113.879 E0.00688
G1 X111.147 Y113.454 E0.01422
G1 X111.091 Y113.245 E0.00678
G1 X111.022 Y112.801 E0.01411
G1 X111.013 Y112.355 E0.01400
G1 X111.065 Y111.908 E0.01411
G1 X111.111 Y111.697 E0.00678
G1 X111.254 Y111.263 E0.01431
G1 X111.722 Y110.137 E0.03824
G1 X111.824 Y109.945 E0.00680
G1 X112.075 Y109.572 E0.01411
G1 X112.374 Y109.236 E0.01410
G1 X112.542 Y109.082 E0.00715
G1 X112.894 Y108.821 E0.01375
G1 X113.285 Y108.605 E0.01400
G1 X113.694 Y108.446 E0.01375
G1 X113.913 Y108.386 E0.00715
G1 X114.360 Y108.311 E0.01421
G1 X114.580 Y108.297 E0.00689
G1 X114.800 Y108.298 E0.00689
G1 X115.246 Y108.346 E0.01408
G1 X115.924 Y108.520 E0.02195
G1 X116.384 Y108.595 E0.01461
G1 X116.865 Y108.600 E0.01509
G1 X117.337 Y108.535 E0.01492
G1 X117.803 Y108.396 E0.01526
G1 X118.226 Y108.199 E0.01462
G1 X118.437 Y108.070 E0.00778
G1 X118.817 Y107.774 E0.01507
G1 X119.139 Y107.436 E0.01467
G1 X119.287 Y107.241 E0.00767
G1 X119.423 Y107.032 E0.00781
G1 X119.630 Y106.615 E0.01457
G1 X126.345 Y90.150 E0.55754
G1 X138.886 Y120.190 E1.02067
G1 X134.611 Y120.190 E0.13403
G1 X126.456 Y100.039 E0.68160
G1 X126.102 Y99.760 F7200.000
G1 F5760
G1 X125.639 Y102.076 E-0.76000
G1 E-0.04000 F2100.00000
G1 Z0.800 F7200.000
G1 X126.409 Y98.723 F7200.000
G1 Z0.200 F7200.000
G1 E0.80000 F2100.00000
G1 F900
G1 X124.386 Y96.700 E0.09069
G1 X124.230 Y97.083 E0.01311
G1 X126.125 Y98.978 E0.08494
G1 X125.971 Y99.363 E0.01315
G1 X124.074 Y97.466 E0.08505
G1 X123.918 Y97.849 E0.01311
G1 X125.817 Y99.749 E0.08516
G1 X125.663 Y100.134 E0.01315
G1 X123.761 Y98.232 E0.08527
G1 X123.605 Y98.615 E0.01311
G1 X125.510 Y100.520 E0.08538
G1 X125.356 Y100.905 E0.01315
G1 X123.449 Y98.998 E0.08548
G1 X123.293 Y99.381 E0.01311
G1 X125.202 Y101.290 E0.08559
G1 X125.048 Y101.676 E0.01315
G1 X123.137 Y99.764 E0.08570
G1 X122.980 Y100.147 E0.01311
G1 X124.895 Y102.061 E0.08581
G1 X124.741 Y102.446 E0.01315
G1 X122.824 Y100.530 E0.08591
G1 X122.668 Y100.913 E0.01311
G1 X124.587 Y102.832 E0.08602
G1 X124.433 Y103.217 E0.01315
G1 X122.512 Y101.296 E0.08613
G1 X122.356 Y101.679 E0.01311
G1 X124.279 Y103.602 E0.08624
G1 X124.126 Y103.988 E0.01315
G1 X122.200 Y102.062 E0.08634
G1 X122.043 Y102.445 E0.01311
G1 X123.972 Y104.373 E0.08645
G1 X123.818 Y104.758 E0.01315
G1 X121.887 Y102.828 E0.08656
G1 X121.731 Y103.210 E0.01311
G1 X123.664 Y105.144 E0.08667
G1 X123.511 Y105.529 E0.01315
G1 X121.575 Y103.593 E0.08677
G1 X121.419 Y103.976 E0.01311
G1 X123.357 Y105.914 E0.08688
G1 X123.203 Y106.300 E0.01315
G1 X121.262 Y104.359 E0.08699
G1 X121.106 Y104.742 E0.01311
G1 X123.049 Y106.685 E0.08710
G1 X122.895 Y107.070 E0.01315
G1 X120.950 Y105.125 E0.08720
G1 X120.794 Y105.508 E0.01311
G1 X122.742 Y107.456 E0.08731
G1 X122.588 Y107.841 E0.01315
G1 X120.638 Y105.891 E0.08742
G1 X120.482 Y106.274 E0.01311
G1 X122.434 Y108.227 E0.08753
G1 X122.280 Y108.612 E0.01315
G1 X120.325 Y106.657 E0.08763
G1 X120.160 Y107.031 E0.01296
G1 X122.126 Y108.997 E0.08815
G1 X121.973 Y109.383 E0.01315
G1 X119.978 Y107.388 E0.08942
G1 X119.760 Y107.709 E0.01230
G1 X121.819 Y109.768 E0.09229
G1 X121.665 Y110.153 E0.01315
G1 X119.513 Y108.001 E0.09650
G1 X119.248 Y108.275 E0.01209
G1 X121.511 Y110.539 E0.10147
G1 X121.358 Y110.924 E0.01315
G1 X118.945 Y108.511 E0.10817
G1 X118.624 Y108.729 E0.01230
G1 X121.204 Y111.309 E0.11567
G1 X121.050 Y111.695 E0.01315
G1 X118.264 Y108.909 E0.12488
G1 X118.038 Y109.015 E0.00792
G1 X117.878 Y109.062 E0.00528
G1 X120.896 Y112.080 E0.13529
G1 X120.742 Y112.465 E0.01315
G1 X117.461 Y109.184 E0.14712
G1 X116.987 Y109.249 E0.01515
G1 X120.589 Y112.851 E0.16145
G1 X120.435 Y113.236 E0.01315
G1 X118.451 Y111.252 E0.08892
G1 X118.295 Y111.635 E0.01311
G1 X120.281 Y113.621 E0.08903
G1 X120.127 Y114.007 E0.01315
G1 X118.139 Y112.018 E0.08914
G1 X117.983 Y112.401 E0.01311
G1 X119.974 Y114.392 E0.08925
G1 X119.820 Y114.777 E0.01315
G1 X117.827 Y112.784 E0.08935
G1 X117.670 Y113.167 E0.01311
G1 X119.666 Y115.163 E0.08946
G1 X119.512 Y115.548 E0.01315
G1 X117.514 Y113.550 E0.08957
G1 X117.358 Y113.933 E0.01311
G1 X119.358 Y115.934 E0.08968
G1 X119.205 Y116.319 E0.01315
G1 X117.202 Y114.316 E0.08979
G1 X117.046 Y114.699 E0.01311
G1 X119.051 Y116.704 E0.08989
G1 X118.897 Y117.090 E0.01315
G1 X116.889 Y115.082 E0.09000
G1 X116.733 Y115.465 E0.01311
G1 X118.743 Y117.475 E0.09011
G1 X118.590 Y117.860 E0.01315
G1 X116.577 Y115.848 E0.09022
G1 X116.523 Y115.980 E0.00454
G1 X115.925 Y115.735 E0.02048
G1 X118.436 Y118.246 E0.11254
G1 X118.282 Y118.631 E0.01315
G1 X115.011 Y115.360 E0.14665
G1 X114.096 Y114.984 E0.03134
G1 X118.128 Y119.016 E0.18076
G1 X117.974 Y119.402 E0.01315
G1 X112.905 Y114.332 E0.22728
G1 X112.650 Y114.463 F7200.000
G1 F900
G1 X112.472 Y114.314 E0.00450
G1 X112.179 Y114.002 E0.00831
G1 X111.962 Y113.660 E0.00786
G1 X111.847 Y113.378 E0.00591
G1 F900
G1 X111.752 Y112.984 E0.00856
G1 F900
G1 X111.728 Y112.698 E0.00683
G1 F900
G1 X111.752 Y112.322 E0.01002
G1 X112.140 Y111.997 F7200.000
G1 F900
G1 X111.815 Y111.671 E0.01538
G1 X111.971 Y111.259 E0.01471
G1 X112.174 Y111.463 E0.00963
G1 X112.339 Y111.060 E0.01456
G1 X112.137 Y110.858 E0.00953
G1 X112.304 Y110.457 E0.01452
G1 X112.634 Y110.786 E0.01557
G1 X112.729 Y109.941 F7200.000
G1 F900
G1 X112.992 Y109.628 E0.00783
G1 X113.271 Y109.406 E0.00683
G1 X113.577 Y109.231 E0.00677
G1 X113.789 Y109.140 E0.00441
G1 F900
G1 X114.243 Y109.033 E0.00987
G1 F900
G1 X114.442 Y109.019 E0.00485
G1 F900
G1 X114.665 Y109.017 E0.00573
G1 F900
G1 X114.873 Y109.044 E0.00552
G1 X115.008 Y108.888 F7200.000
G1 F900
G1 X115.471 Y109.351 E0.02076
G1 X116.382 Y109.722 E0.03117
G1 X115.834 Y109.174 E0.02455
G1 X116.327 Y109.254 E0.01584
G1 X116.454 Y109.255 E0.00402
G1 X117.602 Y110.403 E0.05144
G1 F5760
G1 X116.454 Y109.255 E-0.56200
G1 F5760
G1 X116.327 Y109.254 E-0.04393
G1 F5760
G1 X115.888 Y109.183 E-0.15407
G1 E-0.04000 F2100.00000
G1 Z0.800 F7200.000
G1 X114.994 Y119.117 F7200.000
G1 Z0.200 F7200.000
G1 E0.80000 F2100.00000
G1 F900
G1 X115.408 Y119.531 E0.01853
G1 X115.947 Y119.531 E0.01709
G1 X115.225 Y118.809 E0.03235
G1 X115.246 Y118.645 E0.00523
G1 X115.250 Y118.295 E0.01111
G1 X116.486 Y119.531 E0.05539
G1 X117.025 Y119.531 E0.01709
G1 X115.201 Y117.707 E0.08176
G1 X115.178 Y117.534 E0.00552
G1 X115.098 Y117.218 E0.01035
G1 X115.005 Y116.972 E0.00833
G1 X117.734 Y119.700 E0.12232
G1 F5760
G1 X116.182 Y118.149 E-0.76000
G1 E-0.04000 F2100.00000
G1 Z0.800 F7200.000
G1 X134.545 Y118.720 F7200.000
G1 Z0.200 F7200.000
G1 E0.80000 F2100.00000
G1 F900
G1 X135.355 Y119.531 E0.03634
G1 X135.895 Y119.531 E0.01709
G1 X134.486 Y118.122 E0.06316
G1 X134.119 Y117.216 E0.03097
G1 X136.434 Y119.531 E0.10375
G1 X136.973 Y119.531 E0.01709
G1 X133.753 Y116.310 E0.14435
G1 X133.386 Y115.405 E0.03097
G1 X137.512 Y119.531 E0.18495
G1 X137.895 Y119.531 E0.01215
G1 X137.783 Y119.263 E0.00920
G1 X133.020 Y114.499 E0.21354
G1 X132.653 Y113.594 E0.03097
G1 X137.397 Y118.337 E0.21265
G1 X137.011 Y117.412 E0.03179
G1 X132.287 Y112.688 E0.21176
G1 X131.920 Y111.782 E0.03097
G1 X136.624 Y116.486 E0.21087
G1 X136.238 Y115.561 E0.03179
G1 X131.554 Y110.877 E0.20998
G1 X131.187 Y109.971 E0.03097
G1 X135.852 Y114.635 E0.20908
G1 X135.465 Y113.710 E0.03179
G1 X130.821 Y109.066 E0.20819
G1 X130.455 Y108.160 E0.03097
G1 X135.079 Y112.784 E0.20730
G1 X134.692 Y111.859 E0.03179
G1 X130.088 Y107.254 E0.20641
G1 X129.722 Y106.349 E0.03097
G1 X134.306 Y110.933 E0.20552
G1 X133.920 Y110.008 E0.03179
G1 X129.355 Y105.443 E0.20463
G1 X128.989 Y104.538 E0.03097
G1 X133.533 Y109.082 E0.20373
G1 X133.147 Y108.157 E0.03179
G1 X128.622 Y103.632 E0.20284
G1 X128.256 Y102.726 E0.03097
G1 X132.761 Y107.231 E0.20195
G1 X132.374 Y106.306 E0.03179
G1 X127.889 Y101.821 E0.20106
G1 X127.523 Y100.915 E0.03097
G1 X131.988 Y105.380 E0.20017
G1 X131.602 Y104.455 E0.03179
G1 X127.156 Y100.010 E0.19927
G1 X126.790 Y99.104 E0.03097
G1 X131.215 Y103.529 E0.19838
G1 X130.829 Y102.604 E0.03179
G1 X124.542 Y96.317 E0.28182
G1 X124.698 Y95.934 E0.01311
G1 X130.442 Y101.678 E0.25750
G1 X130.056 Y100.753 E0.03179
G1 X124.855 Y95.551 E0.23317
G1 X125.011 Y95.168 E0.01311
G1 X129.670 Y99.827 E0.20885
G1 X129.283 Y98.902 E0.03179
G1 X125.167 Y94.786 E0.18453
G1 X125.323 Y94.403 E0.01311
G1 X128.897 Y97.976 E0.16021
G1 X128.511 Y97.051 E0.03179
G1 X125.479 Y94.020 E0.13589
G1 X125.635 Y93.637 E0.01311
G1 X128.124 Y96.125 E0.11157
G1 X127.738 Y95.200 E0.03179
G1 X125.792 Y93.254 E0.08724
G1 X125.948 Y92.871 E0.01311
G1 X127.351 Y94.274 E0.06292
G1 X126.965 Y93.349 E0.03179
G1 X126.104 Y92.488 E0.03860
G1 X126.260 Y92.105 E0.01311
G1 X126.894 Y92.739 E0.02843
M106 S255
;BEFORE_LAYER_CHANGE
;0.5


G1 F5760
G1 X126.260 Y92.105 E-0.31062
G1 F5760
G1 X126.104 Y92.488 E-0.14324
G1 F5760
G1 X126.729 Y93.113 E-0.30613
G1 E-0.04000 F2100.00000
G1 Z0.800 F7200.000
;AFTER_LAYER_CHANGE
;0.5
M104 S210 ; set temperature
G1 X118.353 Y110.806 F7200.000
G1 Z0.500 F7200.000
G1 E0.80000 F2100.00000
M204 S800
G1 F4800
G1 X116.381 Y115.642 E0.25119
