; generated by Slic3r Prusa Edition 1.39.1-prusa3d on 2018-05-09 at 07:50:47

; 

; external perimeters extrusion width = 0.45mm
; perimeters extrusion width = 0.45mm
; infill extrusion width = 0.45mm
; solid infill extrusion width = 0.45mm
; top infill extrusion width = 0.33mm
; first layer extrusion width = 0.42mm

M107
M115 U3.1.0 ; tell printer latest fw version
M201 X9000 Y9000 Z500 E10000 ; sets maximum accelerations, mm/sec^2
M203 X500 Y500 Z12 E120 ; sets maximum feedrates, mm/sec
M204 S1500 T1500 ; sets acceleration (S) and retract acceleration (T)
M205 X10 Y10 Z0.2 E2.5 ; sets the jerk limits, mm/sec
M205 S0 T0 ; sets the minimum extruding and travel feed rate, mm/sec
M83  ; extruder relative mode
M104 S200 ; set extruder temp
M140 S55 ; set bed temp
M190 S55 ; wait for bed temp
M109 S200 ; wait for extruder temp
G28 W ; home all without mesh bed level
G80 ; mesh bed leveling
G1 Y-3.0 F1000.0 ; go outside print area
G92 E0.0
G1 E18.0 F1000.0;
G1 X60.0 E9.0  F1000.0 ; intro line
G1 X100.0 E12.5  F1000.0 ; intro line
G92 E0.0
M900 K30; Filament gcode
G21 ; set units to millimeters
G90 ; use absolute coordinates
M83 ; use relative distances for extrusion
;BEFORE_LAYER_CHANGE
;0.2


G1 E-0.80000 F2100.00000
G1 Z0.600 F7200.000
;AFTER_LAYER_CHANGE
;0.2
G1 X102.112 Y81.955 F7200.000
G1 Z0.200 F7200.000
G1 E0.80000 F2100.00000
M204 S1000
G1 F900
G1 X102.816 Y82.273 E0.02422
G1 X103.404 Y82.774 E0.02422
G1 X103.832 Y83.422 E0.02434
G1 X116.773 Y114.415 E1.05310
G1 X116.916 Y114.937 E0.01694
G1 X116.954 Y115.471 E0.01681
G1 X116.887 Y116.008 E0.01694
G1 X116.717 Y116.520 E0.01694
G1 X116.450 Y116.990 E0.01694
G1 X116.096 Y117.399 E0.01694
G1 X115.670 Y117.730 E0.01694
G1 X115.186 Y117.972 E0.01694
G1 X114.213 Y118.155 E0.03107
G1 X88.773 Y118.155 E0.79765
G1 X88.091 Y118.067 E0.02154
G1 X87.569 Y117.874 E0.01745
G1 X87.097 Y117.580 E0.01745
G1 X86.693 Y117.196 E0.01745
G1 X86.374 Y116.740 E0.01745
G1 X83.451 Y109.729 E0.23816
G1 X83.205 Y108.920 E0.02652
G1 X83.071 Y108.085 E0.02650
G1 X83.050 Y107.253 E0.02611
G1 X83.132 Y106.471 E0.02465
G1 X83.497 Y105.176 E0.04220
G1 X84.039 Y103.876 E0.04415
G1 X84.445 Y103.159 E0.02585
G1 X99.185 Y82.888 E0.78583
G1 X99.624 Y82.448 E0.01950
G1 X100.147 Y82.119 E0.01937
G1 X100.730 Y81.914 E0.01937
G1 X101.348 Y81.845 E0.01950
G1 X102.053 Y81.947 E0.02234
G1 X102.000 Y82.316 F7200.000
G1 F900
G1 X102.620 Y82.595 E0.02133
G1 X103.130 Y83.033 E0.02107
G1 X103.497 Y83.596 E0.02107
G1 X116.417 Y114.541 E1.05145
G1 X116.577 Y115.454 E0.02907
G1 X116.376 Y116.360 E0.02907
G1 X115.843 Y117.119 E0.02907
G1 X115.061 Y117.616 E0.02907
G1 X114.209 Y117.777 E0.02720
G1 X88.773 Y117.777 E0.79751
G1 X88.189 Y117.703 E0.01846
G1 X87.729 Y117.532 E0.01538
G1 X87.317 Y117.273 E0.01526
G1 X86.966 Y116.936 E0.01526
G1 X86.690 Y116.531 E0.01538
G1 X83.806 Y109.604 E0.23525
G1 X83.573 Y108.836 E0.02516
G1 X83.446 Y108.052 E0.02491
G1 X83.505 Y106.527 E0.04785
G1 X83.848 Y105.314 E0.03951
G1 X84.379 Y104.041 E0.04326
G1 X84.762 Y103.363 E0.02439
G1 X99.473 Y83.131 E0.78433
G1 X99.849 Y82.750 E0.01680
G1 X100.305 Y82.461 E0.01692
G1 X100.811 Y82.283 E0.01680
G1 X101.347 Y82.223 E0.01692
G1 X101.940 Y82.308 E0.01879
G1 F5760
G1 X102.620 Y82.595 E-0.25570
G1 F5760
G1 X103.130 Y83.033 E-0.23273
G1 F5760
G1 X103.497 Y83.596 E-0.23273
G1 F5760
G1 X103.540 Y83.699 E-0.03884
G1 E-0.04000 F2100.00000
G1 Z0.800 F7200.000
G1 X93.323 Y105.819 F7200.000
G1 Z0.200 F7200.000
G1 E0.80000 F2100.00000
G1 F900
G1 X91.368 Y110.611 E0.16228
G1 X87.888 Y109.183 E0.11794
G1 X87.697 Y109.060 E0.00711
G1 X87.430 Y108.811 E0.01147
G1 X87.229 Y108.505 E0.01147
G1 X87.141 Y108.296 E0.00713
G1 X87.066 Y107.956 E0.01090
G1 X87.058 Y107.729 E0.00713
G1 X87.111 Y107.367 E0.01147
G1 X88.011 Y105.160 E0.07474
G1 X88.237 Y104.849 E0.01203
G1 X88.531 Y104.602 E0.01203
G1 X88.876 Y104.432 E0.01207
G1 X89.257 Y104.350 E0.01223
G1 X89.633 Y104.359 E0.01180
G1 X89.968 Y104.451 E0.01089
G1 X93.267 Y105.796 E0.11170
G1 X92.831 Y106.026 F7200.000
G1 F900
G1 X91.162 Y110.119 E0.13860
G1 X88.063 Y108.847 E0.10503
G1 X87.929 Y108.761 E0.00498
G1 X87.720 Y108.567 E0.00896
G1 X87.564 Y108.327 E0.00896
G1 X87.502 Y108.181 E0.00498
G1 X87.442 Y107.908 E0.00876
G1 X87.436 Y107.749 E0.00498
G1 X87.478 Y107.467 E0.00896
G1 X88.343 Y105.344 E0.07187
G1 X88.515 Y105.108 E0.00916
G1 X88.738 Y104.920 E0.00916
G1 X89.001 Y104.791 E0.00917
G1 X89.292 Y104.728 E0.00935
G1 X89.578 Y104.735 E0.00895
G1 X89.847 Y104.809 E0.00875
G1 X92.776 Y106.003 E0.09916
G1 X93.202 Y106.176 F7200.000
G1 F5760
G1 X91.975 Y108.046 E-0.76000
G1 E-0.04000 F2100.00000
G1 Z0.800 F7200.000
G1 X101.431 Y93.972 F7200.000
G1 Z0.200 F7200.000
G1 E0.80000 F2100.00000
G1 F900
G1 X93.115 Y114.813 E0.70356
G1 X89.648 Y114.813 E0.10869
G1 X89.802 Y114.429 E0.01299
G1 X89.926 Y113.919 E0.01645
G1 X89.963 Y113.626 E0.00927
G1 X89.970 Y113.104 E0.01636
G1 X89.900 Y112.588 E0.01633
G1 X89.827 Y112.302 E0.00924
G1 X89.650 Y111.830 E0.01581
G1 X89.516 Y111.566 E0.00929
G1 X89.235 Y111.140 E0.01601
G1 X89.051 Y110.920 E0.00899
G1 X88.855 Y110.719 E0.00878
G1 X88.458 Y110.392 E0.01615
G1 X87.655 Y109.915 E0.02926
G1 X87.344 Y109.670 E0.01242
G1 X87.070 Y109.385 E0.01240
G1 X86.837 Y109.067 E0.01236
G1 X86.736 Y108.896 E0.00625
G1 X86.652 Y108.728 E0.00586
G1 X86.510 Y108.349 E0.01270
G1 X86.420 Y107.955 E0.01267
G1 X86.398 Y107.767 E0.00594
G1 X86.390 Y107.373 E0.01236
G1 X86.437 Y106.970 E0.01271
G1 X86.475 Y106.797 E0.00557
G1 X86.608 Y106.395 E0.01327
G1 X87.064 Y105.298 E0.03724
G1 X87.148 Y105.140 E0.00563
G1 X87.379 Y104.795 E0.01301
G1 X87.493 Y104.658 E0.00557
G1 X87.782 Y104.374 E0.01270
G1 X88.099 Y104.138 E0.01239
G1 X88.453 Y103.942 E0.01270
G1 X88.617 Y103.873 E0.00557
G1 X89.004 Y103.753 E0.01270
G1 X89.403 Y103.686 E0.01270
G1 X89.581 Y103.675 E0.00558
G1 X89.985 Y103.690 E0.01267
G1 X90.170 Y103.716 E0.00585
G1 X90.847 Y103.890 E0.02192
G1 X91.352 Y103.971 E0.01603
G1 X91.889 Y103.977 E0.01686
G1 X92.417 Y103.904 E0.01669
G1 X92.937 Y103.750 E0.01703
G1 X93.404 Y103.532 E0.01616
G1 X93.652 Y103.380 E0.00910
G1 X94.071 Y103.055 E0.01662
G1 X94.427 Y102.680 E0.01621
G1 X94.596 Y102.458 E0.00878
G1 X94.751 Y102.219 E0.00892
G1 X94.974 Y101.771 E0.01568
G1 X101.349 Y86.139 E0.52933
G1 X113.320 Y114.813 E0.97427
G1 X109.865 Y114.813 E0.10831
G1 X101.454 Y94.028 E0.70305
G1 X101.434 Y94.984 F7200.000
G1 F900
G1 X93.370 Y115.190 E0.68215
G1 X89.091 Y115.190 E0.13416
G1 X89.442 Y114.314 E0.02961
G1 X89.555 Y113.851 E0.01493
G1 X89.586 Y113.600 E0.00794
G1 X89.593 Y113.127 E0.01481
G1 X89.529 Y112.660 E0.01479
G1 X89.467 Y112.415 E0.00792
G1 X89.304 Y111.982 E0.01450
G1 X89.189 Y111.756 E0.00796
G1 X88.932 Y111.365 E0.01468
G1 X88.771 Y111.172 E0.00787
G1 X88.600 Y110.997 E0.00767
G1 X88.240 Y110.701 E0.01460
G1 X87.441 Y110.227 E0.02914
G1 X87.090 Y109.950 E0.01401
G1 X86.781 Y109.629 E0.01400
G1 X86.522 Y109.275 E0.01375
G1 X86.404 Y109.075 E0.00726
G1 X86.306 Y108.879 E0.00688
G1 X86.148 Y108.458 E0.01411
G1 X86.048 Y108.019 E0.01410
G1 X86.021 Y107.793 E0.00715
G1 X86.013 Y107.355 E0.01375
G1 X86.065 Y106.908 E0.01411
G1 X86.111 Y106.697 E0.00678
G1 X86.254 Y106.263 E0.01431
G1 X86.722 Y105.137 E0.03824
G1 X86.824 Y104.945 E0.00680
G1 X87.077 Y104.569 E0.01422
G1 X87.215 Y104.403 E0.00678
G1 X87.536 Y104.087 E0.01411
G1 X87.894 Y103.821 E0.01400
G1 X88.288 Y103.603 E0.01411
G1 X88.487 Y103.518 E0.00678
G1 X88.917 Y103.385 E0.01411
G1 X89.360 Y103.311 E0.01411
G1 X89.576 Y103.297 E0.00678
G1 X90.018 Y103.314 E0.01386
G1 X90.243 Y103.345 E0.00712
G1 X90.924 Y103.520 E0.02205
G1 X91.384 Y103.595 E0.01461
G1 X91.865 Y103.600 E0.01509
G1 X92.337 Y103.535 E0.01492
G1 X92.803 Y103.396 E0.01526
G1 X93.226 Y103.199 E0.01462
G1 X93.437 Y103.070 E0.00778
G1 X93.817 Y102.774 E0.01507
G1 X94.139 Y102.436 E0.01467
G1 X94.287 Y102.241 E0.00767
G1 X94.423 Y102.032 E0.00781
G1 X94.630 Y101.615 E0.01457
G1 X101.345 Y85.150 E0.55754
G1 X113.886 Y115.190 E1.02067
G1 X109.611 Y115.190 E0.13403
G1 X101.456 Y95.039 E0.68160
G1 X101.102 Y94.760 F7200.000
G1 F5760
G1 X100.639 Y97.076 E-0.76000
G1 E-0.04000 F2100.00000
G1 Z0.800 F7200.000
G1 X101.409 Y93.723 F7200.000
G1 Z0.200 F7200.000
G1 E0.80000 F2100.00000
G1 F900
G1 X99.386 Y91.700 E0.09069
G1 X99.230 Y92.083 E0.01311
G1 X101.125 Y93.978 E0.08494
G1 X100.971 Y94.363 E0.01315
G1 X99.074 Y92.466 E0.08505
G1 X98.918 Y92.849 E0.01311
G1 X100.817 Y94.749 E0.08516
G1 X100.663 Y95.134 E0.01315
G1 X98.761 Y93.232 E0.08527
G1 X98.605 Y93.615 E0.01311
G1 X100.510 Y95.520 E0.08538
G1 X100.356 Y95.905 E0.01315
G1 X98.449 Y93.998 E0.08548
G1 X98.293 Y94.381 E0.01311
G1 X100.202 Y96.290 E0.08559
G1 X100.048 Y96.676 E0.01315
G1 X98.137 Y94.764 E0.08570
G1 X97.980 Y95.147 E0.01311
G1 X99.895 Y97.061 E0.08581
G1 X99.741 Y97.446 E0.01315
G1 X97.824 Y95.530 E0.08591
G1 X97.668 Y95.913 E0.01311
G1 X99.587 Y97.832 E0.08602
G1 X99.433 Y98.217 E0.01315
G1 X97.512 Y96.296 E0.08613
G1 X97.356 Y96.679 E0.01311
G1 X99.279 Y98.602 E0.08624
G1 X99.126 Y98.988 E0.01315
G1 X97.200 Y97.062 E0.08634
G1 X97.043 Y97.445 E0.01311
G1 X98.972 Y99.373 E0.08645
G1 X98.818 Y99.758 E0.01315
G1 X96.887 Y97.827 E0.08656
G1 X96.731 Y98.210 E0.01311
G1 X98.664 Y100.144 E0.08667
G1 X98.511 Y100.529 E0.01315
G1 X96.575 Y98.593 E0.08677
G1 X96.419 Y98.976 E0.01311
G1 X98.357 Y100.914 E0.08688
G1 X98.203 Y101.300 E0.01315
G1 X96.262 Y99.359 E0.08699
G1 X96.106 Y99.742 E0.01311
G1 X98.049 Y101.685 E0.08710
G1 X97.895 Y102.070 E0.01315
G1 X95.950 Y100.125 E0.08720
G1 X95.794 Y100.508 E0.01311
G1 X97.742 Y102.456 E0.08731
G1 X97.588 Y102.841 E0.01315
G1 X95.638 Y100.891 E0.08742
G1 X95.482 Y101.274 E0.01311
G1 X97.434 Y103.227 E0.08753
G1 X97.280 Y103.612 E0.01315
G1 X95.325 Y101.657 E0.08763
G1 X95.160 Y102.031 E0.01296
G1 X97.126 Y103.997 E0.08815
G1 X96.973 Y104.383 E0.01315
G1 X94.978 Y102.388 E0.08942
G1 X94.760 Y102.709 E0.01230
G1 X96.819 Y104.768 E0.09229
G1 X96.665 Y105.153 E0.01315
G1 X94.513 Y103.001 E0.09650
G1 X94.248 Y103.275 E0.01209
G1 X96.511 Y105.539 E0.10147
G1 X96.358 Y105.924 E0.01315
G1 X93.945 Y103.511 E0.10817
G1 X93.624 Y103.729 E0.01230
G1 X96.204 Y106.309 E0.11567
G1 X96.050 Y106.695 E0.01315
G1 X93.264 Y103.909 E0.12488
G1 X93.038 Y104.015 E0.00792
G1 X92.878 Y104.062 E0.00528
G1 X95.896 Y107.080 E0.13529
G1 X95.742 Y107.465 E0.01315
G1 X92.461 Y104.184 E0.14712
G1 X91.987 Y104.249 E0.01515
G1 X95.589 Y107.851 E0.16145
G1 X95.435 Y108.236 E0.01315
G1 X93.451 Y106.252 E0.08892
G1 X93.295 Y106.635 E0.01311
G1 X95.281 Y108.621 E0.08903
G1 X95.127 Y109.007 E0.01315
G1 X93.139 Y107.018 E0.08914
G1 X92.983 Y107.401 E0.01311
G1 X94.974 Y109.392 E0.08925
G1 X94.820 Y109.777 E0.01315
G1 X92.827 Y107.784 E0.08935
G1 X92.670 Y108.167 E0.01311
G1 X94.666 Y110.163 E0.08946
G1 X94.512 Y110.548 E0.01315
G1 X92.514 Y108.550 E0.08957
G1 X92.358 Y108.933 E0.01311
G1 X94.358 Y110.934 E0.08968
G1 X94.205 Y111.319 E0.01315
G1 X92.202 Y109.316 E0.08979
G1 X92.046 Y109.699 E0.01311
G1 X94.051 Y111.704 E0.08989
G1 X93.897 Y112.090 E0.01315
G1 X91.889 Y110.082 E0.09000
G1 X91.733 Y110.465 E0.01311
G1 X93.743 Y112.475 E0.09011
G1 X93.590 Y112.860 E0.01315
G1 X91.577 Y110.848 E0.09022
G1 X91.523 Y110.980 E0.00454
G1 X90.925 Y110.735 E0.02048
G1 X93.436 Y113.246 E0.11254
G1 X93.282 Y113.631 E0.01315
G1 X90.011 Y110.360 E0.14665
G1 X89.096 Y109.984 E0.03134
G1 X93.128 Y114.016 E0.18076
G1 X92.974 Y114.402 E0.01315
G1 X87.904 Y109.331 E0.22730
G1 X87.650 Y109.463 F7200.000
G1 F900
G1 X87.479 Y109.321 E0.00432
G1 X87.179 Y109.003 E0.00848
G1 X86.962 Y108.660 E0.00788
G1 X86.847 Y108.378 E0.00591
G1 F900
G1 X86.751 Y107.984 E0.00860
G1 F900
G1 X86.740 Y107.900 E0.00193
G1 F900
G1 X86.728 Y107.698 E0.00481
G1 F900
G1 X86.752 Y107.322 E0.01002
G1 X86.679 Y106.540 F7200.000
G1 F900
G1 X87.009 Y106.869 E0.01550
G1 X87.173 Y106.468 E0.01443
G1 X86.969 Y106.264 E0.00959
G1 X87.135 Y105.864 E0.01439
G1 X87.336 Y106.066 E0.00948
G1 X87.500 Y105.664 E0.01443
G1 X87.301 Y105.465 E0.00938
G1 X87.320 Y105.419 E0.00164
G1 X87.502 Y105.120 E0.01165
G1 X87.794 Y105.393 E0.01330
G1 X87.724 Y104.938 F7200.000
G1 F900
G1 X87.996 Y104.624 E0.00807
G1 X88.271 Y104.406 E0.00683
G1 X88.591 Y104.224 E0.00714
G1 X88.789 Y104.139 E0.00419
G1 F900
G1 X89.243 Y104.033 E0.00987
G1 F900
G1 X89.442 Y104.019 E0.00485
G1 F900
G1 X89.694 Y104.022 E0.00644
G1 X89.812 Y104.209 E0.00566
G1 X89.915 Y103.795 F7200.000
G1 F900
G1 X90.471 Y104.351 E0.02492
G1 X91.382 Y104.722 E0.03117
G1 X90.834 Y104.174 E0.02455
G1 X91.327 Y104.254 E0.01584
G1 X91.454 Y104.255 E0.00402
G1 X92.602 Y105.403 E0.05144
G1 F5760
G1 X91.454 Y104.255 E-0.56200
G1 F5760
G1 X91.327 Y104.254 E-0.04393
G1 F5760
G1 X90.888 Y104.183 E-0.15407
G1 E-0.04000 F2100.00000
G1 Z0.800 F7200.000
G1 X89.994 Y114.117 F7200.000
G1 Z0.200 F7200.000
G1 E0.80000 F2100.00000
G1 F900
G1 X90.408 Y114.531 E0.01853
G1 X90.947 Y114.531 E0.01709
G1 X90.225 Y113.809 E0.03235
G1 X90.246 Y113.645 E0.00523
G1 X90.250 Y113.295 E0.01111
G1 X91.486 Y114.531 E0.05539
G1 X92.025 Y114.531 E0.01709
G1 X90.201 Y112.707 E0.08176
G1 X90.178 Y112.534 E0.00552
G1 X90.098 Y112.218 E0.01035
G1 X90.005 Y111.972 E0.00833
G1 X92.734 Y114.700 E0.12232
G1 F5760
G1 X91.182 Y113.149 E-0.76000
G1 E-0.04000 F2100.00000
G1 Z0.800 F7200.000
G1 X109.545 Y113.720 F7200.000
G1 Z0.200 F7200.000
G1 E0.80000 F2100.00000
G1 F900
G1 X110.355 Y114.531 E0.03634
G1 X110.895 Y114.531 E0.01709
G1 X109.486 Y113.122 E0.06316
G1 X109.119 Y112.216 E0.03097
G1 X111.434 Y114.531 E0.10375
G1 X111.973 Y114.531 E0.01709
G1 X108.753 Y111.310 E0.14435
G1 X108.386 Y110.405 E0.03097
G1 X112.512 Y114.531 E0.18495
G1 X112.895 Y114.531 E0.01215
G1 X112.783 Y114.263 E0.00920
G1 X108.020 Y109.499 E0.21354
G1 X107.653 Y108.594 E0.03097
G1 X112.397 Y113.337 E0.21265
G1 X112.011 Y112.412 E0.03179
G1 X107.287 Y107.688 E0.21176
G1 X106.920 Y106.782 E0.03097
G1 X111.624 Y111.486 E0.21087
G1 X111.238 Y110.561 E0.03179
G1 X106.554 Y105.877 E0.20998
G1 X106.187 Y104.971 E0.03097
G1 X110.852 Y109.635 E0.20908
G1 X110.465 Y108.710 E0.03179
G1 X105.821 Y104.066 E0.20819
G1 X105.455 Y103.160 E0.03097
G1 X110.079 Y107.784 E0.20730
G1 X109.692 Y106.859 E0.03179
G1 X105.088 Y102.254 E0.20641
G1 X104.722 Y101.349 E0.03097
G1 X109.306 Y105.933 E0.20552
G1 X108.920 Y105.008 E0.03179
G1 X104.355 Y100.443 E0.20463
G1 X103.989 Y99.538 E0.03097
G1 X108.533 Y104.082 E0.20373
G1 X108.147 Y103.157 E0.03179
G1 X103.622 Y98.632 E0.20284
G1 X103.256 Y97.726 E0.03097
G1 X107.761 Y102.231 E0.20195
G1 X107.374 Y101.306 E0.03179
G1 X102.889 Y96.821 E0.20106
G1 X102.523 Y95.915 E0.03097
G1 X106.988 Y100.380 E0.20017
G1 X106.602 Y99.455 E0.03179
G1 X102.156 Y95.010 E0.19927
G1 X101.790 Y94.104 E0.03097
G1 X106.215 Y98.529 E0.19838
G1 X105.829 Y97.604 E0.03179
G1 X99.542 Y91.317 E0.28182
G1 X99.698 Y90.934 E0.01311
G1 X105.442 Y96.678 E0.25750
G1 X105.056 Y95.753 E0.03179
G1 X99.855 Y90.551 E0.23317
G1 X100.011 Y90.168 E0.01311
G1 X104.670 Y94.827 E0.20885
G1 X104.283 Y93.902 E0.03179
G1 X100.167 Y89.786 E0.18453
G1 X100.323 Y89.403 E0.01311
G1 X103.897 Y92.976 E0.16021
G1 X103.511 Y92.051 E0.03179
G1 X100.479 Y89.020 E0.13589
G1 X100.635 Y88.637 E0.01311
G1 X103.124 Y91.125 E0.11157
G1 X102.738 Y90.200 E0.03179
G1 X100.792 Y88.254 E0.08724
G1 X100.948 Y87.871 E0.01311
G1 X102.351 Y89.274 E0.06292
G1 X101.965 Y88.349 E0.03179
G1 X101.104 Y87.488 E0.03860
G1 X101.260 Y87.105 E0.01311
G1 X101.894 Y87.739 E0.02843
M106 S255
;BEFORE_LAYER_CHANGE
;0.5


G1 F5760
G1 X101.260 Y87.105 E-0.31062
G1 F5760
G1 X101.104 Y87.488 E-0.14324
G1 F5760
G1 X101.729 Y88.113 E-0.30613
G1 E-0.04000 F2100.00000
G1 Z0.800 F7200.000
;AFTER_LAYER_CHANGE
;0.5
G1 X93.353 Y105.806 F7200.000
G1 Z0.500 F7200.000
G1 E0.80000 F2100.00000
M204 S800
G1 F2078
G1 X91.381 Y110.642 E0.25119
G1 X87.872 Y109.201 E0.18243
G1 X87.661 Y109.061 E0.01221
G1 X87.411 Y108.825 E0.01655
G1 X87.209 Y108.516 E0.01774
G1 X87.119 Y108.303 E0.01115
G1 X87.043 Y107.959 E0.01693
G1 X87.035 Y107.727 E0.01115
G1 X87.088 Y107.361 E0.01783
G1 X87.991 Y105.148 E0.11492
G1 X88.220 Y104.833 E0.01873
G1 X88.518 Y104.582 E0.01873
