;FLAVOR:Marlin
;TIME:270
;Filament used:0.223681m
;Layer height: 0.3
;MINX:68.177
;MINY:67.778
;MINZ:0.2
;MAXX:96.078
;MAXY:97.854
;MAXZ:2.9
                                 
;Creative3D GCode Generated by CXEngineDEV
;Generated Time:2022-04-08 18:14:05
;----------Machine Config--------------
;Machine Name:Creality Ender-2 Pro
;Machine Height:180
;Machine Width:165
;Machine Depth:165
;Material name:PLA
;Number of Extruders:1
;ExtruderParams[0] Nozzle Diameter1000
;----------Profile Config---------------
;Layer Height:0.3
;Wall Thickness:0.8
;Top/Bottom Thickness:1
;Out Wall Line Width:0.4
;Inner Wall Line Width:0.4
;Inital Layer Height:200
;Wall Line Count:1
;Infill Line Distance:4
;Infill Pattern:grid
;Infill Sparse Density:20
;Infill Wipe Distance:0
;Print Temperature:200
;Bed Temperature:60
;Support Enable:false
;Support Density:30
;Support Angle:1.0472
;Adhesion Type:none
;machine is belt:false
;machine belt offset:10
;machine belt offset Y:0
;----------Shell Config----------------
;Outer Wall Wipe Distance:200
;Infill Before Walls:false
;Infill Overlap:0.16
;Fill Gaps Between Walls:everywhere
;Minimum Infill Area:1
;Top Surface Skin Layer:0
;Top Layers:2
;Z Seam Alignment:sharpest_corner
;Seam Corner Preference:z_seam_corner_inner
;Z Seam X:82.5
;Z Seam Y:82.5
;Horizontal Expansion:0
;Top/Bottom Pattern:zigzag
;Ironing Pattern:zigzag
;Vase Model:false
;----------Support Config----------------
;Support Type:everywhere
;Support Pattern:zigzag
;Support Infill Layer Thickness:0.3
;Minimum Support Area:10
;Enable Support Roof:false
;Support Roof Thickness:0.8
;Support Roof Pattern:lines
; ---------PrintSpeed & Travel----------
;Enable Print Cool:true
;Avoid Printed Parts Traveling:true
;Enable Retraction:true
;Retraction Distance:8
;Retraction Speed:100
;Retraction Prime Speed:100
;Maximum Retraction Count:100
;Minimum Extrusion Distance Window:1
;Z Hop When Retracted:false
;Z Hop Height:0.2
;Retract Before Outer Wall:true
;Print Speed:50
;Infill Speed:50

;Prime Tower Speed:50
;Travel Speed:120
;Initial Layer Speed:25
;Skirt/Brim Speed:25
;Combing Mode:off
;---------------------End of Head--------------------------
M140 S60
M104 S200
M105
M109 S200
M82 ;absolute extrusion mode
M220 S100 ;Reset Feedrate
M221 S100 ;Reset Flowrate

G28 ;Home

G92 E0 ;Reset Extruder
G1 Z2.0 F3000 ;Move Z Axis up
G1 X10.1 Y20 Z0.28 F5000.0 ;Move to start position
G1 X10.1 Y145.0 Z0.28 F1500.0 E15 ;Draw the first line
G1 X10.4 Y145.0 Z0.28 F5000.0 ;Move to side a little
G1 X10.4 Y20 Z0.28 F1500.0 E30 ;Draw the second line
G92 E0  ;Reset Extruder
G1 E-1.0000 F1800 ;Retract a bit
G1 Z2.0 F3000 ;Move Z Axis up
G1 E0.0000 F1800 

G92 E0
G92 E0
G1 F6000 E-8

;LAYER_COUNT:10

;LAYER:0
M107
;MESH:
G0 F3600 X74.996 Y88.684 Z0.2
;TYPE:WALL-OUTER
G1 F6000 E0
G1 F1500 X72.016 Y87.469 E0.11774
G1 X71.617 Y87.386 E0.13265
G1 X71.189 Y87.448 E0.14847
G1 X70.811 Y87.662 E0.16437
G1 X70.541 Y87.986 E0.1798
G1 X70.471 Y88.128 E0.18559
G1 X69.706 Y90.002 E0.25964
G1 X69.623 Y90.401 E0.27455
G1 X69.685 Y90.829 E0.29038
G1 X69.899 Y91.207 E0.30627
G1 X70.224 Y91.479 E0.32177
G1 X70.421 Y91.57 E0.32971
G1 X73.15 Y92.684 E0.43755
G1 X73.335 Y92.759 E0.44486
G1 X73.41 Y92.574 E0.44957
G1 X74.996 Y88.684 E0.60327
G0 F3600 X74.811 Y88.609
G0 X74.978 Y88.202
;;retract;;
G1 F6000 E-7.39673
G0 F3600 X83.477 Y78
G1 F6000 E0.60327
G1 F1500 X83.418 Y78.148 E0.6091
G1 X75.554 Y97.854 E1.38535
G1 X71.553 Y97.854 E1.53173
G1 X71.552 Y97.854 E1.53177
G1 X71.256 Y97.854 E1.5426
G1 X71.368 Y97.579 E1.54895
G1 X71.532 Y97.178 E1.5648
G1 X71.674 Y96.734 E1.58185
G1 X71.752 Y96.266 E1.59921
G1 X71.761 Y95.787 E1.61674
G1 X71.697 Y95.312 E1.63428
G1 X71.565 Y94.858 E1.65157
G1 X71.364 Y94.424 E1.66907
G1 X71.101 Y94.022 E1.68665
G1 X70.784 Y93.67 E1.70398
G1 X70.414 Y93.364 E1.72155
G1 X69.629 Y92.899 E1.75493
G1 X69.429 Y92.753 E1.76399
G1 X69.107 Y92.462 E1.77986
G1 X68.952 Y92.29 E1.78834
G1 X68.694 Y91.938 E1.8043
G1 X68.575 Y91.737 E1.81285
G1 X68.391 Y91.333 E1.82909
G1 X68.317 Y91.12 E1.83734
G1 X68.258 Y90.89 E1.84603
G1 X68.19 Y90.452 E1.86224
G1 X68.179 Y90.011 E1.87838
G1 X68.196 Y89.797 E1.88624
G1 X68.277 Y89.354 E1.90271
G1 X68.341 Y89.135 E1.91106
G1 X68.42 Y88.919 E1.91948
G1 X68.793 Y88.005 E1.95559
G1 X68.993 Y87.594 E1.97232
G1 X69.112 Y87.401 E1.98061
G1 X69.382 Y87.052 E1.99676
G1 X69.544 Y86.882 E2.00535
G1 X69.884 Y86.591 E2.02172
G1 X70.243 Y86.36 E2.03734
G1 X70.455 Y86.25 E2.04608
G1 X70.868 Y86.092 E2.06225
G1 X71.096 Y86.028 E2.07092
G1 X71.527 Y85.956 E2.08691
G1 X71.749 Y85.94 E2.09505
G1 X72.197 Y85.957 E2.11145
G1 X72.424 Y85.989 E2.11984
G1 X73.32 Y86.207 E2.15358
G1 X73.795 Y86.249 E2.17102
G1 X74.273 Y86.221 E2.18854
G1 X74.737 Y86.121 E2.20591
G1 X75.187 Y85.952 E2.22349
G1 X75.6 Y85.721 E2.24081
G1 X75.98 Y85.428 E2.25836
G1 X76.311 Y85.081 E2.27591
G1 X76.584 Y84.692 E2.29329
G1 X76.795 Y84.27 E2.31056
G1 X83.34 Y68.226 E2.94451
G1 X83.522 Y67.778 E2.9622
G1 X83.708 Y68.224 E2.9717
G1 X95.963 Y97.578 E4.13548
G1 X96.078 Y97.854 E4.14642
G1 X95.779 Y97.854 E4.15282
G1 X95.778 Y97.854 E4.15285
G1 X91.781 Y97.854 E4.29909
G1 X83.808 Y78.148 E5.07683
G1 X83.748 Y78 E5.08179
G1 X83.477 Y78 E5.09171
G0 F3600 X83.418 Y78.148
G0 X83.403 Y78.186
G0 X82.995 Y78.022
;;retract;;
G1 F6000 E-2.90829
G0 F3600 X83.523 Y68.408
;TYPE:SKIN
G1 F6000 E5.09171
G1 F1500 X83.405 Y68.697 E5.10313
G1 X83.815 Y69.107 E5.12434
G1 X84.221 Y70.079 E5.16288
G1 X83.241 Y69.099 E5.21359
G1 X83.077 Y69.5 E5.22944
G1 X84.626 Y71.05 E5.30961
G1 X85.032 Y72.021 E5.34812
G1 X82.913 Y69.902 E5.45776
G1 X82.749 Y70.304 E5.47364
G1 X85.437 Y72.992 E5.61272
G1 X85.842 Y73.963 E5.65121
G1 X82.585 Y70.706 E5.81973
G1 X82.421 Y71.108 E5.83561
G1 X86.248 Y74.934 E6.0336
G1 X86.653 Y75.905 E6.07209
G1 X82.257 Y71.509 E6.29954
G1 X82.093 Y71.911 E6.31543
G1 X87.059 Y76.877 E6.57237
G1 X87.464 Y77.848 E6.61086
G1 X81.93 Y72.313 E6.89722
G1 X81.766 Y72.715 E6.91311
G1 X87.87 Y78.819 E7.22893
G1 X88.275 Y79.79 E7.26742
G1 X81.602 Y73.116 E7.61271
G1 X81.438 Y73.518 E7.6286
G1 X88.681 Y80.761 E8.00335
G1 X89.086 Y81.733 E8.04188
G1 X81.274 Y73.92 E8.4461
G1 X81.11 Y74.322 E8.46199
G1 X89.492 Y82.703 E8.89565
G1 X89.898 Y83.675 E8.93419
G1 X80.946 Y74.724 E9.39735
G1 X80.782 Y75.125 E9.4132
G1 X83.416 Y77.759 E9.54948
G1 X83.313 Y77.759 E9.55325
G1 X83.181 Y78.09 E9.56629
G1 X80.619 Y75.528 E9.69885
G1 X80.455 Y75.929 E9.7147
G1 X83.02 Y78.495 E9.84744
G1 X82.859 Y78.899 E9.86335
G1 X80.291 Y76.331 E9.99622
G1 X80.127 Y76.733 E10.01211
G1 X82.697 Y79.303 E10.14508
G1 X82.536 Y79.707 E10.16099
G1 X79.963 Y77.134 E10.29412
G1 X79.799 Y77.537 E10.31004
G1 X82.375 Y80.112 E10.44329
G1 X82.213 Y80.516 E10.45922
G1 X79.635 Y77.938 E10.59261
G1 X79.471 Y78.34 E10.60849
G1 X82.052 Y80.921 E10.74203
G1 X81.891 Y81.325 E10.75795
G1 X79.307 Y78.741 E10.89164
G1 X79.144 Y79.144 E10.90755
G1 X81.729 Y81.729 E11.0413
G1 X81.568 Y82.133 E11.05721
G1 X78.98 Y79.545 E11.19111
G1 X78.816 Y79.947 E11.207
G1 X81.407 Y82.538 E11.34106
G1 X81.245 Y82.942 E11.35698
G1 X78.652 Y80.349 E11.49115
G1 X78.488 Y80.751 E11.50703
G1 X81.084 Y83.347 E11.64135
G1 X80.923 Y83.751 E11.65726
G1 X78.324 Y81.153 E11.79171
G1 X78.16 Y81.554 E11.80756
G1 X80.761 Y84.155 E11.94214
G1 X80.6 Y84.56 E11.95808
G1 X77.996 Y81.956 E12.09281
G1 X77.833 Y82.358 E12.10869
G1 X80.439 Y84.964 E12.24352
G1 X80.277 Y85.369 E12.25948
G1 X77.669 Y82.76 E12.39445
G1 X77.505 Y83.162 E12.41033
G1 X80.116 Y85.773 E12.54542
G1 X79.954 Y86.177 E12.56135
G1 X77.341 Y83.563 E12.69657
G1 X77.177 Y83.965 E12.71246
G1 X79.793 Y86.581 E12.84781
G1 X79.632 Y86.986 E12.86376
G1 X77.013 Y84.367 E12.99927
G0 F3600 X77.013 Y84.369
G1 F1500 X76.825 Y84.744 E13.01461
G1 X79.471 Y87.39 E13.15152
G1 X79.309 Y87.795 E13.16748
G1 X76.599 Y85.084 E13.30772
G1 X76.496 Y85.232 E13.31432
G1 X76.342 Y85.393 E13.32247
G1 X79.148 Y88.199 E13.46765
G1 X78.986 Y88.603 E13.48358
G1 X76.055 Y85.672 E13.63523
G1 X75.735 Y85.917 E13.64997
G1 X78.825 Y89.007 E13.80985
G1 X78.664 Y89.412 E13.8258
G1 X75.374 Y86.122 E13.99602
G1 X75.288 Y86.169 E13.99961
G1 X74.973 Y86.287 E14.01192
G1 X78.502 Y89.816 E14.19451
G1 X78.341 Y90.221 E14.21046
G1 X74.531 Y86.41 E14.40761
G1 X74.305 Y86.459 E14.41607
G1 X74.03 Y86.475 E14.42615
G1 X78.18 Y90.625 E14.64088
G1 X78.018 Y91.029 E14.6568
G1 X73.448 Y86.459 E14.89325
G1 X73.279 Y86.444 E14.89946
G1 X72.735 Y86.311 E14.91995
G1 X74.745 Y88.321 E15.02395
G1 X73.79 Y87.932 E15.06168
G1 X72.049 Y86.191 E15.15176
G1 X71.747 Y86.179 E15.16281
G1 X71.556 Y86.193 E15.16982
G1 X71.496 Y86.204 E15.17205
G1 X72.835 Y87.543 E15.24133
G1 X72.086 Y87.238 E15.27092
G1 X71.932 Y87.206 E15.27668
G1 X71.023 Y86.297 E15.32371
G1 X70.937 Y86.321 E15.32698
G1 X70.609 Y86.448 E15.33984
G1 X71.342 Y87.181 E15.37777
G1 X71.11 Y87.215 E15.38635
G1 X70.918 Y87.323 E15.39441
G1 X70.241 Y86.646 E15.42944
G1 X70.027 Y86.783 E15.43873
G1 X69.912 Y86.882 E15.44428
G1 X70.586 Y87.556 E15.47916
G1 X70.338 Y87.853 E15.49331
G1 X70.331 Y87.867 E15.49389
G1 X69.616 Y87.153 E15.53086
G1 X69.561 Y87.211 E15.53378
G1 X69.363 Y87.465 E15.54556
G1 X70.158 Y88.26 E15.5867
G1 X69.994 Y88.661 E15.60255
G1 X69.15 Y87.818 E15.64619
G1 X69.008 Y88.11 E15.65807
G1 X68.97 Y88.203 E15.66175
G1 X69.83 Y89.063 E15.70624
G1 X69.666 Y89.465 E15.72213
G1 X68.806 Y88.605 E15.76662
G1 X68.642 Y89.007 E15.78251
G0 F3600 X68.643 Y89.007
G1 F1500 X69.502 Y89.866 E15.82695
G1 X69.476 Y89.929 E15.82945
G1 X69.394 Y90.324 E15.84421
G1 X68.505 Y89.435 E15.8902
G1 X68.433 Y89.835 E15.90507
G1 X68.426 Y89.922 E15.90827
G1 X69.509 Y91.005 E15.9643
G1 X69.712 Y91.362 E15.97933
G1 X70.094 Y91.682 E15.99756
;;retract;;
G1 F6000 E7.99756
G0 F3600 X68.616 Y91.246
G1 F6000 E15.99756
G1 F1500 X68.788 Y91.626 E16.01282
G1 X68.894 Y91.806 E16.02046
G1 X69.131 Y92.128 E16.03509
G1 X69.28 Y92.295 E16.04328
G1 X69.577 Y92.562 E16.05789
G1 X69.766 Y92.7 E16.06645
G1 X70.519 Y93.147 E16.09849
G1 X68.614 Y91.241 E16.19708
G1 X68.546 Y91.049 E16.20453
G1 X68.493 Y90.839 E16.21246
G1 X68.442 Y90.504 E16.22485
G1 X75.437 Y97.499 E16.58678
G1 X75.598 Y97.094 E16.60273
G1 X70.266 Y91.762 E16.87861
G1 X70.324 Y91.789 E16.88095
G1 X71.227 Y92.157 E16.91662
G1 X75.76 Y96.69 E17.15116
G1 X75.921 Y96.286 E17.16707
G1 X72.182 Y92.547 E17.36053
G1 X73.137 Y92.936 E17.39826
G1 X76.082 Y95.881 E17.55064
G1 X76.243 Y95.477 E17.56655
G1 X73.573 Y92.807 E17.70469
G1 X73.737 Y92.405 E17.72058
G1 X76.405 Y95.073 E17.85862
G1 X76.566 Y94.668 E17.87457
G1 X73.901 Y92.003 E18.01246
G1 X74.065 Y91.601 E18.02834
G1 X76.728 Y94.264 E18.16613
G1 X76.889 Y93.859 E18.18207
G1 X74.229 Y91.199 E18.3197
G1 X74.393 Y90.798 E18.33555
G1 X77.05 Y93.455 E18.47303
G1 X77.211 Y93.051 E18.48894
G1 X74.556 Y90.395 E18.62634
G1 X74.72 Y89.994 E18.64219
G1 X77.373 Y92.647 E18.77945
G1 X77.534 Y92.242 E18.7954
G1 X74.884 Y89.592 E18.93251
G1 X75.048 Y89.19 E18.9484
G1 X77.696 Y91.838 E19.08541
G1 X77.857 Y91.433 E19.10135
G1 X75.212 Y88.788 E19.2382
G1 X75.308 Y88.551 E19.24756
;;retract;;
G1 F6000 E11.24756
G0 F3600 X70.551 Y93.166
G1 F6000 E19.24756
G1 F1500 X70.951 Y93.495 E19.26651
G1 X71.291 Y93.875 E19.28516
G1 X71.373 Y94.001 E19.29066
G1 X74.985 Y97.613 E19.47755
G1 X74.42 Y97.613 E19.49822
G1 X71.876 Y95.069 E19.62985
G1 X71.932 Y95.261 E19.63717
G1 X71.999 Y95.757 E19.65548
G1 X73.854 Y97.613 E19.75148
G1 X73.288 Y97.613 E19.77219
G1 X71.987 Y96.311 E19.83953
G1 X71.907 Y96.789 E19.85726
G1 X71.905 Y96.795 E19.8575
G1 X72.723 Y97.613 E19.89982
G1 X72.157 Y97.613 E19.92053
G1 X71.612 Y97.613 E19.94047
G1 X71.757 Y97.259 E19.95446
G0 F3600 X71.768 Y97.224
G1 F1500 X72.157 Y97.613 E19.97459
;;retract;;
G1 F6000 E11.97459
G0 F3600 X91.932 Y97.589
G1 F6000 E19.97459
G1 F1500 X91.547 Y96.638 E20.01213
G1 X92.522 Y97.613 E20.06257
G1 X93.087 Y97.613 E20.08324
G1 X91.163 Y95.688 E20.18282
G1 X90.779 Y94.738 E20.22031
G1 X93.653 Y97.613 E20.36904
G1 X94.219 Y97.613 E20.38974
G1 X90.394 Y93.788 E20.58765
G1 X90.009 Y92.838 E20.62515
G1 X94.784 Y97.613 E20.87222
G1 X95.35 Y97.613 E20.89292
G1 X89.625 Y91.888 E21.18914
G1 X89.241 Y90.938 E21.22663
G1 X95.573 Y97.271 E21.55428
G1 X95.168 Y96.3 E21.59277
G1 X88.856 Y89.987 E21.91938
G1 X88.471 Y89.037 E21.95688
G1 X94.763 Y95.329 E22.28243
G1 X94.357 Y94.357 E22.32097
G1 X88.087 Y88.087 E22.64539
G1 X87.703 Y87.137 E22.68288
G1 X93.952 Y93.386 E23.0062
G1 X93.546 Y92.415 E23.04471
G1 X87.318 Y86.187 E23.36695
G1 X86.934 Y85.237 E23.40444
G1 X93.141 Y91.444 E23.72559
G1 X92.735 Y90.472 E23.76413
G1 X86.549 Y84.287 E24.08417
G1 X86.165 Y83.336 E24.1217
G1 X92.33 Y89.502 E24.4407
G1 X91.925 Y88.531 E24.47919
G1 X85.78 Y82.386 E24.79714
G1 X85.396 Y81.436 E24.83463
G1 X91.519 Y87.559 E25.15144
G1 X91.114 Y86.588 E25.18993
G1 X85.011 Y80.486 E25.50568
G1 X84.627 Y79.536 E25.54316
G1 X90.708 Y85.617 E25.8578
G1 X90.303 Y84.646 E25.89629
G1 X84.243 Y78.586 E26.20984
G1 X83.908 Y77.759 E26.24248
;;retract;;
G1 F6000 E18.24248
G0 F3600 X91.942 Y97.613
G1 F6000 E26.24248
G1 F1500 X91.956 Y97.613 E26.243
;;retract;;
G1 F6000 E18.243
G0 F3600 X83.559 Y68.569
;TYPE:SKIN
G1 F6000 E26.243
G1 F1500 X83.604 Y68.331 E26.25492
G1 X83.379 Y68.671 E26.27498
G0 F3600 X83.181 Y68.756
G1 F1500 X83.215 Y68.79 E26.27586
;;retract;;
G1 F6000 E18.27586
;MESH:NONMESH
G0 F600 X83.215 Y68.79 Z0.5
G0 F3600 X74.996 Y88.684
;TIME_ELAPSED:44.620880

;LAYER:1
M140 S60
M106 S127.5
;TYPE:WALL-OUTER
;MESH:
G1 F6000 E26.27586
G1 F1500 X72.016 Y87.469 E26.43642
G1 X71.639 Y87.388 E26.45566
G1 X71.317 Y87.414 E26.47177
G1 X70.947 Y87.565 E26.49171
G1 X70.697 Y87.771 E26.50787
G1 X70.486 Y88.097 E26.52725
G1 X69.706 Y90.002 E26.62995
G1 X69.626 Y90.379 E26.64917
G1 X69.651 Y90.7 E26.66524
G1 X69.802 Y91.072 E26.68527
G1 X70.008 Y91.322 E26.70143
G1 X70.334 Y91.533 E26.7208
G1 X73.15 Y92.684 E26.87257
G1 X73.335 Y92.759 E26.88253
G1 X73.41 Y92.574 E26.88896
G1 X74.996 Y88.684 E27.09855
G0 F5400 X74.811 Y88.609
G0 X74.978 Y88.202
;;retract;;
G1 F6000 E19.09855
G0 F5400 X83.477 Y78
G1 F6000 E27.09855
G1 F1500 X83.418 Y78.148 E27.1065
G1 X75.554 Y97.854 E28.16503
G1 X71.554 Y97.854 E28.36459
G1 X71.553 Y97.854 E28.36464
G1 X71.257 Y97.854 E28.3794
G1 X71.369 Y97.579 E28.38806
G1 X71.532 Y97.179 E28.40961
G1 X71.673 Y96.741 E28.43257
G1 X71.75 Y96.282 E28.45579
G1 X71.765 Y96.001 E28.46983
G1 X71.739 Y95.558 E28.49197
G1 X71.689 Y95.282 E28.50596
G1 X71.572 Y94.877 E28.52699
G1 X71.46 Y94.613 E28.5413
G1 X71.247 Y94.231 E28.56312
G1 X71.089 Y94.009 E28.57671
G1 X70.798 Y93.685 E28.59844
G1 X70.577 Y93.489 E28.61318
G1 X70.232 Y93.246 E28.63423
G1 X69.806 Y93.011 E28.6585
G1 X69.464 Y92.779 E28.67912
G1 X69.255 Y92.605 E28.69269
G1 X68.979 Y92.32 E28.71248
G1 X68.814 Y92.115 E28.72561
G1 X68.592 Y91.766 E28.74625
G1 X68.473 Y91.533 E28.7593
G1 X68.328 Y91.149 E28.77978
G1 X68.252 Y90.863 E28.79454
G1 X68.19 Y90.454 E28.81518
G1 X68.178 Y90.04 E28.83584
G1 X68.196 Y89.797 E28.848
G1 X68.273 Y89.372 E28.86955
G1 X68.341 Y89.135 E28.88185
G1 X68.42 Y88.919 E28.89332
G1 X68.798 Y87.993 E28.94322
G1 X68.976 Y87.627 E28.96353
G1 X69.111 Y87.404 E28.97653
G1 X69.364 Y87.074 E28.99728
G1 X69.548 Y86.878 E29.01069
G1 X69.732 Y86.713 E29.02302
G1 X70.068 Y86.465 E29.04386
G1 X70.428 Y86.264 E29.06443
G1 X70.661 Y86.162 E29.07712
G1 X71.05 Y86.041 E29.09744
G1 X71.314 Y85.984 E29.11092
G1 X71.72 Y85.944 E29.13127
G1 X71.98 Y85.942 E29.14424
G1 X72.389 Y85.983 E29.16475
G1 X72.642 Y86.035 E29.17763
G1 X73.118 Y86.167 E29.20228
G1 X73.535 Y86.234 E29.22335
G1 X73.829 Y86.249 E29.23804
G1 X74.263 Y86.222 E29.25973
G1 X74.532 Y86.173 E29.27337
G1 X74.952 Y86.05 E29.29521
G1 X75.216 Y85.937 E29.30953
G1 X75.583 Y85.731 E29.33053
G1 X75.812 Y85.568 E29.34455
G1 X76.14 Y85.272 E29.36659
G1 X76.327 Y85.06 E29.3807
G1 X76.574 Y84.708 E29.40215
G1 X76.708 Y84.464 E29.41604
G1 X76.8 Y84.261 E29.42716
G1 X83.34 Y68.226 E30.29113
G1 X83.522 Y67.778 E30.31525
G1 X83.708 Y68.224 E30.32821
G1 X95.963 Y97.578 E31.91519
G1 X96.078 Y97.854 E31.9301
G1 X95.779 Y97.854 E31.93882
G1 X95.778 Y97.854 E31.93887
G1 X91.781 Y97.854 E32.13828
G1 X83.808 Y78.148 E33.19884
