(GCode generated by: DrawingBotV3 1.5.3)
(Time: 2023-04-27 at 00:28:09 BRT)
G21 (programming in millimeters, mm)
G90 (programming in absolute positioning)
G28 (auto homing)
G1 F2000 (set speed)


G0 X-5.984 Y-278.789

G1 X-3.768 Y-278.518
G1 X-6.220 Y-275.234
G1 X-2.383 Y-278.193
G1 X-4.809 Y-272.879
G1 X-1.651 Y-277.936
G1 X-2.808 Y-271.304
G1 X-1.020 Y-277.814
G1 X-.484 Y-270.710
G1 X-.394 Y-277.513
G1 X1.856 Y-270.794
G1 X.348 Y-277.324
G1 X4.081 Y-271.397
G1 X1.136 Y-277.371
G1 X6.098 Y-272.447
G1 X1.887 Y-277.652
G1 X7.811 Y-273.896
G1 X2.565 Y-278.112
G1 X9.135 Y-275.668
G1 X3.166 Y-278.715
G1 X10.059 Y-277.650
G1 X3.633 Y-279.454
G1 X10.598 Y-279.751
G1 X3.912 Y-280.291
G1 X10.669 Y-281.894
G1 X4.072 Y-281.195
G1 X10.036 Y-283.941
G1 X4.331 Y-282.306
G1 X8.872 Y-285.839
G1 X4.403 Y-283.711
G1 X7.420 Y-287.656
G1 X3.930 Y-285.165
G1 X5.649 Y-289.298
G1 X2.950 Y-286.457
G1 X3.521 Y-290.573
G1 X1.584 Y-287.524
G1 X1.103 Y-291.365
G1 X-.109 Y-288.284
G1 X-1.476 Y-291.673
G1 X-2.008 Y-288.562
G1 X-4.088 Y-291.394
G1 X-3.986 Y-288.379
G1 X-6.603 Y-290.542
G1 X-5.915 Y-287.717
G1 X-8.909 Y-289.206
G1 X-7.611 Y-286.585
G1 X-10.887 Y-287.449
G1 X-8.967 Y-285.111
G1 X-12.416 Y-285.330
G1 X-9.999 Y-283.415
G1 X-13.527 Y-283.001
G1 X-10.594 Y-281.586
G1 X-14.264 Y-280.598
G1 X-10.704 Y-279.801
G1 X-14.813 Y-278.253
G1 X-10.259 Y-278.310
G1 X-15.182 Y-276.033
G1 X-9.478 Y-277.215
G1 X-14.963 Y-274.035
G1 X-8.909 Y-276.213
G1 X-14.248 Y-272.245
G1 X-8.480 Y-275.164
G1 X-13.316 Y-270.565
G1 X-7.930 Y-274.170
G1 X-12.204 Y-269.006
G1 X-7.254 Y-273.261
G1 X-10.929 Y-267.586
G1 X-6.466 Y-272.454
G1 X-9.489 Y-266.349
G1 X-5.603 Y-271.726
G1 X-7.924 Y-265.283
G1 X-4.659 Y-271.112
G1 X-6.238 Y-264.440
G1 X-3.659 Y-270.571
G1 X-4.453 Y-263.838
G1 X-2.600 Y-270.099
G1 X-2.630 Y-263.350
G1 X-1.481 Y-269.840
G1 X-.773 Y-263.062
G1 X-.346 Y-269.716
G1 X1.098 Y-263.048
G1 X.810 Y-269.649
G1 X2.961 Y-263.215
G1 X1.967 Y-269.732
G1 X4.799 Y-263.551
G1 X3.099 Y-269.969
G1 X6.582 Y-264.088
G1 X4.202 Y-270.318
G1 X8.279 Y-264.842
G1 X5.285 Y-270.752
G1 X9.890 Y-265.764
G1 X6.319 Y-271.307
G1 X11.436 Y-266.791
G1 X7.239 Y-272.014
G1 X12.857 Y-267.972
G1 X8.081 Y-272.802
G1 X14.106 Y-269.321
G1 X8.883 Y-273.640
G1 X15.200 Y-270.796
G1 X9.613 Y-274.552
G1 X16.154 Y-272.364
G1 X10.237 Y-275.544
G1 X16.975 Y-274.004
G1 X10.730 Y-276.603
G1 X17.651 Y-275.705
G1 X11.094 Y-277.704
G1 X18.142 Y-277.461
G1 X11.362 Y-278.829
G1 X18.440 Y-279.255
G1 X11.545 Y-279.973
G1 X18.481 Y-281.068
G1 X11.701 Y-281.146
G1 X18.183 Y-282.879
G1 X11.907 Y-282.404
G1 X17.759 Y-284.696
G1 X11.925 Y-283.726
G1 X17.300 Y-286.528
G1 X11.659 Y-285.016
G1 X16.591 Y-288.295
G1 X11.315 Y-286.336
G1 X15.624 Y-289.983
G1 X10.872 Y-287.715
G1 X14.357 Y-291.571
G1 X10.300 Y-289.211
G1 X12.882 Y-293.119
G1 X9.448 Y-290.722
G1 X11.280 Y-294.652
G1 X8.273 Y-292.064
G1 X9.464 Y-296.017
G1 X6.886 Y-293.297
G1 X7.431 Y-297.164
G1 X5.288 Y-294.413
G1 X5.210 Y-298.083
G1 X3.475 Y-295.343
G1 X2.830 Y-298.744
G1 X1.470 Y-296.033
G1 X.324 Y-299.103
G1 X-.689 Y-296.450
G1 X-2.267 Y-299.124
G1 X-2.968 Y-296.567
G1 X-4.900 Y-298.774
G1 X-5.332 Y-296.358
G1 X-7.523 Y-298.097
G1 X-7.676 Y-295.750
G1 X-10.062 Y-297.082
G1 X-9.913 Y-294.771
G1 X-12.451 Y-295.742
G1 X-11.968 Y-293.464
G1 X-14.644 Y-294.128
G1 X-13.761 Y-291.877
G1 X-16.575 Y-292.261
G1 X-15.286 Y-290.093
G1 X-18.242 Y-290.214
G1 X-16.491 Y-288.165
G1 X-19.637 Y-288.054
G1 X-17.355 Y-286.177
G1 X-20.755 Y-285.842
G1 X-17.896 Y-284.208
G1 X-21.601 Y-283.626
G1 X-18.160 Y-282.318
G1 X-22.168 Y-281.435
G1 X-18.223 Y-280.526
G1 X-22.888 Y-279.374
G1 X-17.717 Y-279.024
G1 X-23.409 Y-277.464
G1 X-17.114 Y-277.765
G1 X-23.308 Y-275.680
G1 X-16.892 Y-276.509
G1 X-22.983 Y-273.938
G1 X-16.663 Y-275.250
G1 X-22.487 Y-272.235
G1 X-16.371 Y-273.989
G1 X-21.883 Y-270.561
G1 X-15.958 Y-272.756
G1 X-21.158 Y-268.933
G1 X-15.444 Y-271.557
G1 X-20.171 Y-267.427
G1 X-14.945 Y-270.280
G1 X-18.959 Y-266.014
G1 X-14.373 Y-268.912
G1 X-17.693 Y-264.575
G1 X-13.557 Y-267.626
G1 X-16.372 Y-263.145
G1 X-12.544 Y-266.484
G1 X-14.910 Y-261.839
G1 X-11.434 Y-265.397
G1 X-13.327 Y-260.650
G1 X-10.214 Y-264.394
G1 X-11.651 Y-259.566
G1 X-8.887 Y-263.520
G1 X-9.906 Y-258.595
G1 X-7.479 Y-262.799
G1 X-8.127 Y-257.719
G1 X-6.025 Y-262.278
G1 X-6.282 Y-257.068
G1 X-4.557 Y-261.814
G1 X-4.385 Y-256.600
G1 X-3.056 Y-261.441
G1 X-2.446 Y-256.304
G1 X-1.516 Y-261.176
G1 X-.495 Y-256.099
G1 X.027 Y-261.107
G1 X1.433 Y-255.908
G1 X1.489 Y-261.305
G1 X3.308 Y-255.718
G1 X2.803 Y-261.744
G1 X5.109 Y-255.707
G1 X4.021 Y-262.211
G1 X6.811 Y-256.067
G1 X5.266 Y-262.509
G1 X8.466 Y-256.594
G1 X6.514 Y-262.845
G1 X10.099 Y-257.200
G1 X7.722 Y-263.302
G1 X11.693 Y-257.894
G1 X8.882 Y-263.859
G1 X13.230 Y-258.701
G1 X10.003 Y-264.487
G1 X14.690 Y-259.635
G1 X11.099 Y-265.166
G1 X16.089 Y-260.659
G1 X12.144 Y-265.925
G1 X17.450 Y-261.735
G1 X13.093 Y-266.786
G1 X18.735 Y-262.888
G1 X13.969 Y-267.707
G1 X19.920 Y-264.135
G1 X14.797 Y-268.665
G1 X20.988 Y-265.478
G1 X15.592 Y-269.655
G1 X21.946 Y-266.901
G1 X16.343 Y-270.688
G1 X22.837 Y-268.371
G1 X16.998 Y-271.783
G1 X23.609 Y-269.905
G1 X17.604 Y-272.914
G1 X24.273 Y-271.492
G1 X18.143 Y-274.086
G1 X24.877 Y-273.105
G1 X18.561 Y-275.303
G1 X25.402 Y-274.743
G1 X18.867 Y-276.543
G1 X25.805 Y-276.408
G1 X19.107 Y-277.792
G1 X26.031 Y-278.103
G1 X19.336 Y-279.054
G1 X26.082 Y-279.821
G1 X19.552 Y-280.348
G1 X25.976 Y-281.557
G1 X19.730 Y-281.693
G1 X25.793 Y-283.312
G1 X19.778 Y-283.077
G1 X25.514 Y-285.078
G1 X19.706 Y-284.487
G1 X25.128 Y-286.845
G1 X19.518 Y-285.912
G1 X24.625 Y-288.604
G1 X19.219 Y-287.343
G1 X24.018 Y-290.348
G1 X18.793 Y-288.759
G1 X23.390 Y-292.087
G1 X18.182 Y-290.078
G1 X22.478 Y-293.701
G1 X17.621 Y-291.480
G1 X21.342 Y-295.246
G1 X16.996 Y-292.972
G1 X20.252 Y-296.870
G1 X16.084 Y-294.285
G1 X18.980 Y-298.372
G1 X15.113 Y-295.604
G1 X17.492 Y-299.744
G1 X14.053 Y-296.979
G1 X15.902 Y-301.094
G1 X12.801 Y-298.254
G1 X14.195 Y-302.366
G1 X11.397 Y-299.427
G1 X12.337 Y-303.496
G1 X9.865 Y-300.541
G1 X10.360 Y-304.514
G1 X8.188 Y-301.527
G1 X8.283 Y-305.406
G1 X6.391 Y-302.353
G1 X6.089 Y-306.095
G1 X4.484 Y-303.075
G1 X3.783 Y-306.583
G1 X2.451 Y-303.666
G1 X1.377 Y-306.875
G1 X.293 Y-304.081
G1 X-1.099 Y-306.988
G1 X-1.950 Y-304.258
G1 X-3.620 Y-306.876
G1 X-4.250 Y-304.212
G1 X-6.160 Y-306.522
G1 X-6.587 Y-303.940
G1 X-8.695 Y-305.949
G1 X-8.907 Y-303.406
G1 X-11.184 Y-305.126
G1 X-11.192 Y-302.639
G1 X-13.601 Y-304.032
G1 X-13.444 Y-301.653
G1 X-15.933 Y-302.695
G1 X-15.619 Y-300.420
G1 X-18.168 Y-301.167
G1 X-17.630 Y-298.934
G1 X-20.243 Y-299.433
G1 X-19.475 Y-297.254
G1 X-22.146 Y-297.528
G1 X-21.114 Y-295.405
G1 X-23.898 Y-295.540
G1 X-22.441 Y-293.428
G1 X-25.426 Y-293.473
G1 X-23.516 Y-291.416
G1 X-26.715 Y-291.348
G1 X-24.375 Y-289.405
G1 X-27.798 Y-289.200
G1 X-25.013 Y-287.414
G1 X-28.693 Y-287.063
G1 X-25.435 Y-285.476
G1 X-29.459 Y-284.983
G1 X-25.611 Y-283.636
G1 X-30.431 Y-283.100
G1 X-25.224 Y-282.039
G1 X-31.038 Y-281.341
G1 X-24.950 Y-280.627
G1 X-30.967 Y-279.584
G1 X-25.168 Y-279.194
G1 X-30.861 Y-277.797
G1 X-25.231 Y-277.721
G1 X-30.709 Y-275.996
G1 X-25.144 Y-276.242
G1 X-30.449 Y-274.199
G1 X-24.967 Y-274.759
G1 X-30.110 Y-272.409
G1 X-24.672 Y-273.296
G1 X-29.711 Y-270.636
G1 X-24.250 Y-271.881
G1 X-29.143 Y-268.918
G1 X-23.807 Y-270.463
G1 X-28.338 Y-267.263
G1 X-23.382 Y-268.963
G1 X-27.379 Y-265.616
G1 X-22.856 Y-267.404
G1 X-26.289 Y-263.962
G1 X-22.178 Y-265.808
G1 X-25.127 Y-262.284
G1 X-21.296 Y-264.264
G1 X-23.870 Y-260.631
G1 X-20.255 Y-262.790
G1 X-22.513 Y-259.034
G1 X-19.084 Y-261.401
G1 X-21.114 Y-257.482
G1 X-17.785 Y-260.179
G1 X-19.604 Y-256.071
G1 X-16.441 Y-259.026
G1 X-17.963 Y-254.812
G1 X-15.041 Y-257.905
G1 X-16.232 Y-253.652
G1 X-13.550 Y-256.879
G1 X-14.413 Y-252.605
G1 X-11.977 Y-255.948
G1 X-12.567 Y-251.610
G1 X-10.335 Y-255.216
G1 X-10.748 Y-250.655
G1 X-8.689 Y-254.731
G1 X-8.921 Y-249.886
G1 X-7.086 Y-254.327
G1 X-7.053 Y-249.344
G1 X-5.492 Y-253.920
G1 X-5.141 Y-248.970
G1 X-3.869 Y-253.557
G1 X-3.195 Y-248.713
G1 X-2.207 Y-253.294
G1 X-1.226 Y-248.554
G1 X-.524 Y-253.158
G1 X.747 Y-248.481
G1 X1.155 Y-253.165
G1 X2.702 Y-248.461
G1 X2.782 Y-253.341
G1 X4.610 Y-248.424
G1 X4.285 Y-253.730
G1 X6.438 Y-248.547
G1 X5.716 Y-254.133
G1 X8.211 Y-248.730
G1 X7.055 Y-254.628
G1 X9.940 Y-248.928
G1 X8.282 Y-255.240
G1 X11.566 Y-249.362
G1 X9.514 Y-255.749
G1 X13.135 Y-249.931
G1 X10.738 Y-256.261
G1 X14.658 Y-250.604
G1 X11.947 Y-256.806
G1 X16.120 Y-251.408
G1 X13.168 Y-257.364
G1 X17.560 Y-252.260
G1 X14.349 Y-258.012
G1 X18.995 Y-253.128
G1 X15.452 Y-258.771
G1 X20.370 Y-254.075
G1 X16.520 Y-259.569
G1 X21.681 Y-255.106
G1 X17.563 Y-260.402
G1 X22.934 Y-256.206
G1 X18.570 Y-261.281
G1 X24.156 Y-257.340
G1 X19.500 Y-262.232
G1 X25.329 Y-258.518
G1 X20.366 Y-263.232
G1 X26.428 Y-259.759
G1 X21.190 Y-264.260
G1 X27.445 Y-261.063
G1 X21.981 Y-265.312
G1 X28.366 Y-262.437
G1 X22.755 Y-266.385
G1 X29.227 Y-263.852
G1 X23.472 Y-267.502
G1 X30.032 Y-265.301
G1 X24.120 Y-268.662
G1 X30.779 Y-266.782
G1 X24.697 Y-269.857
G1 X31.439 Y-268.302
G1 X25.230 Y-271.075
G1 X32.011 Y-269.859
G1 X25.720 Y-272.316
G1 X32.522 Y-271.439
G1 X26.134 Y-273.586
G1 X32.971 Y-273.038
G1 X26.472 Y-274.876
G1 X33.349 Y-274.654
G1 X26.738 Y-276.181
G1 X33.626 Y-276.289
G1 X26.965 Y-277.495
G1 X33.712 Y-277.954
G1 X27.244 Y-278.833
G1 X33.733 Y-279.639
G1 X27.444 Y-280.209
G1 X33.679 Y-281.344
G1 X27.567 Y-281.621
G1 X33.501 Y-283.069
G1 X27.656 Y-283.081
G1 X33.333 Y-284.817
G1 X27.569 Y-284.546
G1 X33.005 Y-286.563
G1 X27.470 Y-286.052
G1 X32.541 Y-288.322
G1 X27.316 Y-287.613
G1 X32.025 Y-290.108
G1 X27.017 Y-289.187
G1 X31.434 Y-291.900
G1 X26.594 Y-290.758
G1 X30.796 Y-293.690
G1 X26.028 Y-292.281
G1 X30.068 Y-295.443
G1 X25.372 Y-293.765
G1 X29.313 Y-297.171
G1 X24.590 Y-295.149
G1 X28.479 Y-298.830
G1 X23.750 Y-296.463
G1 X27.288 Y-300.296
G1 X23.039 Y-297.981
G1 X25.804 Y-301.702
G1 X22.253 Y-299.720
G1 X24.620 Y-303.417
G1 X20.998 Y-300.988
G1 X23.491 Y-305.072
G1 X19.677 Y-301.999
G1 X22.046 Y-306.356
G1 X18.522 Y-303.240
G1 X20.505 Y-307.591
G1 X17.259 Y-304.437
G1 X18.881 Y-308.775
G1 X15.887 Y-305.562
G1 X17.198 Y-309.913
G1 X14.415 Y-306.573
G1 X15.452 Y-310.967
G1 X12.876 Y-307.484
G1 X13.620 Y-311.889
G1 X11.280 Y-308.348
G1 X11.688 Y-312.671
G1 X9.606 Y-309.177
G1 X9.655 Y-313.333
G1 X7.829 Y-309.946
G1 X7.547 Y-313.918
G1 X5.952 Y-310.577
G1 X5.351 Y-314.351
G1 X3.980 Y-311.130
G1 X3.073 Y-314.650
G1 X1.907 Y-311.561
G1 X.734 Y-314.846
G1 X-.236 Y-311.809
G1 X-1.661 Y-314.847
G1 X-2.458 Y-311.947
G1 X-4.106 Y-314.693
G1 X-4.742 Y-311.909
G1 X-6.579 Y-314.401
G1 X-7.045 Y-311.665
G1 X-9.053 Y-313.925
G1 X-9.358 Y-311.248
G1 X-11.514 Y-313.256
G1 X-11.674 Y-310.660
G1 X-13.950 Y-312.373
G1 X-14.000 Y-309.902
G1 X-16.362 Y-311.322
G1 X-16.283 Y-308.928
G1 X-18.720 Y-310.109
G1 X-18.480 Y-307.752
G1 X-20.986 Y-308.708
G1 X-20.600 Y-306.408
G1 X-23.158 Y-307.153
G1 X-22.599 Y-304.889
G1 X-25.225 Y-305.481
G1 X-24.420 Y-303.211
G1 X-27.158 Y-303.715
G1 X-26.042 Y-301.423
G1 X-28.912 Y-301.840
G1 X-27.509 Y-299.570
G1 X-30.520 Y-299.905
G1 X-28.776 Y-297.659
G1 X-31.982 Y-297.945
G1 X-29.828 Y-295.727
G1 X-33.257 Y-295.954
G1 X-30.726 Y-293.810
G1 X-34.413 Y-293.984
G1 X-31.407 Y-291.920
G1 X-35.772 Y-292.283
G1 X-31.461 Y-290.148
G1 X-36.878 Y-290.714
G1 X-31.443 Y-288.597
G1 X-37.395 Y-289.056
G1 X-31.838 Y-287.186
G1 X-37.798 Y-287.366
G1 X-32.207 Y-285.759
G1 X-38.101 Y-285.647
G1 X-32.534 Y-284.305
G1 X-38.276 Y-283.887
G1 X-32.851 Y-282.810
G1 X-38.400 Y-282.097
G1 X-33.068 Y-281.273
G1 X-38.493 Y-280.291
G1 X-33.158 Y-279.720
G1 X-38.431 Y-278.466
G1 X-33.242 Y-278.129
G1 X-38.279 Y-276.615
G1 X-33.245 Y-276.501
G1 X-38.094 Y-274.747
G1 X-33.106 Y-274.871
G1 X-37.847 Y-272.882
G1 X-32.856 Y-273.258
G1 X-37.508 Y-271.035
G1 X-32.527 Y-271.663
G1 X-37.086 Y-269.209
G1 X-32.114 Y-270.093
G1 X-36.608 Y-267.409
G1 X-31.602 Y-268.574
G1 X-35.888 Y-265.678
G1 X-31.148 Y-266.979
G1 X-34.905 Y-263.973
G1 X-30.707 Y-265.222
G1 X-33.915 Y-262.174
G1 X-30.016 Y-263.486
G1 X-32.924 Y-260.336
G1 X-29.115 Y-261.851
G1 X-31.771 Y-258.573
G1 X-28.154 Y-260.203
G1 X-30.464 Y-256.862
G1 X-27.096 Y-258.539
G1 X-29.119 Y-255.141
G1 X-25.863 Y-256.997
G1 X-27.717 Y-253.475
G1 X-24.525 Y-255.577
G1 X-26.134 Y-251.968
G1 X-23.154 Y-254.122
G1 X-24.383 Y-250.562
G1 X-21.675 Y-252.647
G1 X-22.578 Y-249.148
G1 X-20.028 Y-251.337
G1 X-20.670 Y-247.841
G1 X-18.287 Y-250.110
G1 X-18.679 Y-246.631
G1 X-16.454 Y-248.997
G1 X-16.771 Y-245.357
G1 X-14.573 Y-248.268
G1 X-14.997 Y-244.122
G1 X-12.785 Y-247.869
G1 X-13.261 Y-243.148
G1 X-11.136 Y-247.498
G1 X-11.466 Y-242.506
G1 X-9.550 Y-246.985
G1 X-9.616 Y-242.017
G1 X-7.934 Y-246.477
G1 X-7.742 Y-241.572
G1 X-6.282 Y-246.093
G1 X-5.859 Y-241.182
G1 X-4.620 Y-245.831
G1 X-3.975 Y-240.878
G1 X-2.965 Y-245.659
G1 X-2.088 Y-240.690
G1 X-1.311 Y-245.545
G1 X-.186 Y-240.661
G1 X.370 Y-245.441
G1 X1.738 Y-240.725
G1 X2.080 Y-245.420
G1 X3.670 Y-240.814
G1 X3.775 Y-245.550
G1 X5.576 Y-240.795
G1 X5.343 Y-245.946
G1 X7.400 Y-240.846
G1 X6.806 Y-246.406
G1 X9.135 Y-241.162
G1 X8.283 Y-246.735
G1 X10.846 Y-241.560
G1 X9.740 Y-247.119
G1 X12.565 Y-241.849
G1 X11.065 Y-247.722
G1 X14.250 Y-242.099
G1 X12.262 Y-248.447
G1 X15.824 Y-242.559
G1 X13.471 Y-249.056
G1 X17.316 Y-243.194
G1 X14.708 Y-249.594
G1 X18.778 Y-243.895
G1 X15.928 Y-250.174
G1 X20.218 Y-244.640
G1 X17.116 Y-250.814
G1 X21.624 Y-245.447
G1 X18.281 Y-251.495
G1 X22.989 Y-246.321
G1 X19.430 Y-252.209
G1 X24.333 Y-247.231
G1 X20.536 Y-252.986
G1 X25.591 Y-248.260
G1 X21.672 Y-253.748
G1 X26.551 Y-249.740
G1 X23.194 Y-254.289
G1 X27.615 Y-251.297
G1 X24.774 Y-255.088
G1 X28.988 Y-252.656
G1 X26.007 Y-256.280
G1 X30.311 Y-254.074
G1 X27.172 Y-257.543
G1 X31.532 Y-255.599
G1 X28.336 Y-258.850
G1 X32.639 Y-257.269
G1 X29.546 Y-260.223
G1 X33.706 Y-259.045
G1 X30.719 Y-261.725
G1 X34.706 Y-260.946
G1 X31.870 Y-263.356
G1 X35.693 Y-262.924
G1 X32.892 Y-265.125
G1 X36.663 Y-264.935
G1 X33.729 Y-266.982
G1 X37.461 Y-267.035
G1 X34.539 Y-268.893
G1 X38.118 Y-269.232
G1 X35.295 Y-270.898
G1 X38.766 Y-271.459
G1 X35.822 Y-272.962
G1 X39.369 Y-273.667
G1 X36.128 Y-275.002
G1 X40.224 Y-275.688
G1 X35.884 Y-276.823
G1 X41.108 Y-277.474
G1 X35.372 Y-278.365
G1 X41.386 Y-279.171
G1 X35.313 Y-279.813
G1 X41.312 Y-280.876
G1 X35.477 Y-281.294
G1 X41.184 Y-282.610
G1 X35.564 Y-282.818
G1 X41.043 Y-284.367
G1 X35.525 Y-284.359
G1 X40.849 Y-286.134
G1 X35.396 Y-285.905
G1 X40.587 Y-287.900
G1 X35.193 Y-287.453
G1 X40.225 Y-289.661
G1 X34.942 Y-289.012
G1 X39.776 Y-291.419
G1 X34.627 Y-290.581
G1 X39.270 Y-293.178
G1 X34.218 Y-292.141
G1 X38.753 Y-294.934
G1 X33.682 Y-293.645
G1 X38.240 Y-296.669
G1 X33.026 Y-295.055
G1 X37.453 Y-298.288
G1 X32.497 Y-296.564
G1 X36.528 Y-299.893
G1 X31.921 Y-298.133
G1 X35.636 Y-301.555
G1 X31.149 Y-299.617
G1 X34.724 Y-303.203
G1 X30.268 Y-301.019
G1 X33.756 Y-304.800
G1 X29.332 Y-302.360
G1 X32.525 Y-306.242
G1 X28.466 Y-303.854
G1 X31.160 Y-307.676
G1 X27.487 Y-305.397
G1 X29.736 Y-309.153
G1 X26.333 Y-306.890
G1 X28.794 Y-310.976
G1 X24.814 Y-307.649
G1 X28.026 Y-312.702
G1 X23.333 Y-308.093
G1 X26.666 Y-313.658
G1 X22.386 Y-309.195
G1 X25.036 Y-314.406
G1 X21.440 Y-310.564
G1 X23.406 Y-315.332
G1 X20.222 Y-311.783
G1 X21.783 Y-316.375
G1 X18.822 Y-312.811
G1 X20.099 Y-317.371
G1 X17.345 Y-313.773
G1 X18.370 Y-318.323
G1 X15.801 Y-314.646
G1 X16.589 Y-319.199
G1 X14.207 Y-315.450
G1 X14.759 Y-319.995
G1 X12.566 Y-316.184
G1 X12.876 Y-320.695
G1 X10.879 Y-316.861
G1 X10.911 Y-321.258
G1 X9.128 Y-317.531
G1 X8.881 Y-321.753
G1 X7.297 Y-318.112
G1 X6.775 Y-322.135
G1 X5.383 Y-318.635
G1 X4.578 Y-322.385
G1 X3.362 Y-319.111
G1 X2.300 Y-322.558
G1 X1.242 Y-319.454
G1 X-.041 Y-322.641
G1 X-.951 Y-319.652
G1 X-2.425 Y-322.626
G1 X-3.189 Y-319.696
G1 X-4.835 Y-322.482
G1 X-5.456 Y-319.604
G1 X-7.260 Y-322.206
G1 X-7.739 Y-319.370
G1 X-9.690 Y-321.771
G1 X-10.046 Y-319.012
G1 X-12.124 Y-321.195
G1 X-12.357 Y-318.505
G1 X-14.548 Y-320.493
G1 X-14.643 Y-317.834
G1 X-16.937 Y-319.596
G1 X-16.949 Y-317.053
G1 X-19.307 Y-318.515
G1 X-19.274 Y-316.126
G1 X-21.669 Y-317.318
G1 X-21.537 Y-314.996
G1 X-23.986 Y-316.019
G1 X-23.689 Y-313.687
G1 X-26.203 Y-314.562
G1 X-25.774 Y-312.263
G1 X-28.340 Y-312.997
G1 X-27.734 Y-310.699
G1 X-30.394 Y-311.379
G1 X-29.499 Y-309.013
G1 X-32.308 Y-309.691
G1 X-31.105 Y-307.272
G1 X-34.088 Y-307.961
G1 X-32.535 Y-305.491
G1 X-35.734 Y-306.212
G1 X-33.786 Y-303.697
G1 X-37.215 Y-304.430
G1 X-34.912 Y-301.919
G1 X-38.663 Y-302.743
G1 X-35.737 Y-300.145
G1 X-40.205 Y-301.333
G1 X-36.046 Y-298.436
G1 X-41.392 Y-299.937
G1 X-36.419 Y-296.941
G1 X-42.123 Y-298.376
G1 X-37.112 Y-295.597
G1 X-42.759 Y-296.754
G1 X-37.806 Y-294.218
G1 X-43.369 Y-295.099
G1 X-38.425 Y-292.784
G1 X-43.920 Y-293.404
G1 X-38.993 Y-291.308
G1 X-44.394 Y-291.664
G1 X-39.525 Y-289.788
G1 X-44.813 Y-289.885
G1 X-39.993 Y-288.222
G1 X-45.199 Y-288.082
G1 X-40.362 Y-286.620
G1 X-45.535 Y-286.265
G1 X-40.642 Y-285.001
G1 X-45.723 Y-284.411
G1 X-40.936 Y-283.347
G1 X-45.815 Y-282.512
G1 X-41.186 Y-281.639
G1 X-45.843 Y-280.573
G1 X-41.349 Y-279.880
G1 X-45.780 Y-278.593
G1 X-41.443 Y-278.069
G1 X-45.674 Y-276.583
G1 X-41.409 Y-276.233
G1 X-45.524 Y-274.563
G1 X-41.247 Y-274.406
G1 X-45.259 Y-272.551
G1 X-41.024 Y-272.571
G1 X-44.879 Y-270.540
G1 X-40.736 Y-270.720
G1 X-44.482 Y-268.526
G1 X-40.294 Y-268.918
G1 X-44.037 Y-266.546
G1 X-39.745 Y-267.182
G1 X-43.562 Y-264.615
G1 X-39.096 Y-265.543
G1 X-42.999 Y-262.760
G1 X-38.414 Y-263.965
G1 X-42.121 Y-261.016
G1 X-37.867 Y-262.246
G1 X-41.098 Y-259.250
G1 X-37.231 Y-260.440
G1 X-40.055 Y-257.416
G1 X-36.394 Y-258.670
G1 X-38.980 Y-255.569
G1 X-35.405 Y-256.972
G1 X-37.821 Y-253.764
G1 X-34.328 Y-255.324
G1 X-36.466 Y-252.056
G1 X-33.221 Y-253.601
G1 X-35.068 Y-250.326
G1 X-31.952 Y-251.970
G1 X-33.699 Y-248.587
G1 X-30.543 Y-250.539
G1 X-32.267 Y-246.968
G1 X-29.117 Y-249.192
G1 X-30.764 Y-245.463
G1 X-27.670 Y-247.908
G1 X-29.262 Y-244.008
G1 X-26.173 Y-246.776
G1 X-27.728 Y-242.666
G1 X-24.676 Y-245.730
G1 X-26.121 Y-241.465
G1 X-23.184 Y-244.700
G1 X-24.433 Y-240.379
G1 X-21.664 Y-243.682
G1 X-22.708 Y-239.338
G1 X-20.085 Y-242.758
G1 X-20.981 Y-238.324
G1 X-18.468 Y-241.971
G1 X-19.186 Y-237.466
G1 X-16.844 Y-241.173
G1 X-17.313 Y-236.726
G1 X-15.169 Y-240.381
G1 X-15.391 Y-236.029
G1 X-13.428 Y-239.683
G1 X-13.427 Y-235.396
G1 X-11.637 Y-239.073
G1 X-11.449 Y-234.799
G1 X-9.818 Y-238.597
G1 X-9.478 Y-234.251
G1 X-8.007 Y-238.255
G1 X-7.523 Y-233.787
G1 X-6.221 Y-238.005
G1 X-5.590 Y-233.398
G1 X-4.470 Y-237.852
G1 X-3.681 Y-233.110
G1 X-2.752 Y-237.758
G1 X-1.783 Y-232.946
G1 X-1.047 Y-237.690
G1 X.119 Y-232.912
G1 X.669 Y-237.636
G1 X2.015 Y-232.871
G1 X2.355 Y-237.734
G1 X3.886 Y-232.912
G1 X4.013 Y-237.890
G1 X5.740 Y-233.109
G1 X5.686 Y-238.029
G1 X7.592 Y-233.272
G1 X7.303 Y-238.334
G1 X9.408 Y-233.409
G1 X8.825 Y-238.777
G1 X11.153 Y-233.693
G1 X10.322 Y-239.181
G1 X12.856 Y-234.089
G1 X11.809 Y-239.586
G1 X14.549 Y-234.469
G1 X13.227 Y-240.108
G1 X16.224 Y-234.787
G1 X14.528 Y-240.766
G1 X17.850 Y-235.117
G1 X15.744 Y-241.478
G1 X19.379 Y-235.623
G1 X16.977 Y-242.089
G1 X20.843 Y-236.266
G1 X18.230 Y-242.650
G1 X22.231 Y-237.083
G1 X19.549 Y-243.140
G1 X23.522 Y-238.176
G1 X21.048 Y-243.513
G1 X24.868 Y-239.350
G1 X22.635 Y-244.018
G1 X26.342 Y-240.492
G1 X24.189 Y-244.766
G1 X27.867 Y-241.673
G1 X25.723 Y-245.667
G1 X29.397 Y-242.937
G1 X27.256 Y-246.679
G1 X30.856 Y-244.428
G1 X28.940 Y-247.740
G1 X32.375 Y-246.023
G1 X30.626 Y-248.999
G1 X34.080 Y-247.442
G1 X31.929 Y-250.519
G1 X35.628 Y-248.919
G1 X33.160 Y-252.013
G1 X36.953 Y-250.586
G1 X34.509 Y-253.475
G1 X38.295 Y-252.268
G1 X35.711 Y-255.052
G1 X39.563 Y-254.000
G1 X36.829 Y-256.678
G1 X40.715 Y-255.814
G1 X37.921 Y-258.344
G1 X41.799 Y-257.688
G1 X38.937 Y-260.073
G1 X42.751 Y-259.667
G1 X39.960 Y-261.866
G1 X43.584 Y-261.777
G1 X40.993 Y-263.769
G1 X44.318 Y-264.034
G1 X42.013 Y-265.826
G1 X45.017 Y-266.411
G1 X42.914 Y-268.046
G1 X45.662 Y-268.879
G1 X43.661 Y-270.388
G1 X46.243 Y-271.406
G1 X44.225 Y-272.803
G1 X46.789 Y-273.928
G1 X44.543 Y-275.207
G1 X47.266 Y-276.393
G1 X44.648 Y-277.524
G1 X47.759 Y-278.729
G1 X44.475 Y-279.649
G1 X48.211 Y-280.887
G1 X44.128 Y-281.536
G1 X48.473 Y-282.884
G1 X43.807 Y-283.266
G1 X48.455 Y-284.791
G1 X43.627 Y-284.960
G1 X48.259 Y-286.673
G1 X43.487 Y-286.672
G1 X48.035 Y-288.556
G1 X43.237 Y-288.364
G1 X47.740 Y-290.423
G1 X42.924 Y-290.038
G1 X47.321 Y-292.270
G1 X42.596 Y-291.728
G1 X46.851 Y-294.116
G1 X42.178 Y-293.405
G1 X46.301 Y-295.949
G1 X41.700 Y-295.077
G1 X45.676 Y-297.769
G1 X41.154 Y-296.741
G1 X45.078 Y-299.589
G1 X40.465 Y-298.311
G1 X44.408 Y-301.351
G1 X39.742 Y-299.836
G1 X43.616 Y-303.046
G1 X39.023 Y-301.365
G1 X42.871 Y-304.746
G1 X38.168 Y-302.771
G1 X42.055 Y-306.371
G1 X37.304 Y-304.134
G1 X41.117 Y-307.909
G1 X36.462 Y-305.512
G1 X40.073 Y-309.392
G1 X35.600 Y-306.910
G1 X38.778 Y-310.772
G1 X34.776 Y-308.487
G1 X37.337 Y-312.184
G1 X33.816 Y-310.160
G1 X35.887 Y-313.716
G1 X32.622 Y-311.747
G1 X34.465 Y-315.311
G1 X31.259 Y-313.166
G1 X33.098 Y-316.904
G1 X29.809 Y-314.373
G1 X31.755 Y-318.409
G1 X28.361 Y-315.426
G1 X30.380 Y-319.769
G1 X26.959 Y-316.421
G1 X29.167 Y-321.190
G1 X25.505 Y-317.098
G1 X28.067 Y-322.572
G1 X24.085 Y-317.564
G1 X26.650 Y-323.410
G1 X22.941 Y-318.478
G1 X24.964 Y-323.958
G1 X21.817 Y-319.717
G1 X23.272 Y-324.697
G1 X20.455 Y-320.771
G1 X21.568 Y-325.539
G1 X18.952 Y-321.655
G1 X19.803 Y-326.330
G1 X17.383 Y-322.496
G1 X17.981 Y-327.074
G1 X15.747 Y-323.282
G1 X16.127 Y-327.796
G1 X14.054 Y-323.965
G1 X14.228 Y-328.436
G1 X12.322 Y-324.601
G1 X12.286 Y-329.004
G1 X10.545 Y-325.173
G1 X10.286 Y-329.465
G1 X8.715 Y-325.719
G1 X8.209 Y-329.809
G1 X6.805 Y-326.248
G1 X6.054 Y-330.077
G1 X4.801 Y-326.706
G1 X3.836 Y-330.297
G1 X2.722 Y-327.043
G1 X1.566 Y-330.437
G1 X.586 Y-327.274
G1 X-.758 Y-330.444
G1 X-1.624 Y-327.438
G1 X-3.128 Y-330.389
G1 X-3.874 Y-327.451
G1 X-5.516 Y-330.259
G1 X-6.130 Y-327.318
G1 X-7.907 Y-330.006
G1 X-8.394 Y-327.084
G1 X-10.301 Y-329.605
G1 X-10.685 Y-326.764
G1 X-12.707 Y-329.074
G1 X-13.002 Y-326.332
G1 X-15.122 Y-328.424
G1 X-15.329 Y-325.767
G1 X-17.535 Y-327.652
G1 X-17.654 Y-325.069
G1 X-19.934 Y-326.749
G1 X-19.971 Y-324.242
G1 X-22.311 Y-325.713
G1 X-22.274 Y-323.282
G1 X-24.663 Y-324.566
G1 X-24.529 Y-322.177
G1 X-26.967 Y-323.299
G1 X-26.730 Y-320.943
G1 X-29.214 Y-321.924
G1 X-28.855 Y-319.583
G1 X-31.394 Y-320.456
G1 X-30.880 Y-318.106
G1 X-33.494 Y-318.918
G1 X-32.776 Y-316.528
G1 X-35.505 Y-317.341
G1 X-34.507 Y-314.870
G1 X-37.410 Y-315.755
G1 X-36.050 Y-313.169
G1 X-39.174 Y-314.145
G1 X-37.445 Y-311.470
G1 X-40.856 Y-312.603
G1 X-38.597 Y-309.766
G1 X-42.504 Y-311.242
G1 X-39.389 Y-308.091
G1 X-43.950 Y-309.951
G1 X-40.046 Y-306.553
G1 X-45.047 Y-308.526
G1 X-40.878 Y-305.186
G1 X-45.986 Y-307.008
G1 X-41.776 Y-303.844
G1 X-46.891 Y-305.456
G1 X-42.618 Y-302.456
G1 X-47.723 Y-303.848
G1 X-43.450 Y-301.035
G1 X-48.496 Y-302.185
G1 X-44.258 Y-299.566
G1 X-49.216 Y-300.465
G1 X-45.035 Y-298.041
G1 X-49.938 Y-298.726
G1 X-45.703 Y-296.461
G1 X-50.613 Y-296.964
G1 X-46.300 Y-294.852
G1 X-51.204 Y-295.167
G1 X-46.863 Y-293.219
G1 X-51.726 Y-293.337
G1 X-47.379 Y-291.556
G1 X-52.178 Y-291.473
G1 X-47.845 Y-289.859
G1 X-52.565 Y-289.577
G1 X-48.253 Y-288.127
G1 X-52.900 Y-287.657
G1 X-48.583 Y-286.368
G1 X-53.143 Y-285.706
G1 X-48.874 Y-284.578
G1 X-53.323 Y-283.729
G1 X-49.091 Y-282.757
G1 X-53.437 Y-281.730
G1 X-49.232 Y-280.913
G1 X-53.406 Y-279.695
G1 X-49.371 Y-279.012
G1 X-53.311 Y-277.614
G1 X-49.420 Y-277.060
G1 X-53.194 Y-275.507
G1 X-49.328 Y-275.099
G1 X-52.998 Y-273.395
G1 X-49.149 Y-273.135
G1 X-52.709 Y-271.284
G1 X-48.896 Y-271.165
G1 X-52.364 Y-269.176
G1 X-48.535 Y-269.216
G1 X-51.959 Y-267.089
G1 X-48.077 Y-267.307
G1 X-51.395 Y-265.037
G1 X-47.610 Y-265.371
G1 X-50.798 Y-262.982
G1 X-47.015 Y-263.476
G1 X-50.284 Y-260.942
G1 X-46.227 Y-261.750
G1 X-49.784 Y-258.995
G1 X-45.363 Y-260.188
G1 X-49.026 Y-257.213
G1 X-44.651 Y-258.565
G1 X-47.929 Y-255.521
G1 X-44.063 Y-256.720
G1 X-46.833 Y-253.716
G1 X-43.248 Y-254.887
G1 X-45.777 Y-251.845
G1 X-42.231 Y-253.170
G1 X-44.612 Y-250.034
G1 X-41.167 Y-251.459
G1 X-43.372 Y-248.255
G1 X-40.021 Y-249.786
G1 X-42.009 Y-246.536
G1 X-38.817 Y-248.101
G1 X-40.522 Y-244.857
G1 X-37.527 Y-246.400
G1 X-38.983 Y-243.171
G1 X-36.103 Y-244.779
G1 X-37.371 Y-241.529
G1 X-34.589 Y-243.222
G1 X-35.693 Y-239.940
G1 X-32.995 Y-241.739
G1 X-33.970 Y-238.406
G1 X-31.330 Y-240.359
G1 X-32.195 Y-236.955
G1 X-29.619 Y-239.062
G1 X-30.282 Y-235.659
G1 X-27.871 Y-237.720
G1 X-28.314 Y-234.383
G1 X-26.019 Y-236.490
G1 X-26.375 Y-233.093
G1 X-24.107 Y-235.487
G1 X-24.402 Y-231.949
G1 X-22.205 Y-234.541
G1 X-22.311 Y-231.018
G1 X-20.273 Y-233.521
G1 X-20.141 Y-230.142
G1 X-18.246 Y-232.581
G1 X-18.044 Y-229.142
G1 X-16.199 Y-231.995
G1 X-16.035 Y-228.210
G1 X-14.244 Y-231.595
G1 X-14.142 Y-227.340
G1 X-12.413 Y-231.372
G1 X-12.311 Y-226.666
G1 X-10.690 Y-231.140
G1 X-10.531 Y-226.097
G1 X-9.037 Y-230.959
G1 X-8.790 Y-225.620
G1 X-7.441 Y-230.820
G1 X-7.030 Y-225.385
G1 X-5.851 Y-230.550
G1 X-5.278 Y-225.109
G1 X-4.266 Y-230.431
G1 X-3.544 Y-224.868
G1 X-2.707 Y-230.388
G1 X-1.813 Y-224.774
G1 X-1.148 Y-230.302
G1 X-.060 Y-224.833
G1 X.451 Y-230.166
G1 X1.728 Y-224.949
G1 X2.096 Y-230.082
G1 X3.547 Y-225.085
G1 X3.770 Y-230.093
G1 X5.388 Y-225.284
G1 X5.473 Y-230.161
G1 X7.251 Y-225.564
G1 X7.213 Y-230.278
G1 X9.141 Y-225.905
G1 X8.984 Y-230.468
G1 X11.045 Y-226.108
G1 X10.646 Y-230.910
G1 X12.890 Y-226.286
G1 X12.190 Y-231.461
G1 X14.637 Y-226.683
G1 X13.748 Y-231.890
G1 X16.359 Y-227.133
G1 X15.280 Y-232.365
G1 X18.099 Y-227.383
G1 X16.624 Y-233.095
G1 X19.746 Y-227.696
G1 X17.897 Y-233.807
G1 X21.194 Y-228.533
G1 X19.407 Y-234.108
G1 X22.645 Y-229.624
G1 X21.134 Y-234.356
G1 X24.276 Y-230.600
G1 X22.841 Y-234.918
G1 X25.982 Y-231.585
G1 X24.539 Y-235.650
G1 X27.726 Y-232.584
G1 X26.193 Y-236.522
G1 X29.500 Y-233.509
G1 X27.688 Y-237.553
G1 X31.200 Y-234.460
G1 X29.094 Y-238.611
G1 X32.826 Y-235.434
G1 X30.412 Y-239.690
G1 X34.309 Y-236.569
G1 X31.798 Y-240.699
G1 X35.753 Y-237.783
G1 X33.183 Y-241.753
G1 X37.237 Y-238.945
G1 X34.419 Y-242.926
G1 X38.793 Y-239.926
G1 X35.354 Y-244.228
G1 X40.333 Y-240.768
G1 X36.050 Y-245.563
G1 X41.612 Y-241.762
G1 X36.855 Y-246.718
G1 X42.449 Y-243.176
G1 X38.097 Y-247.574
G1 X42.846 Y-245.250
G1 X40.141 Y-248.342
G1 X43.813 Y-247.286
G1 X41.929 Y-249.769
G1 X45.440 Y-248.890
G1 X42.814 Y-251.599
G1 X46.771 Y-250.527
G1 X43.721 Y-253.280
G1 X47.804 Y-252.326
G1 X44.812 Y-254.899
G1 X48.911 Y-254.085
G1 X45.681 Y-256.598
G1 X49.958 Y-255.829
G1 X46.434 Y-258.291
G1 X50.632 Y-257.793
G1 X47.509 Y-259.986
G1 X51.268 Y-259.924
G1 X48.603 Y-261.869
G1 X52.053 Y-262.096
G1 X49.431 Y-263.909
G1 X52.700 Y-264.376
G1 X50.264 Y-266.043
G1 X53.210 Y-266.800
G1 X51.105 Y-268.328
G1 X53.717 Y-269.326
G1 X51.776 Y-270.751
G1 X54.196 Y-271.906
G1 X52.252 Y-273.239
G1 X54.686 Y-274.463
G1 X52.465 Y-275.687
G1 X55.102 Y-276.947
G1 X52.505 Y-278.032
G1 X55.553 Y-279.293
G1 X52.285 Y-280.174
G1 X56.081 Y-281.425
G1 X51.808 Y-282.020
G1 X56.260 Y-283.380
G1 X51.545 Y-283.753
G1 X56.109 Y-285.282
G1 X51.490 Y-285.519
G1 X55.821 Y-287.211
G1 X51.436 Y-287.350
G1 X55.499 Y-289.183
G1 X51.274 Y-289.216
G1 X55.156 Y-291.181
G1 X50.990 Y-291.083
G1 X54.754 Y-293.179
G1 X50.623 Y-292.943
G1 X54.310 Y-295.169
G1 X50.162 Y-294.774
G1 X53.790 Y-297.134
G1 X49.645 Y-296.585
G1 X53.178 Y-299.075
G1 X49.082 Y-298.391
G1 X52.494 Y-300.999
G1 X48.453 Y-300.185
G1 X51.739 Y-302.905
G1 X47.756 Y-301.962
G1 X50.929 Y-304.792
G1 X46.982 Y-303.707
G1 X50.082 Y-306.656
G1 X46.125 Y-305.395
G1 X49.183 Y-308.476
G1 X45.213 Y-307.029
G1 X47.440 Y-310.042
G1 X44.680 Y-309.424
G1 X46.477 Y-312.219
G1 X43.263 Y-311.029
G1 X46.099 Y-314.429
G1 X41.579 Y-311.844
G1 X44.730 Y-315.735
G1 X40.789 Y-313.488
G1 X43.205 Y-317.113
G1 X39.833 Y-315.264
G1 X41.656 Y-318.653
G1 X38.611 Y-316.988
G1 X40.156 Y-320.310
G1 X37.178 Y-318.527
G1 X38.654 Y-321.942
G1 X35.668 Y-319.931
G1 X37.159 Y-323.514
G1 X34.127 Y-321.197
G1 X35.642 Y-324.979
G1 X32.593 Y-322.381
G1 X34.120 Y-326.359
G1 X31.059 Y-323.466
G1 X32.617 Y-327.673
G1 X29.529 Y-324.432
G1 X31.236 Y-329.006
G1 X27.993 Y-325.144
G1 X30.032 Y-330.370
G1 X26.482 Y-325.562
G1 X28.790 Y-331.483
G1 X25.117 Y-326.058
G1 X27.392 Y-332.272
G1 X23.887 Y-326.791
G1 X25.783 Y-332.754
G1 X22.708 Y-327.824
G1 X24.004 Y-333.148
G1 X21.388 Y-328.995
G1 X22.186 Y-333.753
G1 X19.838 Y-329.958
G1 X20.334 Y-334.452
G1 X18.160 Y-330.760
G1 X18.438 Y-335.137
G1 X16.416 Y-331.477
G1 X16.507 Y-335.784
G1 X14.624 Y-332.116
G1 X14.531 Y-336.354
G1 X12.791 Y-332.713
G1 X12.498 Y-336.832
G1 X10.903 Y-333.285
G1 X10.412 Y-337.253
G1 X8.954 Y-333.789
G1 X8.271 Y-337.597
G1 X6.945 Y-334.235
G1 X6.085 Y-337.888
G1 X4.884 Y-334.586
G1 X3.850 Y-338.077
G1 X2.765 Y-334.885
G1 X1.564 Y-338.183
G1 X.587 Y-335.104
G1 X-.764 Y-338.222
G1 X-1.634 Y-335.213
G1 X-3.135 Y-338.128
G1 X-3.920 Y-335.269
G1 X-5.545 Y-337.989
G1 X-6.229 Y-335.174
G1 X-7.967 Y-337.762
G1 X-8.547 Y-334.966
G1 X-10.395 Y-337.417
G1 X-10.882 Y-334.671
G1 X-12.828 Y-336.988
G1 X-13.209 Y-334.253
G1 X-15.250 Y-336.454
G1 X-15.527 Y-333.733
G1 X-17.656 Y-335.814
G1 X-17.830 Y-333.112
G1 X-20.042 Y-335.029
G1 X-20.153 Y-332.416
G1 X-22.424 Y-334.105
G1 X-22.503 Y-331.621
G1 X-24.812 Y-333.082
G1 X-24.842 Y-330.686
G1 X-27.188 Y-331.969
G1 X-27.138 Y-329.610
G1 X-29.531 Y-330.774
G1 X-29.365 Y-328.408
G1 X-31.815 Y-329.485
G1 X-31.521 Y-327.107
G1 X-34.044 Y-328.155
G1 X-33.546 Y-325.694
G1 X-36.185 Y-326.785
G1 X-35.432 Y-324.211
G1 X-38.210 Y-325.357
G1 X-37.209 Y-322.696
G1 X-40.132 Y-323.890
G1 X-38.865 Y-321.149
G1 X-41.975 Y-322.446
G1 X-40.339 Y-319.564
G1 X-43.719 Y-321.048
G1 X-41.621 Y-317.982
G1 X-45.566 Y-320.022
G1 X-42.323 Y-316.317
G1 X-47.161 Y-319.080
G1 X-42.892 Y-314.832
G1 X-48.250 Y-317.831
G1 X-43.830 Y-313.676
G1 X-49.291 Y-316.547
G1 X-44.746 Y-312.505
G1 X-50.306 Y-315.247
G1 X-45.614 Y-311.306
G1 X-51.236 Y-313.884
G1 X-46.505 Y-310.109
G1 X-52.106 Y-312.463
G1 X-47.408 Y-308.891
G1 X-52.976 Y-311.025
G1 X-48.250 Y-307.619
G1 X-53.843 Y-309.578
G1 X-49.024 Y-306.304
G1 X-54.564 Y-308.028
G1 X-49.895 Y-304.992
G1 X-55.236 Y-306.403
G1 X-50.783 Y-303.615
G1 X-55.986 Y-304.778
G1 X-51.525 Y-302.147
G1 X-56.738 Y-303.149
G1 X-52.173 Y-300.643
G1 X-57.466 Y-301.520
G1 X-52.740 Y-299.125
G1 X-58.094 Y-299.859
G1 X-53.314 Y-297.607
G1 X-58.605 Y-298.140
G1 X-53.926 Y-296.064
G1 X-59.075 Y-296.375
G1 X-54.502 Y-294.469
G1 X-59.521 Y-294.575
G1 X-55.014 Y-292.825
G1 X-59.925 Y-292.739
G1 X-55.473 Y-291.140
G1 X-60.284 Y-290.871
G1 X-55.876 Y-289.419
G1 X-60.580 Y-288.970
G1 X-56.236 Y-287.661
G1 X-60.826 Y-287.039
G1 X-56.534 Y-285.869
G1 X-60.983 Y-285.068
G1 X-56.809 Y-284.033
G1 X-61.070 Y-283.053
G1 X-57.033 Y-282.143
G1 X-61.137 Y-281.006
G1 X-57.148 Y-280.224
G1 X-61.150 Y-278.943
G1 X-57.182 Y-278.290
G1 X-61.053 Y-276.859
G1 X-57.186 Y-276.320
G1 X-60.813 Y-274.733
G1 X-57.184 Y-274.270
G1 X-60.537 Y-272.552
G1 X-57.057 Y-272.175
G1 X-60.214 Y-270.339
G1 X-56.810 Y-270.062
G1 X-59.796 Y-268.113
G1 X-56.486 Y-267.926
G1 X-59.344 Y-265.876
G1 X-56.029 Y-265.815
G1 X-58.863 Y-263.660
G1 X-55.450 Y-263.768
G1 X-58.364 Y-261.494
G1 X-54.765 Y-261.823
G1 X-57.712 Y-259.410
G1 X-54.099 Y-259.884
G1 X-57.035 Y-257.355
G1 X-53.335 Y-258.020
G1 X-56.478 Y-255.331
G1 X-52.397 Y-256.374
G1 X-55.734 Y-253.471
G1 X-51.573 Y-254.723
G1 X-54.715 Y-251.719
G1 X-50.862 Y-252.921
G1 X-53.605 Y-249.925
G1 X-50.040 Y-251.070
G1 X-52.552 Y-248.055
G1 X-49.018 Y-249.334
G1 X-51.505 Y-246.205
G1 X-47.902 Y-247.710
G1 X-50.320 Y-244.462
G1 X-46.805 Y-246.058
G1 X-49.002 Y-242.776
G1 X-45.673 Y-244.361
G1 X-47.550 Y-241.115
G1 X-44.465 Y-242.611
G1 X-45.986 Y-239.446
G1 X-43.134 Y-240.840
G1 X-44.332 Y-237.761
G1 X-41.664 Y-239.090
G1 X-42.636 Y-236.057
G1 X-40.058 Y-237.440
G1 X-40.903 Y-234.384
G1 X-38.365 Y-235.894
G1 X-39.091 Y-232.801
G1 X-36.623 Y-234.396
G1 X-37.411 Y-231.150
G1 X-34.798 Y-233.236
G1 X-35.715 Y-229.692
G1 X-33.051 Y-232.135
G1 X-33.775 Y-228.563
G1 X-31.352 Y-230.763
G1 X-31.994 Y-227.188
G1 X-29.509 Y-229.833
G1 X-30.389 Y-225.798
G1 X-27.727 Y-229.231
G1 X-28.721 Y-224.763
G1 X-26.101 Y-228.468
G1 X-26.944 Y-223.948
G1 X-24.494 Y-227.572
G1 X-24.975 Y-223.332
G1 X-22.798 Y-226.485
G1 X-22.954 Y-222.585
G1 X-20.940 Y-225.587
G1 X-20.996 Y-221.683
G1 X-19.038 Y-225.010
G1 X-19.088 Y-220.851
G1 X-17.192 Y-224.546
G1 X-17.197 Y-220.160
G1 X-15.396 Y-224.098
G1 X-15.307 Y-219.583
G1 X-13.621 Y-223.668
G1 X-13.448 Y-219.016
G1 X-11.872 Y-223.365
G1 X-11.629 Y-218.494
G1 X-10.169 Y-223.150
G1 X-9.832 Y-218.088
G1 X-8.502 Y-222.938
G1 X-8.031 Y-217.805
G1 X-6.842 Y-222.707
G1 X-6.214 Y-217.611
G1 X-5.167 Y-222.484
G1 X-4.384 Y-217.455
G1 X-3.479 Y-222.326
G1 X-2.552 Y-217.322
G1 X-1.792 Y-222.248
G1 X-.724 Y-217.235
G1 X-.113 Y-222.226
G1 X1.089 Y-217.162
G1 X1.540 Y-222.292
G1 X2.890 Y-217.218
G1 X3.200 Y-222.328
G1 X4.706 Y-217.403
G1 X4.903 Y-222.339
G1 X6.551 Y-217.628
G1 X6.637 Y-222.418
G1 X8.415 Y-217.835
G1 X8.358 Y-222.624
G1 X10.274 Y-218.135
G1 X10.096 Y-222.847
G1 X12.142 Y-218.525
G1 X11.864 Y-223.099
G1 X14.026 Y-218.783
G1 X13.527 Y-223.578
G1 X15.850 Y-219.116
G1 X15.143 Y-224.065
G1 X17.618 Y-219.593
G1 X16.774 Y-224.505
G1 X19.403 Y-219.883
G1 X18.234 Y-225.190
G1 X21.065 Y-220.410
G1 X19.738 Y-225.710
G1 X22.625 Y-221.486
G1 X21.602 Y-225.876
G1 X24.383 Y-222.537
G1 X23.568 Y-226.312
G1 X26.301 Y-223.514
G1 X25.512 Y-227.028
G1 X28.258 Y-224.576
G1 X27.491 Y-227.860
G1 X30.261 Y-225.640
G1 X29.404 Y-228.858
G1 X32.257 Y-226.697
G1 X31.205 Y-229.976
G1 X34.255 Y-227.572
G1 X32.689 Y-231.260
G1 X36.096 Y-228.410
G1 X33.987 Y-232.512
G1 X37.642 Y-229.563
G1 X35.484 Y-233.521
G1 X39.104 Y-230.929
G1 X37.134 Y-234.519
G1 X40.664 Y-232.288
G1 X38.705 Y-235.700
G1 X42.241 Y-233.671
G1 X40.206 Y-236.987
G1 X43.768 Y-235.135
G1 X41.697 Y-238.325
G1 X45.268 Y-236.660
G1 X43.153 Y-239.734
G1 X46.755 Y-238.210
G1 X44.524 Y-241.219
G1 X48.278 Y-239.670
G1 X45.660 Y-242.781
G1 X49.745 Y-241.049
G1 X46.607 Y-244.326
G1 X50.972 Y-242.529
G1 X47.642 Y-245.762
G1 X51.943 Y-244.249
G1 X48.940 Y-247.161
G1 X52.607 Y-246.484
G1 X50.833 Y-248.707
G1 X53.534 Y-248.997
G1 X52.735 Y-250.766
G1 X55.182 Y-251.171
G1 X53.625 Y-253.110
G1 X56.824 Y-253.022
G1 X54.019 Y-255.234
G1 X57.991 Y-254.821
G1 X54.564 Y-257.088
G1 X58.776 Y-256.716
G1 X55.352 Y-258.854
G1 X59.303 Y-258.805
G1 X56.369 Y-260.714
G1 X59.922 Y-260.986
G1 X57.228 Y-262.744
G1 X60.523 Y-263.255
G1 X57.996 Y-264.887
G1 X61.004 Y-265.649
G1 X58.771 Y-267.161
G1 X61.534 Y-268.102
G1 X59.336 Y-269.523
G1 X61.971 Y-270.605
G1 X59.811 Y-271.939
G1 X62.435 Y-273.093
G1 X60.053 Y-274.329
G1 X62.985 Y-275.462
G1 X59.988 Y-276.554
G1 X63.526 Y-277.647
G1 X59.741 Y-278.549
G1 X64.008 Y-279.639
G1 X59.403 Y-280.327
G1 X64.238 Y-281.500
G1 X59.203 Y-282.001
G1 X64.172 Y-283.322
G1 X59.201 Y-283.693
G1 X63.953 Y-285.172
G1 X59.245 Y-285.453
G1 X63.676 Y-287.076
G1 X59.232 Y-287.279
G1 X63.366 Y-289.032
G1 X59.126 Y-289.156
G1 X63.020 Y-291.028
G1 X58.925 Y-291.064
G1 X62.667 Y-293.047
G1 X58.602 Y-292.963
G1 X62.273 Y-295.060
G1 X58.198 Y-294.842
G1 X61.807 Y-297.056
G1 X57.741 Y-296.709
G1 X61.224 Y-299.034
G1 X57.269 Y-298.603
G1 X60.671 Y-301.026
G1 X56.649 Y-300.427
G1 X60.056 Y-302.975
G1 X55.987 Y-302.214
G1 X59.230 Y-304.867
G1 X55.387 Y-304.093
G1 X58.398 Y-306.800
G1 X54.648 Y-305.943
G1 X57.573 Y-308.737
G1 X53.789 Y-307.715
G1 X56.672 Y-310.622
G1 X52.898 Y-309.461
G1 X55.769 Y-312.484
G1 X51.923 Y-311.119
G1 X54.884 Y-314.303
G1 X50.880 Y-312.654
G1 X53.552 Y-315.901
G1 X50.066 Y-314.532
G1 X52.726 Y-317.818
G1 X48.753 Y-315.847
G1 X51.982 Y-319.589
G1 X47.474 Y-316.948
G1 X50.534 Y-320.838
G1 X46.702 Y-318.665
G1 X49.112 Y-322.284
G1 X45.649 Y-320.325
G1 X47.575 Y-323.778
G1 X44.454 Y-322.039
G1 X46.035 Y-325.374
G1 X43.069 Y-323.653
G1 X44.508 Y-327.002
G1 X41.566 Y-325.130
G1 X42.904 Y-328.544
G1 X40.037 Y-326.585
G1 X41.245 Y-330.034
G1 X38.455 Y-327.991
G1 X39.625 Y-331.531
G1 X36.806 Y-329.221
G1 X38.043 Y-332.973
G1 X35.156 Y-330.299
G1 X36.453 Y-334.289
G1 X33.548 Y-331.319
G1 X34.859 Y-335.510
G1 X31.961 Y-332.272
G1 X33.271 Y-336.657
G1 X30.389 Y-333.152
G1 X31.976 Y-338.059
G1 X28.769 Y-333.504
G1 X30.776 Y-339.316
G1 X27.277 Y-333.776
G1 X29.379 Y-340.080
G1 X26.007 Y-334.443
G1 X27.925 Y-340.743
G1 X24.741 Y-335.156
G1 X26.293 Y-341.137
G1 X23.488 Y-336.134
G1 X24.424 Y-341.349
G1 X22.084 Y-337.374
G1 X22.452 Y-341.794
G1 X20.391 Y-338.425
G1 X20.466 Y-342.481
G1 X18.537 Y-339.168
G1 X18.505 Y-343.232
G1 X16.659 Y-339.708
G1 X16.565 Y-343.917
G1 X14.808 Y-340.168
G1 X14.594 Y-344.433
G1 X12.958 Y-340.678
G1 X12.571 Y-344.841
G1 X11.062 Y-341.191
G1 X10.474 Y-345.152
G1 X9.091 Y-341.702
G1 X8.318 Y-345.441
G1 X7.047 Y-342.117
G1 X6.114 Y-345.688
G1 X4.950 Y-342.446
G1 X3.868 Y-345.863
G1 X2.804 Y-342.706
G1 X1.575 Y-345.948
G1 X.602 Y-342.909
G1 X-.775 Y-345.931
G1 X-1.671 Y-343.058
G1 X-3.173 Y-345.867
G1 X-3.989 Y-343.085
G1 X-5.605 Y-345.722
G1 X-6.344 Y-343.017
G1 X-8.059 Y-345.507
G1 X-8.713 Y-342.835
G1 X-10.521 Y-345.205
G1 X-11.089 Y-342.555
G1 X-12.985 Y-344.808
G1 X-13.468 Y-342.182
G1 X-15.446 Y-344.323
G1 X-15.841 Y-341.709
G1 X-17.897 Y-343.734
G1 X-18.211 Y-341.148
G1 X-20.338 Y-343.039
G1 X-20.581 Y-340.499
G1 X-22.770 Y-342.237
G1 X-22.953 Y-339.756
G1 X-25.194 Y-341.347
G1 X-25.304 Y-338.900
G1 X-27.596 Y-340.357
G1 X-27.636 Y-337.946
G1 X-29.969 Y-339.259
G1 X-29.951 Y-336.898
G1 X-32.320 Y-338.081
G1 X-32.217 Y-335.735
G1 X-34.635 Y-336.856
G1 X-34.388 Y-334.457
G1 X-36.889 Y-335.601
G1 X-36.432 Y-333.090
G1 X-39.048 Y-334.298
G1 X-38.364 Y-331.675
G1 X-41.106 Y-332.943
G1 X-40.199 Y-330.231
G1 X-43.077 Y-331.568
G1 X-41.910 Y-328.749
G1 X-44.973 Y-330.225
G1 X-43.445 Y-327.233
G1 X-46.895 Y-329.173
G1 X-44.512 Y-325.626
G1 X-48.696 Y-328.355
G1 X-45.224 Y-324.076
G1 X-50.094 Y-327.363
G1 X-46.090 Y-322.823
G1 X-51.247 Y-326.192
G1 X-47.112 Y-321.730
G1 X-52.375 Y-325.001
G1 X-48.097 Y-320.612
G1 X-53.459 Y-323.777
G1 X-49.066 Y-319.483
G1 X-54.428 Y-322.441
G1 X-50.122 Y-318.382
G1 X-55.379 Y-321.050
G1 X-51.181 Y-317.230
G1 X-56.443 Y-319.732
G1 X-52.060 Y-315.962
G1 X-57.481 Y-318.417
G1 X-52.874 Y-314.679
G1 X-58.412 Y-317.038
G1 X-53.729 Y-313.421
G1 X-59.292 Y-315.622
G1 X-54.577 Y-312.147
G1 X-60.124 Y-314.162
G1 X-55.422 Y-310.850
G1 X-60.952 Y-312.687
G1 X-56.212 Y-309.510
G1 X-61.759 Y-311.195
G1 X-56.956 Y-308.142
G1 X-62.536 Y-309.686
G1 X-57.659 Y-306.753
G1 X-63.289 Y-308.166
G1 X-58.312 Y-305.345
G1 X-63.956 Y-306.604
G1 X-58.983 Y-303.931
G1 X-64.563 Y-304.999
G1 X-59.657 Y-302.489
G1 X-65.117 Y-303.345
G1 X-60.327 Y-301.007
G1 X-65.667 Y-301.662
G1 X-60.938 Y-299.476
G1 X-66.222 Y-299.966
G1 X-61.467 Y-297.909
G1 X-66.754 Y-298.260
G1 X-61.933 Y-296.326
G1 X-67.262 Y-296.554
G1 X-62.331 Y-294.737
G1 X-67.666 Y-294.822
G1 X-62.751 Y-293.141
G1 X-68.057 Y-293.080
G1 X-63.099 Y-291.527
G1 X-68.351 Y-291.309
G1 X-63.461 Y-289.893
G1 X-68.623 Y-289.518
G1 X-63.760 Y-288.234
G1 X-68.909 Y-287.729
G1 X-63.952 Y-286.573
G1 X-68.924 Y-285.874
G1 X-64.337 Y-284.842
G1 X-68.910 Y-283.936
G1 X-64.664 Y-283.009
G1 X-68.974 Y-281.948
G1 X-64.809 Y-281.134
G1 X-68.934 Y-279.920
G1 X-64.946 Y-279.202
G1 X-68.856 Y-277.847
G1 X-65.000 Y-277.225
G1 X-68.752 Y-275.745
G1 X-64.954 Y-275.226
G1 X-68.605 Y-273.630
G1 X-64.823 Y-273.223
G1 X-68.392 Y-271.513
G1 X-64.628 Y-271.215
G1 X-68.040 Y-269.386
G1 X-64.431 Y-269.156
G1 X-67.598 Y-267.221
G1 X-64.172 Y-267.041
G1 X-67.106 Y-265.017
G1 X-63.805 Y-264.899
G1 X-66.538 Y-262.791
G1 X-63.348 Y-262.734
G1 X-65.934 Y-260.550
G1 X-62.772 Y-260.588
G1 X-65.291 Y-258.322
G1 X-62.091 Y-258.489
G1 X-64.577 Y-256.130
G1 X-61.345 Y-256.428
G1 X-63.827 Y-253.974
G1 X-60.514 Y-254.436
G1 X-63.026 Y-251.872
G1 X-59.626 Y-252.511
G1 X-62.328 Y-249.805
G1 X-58.594 Y-250.797
G1 X-61.602 Y-247.869
G1 X-57.575 Y-249.206
G1 X-60.579 Y-246.120
G1 X-56.740 Y-247.463
G1 X-59.512 Y-244.353
G1 X-55.810 Y-245.731
G1 X-58.442 Y-242.569
G1 X-54.772 Y-244.069
G1 X-57.344 Y-240.814
G1 X-53.675 Y-242.465
G1 X-56.269 Y-239.081
G1 X-52.507 Y-240.979
G1 X-55.159 Y-237.427
G1 X-51.335 Y-239.553
G1 X-53.908 Y-235.894
G1 X-50.209 Y-238.061
G1 X-52.528 Y-234.415
G1 X-49.055 Y-236.503
G1 X-51.034 Y-232.943
G1 X-47.819 Y-234.895
G1 X-49.402 Y-231.474
G1 X-46.479 Y-233.216
G1 X-47.899 Y-229.835
G1 X-44.930 Y-231.824
G1 X-46.432 Y-228.252
G1 X-43.366 Y-230.578
G1 X-44.878 Y-226.835
G1 X-41.852 Y-229.305
G1 X-43.669 Y-225.189
G1 X-40.209 Y-228.590
G1 X-42.347 Y-223.922
G1 X-38.798 Y-227.716
G1 X-40.498 Y-223.225
G1 X-37.578 Y-226.140
G1 X-38.540 Y-222.305
G1 X-36.030 Y-224.623
G1 X-36.612 Y-221.121
G1 X-34.232 Y-223.391
G1 X-34.681 Y-219.915
G1 X-32.361 Y-222.306
G1 X-32.758 Y-218.746
G1 X-30.472 Y-221.343
G1 X-30.903 Y-217.583
G1 X-28.600 Y-220.574
G1 X-29.073 Y-216.548
G1 X-26.788 Y-219.860
G1 X-27.219 Y-215.671
G1 X-25.013 Y-219.123
G1 X-25.385 Y-214.819
G1 X-23.241 Y-218.498
G1 X-23.593 Y-213.995
G1 X-21.500 Y-217.989
G1 X-21.793 Y-213.315
G1 X-19.793 Y-217.455
G1 X-19.913 Y-212.833
G1 X-18.064 Y-216.799
G1 X-18.001 Y-212.326
G1 X-16.276 Y-216.252
G1 X-16.118 Y-211.743
G1 X-14.487 Y-215.899
G1 X-14.318 Y-211.102
G1 X-12.763 Y-215.745
G1 X-12.571 Y-210.585
G1 X-11.115 Y-215.588
G1 X-10.841 Y-210.210
G1 X-9.504 Y-215.386
G1 X-9.141 Y-209.838
G1 X-7.924 Y-215.275
G1 X-7.438 Y-209.632
G1 X-6.353 Y-215.081
G1 X-5.712 Y-209.526
G1 X-4.758 Y-214.862
G1 X-3.933 Y-209.566
G1 X-3.095 Y-214.572
G1 X-2.088 Y-209.640
G1 X-1.351 Y-214.329
G1 X-.193 Y-209.670
G1 X.436 Y-214.225
G1 X1.724 Y-209.698
G1 X2.236 Y-214.223
G1 X3.644 Y-209.748
G1 X4.030 Y-214.301
G1 X5.559 Y-209.850
G1 X5.818 Y-214.426
G1 X7.465 Y-209.996
G1 X7.593 Y-214.608
G1 X9.360 Y-210.193
G1 X9.356 Y-214.836
G1 X11.242 Y-210.431
G1 X11.100 Y-215.117
G1 X13.106 Y-210.726
G1 X12.831 Y-215.435
G1 X14.955 Y-210.984
G1 X14.490 Y-215.873
G1 X16.754 Y-211.327
G1 X16.126 Y-216.303
G1 X18.517 Y-211.803
G1 X17.790 Y-216.691
G1 X20.308 Y-212.059
G1 X19.279 Y-217.351
G1 X21.984 Y-212.526
G1 X20.796 Y-217.861
G1 X23.565 Y-213.546
G1 X22.658 Y-217.993
G1 X25.333 Y-214.604
G1 X24.689 Y-218.324
G1 X27.289 Y-215.621
G1 X26.776 Y-218.927
G1 X29.338 Y-216.755
G1 X28.979 Y-219.660
G1 X31.495 Y-217.910
G1 X31.184 Y-220.603
G1 X33.700 Y-219.066
G1 X33.313 Y-221.723
G1 X35.889 Y-220.227
G1 X35.326 Y-222.962
G1 X38.082 Y-221.143
G1 X36.937 Y-224.393
G1 X40.076 Y-221.990
G1 X38.306 Y-225.765
G1 X41.717 Y-223.187
G1 X39.904 Y-226.844
G1 X43.286 Y-224.584
G1 X41.645 Y-227.921
G1 X44.926 Y-226.022
G1 X43.357 Y-229.153
G1 X46.589 Y-227.516
G1 X45.041 Y-230.499
G1 X48.329 Y-228.909
G1 X46.492 Y-231.992
G1 X50.039 Y-230.188
G1 X47.702 Y-233.517
G1 X51.572 Y-231.495
G1 X48.867 Y-234.954
G1 X53.013 Y-232.784
G1 X49.936 Y-236.361
G1 X54.209 Y-234.266
G1 X51.193 Y-237.659
G1 X55.272 Y-235.978
G1 X52.664 Y-238.984
G1 X56.427 Y-237.777
G1 X54.111 Y-240.499
G1 X57.683 Y-239.602
G1 X55.436 Y-242.176
G1 X59.185 Y-241.179
G1 X56.259 Y-243.962
G1 X60.595 Y-242.605
G1 X56.865 Y-245.638
G1 X61.480 Y-244.281
G1 X57.911 Y-247.110
G1 X62.073 Y-246.302
G1 X59.376 Y-248.670
G1 X62.921 Y-248.413
G1 X60.652 Y-250.535
G1 X64.052 Y-250.432
G1 X61.506 Y-252.537
G1 X65.396 Y-252.178
G1 X61.834 Y-254.456
G1 X66.433 Y-253.842
G1 X62.229 Y-256.174
G1 X66.803 Y-255.790
G1 X63.273 Y-257.840
G1 X67.197 Y-257.921
G1 X64.322 Y-259.741
G1 X67.775 Y-260.138
G1 X65.133 Y-261.827
G1 X68.372 Y-262.415
G1 X65.815 Y-264.004
G1 X68.924 Y-264.740
G1 X66.408 Y-266.238
G1 X69.459 Y-267.081
G1 X66.864 Y-268.494
G1 X70.114 Y-269.327
G1 X67.009 Y-270.650
G1 X70.712 Y-271.441
G1 X67.029 Y-272.656
G1 X71.237 Y-273.425
G1 X66.968 Y-274.513
G1 X71.681 Y-275.294
G1 X66.862 Y-276.243
G1 X71.970 Y-277.088
G1 X66.808 Y-277.897
G1 X72.115 Y-278.847
G1 X66.812 Y-279.523
G1 X72.117 Y-280.607
G1 X66.875 Y-281.161
G1 X72.038 Y-282.386
G1 X66.937 Y-282.832
G1 X71.831 Y-284.208
G1 X67.038 Y-284.577
G1 X71.511 Y-286.103
G1 X67.147 Y-286.435
G1 X71.240 Y-288.080
G1 X67.093 Y-288.346
G1 X70.979 Y-290.097
G1 X66.915 Y-290.271
G1 X70.665 Y-292.129
G1 X66.671 Y-292.211
G1 X70.344 Y-294.167
G1 X66.321 Y-294.125
G1 X69.999 Y-296.185
G1 X65.892 Y-295.997
G1 X69.571 Y-298.170
G1 X65.442 Y-297.855
G1 X69.066 Y-300.134
G1 X64.962 Y-299.710
G1 X68.482 Y-302.086
G1 X64.447 Y-301.573
G1 X67.830 Y-304.036
G1 X63.880 Y-303.444
G1 X67.187 Y-305.992
G1 X63.201 Y-305.259
G1 X66.456 Y-307.909
G1 X62.505 Y-307.071
G1 X65.630 Y-309.802
G1 X61.783 Y-308.902
G1 X64.779 Y-311.701
G1 X60.973 Y-310.699
G1 X63.880 Y-313.579
G1 X60.104 Y-312.469
G1 X62.951 Y-315.437
G1 X59.171 Y-314.191
G1 X61.945 Y-317.248
G1 X58.214 Y-315.905
G1 X60.502 Y-318.929
G1 X57.408 Y-317.990
G1 X58.505 Y-320.669
G1 X56.541 Y-320.695
G1 X57.540 Y-323.168
G1 X54.715 Y-322.210
G1 X56.904 Y-325.397
G1 X52.982 Y-323.170
G1 X55.481 Y-326.811
G1 X51.967 Y-324.851
G1 X54.020 Y-328.328
G1 X50.775 Y-326.512
G1 X52.499 Y-329.889
G1 X49.453 Y-328.159
G1 X50.970 Y-331.496
G1 X48.005 Y-329.711
G1 X49.362 Y-333.053
G1 X46.506 Y-331.255
G1 X47.749 Y-334.616
G1 X44.925 Y-332.691
G1 X46.112 Y-336.128
G1 X43.308 Y-334.052
G1 X44.440 Y-337.570
G1 X41.670 Y-335.357
G1 X42.784 Y-338.984
G1 X40.001 Y-336.539
G1 X41.156 Y-340.344
G1 X38.335 Y-337.599
G1 X39.503 Y-341.584
G1 X36.701 Y-338.635
G1 X37.754 Y-342.671
G1 X35.079 Y-339.743
G1 X35.934 Y-343.707
G1 X33.401 Y-340.847
G1 X34.374 Y-345.052
G1 X31.647 Y-341.405
G1 X33.152 Y-346.562
G1 X29.968 Y-341.466
G1 X31.852 Y-347.569
G1 X28.551 Y-341.854
G1 X30.414 Y-348.231
G1 X27.263 Y-342.518
G1 X28.959 Y-348.872
G1 X25.952 Y-343.151
G1 X27.333 Y-349.218
G1 X24.663 Y-344.071
G1 X25.412 Y-349.273
G1 X23.220 Y-345.383
G1 X23.319 Y-349.564
G1 X21.422 Y-346.551
G1 X21.188 Y-350.200
G1 X19.414 Y-347.329
G1 X19.108 Y-350.980
G1 X17.392 Y-347.812
G1 X17.157 Y-351.824
G1 X15.473 Y-348.040
G1 X15.258 Y-352.444
G1 X13.652 Y-348.341
G1 X13.322 Y-352.815
G1 X11.834 Y-348.793
G1 X11.317 Y-353.076
G1 X9.948 Y-349.276
G1 X9.225 Y-353.263
G1 X7.962 Y-349.750
G1 X7.068 Y-353.467
G1 X5.900 Y-350.103
G1 X4.864 Y-353.642
G1 X3.788 Y-350.368
G1 X2.619 Y-353.753
G1 X1.630 Y-350.571
G1 X.333 Y-353.790
G1 X-.577 Y-350.716
G1 X-1.991 Y-353.770
G1 X-2.823 Y-350.776
G1 X-4.342 Y-353.692
G1 X-5.094 Y-350.748
G1 X-6.721 Y-353.506
G1 X-7.412 Y-350.674
G1 X-9.137 Y-353.238
G1 X-9.773 Y-350.519
G1 X-11.583 Y-352.909
G1 X-12.156 Y-350.258
G1 X-14.045 Y-352.500
G1 X-14.555 Y-349.904
G1 X-16.517 Y-351.996
G1 X-16.973 Y-349.469
G1 X-19.000 Y-351.408
G1 X-19.400 Y-348.937
G1 X-21.482 Y-350.775
G1 X-21.790 Y-348.278
G1 X-23.937 Y-350.058
G1 X-24.150 Y-347.539
G1 X-26.360 Y-349.226
G1 X-26.509 Y-346.740
G1 X-28.765 Y-348.272
G1 X-28.885 Y-345.874
G1 X-31.171 Y-347.252
G1 X-31.233 Y-344.889
G1 X-33.561 Y-346.204
G1 X-33.493 Y-343.779
G1 X-35.893 Y-345.109
G1 X-35.663 Y-342.591
G1 X-38.147 Y-343.937
G1 X-37.770 Y-341.358
G1 X-40.333 Y-342.705
G1 X-39.806 Y-340.071
G1 X-42.463 Y-341.462
G1 X-41.720 Y-338.714
G1 X-44.514 Y-340.222
G1 X-43.495 Y-337.315
G1 X-46.473 Y-339.003
G1 X-45.115 Y-335.897
G1 X-48.315 Y-337.787
G1 X-46.613 Y-334.496
G1 X-50.223 Y-336.929
G1 X-47.602 Y-332.952
G1 X-51.901 Y-336.143
G1 X-48.436 Y-331.551
G1 X-53.165 Y-335.039
G1 X-49.553 Y-330.485
G1 X-54.370 Y-333.878
G1 X-50.682 Y-329.423
G1 X-55.566 Y-332.705
G1 X-51.769 Y-328.323
G1 X-56.754 Y-331.531
G1 X-52.802 Y-327.187
G1 X-57.894 Y-330.323
G1 X-53.823 Y-326.047
G1 X-58.999 Y-329.087
G1 X-54.823 Y-324.892
G1 X-60.065 Y-327.818
G1 X-55.812 Y-323.724
G1 X-61.083 Y-326.502
G1 X-56.806 Y-322.544
G1 X-62.057 Y-325.133
G1 X-57.811 Y-321.343
G1 X-63.008 Y-323.721
G1 X-58.811 Y-320.103
G1 X-63.964 Y-322.287
G1 X-59.766 Y-318.809
G1 X-64.930 Y-320.851
G1 X-60.654 Y-317.470
G1 X-65.863 Y-319.394
G1 X-61.511 Y-316.110
G1 X-66.733 Y-317.890
G1 X-62.377 Y-314.739
G1 X-67.605 Y-316.380
G1 X-63.178 Y-313.329
G1 X-68.424 Y-314.836
G1 X-63.971 Y-311.904
G1 X-69.223 Y-313.275
G1 X-64.718 Y-310.452
G1 X-70.019 Y-311.716
G1 X-65.392 Y-308.977
G1 X-70.717 Y-310.110
G1 X-66.101 Y-307.502
G1 X-71.396 Y-308.485
G1 X-66.766 Y-305.997
G1 X-72.053 Y-306.844
G1 X-67.381 Y-304.468
G1 X-72.667 Y-305.182
G1 X-67.971 Y-302.922
G1 X-73.257 Y-303.508
G1 X-68.510 Y-301.358
G1 X-73.801 Y-301.817
G1 X-69.020 Y-299.782
G1 X-74.327 Y-300.122
G1 X-69.470 Y-298.193
G1 X-74.820 Y-298.423
G1 X-69.874 Y-296.601
G1 X-75.249 Y-296.713
G1 X-70.262 Y-295.005
G1 X-75.697 Y-295.017
G1 X-70.550 Y-293.412
G1 X-76.130 Y-293.343
G1 X-70.765 Y-291.839
G1 X-76.440 Y-291.663
G1 X-71.027 Y-290.277
G1 X-76.667 Y-289.965
G1 X-71.302 Y-288.704
G1 X-76.851 Y-288.248
G1 X-71.551 Y-287.109
G1 X-76.975 Y-286.504
G1 X-71.788 Y-285.485
G1 X-77.077 Y-284.737
G1 X-71.975 Y-283.834
G1 X-77.176 Y-282.956
G1 X-72.085 Y-282.171
G1 X-77.257 Y-281.173
G1 X-72.133 Y-280.508
G1 X-77.250 Y-279.382
G1 X-72.189 Y-278.828
G1 X-77.133 Y-277.564
G1 X-72.272 Y-277.101
G1 X-77.054 Y-275.719
G1 X-72.230 Y-275.365
G1 X-76.862 Y-273.855
G1 X-72.211 Y-273.584
G1 X-76.433 Y-271.927
G1 X-72.316 Y-271.647
G1 X-76.032 Y-269.884
G1 X-72.265 Y-269.616
G1 X-75.656 Y-267.765
G1 X-72.058 Y-267.547
G1 X-75.178 Y-265.601
G1 X-71.808 Y-265.405
G1 X-74.662 Y-263.384
G1 X-71.446 Y-263.226
G1 X-74.156 Y-261.139
G1 X-70.936 Y-261.078
G1 X-73.645 Y-258.913
G1 X-70.313 Y-259.001
G1 X-73.063 Y-256.738
G1 X-69.652 Y-256.966
G1 X-72.378 Y-254.609
G1 X-68.975 Y-254.938
G1 X-71.582 Y-252.504
G1 X-68.271 Y-252.887
G1 X-70.731 Y-250.396
G1 X-67.485 Y-250.845
G1 X-69.841 Y-248.295
G1 X-66.610 Y-248.840
G1 X-68.896 Y-246.219
G1 X-65.671 Y-246.870
G1 X-68.126 Y-244.132
G1 X-64.537 Y-245.163
G1 X-67.330 Y-242.193
G1 X-63.441 Y-243.575
G1 X-66.316 Y-240.433
G1 X-62.490 Y-241.898
G1 X-65.260 Y-238.691
G1 X-61.485 Y-240.248
G1 X-64.156 Y-236.975
G1 X-60.435 Y-238.621
G1 X-62.982 Y-235.294
G1 X-59.351 Y-236.996
G1 X-61.769 Y-233.626
G1 X-58.207 Y-235.403
G1 X-60.593 Y-231.947
G1 X-56.974 Y-233.930
G1 X-59.370 Y-230.344
G1 X-55.742 Y-232.490
G1 X-57.945 Y-228.879
G1 X-54.564 Y-230.898
G1 X-56.505 Y-227.356
G1 X-53.258 Y-229.369
G1 X-55.105 Y-225.790
G1 X-51.850 Y-227.978
G1 X-53.691 Y-224.280
G1 X-50.423 Y-226.655
G1 X-52.313 Y-222.797
G1 X-48.970 Y-225.459
G1 X-50.924 Y-221.404
G1 X-47.539 Y-224.318
G1 X-49.461 Y-220.134
G1 X-46.143 Y-223.145
G1 X-47.902 Y-218.957
G1 X-44.739 Y-221.917
G1 X-46.216 Y-217.850
G1 X-43.285 Y-220.608
G1 X-44.432 Y-216.738
G1 X-41.722 Y-219.285
G1 X-42.586 Y-215.589
G1 X-40.038 Y-218.015
G1 X-40.595 Y-214.511
G1 X-38.261 Y-216.667
G1 X-38.553 Y-213.365
G1 X-36.344 Y-215.432
G1 X-36.575 Y-212.118
G1 X-34.361 Y-214.456
G1 X-34.770 Y-210.799
G1 X-32.429 Y-213.818
G1 X-32.954 Y-209.772
G1 X-30.629 Y-213.075
G1 X-30.916 Y-209.126
G1 X-28.821 Y-211.970
G1 X-28.733 Y-208.458
G1 X-26.828 Y-210.880
G1 X-26.402 Y-207.783
G1 X-24.652 Y-209.821
G1 X-23.977 Y-207.051
G1 X-22.328 Y-208.900
G1 X-21.567 Y-206.212
G1 X-19.966 Y-208.253
G1 X-19.249 Y-205.350
G1 X-17.685 Y-207.843
G1 X-17.060 Y-204.537
G1 X-15.544 Y-207.601
G1 X-14.989 Y-203.842
G1 X-13.542 Y-207.425
G1 X-12.999 Y-203.292
G1 X-11.639 Y-207.251
G1 X-11.058 Y-202.866
G1 X-9.797 Y-207.074
G1 X-9.168 Y-202.467
G1 X-8.015 Y-206.981
G1 X-7.327 Y-202.136
G1 X-6.289 Y-206.922
G1 X-5.522 Y-201.882
G1 X-4.604 Y-206.875
G1 X-3.707 Y-201.838
G1 X-2.894 Y-206.698
G1 X-1.821 Y-201.979
G1 X-1.081 Y-206.414
G1 X.159 Y-202.142
G1 X.842 Y-206.197
G1 X2.238 Y-202.357
G1 X2.884 Y-206.035
G1 X4.398 Y-202.532
G1 X4.983 Y-206.031
G1 X6.592 Y-202.687
G1 X7.085 Y-206.170
G1 X8.777 Y-202.834
G1 X9.143 Y-206.434
G1 X10.915 Y-202.960
G1 X11.107 Y-206.820
G1 X12.981 Y-203.156
G1 X13.004 Y-207.225
G1 X14.986 Y-203.405
G1 X14.838 Y-207.662
G1 X16.933 Y-203.640
G1 X16.574 Y-208.181
G1 X18.804 Y-203.922
G1 X18.237 Y-208.711
G1 X20.615 Y-204.164
G1 X19.785 Y-209.324
G1 X22.340 Y-204.457
G1 X21.264 Y-209.924
G1 X23.952 Y-205.129
G1 X22.903 Y-210.234
G1 X25.602 Y-205.984
G1 X24.700 Y-210.509
G1 X27.368 Y-206.869
G1 X26.593 Y-210.923
G1 X29.246 Y-207.729
G1 X28.504 Y-211.521
G1 X31.179 Y-208.596
G1 X30.409 Y-212.250
G1 X33.103 Y-209.665
G1 X32.457 Y-212.964
G1 X35.123 Y-210.722
G1 X34.481 Y-213.864
G1 X37.155 Y-211.870
G1 X36.535 Y-214.845
G1 X39.213 Y-213.051
G1 X38.553 Y-215.948
G1 X41.291 Y-214.168
G1 X40.409 Y-217.193
G1 X43.275 Y-215.336
G1 X42.199 Y-218.447
G1 X45.193 Y-216.513
G1 X43.888 Y-219.734
G1 X46.956 Y-217.911
G1 X45.715 Y-220.944
G1 X48.674 Y-219.549
G1 X47.736 Y-222.195
G1 X50.553 Y-221.137
G1 X49.604 Y-223.693
G1 X52.497 Y-222.591
G1 X51.188 Y-225.334
G1 X54.315 Y-224.027
G1 X52.640 Y-226.942
G1 X56.035 Y-225.407
G1 X53.927 Y-228.524
G1 X57.637 Y-226.740
G1 X55.080 Y-230.055
G1 X59.061 Y-228.127
G1 X56.242 Y-231.496
G1 X60.448 Y-229.465
G1 X57.277 Y-232.939
G1 X61.722 Y-230.822
G1 X58.288 Y-234.335
G1 X62.790 Y-232.345
G1 X59.474 Y-235.660
G1 X63.768 Y-234.037
G1 X60.804 Y-237.035
G1 X64.770 Y-235.861
G1 X62.185 Y-238.555
G1 X65.895 Y-237.718
G1 X63.448 Y-240.247
G1 X67.072 Y-239.585
G1 X64.584 Y-242.033
G1 X68.272 Y-241.418
G1 X65.559 Y-243.856
G1 X69.732 Y-242.930
G1 X65.961 Y-245.666
G1 X70.858 Y-244.407
G1 X66.464 Y-247.265
G1 X71.415 Y-246.169
G1 X67.522 Y-248.729
G1 X72.178 Y-247.914
G1 X68.343 Y-250.345
G1 X73.088 Y-249.574
G1 X68.901 Y-251.998
G1 X73.713 Y-251.342
G1 X69.678 Y-253.612
G1 X74.031 Y-253.369
G1 X70.813 Y-255.348
G1 X74.487 Y-255.556
G1 X71.839 Y-257.340
G1 X75.182 Y-257.768
G1 X72.544 Y-259.466
G1 X75.850 Y-259.995
G1 X73.148 Y-261.617
G1 X76.492 Y-262.212
G1 X73.636 Y-263.762
G1 X77.062 Y-264.415
G1 X74.055 Y-265.886
G1 X77.612 Y-266.575
G1 X74.349 Y-267.966
G1 X78.229 Y-268.627
G1 X74.421 Y-269.931
G1 X78.809 Y-270.547
G1 X74.385 Y-271.752
G1 X79.274 Y-272.364
G1 X74.347 Y-273.459
G1 X79.576 Y-274.125
G1 X74.381 Y-275.105
G1 X79.761 Y-275.865
G1 X74.454 Y-276.728
G1 X79.869 Y-277.601
G1 X74.529 Y-278.348
G1 X79.864 Y-279.352
G1 X74.647 Y-279.994
G1 X79.814 Y-281.129
G1 X74.736 Y-281.674
G1 X79.685 Y-282.942
G1 X74.824 Y-283.404
G1 X79.475 Y-284.808
G1 X74.908 Y-285.209
G1 X79.287 Y-286.727
G1 X74.876 Y-287.052
G1 X79.064 Y-288.679
G1 X74.782 Y-288.928
G1 X78.813 Y-290.656
G1 X74.615 Y-290.823
G1 X78.564 Y-292.643
G1 X74.349 Y-292.701
G1 X78.282 Y-294.619
G1 X74.023 Y-294.557
G1 X77.977 Y-296.574
G1 X73.633 Y-296.378
G1 X77.582 Y-298.500
G1 X73.244 Y-298.197
G1 X77.100 Y-300.416
G1 X72.842 Y-300.035
G1 X76.621 Y-302.339
G1 X72.346 Y-301.841
G1 X76.050 Y-304.240
G1 X71.845 Y-303.663
G1 X75.373 Y-306.138
G1 X71.335 Y-305.531
G1 X74.704 Y-308.065
G1 X70.710 Y-307.371
G1 X74.070 Y-309.992
G1 X69.974 Y-309.129
G1 X73.401 Y-311.870
G1 X69.208 Y-310.835
G1 X72.661 Y-313.692
G1 X68.442 Y-312.523
G1 X71.822 Y-315.470
G1 X67.684 Y-314.232
G1 X70.894 Y-317.232
G1 X66.902 Y-315.971
G1 X69.953 Y-319.012
G1 X66.031 Y-317.680
G1 X68.961 Y-320.779
G1 X65.110 Y-319.376
G1 X67.942 Y-322.537
G1 X64.128 Y-321.038
G1 X66.977 Y-324.301
G1 X63.049 Y-322.577
G1 X66.061 Y-326.023
G1 X61.922 Y-323.981
G1 X64.990 Y-327.592
G1 X60.901 Y-325.454
G1 X63.811 Y-329.106
G1 X59.884 Y-326.978
G1 X62.567 Y-330.617
G1 X58.810 Y-328.516
G1 X61.217 Y-332.110
G1 X57.691 Y-330.109
G1 X59.858 Y-333.655
G1 X56.453 Y-331.647
G1 X58.440 Y-335.187
G1 X55.156 Y-333.175
G1 X56.948 Y-336.695
G1 X53.803 Y-334.708
G1 X55.390 Y-338.191
G1 X52.380 Y-336.234
G1 X53.771 Y-339.676
G1 X50.883 Y-337.741
G1 X52.131 Y-341.170
G1 X49.307 Y-339.169
G1 X50.502 Y-342.656
G1 X47.677 Y-340.486
G1 X48.862 Y-344.082
G1 X46.037 Y-341.729
G1 X47.214 Y-345.443
G1 X44.394 Y-342.907
G1 X45.520 Y-346.710
G1 X42.754 Y-344.073
G1 X43.765 Y-347.896
G1 X41.095 Y-345.245
G1 X41.966 Y-349.046
G1 X39.390 Y-346.381
G1 X40.069 Y-350.108
G1 X37.640 Y-347.562
G1 X38.071 Y-351.126
G1 X35.802 Y-348.760
G1 X36.121 Y-352.271
G1 X33.877 Y-349.711
G1 X34.649 Y-353.893
G1 X31.989 Y-349.798
G1 X33.398 Y-355.287
G1 X30.349 Y-349.795
G1 X31.982 Y-356.031
G1 X28.982 Y-350.323
G1 X30.535 Y-356.680
G1 X27.635 Y-350.886
G1 X28.962 Y-357.083
G1 X26.314 Y-351.671
G1 X27.162 Y-357.205
G1 X24.906 Y-352.790
G1 X25.121 Y-357.324
G1 X23.205 Y-354.018
G1 X22.925 Y-357.708
G1 X21.197 Y-355.024
G1 X20.652 Y-358.283
G1 X19.025 Y-355.780
G1 X18.373 Y-358.938
G1 X16.816 Y-356.327
G1 X16.202 Y-359.708
G1 X14.696 Y-356.576
G1 X14.244 Y-360.588
G1 X12.779 Y-356.510
G1 X12.395 Y-361.155
G1 X11.009 Y-356.613
G1 X10.468 Y-361.248
G1 X9.195 Y-357.121
G1 X8.441 Y-361.340
G1 X7.263 Y-357.567
G1 X6.351 Y-361.495
G1 X5.261 Y-357.863
G1 X4.203 Y-361.578
G1 X3.190 Y-358.133
G1 X1.991 Y-361.607
G1 X1.046 Y-358.350
G1 X-.274 Y-361.607
G1 X-1.152 Y-358.479
G1 X-2.581 Y-361.560
G1 X-3.392 Y-358.529
G1 X-4.926 Y-361.438
G1 X-5.679 Y-358.521
G1 X-7.302 Y-361.276
G1 X-7.989 Y-358.414
G1 X-9.691 Y-361.074
G1 X-10.297 Y-358.208
G1 X-12.079 Y-360.786
G1 X-12.615 Y-357.947
G1 X-14.476 Y-360.409
G1 X-14.952 Y-357.628
G1 X-16.889 Y-359.924
G1 X-17.332 Y-357.260
G1 X-19.330 Y-359.365
G1 X-19.739 Y-356.803
G1 X-21.788 Y-358.777
G1 X-22.124 Y-356.217
G1 X-24.231 Y-358.104
G1 X-24.501 Y-355.563
G1 X-26.663 Y-357.328
G1 X-26.890 Y-354.847
G1 X-29.093 Y-356.483
G1 X-29.266 Y-354.036
G1 X-31.511 Y-355.564
G1 X-31.623 Y-353.140
G1 X-33.909 Y-354.581
G1 X-33.944 Y-352.154
G1 X-36.276 Y-353.539
G1 X-36.216 Y-351.087
G1 X-38.602 Y-352.442
G1 X-38.426 Y-349.944
G1 X-40.883 Y-351.330
G1 X-40.531 Y-348.719
G1 X-43.090 Y-350.205
G1 X-42.517 Y-347.443
G1 X-45.206 Y-349.059
G1 X-44.395 Y-346.143
G1 X-47.228 Y-347.899
G1 X-46.165 Y-344.829
G1 X-49.143 Y-346.688
G1 X-47.875 Y-343.528
G1 X-51.035 Y-345.588
G1 X-49.361 Y-342.153
G1 X-52.973 Y-344.883
G1 X-50.322 Y-340.623
G1 X-54.611 Y-344.147
G1 X-51.229 Y-339.307
G1 X-55.863 Y-343.062
G1 X-52.430 Y-338.333
G1 X-57.066 Y-341.895
G1 X-53.673 Y-337.361
G1 X-58.289 Y-340.717
G1 X-54.885 Y-336.324
G1 X-59.522 Y-339.533
G1 X-56.052 Y-335.231
G1 X-60.761 Y-338.359
G1 X-57.156 Y-334.089
G1 X-61.941 Y-337.130
G1 X-58.274 Y-332.953
G1 X-63.085 Y-335.855
G1 X-59.395 Y-331.800
G1 X-64.235 Y-334.577
G1 X-60.463 Y-330.599
G1 X-65.369 Y-333.288
G1 X-61.491 Y-329.370
G1 X-66.494 Y-332.002
G1 X-62.459 Y-328.114
G1 X-67.561 Y-330.684
G1 X-63.423 Y-326.862
G1 X-68.594 Y-329.342
G1 X-64.366 Y-325.597
G1 X-69.570 Y-327.955
G1 X-65.321 Y-324.326
G1 X-70.485 Y-326.503
G1 X-66.310 Y-323.042
G1 X-71.425 Y-325.044
G1 X-67.235 Y-321.699
G1 X-72.381 Y-323.594
G1 X-68.081 Y-320.316
G1 X-73.291 Y-322.121
G1 X-68.910 Y-318.926
G1 X-74.128 Y-320.597
G1 X-69.765 Y-317.530
G1 X-74.982 Y-319.076
G1 X-70.543 Y-316.095
G1 X-75.829 Y-317.558
G1 X-71.257 Y-314.642
G1 X-76.606 Y-316.013
G1 X-71.976 Y-313.191
G1 X-77.339 Y-314.443
G1 X-72.680 Y-311.727
G1 X-78.073 Y-312.875
G1 X-73.316 Y-310.242
G1 X-78.739 Y-311.278
G1 X-73.958 Y-308.753
G1 X-79.348 Y-309.648
G1 X-74.604 Y-307.246
G1 X-79.982 Y-308.020
G1 X-75.160 Y-305.710
G1 X-80.554 Y-306.370
G1 X-75.714 Y-304.167
G1 X-81.072 Y-304.692
G1 X-76.262 Y-302.606
G1 X-81.579 Y-303.001
G1 X-76.758 Y-301.022
G1 X-82.067 Y-301.300
G1 X-77.205 Y-299.423
G1 X-82.512 Y-299.587
G1 X-77.626 Y-297.814
G1 X-82.928 Y-297.864
G1 X-78.006 Y-296.195
G1 X-83.265 Y-296.116
G1 X-78.401 Y-294.559
G1 X-83.583 Y-294.348
G1 X-78.747 Y-292.900
G1 X-83.879 Y-292.568
G1 X-79.044 Y-291.225
G1 X-84.145 Y-290.778
G1 X-79.298 Y-289.540
G1 X-84.418 Y-288.994
G1 X-79.469 Y-287.860
G1 X-84.598 Y-287.204
G1 X-79.657 Y-286.176
G1 X-84.741 Y-285.405
G1 X-79.809 Y-284.481
G1 X-84.898 Y-283.611
G1 X-79.871 Y-282.797
G1 X-85.077 Y-281.842
G1 X-79.835 Y-281.150
G1 X-85.226 Y-280.108
G1 X-79.757 Y-279.544
G1 X-85.255 Y-278.395
G1 X-79.731 Y-277.947
G1 X-85.197 Y-276.683
G1 X-79.725 Y-276.338
G1 X-85.088 Y-274.960
G1 X-79.701 Y-274.713
G1 X-84.888 Y-273.216
G1 X-79.694 Y-273.046
G1 X-84.673 Y-271.442
G1 X-79.626 Y-271.351
G1 X-84.455 Y-269.646
G1 X-79.482 Y-269.645
G1 X-84.189 Y-267.838
G1 X-79.306 Y-267.922
G1 X-83.896 Y-266.018
G1 X-79.076 Y-266.192
G1 X-83.593 Y-264.193
G1 X-78.778 Y-264.472
G1 X-83.180 Y-262.374
G1 X-78.503 Y-262.715
G1 X-82.531 Y-260.531
G1 X-78.338 Y-260.801
G1 X-81.786 Y-258.578
G1 X-78.112 Y-258.736
G1 X-81.077 Y-256.496
G1 X-77.689 Y-256.619
G1 X-80.416 Y-254.345
G1 X-77.087 Y-254.531
G1 X-79.715 Y-252.195
G1 X-76.405 Y-252.463
G1 X-78.954 Y-250.060
G1 X-75.667 Y-250.410
G1 X-78.245 Y-247.933
G1 X-74.797 Y-248.475
G1 X-77.566 Y-245.870
G1 X-73.860 Y-246.675
G1 X-76.856 Y-243.910
G1 X-72.926 Y-244.968
G1 X-76.239 Y-242.014
G1 X-71.914 Y-243.448
G1 X-75.639 Y-240.235
G1 X-70.916 Y-242.059
G1 X-75.028 Y-238.570
G1 X-69.953 Y-240.761
G1 X-74.315 Y-237.030
G1 X-69.084 Y-239.462
G1 X-73.159 Y-235.705
G1 X-68.519 Y-237.840
G1 X-71.802 Y-234.326
G1 X-67.899 Y-235.997
G1 X-70.580 Y-232.701
G1 X-66.947 Y-234.259
G1 X-69.384 Y-230.998
G1 X-65.847 Y-232.593
G1 X-68.156 Y-229.300
G1 X-64.681 Y-230.960
G1 X-66.867 Y-227.633
G1 X-63.477 Y-229.334
G1 X-65.562 Y-225.969
G1 X-62.205 Y-227.766
G1 X-64.304 Y-224.301
G1 X-60.862 Y-226.332
G1 X-62.986 Y-222.733
G1 X-59.545 Y-224.906
G1 X-61.629 Y-221.220
G1 X-58.213 Y-223.511
G1 X-60.287 Y-219.725
G1 X-56.842 Y-222.206
G1 X-58.987 Y-218.252
G1 X-55.446 Y-221.024
G1 X-57.692 Y-216.856
G1 X-54.072 Y-219.907
G1 X-56.308 Y-215.600
G1 X-52.755 Y-218.730
G1 X-54.839 Y-214.417
G1 X-51.432 Y-217.508
G1 X-53.339 Y-213.232
G1 X-50.050 Y-216.320
G1 X-51.747 Y-212.107
G1 X-48.636 Y-215.083
G1 X-50.055 Y-211.012
G1 X-47.153 Y-213.802
G1 X-48.378 Y-209.827
G1 X-45.558 Y-212.658
G1 X-46.708 Y-208.641
G1 X-43.924 Y-211.610
G1 X-45.026 Y-207.507
G1 X-42.283 Y-210.612
G1 X-43.313 Y-206.446
G1 X-40.638 Y-209.628
G1 X-41.551 Y-205.455
G1 X-38.974 Y-208.643
G1 X-39.800 Y-204.448
G1 X-37.274 Y-207.768
G1 X-37.870 Y-203.685
G1 X-35.559 Y-206.656
G1 X-35.760 Y-202.977
G1 X-33.686 Y-205.442
G1 X-33.650 Y-202.048
G1 X-31.658 Y-204.509
G1 X-31.523 Y-201.140
G1 X-29.596 Y-203.669
G1 X-29.327 Y-200.354
G1 X-27.496 Y-202.798
G1 X-27.065 Y-199.621
G1 X-25.326 Y-201.963
G1 X-24.755 Y-198.911
G1 X-23.094 Y-201.209
G1 X-22.374 Y-198.293
G1 X-20.796 Y-200.468
G1 X-19.944 Y-197.696
G1 X-18.435 Y-199.825
G1 X-17.625 Y-196.895
G1 X-16.163 Y-199.577
G1 X-15.538 Y-196.000
G1 X-14.125 Y-199.645
G1 X-13.612 Y-195.352
G1 X-12.273 Y-199.629
G1 X-11.759 Y-194.916
G1 X-10.511 Y-199.514
G1 X-9.931 Y-194.618
G1 X-8.783 Y-199.349
G1 X-8.084 Y-194.472
G1 X-7.035 Y-199.104
G1 X-6.170 Y-194.484
G1 X-5.203 Y-198.770
G1 X-4.181 Y-194.488
G1 X-3.289 Y-198.519
G1 X-2.121 Y-194.536
G1 X-1.292 Y-198.312
G1 X.015 Y-194.640
G1 X.794 Y-198.146
G1 X2.222 Y-194.761
G1 X2.949 Y-198.073
G1 X4.478 Y-194.903
G1 X5.148 Y-198.098
G1 X6.756 Y-195.038
G1 X7.340 Y-198.249
G1 X9.028 Y-195.226
G1 X9.522 Y-198.467
G1 X11.281 Y-195.427
G1 X11.658 Y-198.783
G1 X13.493 Y-195.650
G1 X13.729 Y-199.176
G1 X15.640 Y-195.836
G1 X15.676 Y-199.687
G1 X17.687 Y-195.955
G1 X17.448 Y-200.312
G1 X19.601 Y-196.123
G1 X19.100 Y-200.921
G1 X21.423 Y-196.155
G1 X20.551 Y-201.675
G1 X23.088 Y-196.412
G1 X21.993 Y-202.229
G1 X24.643 Y-197.106
G1 X23.622 Y-202.432
G1 X26.289 Y-197.672
G1 X25.216 Y-202.849
G1 X28.013 Y-197.874
G1 X26.565 Y-203.645
G1 X29.638 Y-198.109
G1 X27.838 Y-204.412
G1 X31.054 Y-198.892
G1 X29.349 Y-204.702
G1 X32.424 Y-200.221
G1 X31.304 Y-204.668
G1 X34.145 Y-201.191
G1 X33.178 Y-205.190
G1 X36.118 Y-201.429
G1 X34.458 Y-206.386
G1 X37.694 Y-202.267
G1 X36.039 Y-207.019
G1 X39.217 Y-203.452
G1 X37.907 Y-207.506
G1 X41.006 Y-204.263
G1 X39.487 Y-208.449
G1 X42.728 Y-205.115
G1 X41.024 Y-209.388
G1 X44.381 Y-206.045
G1 X42.565 Y-210.305
G1 X45.947 Y-207.187
G1 X44.253 Y-211.144
G1 X47.539 Y-208.469
G1 X46.059 Y-212.040
G1 X49.239 Y-209.753
G1 X47.841 Y-213.108
G1 X50.955 Y-211.143
G1 X49.682 Y-214.256
G1 X52.758 Y-212.488
G1 X51.404 Y-215.566
G1 X54.605 Y-213.688
G1 X52.873 Y-216.998
G1 X56.311 Y-214.912
G1 X54.278 Y-218.370
G1 X57.882 Y-216.217
G1 X55.697 Y-219.685
G1 X59.367 Y-217.610
G1 X57.149 Y-220.988
G1 X60.834 Y-219.043
G1 X58.573 Y-222.339
G1 X62.340 Y-220.410
G1 X59.841 Y-223.770
G1 X63.736 Y-221.841
G1 X61.122 Y-225.169
G1 X65.100 Y-223.282
G1 X62.347 Y-226.592
G1 X66.516 Y-224.607
G1 X63.353 Y-228.070
G1 X67.836 Y-225.905
G1 X64.289 Y-229.496
G1 X68.838 Y-227.455
G1 X65.533 Y-230.782
G1 X69.729 Y-229.251
G1 X67.025 Y-232.134
G1 X70.831 Y-231.066
G1 X68.375 Y-233.725
G1 X72.015 Y-232.905
G1 X69.620 Y-235.445
G1 X73.237 Y-234.736
G1 X70.735 Y-237.232
G1 X74.373 Y-236.621
G1 X71.852 Y-239.036
G1 X75.451 Y-238.563
G1 X72.956 Y-240.881
G1 X76.548 Y-240.500
G1 X73.936 Y-242.773
G1 X77.687 Y-242.357
G1 X74.709 Y-244.660
G1 X79.058 Y-243.906
G1 X74.955 Y-246.471
G1 X79.923 Y-245.514
G1 X75.547 Y-248.062
G1 X80.227 Y-247.460
G1 X76.761 Y-249.649
G1 X80.783 Y-249.495
G1 X77.762 Y-251.489
G1 X81.378 Y-251.650
G1 X78.717 Y-253.491
G1 X82.009 Y-253.901
G1 X79.590 Y-255.628
G1 X82.857 Y-256.085
G1 X80.101 Y-257.781
G1 X83.689 Y-258.163
G1 X80.445 Y-259.834
G1 X84.320 Y-260.204
G1 X80.852 Y-261.810
G1 X84.911 Y-262.198
G1 X81.175 Y-263.737
G1 X85.457 Y-264.140
G1 X81.425 Y-265.606
G1 X85.939 Y-266.032
G1 X81.629 Y-267.417
G1 X86.421 Y-267.857
G1 X81.730 Y-269.160
G1 X86.802 Y-269.635
G1 X81.840 Y-270.844
G1 X87.119 Y-271.379
G1 X81.934 Y-272.488
G1 X87.368 Y-273.100
G1 X82.024 Y-274.106
G1 X87.491 Y-274.824
G1 X82.174 Y-275.726
G1 X87.580 Y-276.558
G1 X82.293 Y-277.358
G1 X87.674 Y-278.294
G1 X82.341 Y-278.987
G1 X87.710 Y-280.030
G1 X82.380 Y-280.620
G1 X87.674 Y-281.776
G1 X82.425 Y-282.271
G1 X87.603 Y-283.538
G1 X82.436 Y-283.940
G1 X87.497 Y-285.316
G1 X82.414 Y-285.628
G1 X87.369 Y-287.107
G1 X82.340 Y-287.328
G1 X87.211 Y-288.908
G1 X82.224 Y-289.034
G1 X86.984 Y-290.717
G1 X82.100 Y-290.765
G1 X86.748 Y-292.540
G1 X81.909 Y-292.498
G1 X86.480 Y-294.368
G1 X81.673 Y-294.233
G1 X86.158 Y-296.198
G1 X81.413 Y-295.979
G1 X85.810 Y-298.033
G1 X81.100 Y-297.723
G1 X85.399 Y-299.867
G1 X80.769 Y-299.483
G1 X84.952 Y-301.709
G1 X80.389 Y-301.248
G1 X84.439 Y-303.554
G1 X79.987 Y-303.035
G1 X83.864 Y-305.412
G1 X79.551 Y-304.850
G1 X83.276 Y-307.291
G1 X79.033 Y-306.660
G1 X82.619 Y-309.169
G1 X78.487 Y-308.491
G1 X81.934 Y-311.060
G1 X77.873 Y-310.317
G1 X81.231 Y-312.954
G1 X77.188 Y-312.118
G1 X80.509 Y-314.834
G1 X76.446 Y-313.882
G1 X79.749 Y-316.686
G1 X75.669 Y-315.618
G1 X78.921 Y-318.504
G1 X74.879 Y-317.353
G1 X78.142 Y-320.326
G1 X73.988 Y-318.989
G1 X77.380 Y-322.104
G1 X73.055 Y-320.534
G1 X76.509 Y-323.786
G1 X72.182 Y-322.097
G1 X75.586 Y-325.432
G1 X71.295 Y-323.652
G1 X74.590 Y-327.047
G1 X70.398 Y-325.223
G1 X73.312 Y-328.576
G1 X69.594 Y-327.029
G1 X72.239 Y-330.308
G1 X68.490 Y-328.614
G1 X71.273 Y-332.046
G1 X67.293 Y-330.015
G1 X70.010 Y-333.559
G1 X66.286 Y-331.645
G1 X68.742 Y-335.133
G1 X65.158 Y-333.234
G1 X67.487 Y-336.738
G1 X63.937 Y-334.746
G1 X66.112 Y-338.270
G1 X62.721 Y-336.324
G1 X64.650 Y-339.794
G1 X61.444 Y-337.935
G1 X63.182 Y-341.363
G1 X60.059 Y-339.475
G1 X61.657 Y-342.905
G1 X58.627 Y-341.003
G1 X60.113 Y-344.444
G1 X57.131 Y-342.468
G1 X58.525 Y-345.940
G1 X55.601 Y-343.904
G1 X56.937 Y-347.425
G1 X54.023 Y-345.253
G1 X55.343 Y-348.865
G1 X52.427 Y-346.530
G1 X53.700 Y-350.220
G1 X50.834 Y-347.802
G1 X52.022 Y-351.528
G1 X49.215 Y-349.042
G1 X50.283 Y-352.770
G1 X47.570 Y-350.286
G1 X48.465 Y-353.957
G1 X45.879 Y-351.547
G1 X46.587 Y-355.129
G1 X44.118 Y-352.783
G1 X44.627 Y-356.259
G1 X42.287 Y-354.023
G1 X42.578 Y-357.357
G1 X40.372 Y-355.263
G1 X40.413 Y-358.405
G1 X38.356 Y-356.532
G1 X38.106 Y-359.409
G1 X36.206 Y-357.836
G1 X36.491 Y-361.314
G1 X34.084 Y-357.745
G1 X35.287 Y-362.997
G1 X32.315 Y-357.427
G1 X33.830 Y-363.646
G1 X30.951 Y-358.010
G1 X32.398 Y-364.337
G1 X29.566 Y-358.492
G1 X30.933 Y-364.921
G1 X28.204 Y-359.027
G1 X29.261 Y-365.097
G1 X26.868 Y-359.980
G1 X27.336 Y-365.095
G1 X25.324 Y-361.205
G1 X25.222 Y-365.307
G1 X23.447 Y-362.300
G1 X22.940 Y-365.692
G1 X21.310 Y-363.240
G1 X20.562 Y-366.215
G1 X19.019 Y-363.981
G1 X18.163 Y-366.815
G1 X16.682 Y-364.523
G1 X15.859 Y-367.535
G1 X14.432 Y-364.771
G1 X13.812 Y-368.469
G1 X12.438 Y-364.591
G1 X12.014 Y-369.295
G1 X10.697 Y-364.344
G1 X10.216 Y-369.458
G1 X9.003 Y-364.681
G1 X8.295 Y-369.368
G1 X7.171 Y-365.227
G1 X6.279 Y-369.430
G1 X5.232 Y-365.557
G1 X4.198 Y-369.489
G1 X3.223 Y-365.808
G1 X2.062 Y-369.518
G1 X1.154 Y-365.999
G1 X-.130 Y-369.490
G1 X-.980 Y-366.147
G1 X-2.381 Y-369.399
G1 X-3.185 Y-366.250
G1 X-4.687 Y-369.281
G1 X-5.440 Y-366.263
G1 X-7.022 Y-369.154
G1 X-7.707 Y-366.163
G1 X-9.360 Y-369.004
G1 X-9.958 Y-365.966
G1 X-11.694 Y-368.739
G1 X-12.234 Y-365.760
G1 X-14.051 Y-368.370
G1 X-14.559 Y-365.525
G1 X-16.441 Y-367.962
G1 X-16.903 Y-365.191
G1 X-18.847 Y-367.499
G1 X-19.256 Y-364.774
G1 X-21.257 Y-366.982
G1 X-21.602 Y-364.275
G1 X-23.663 Y-366.380
G1 X-23.959 Y-363.721
G1 X-26.071 Y-365.698
G1 X-26.327 Y-363.101
G1 X-28.484 Y-364.957
G1 X-28.688 Y-362.395
G1 X-30.888 Y-364.118
G1 X-31.066 Y-361.632
G1 X-33.298 Y-363.201
G1 X-33.452 Y-360.790
G1 X-35.710 Y-362.243
G1 X-35.803 Y-359.841
G1 X-38.104 Y-361.261
G1 X-38.082 Y-358.794
G1 X-40.445 Y-360.229
G1 X-40.297 Y-357.689
G1 X-42.729 Y-359.153
G1 X-42.443 Y-356.533
G1 X-44.955 Y-358.054
G1 X-44.498 Y-355.323
G1 X-47.111 Y-356.942
G1 X-46.450 Y-354.073
G1 X-49.181 Y-355.799
G1 X-48.319 Y-352.810
G1 X-51.176 Y-354.649
G1 X-50.090 Y-351.525
G1 X-53.097 Y-353.516
G1 X-51.740 Y-350.221
G1 X-55.041 Y-352.676
G1 X-52.979 Y-348.779
G1 X-56.807 Y-351.950
G1 X-54.002 Y-347.414
G1 X-58.228 Y-350.964
G1 X-55.209 Y-346.351
G1 X-59.570 Y-349.912
G1 X-56.433 Y-345.323
G1 X-60.903 Y-348.865
G1 X-57.604 Y-344.261
G1 X-62.195 Y-347.793
G1 X-58.756 Y-343.198
G1 X-63.450 Y-346.692
G1 X-59.894 Y-342.130
G1 X-64.661 Y-345.548
G1 X-61.035 Y-341.061
G1 X-65.831 Y-344.350
G1 X-62.193 Y-339.989
G1 X-66.984 Y-343.114
G1 X-63.350 Y-338.888
G1 X-68.149 Y-341.874
G1 X-64.461 Y-337.735
G1 X-69.304 Y-340.621
G1 X-65.540 Y-336.552
G1 X-70.416 Y-339.323
G1 X-66.627 Y-335.361
G1 X-71.536 Y-338.026
G1 X-67.660 Y-334.126
G1 X-72.639 Y-336.722
G1 X-68.653 Y-332.870
G1 X-73.703 Y-335.392
G1 X-69.633 Y-331.607
G1 X-74.751 Y-334.056
G1 X-70.572 Y-330.323
G1 X-75.742 Y-332.680
G1 X-71.521 Y-329.040
G1 X-76.717 Y-331.286
G1 X-72.442 Y-327.733
G1 X-77.706 Y-329.910
G1 X-73.285 Y-326.393
G1 X-78.627 Y-328.497
G1 X-74.142 Y-325.062
G1 X-79.486 Y-327.037
G1 X-75.022 Y-323.726
G1 X-80.374 Y-325.589
G1 X-75.821 Y-322.348
G1 X-81.238 Y-324.133
G1 X-76.584 Y-320.958
G1 X-82.047 Y-322.649
G1 X-77.350 Y-319.566
G1 X-82.849 Y-321.162
G1 X-78.067 Y-318.155
G1 X-83.602 Y-319.652
G1 X-78.780 Y-316.739
G1 X-84.353 Y-318.144
G1 X-79.436 Y-315.303
G1 X-85.081 Y-316.632
G1 X-80.054 Y-313.862
G1 X-85.744 Y-315.096
G1 X-80.682 Y-312.423
G1 X-86.373 Y-313.542
G1 X-81.293 Y-310.971
G1 X-86.962 Y-311.965
G1 X-81.895 Y-309.503
G1 X-87.526 Y-310.368
G1 X-82.474 Y-308.015
G1 X-88.091 Y-308.766
G1 X-82.996 Y-306.507
G1 X-88.632 Y-307.157
G1 X-83.482 Y-304.989
G1 X-89.109 Y-305.524
G1 X-83.979 Y-303.464
G1 X-89.544 Y-303.866
G1 X-84.467 Y-301.917
G1 X-89.981 Y-302.198
G1 X-84.899 Y-300.349
G1 X-90.415 Y-300.528
G1 X-85.269 Y-298.771
G1 X-90.796 Y-298.848
G1 X-85.633 Y-297.188
G1 X-91.168 Y-297.166
G1 X-85.944 Y-295.601
G1 X-91.499 Y-295.480
G1 X-86.232 Y-294.011
G1 X-91.762 Y-293.778
G1 X-86.530 Y-292.412
G1 X-92.017 Y-292.068
G1 X-86.775 Y-290.801
G1 X-92.218 Y-290.344
G1 X-87.014 Y-289.177
G1 X-92.388 Y-288.606
G1 X-87.224 Y-287.537
G1 X-92.533 Y-286.855
G1 X-87.395 Y-285.884
G1 X-92.652 Y-285.095
G1 X-87.528 Y-284.221
G1 X-92.776 Y-283.336
G1 X-87.590 Y-282.564
G1 X-92.843 Y-281.579
G1 X-87.644 Y-280.906
G1 X-92.847 Y-279.815
G1 X-87.696 Y-279.235
G1 X-92.824 Y-278.041
G1 X-87.709 Y-277.555
G1 X-92.751 Y-276.256
G1 X-87.704 Y-275.858
G1 X-92.682 Y-274.464
G1 X-87.627 Y-274.163
G1 X-92.601 Y-272.676
G1 X-87.496 Y-272.482
G1 X-92.485 Y-270.898
G1 X-87.333 Y-270.812
G1 X-92.383 Y-269.137
G1 X-87.096 Y-269.179
G1 X-92.274 Y-267.403
G1 X-86.809 Y-267.587
G1 X-92.083 Y-265.703
G1 X-86.548 Y-266.006
G1 X-91.762 Y-264.019
G1 X-86.352 Y-264.392
G1 X-91.406 Y-262.320
G1 X-86.121 Y-262.760
G1 X-91.006 Y-260.606
G1 X-85.862 Y-261.104
G1 X-90.544 Y-258.874
G1 X-85.584 Y-259.412
G1 X-90.102 Y-257.113
G1 X-85.211 Y-257.726
G1 X-89.614 Y-255.349
G1 X-84.808 Y-256.030
G1 X-89.025 Y-253.583
G1 X-84.417 Y-254.282
G1 X-88.426 Y-251.782
G1 X-83.945 Y-252.525
G1 X-87.569 Y-249.983
G1 X-83.587 Y-250.581
G1 X-86.571 Y-248.072
G1 X-83.171 Y-248.450
G1 X-85.825 Y-245.981
G1 X-82.383 Y-246.473
G1 X-85.218 Y-243.905
G1 X-81.433 Y-244.696
G1 X-84.639 Y-241.943
G1 X-80.468 Y-243.071
G1 X-84.165 Y-240.078
G1 X-79.447 Y-241.653
G1 X-83.759 Y-238.335
G1 X-78.422 Y-240.405
G1 X-83.223 Y-236.763
G1 X-77.547 Y-239.162
G1 X-82.622 Y-235.276
G1 X-76.729 Y-237.933
G1 X-81.968 Y-233.844
G1 X-75.940 Y-236.715
G1 X-81.196 Y-232.489
G1 X-75.229 Y-235.451
G1 X-80.415 Y-231.140
G1 X-74.486 Y-234.209
G1 X-79.632 Y-229.793
G1 X-73.705 Y-232.996
G1 X-78.776 Y-228.494
G1 X-72.952 Y-231.759
G1 X-77.962 Y-227.167
G1 X-72.120 Y-230.583
G1 X-76.660 Y-226.117
G1 X-71.639 Y-229.019
G1 X-74.980 Y-225.086
G1 X-71.171 Y-227.030
G1 X-73.632 Y-223.566
G1 X-70.125 Y-225.329
G1 X-72.378 Y-221.918
G1 X-68.891 Y-223.781
G1 X-71.065 Y-220.318
G1 X-67.641 Y-222.236
G1 X-69.732 Y-218.731
G1 X-66.341 Y-220.737
G1 X-68.429 Y-217.145
G1 X-64.987 Y-219.345
G1 X-67.120 Y-215.618
G1 X-63.631 Y-218.013
G1 X-65.764 Y-214.171
G1 X-62.290 Y-216.689
G1 X-64.302 Y-212.818
G1 X-60.964 Y-215.298
G1 X-62.732 Y-211.506
G1 X-59.597 Y-213.842
G1 X-61.133 Y-210.147
G1 X-58.127 Y-212.438
G1 X-59.461 Y-208.809
G1 X-56.596 Y-211.023
G1 X-57.708 Y-207.489
G1 X-54.995 Y-209.596
G1 X-55.897 Y-206.161
G1 X-53.308 Y-208.196
G1 X-54.003 Y-204.859
G1 X-51.547 Y-206.791
G1 X-51.992 Y-203.601
G1 X-49.702 Y-205.342
G1 X-49.893 Y-202.331
G1 X-47.739 Y-203.919
G1 X-47.783 Y-201.006
G1 X-45.678 Y-202.636
G1 X-45.615 Y-199.751
G1 X-43.576 Y-201.380
G1 X-43.366 Y-198.574
G1 X-41.415 Y-200.126
G1 X-41.102 Y-197.382
G1 X-39.190 Y-199.002
G1 X-38.838 Y-196.226
G1 X-36.949 Y-197.988
G1 X-36.588 Y-195.128
G1 X-34.716 Y-197.077
G1 X-34.372 Y-194.084
G1 X-32.511 Y-196.278
G1 X-32.174 Y-193.140
G1 X-30.343 Y-195.534
G1 X-29.952 Y-192.334
G1 X-28.182 Y-194.774
G1 X-27.690 Y-191.611
G1 X-25.992 Y-194.034
G1 X-25.392 Y-190.940
G1 X-23.764 Y-193.345
G1 X-22.940 Y-190.506
G1 X-21.410 Y-192.475
G1 X-20.406 Y-189.965
G1 X-18.939 Y-191.805
G1 X-18.099 Y-188.968
G1 X-16.663 Y-191.822
G1 X-16.095 Y-188.007
G1 X-14.702 Y-192.034
G1 X-14.245 Y-187.421
G1 X-12.922 Y-192.014
G1 X-12.435 Y-187.080
G1 X-11.200 Y-191.836
G1 X-10.606 Y-186.904
G1 X-9.463 Y-191.561
G1 X-8.716 Y-186.850
G1 X-7.658 Y-191.221
G1 X-6.785 Y-186.731
G1 X-5.812 Y-191.016
G1 X-4.852 Y-186.569
G1 X-3.972 Y-190.934
G1 X-2.924 Y-186.469
G1 X-2.135 Y-190.867
G1 X-.988 Y-186.447
G1 X-.283 Y-190.800
G1 X.963 Y-186.466
G1 X1.585 Y-190.771
G1 X2.943 Y-186.594
G1 X3.508 Y-190.714
G1 X4.972 Y-186.767
G1 X5.486 Y-190.702
G1 X7.046 Y-186.964
G1 X7.506 Y-190.759
G1 X9.170 Y-187.281
G1 X9.616 Y-190.802
G1 X11.355 Y-187.571
G1 X11.753 Y-190.983
G1 X13.545 Y-187.752
G1 X13.802 Y-191.364
G1 X15.662 Y-187.873
G1 X15.713 Y-191.870
G1 X17.665 Y-187.912
G1 X17.436 Y-192.493
G1 X19.528 Y-187.965
G1 X19.013 Y-193.123
G1 X21.279 Y-187.967
G1 X20.439 Y-193.812
G1 X22.910 Y-188.097
G1 X21.820 Y-194.392
G1 X24.410 Y-188.764
G1 X23.398 Y-194.506
G1 X25.954 Y-189.829
G1 X25.305 Y-194.385
G1 X27.756 Y-190.753
G1 X27.337 Y-194.596
G1 X29.752 Y-191.334
G1 X29.206 Y-195.251
G1 X31.717 Y-191.881
G1 X30.979 Y-195.989
G1 X33.613 Y-192.458
G1 X32.685 Y-196.738
G1 X35.467 Y-192.938
G1 X34.235 Y-197.588
G1 X37.213 Y-193.457
G1 X35.710 Y-198.402
G1 X38.842 Y-194.145
G1 X37.232 Y-199.087
G1 X40.465 Y-194.816
G1 X38.699 Y-199.832
G1 X42.068 Y-195.462
G1 X40.098 Y-200.628
G1 X43.619 Y-196.143
G1 X41.467 Y-201.415
G1 X45.069 Y-197.028
G1 X42.950 Y-202.070
G1 X46.532 Y-197.974
G1 X44.471 Y-202.762
G1 X48.059 Y-198.860
G1 X45.928 Y-203.585
G1 X49.493 Y-200.006
G1 X47.585 Y-204.291
G1 X50.982 Y-201.300
G1 X49.394 Y-205.064
G1 X52.564 Y-202.769
G1 X51.395 Y-205.953
G1 X54.325 Y-204.292
G1 X53.450 Y-207.076
G1 X56.344 Y-205.480
G1 X55.074 Y-208.549
G1 X58.290 Y-206.481
G1 X56.386 Y-210.046
G1 X59.953 Y-207.610
G1 X57.746 Y-211.341
G1 X61.451 Y-208.884
G1 X59.202 Y-212.539
G1 X62.888 Y-210.282
G1 X60.739 Y-213.739
G1 X64.329 Y-211.772
G1 X62.322 Y-215.008
G1 X65.811 Y-213.311
G1 X63.891 Y-216.381
G1 X67.301 Y-214.918
G1 X65.462 Y-217.836
G1 X68.791 Y-216.598
G1 X67.038 Y-219.369
G1 X70.275 Y-218.362
G1 X68.624 Y-220.983
G1 X71.784 Y-220.162
G1 X70.149 Y-222.695
G1 X73.241 Y-222.063
G1 X71.704 Y-224.463
G1 X74.685 Y-224.047
G1 X73.252 Y-226.323
G1 X76.173 Y-226.032
G1 X74.666 Y-228.276
G1 X77.619 Y-228.033
G1 X75.998 Y-230.261
G1 X79.007 Y-230.047
G1 X77.257 Y-232.263
G1 X80.350 Y-232.052
G1 X78.414 Y-234.272
G1 X81.652 Y-234.016
G1 X79.443 Y-236.266
G1 X82.892 Y-235.927
G1 X80.351 Y-238.218
G1 X84.034 Y-237.800
G1 X81.192 Y-240.113
G1 X85.058 Y-239.669
G1 X82.017 Y-241.962
G1 X85.986 Y-241.552
G1 X82.836 Y-243.794
G1 X86.841 Y-243.459
G1 X83.642 Y-245.631
G1 X87.659 Y-245.380
G1 X84.399 Y-247.485
G1 X88.466 Y-247.291
G1 X85.070 Y-249.344
G1 X89.222 Y-249.196
G1 X85.692 Y-251.193
G1 X89.903 Y-251.111
G1 X86.300 Y-253.038
G1 X90.534 Y-253.037
G1 X86.876 Y-254.888
G1 X91.163 Y-254.947
G1 X87.360 Y-256.736
G1 X91.814 Y-256.807
G1 X87.715 Y-258.548
G1 X92.369 Y-258.639
G1 X88.068 Y-260.316
G1 X92.822 Y-260.470
G1 X88.443 Y-262.066
G1 X93.316 Y-262.266
G1 X88.692 Y-263.792
G1 X93.766 Y-264.025
G1 X88.899 Y-265.477
G1 X94.146 Y-265.760
G1 X89.101 Y-267.130
G1 X94.513 Y-267.467
G1 X89.244 Y-268.752
G1 X94.814 Y-269.153
G1 X89.385 Y-270.348
G1 X95.030 Y-270.836
G1 X89.550 Y-271.935
G1 X95.186 Y-272.525
G1 X89.719 Y-273.528
G1 X95.321 Y-274.220
G1 X89.852 Y-275.126
G1 X95.418 Y-275.921
G1 X89.964 Y-276.732
G1 X95.477 Y-277.630
G1 X90.056 Y-278.347
G1 X95.522 Y-279.345
G1 X90.103 Y-279.966
G1 X95.543 Y-281.062
G1 X90.115 Y-281.587
G1 X95.496 Y-282.786
G1 X90.135 Y-283.221
G1 X95.417 Y-284.521
G1 X90.125 Y-284.871
G1 X95.337 Y-286.266
G1 X90.055 Y-286.521
G1 X95.209 Y-288.013
G1 X89.969 Y-288.180
G1 X95.057 Y-289.765
G1 X89.844 Y-289.843
G1 X94.873 Y-291.520
G1 X89.689 Y-291.509
G1 X94.639 Y-293.278
G1 X89.517 Y-293.186
G1 X94.357 Y-295.045
G1 X89.326 Y-294.881
G1 X94.046 Y-296.824
G1 X89.092 Y-296.587
G1 X93.676 Y-298.613
G1 X88.845 Y-298.318
G1 X93.274 Y-300.421
G1 X88.552 Y-300.067
G1 X92.887 Y-302.244
G1 X88.172 Y-301.799
G1 X92.465 Y-304.059
G1 X87.760 Y-303.523
G1 X91.968 Y-305.864
G1 X87.346 Y-305.265
G1 X91.440 Y-307.676
G1 X86.886 Y-307.011
G1 X90.887 Y-309.492
G1 X86.376 Y-308.750
G1 X90.281 Y-311.303
G1 X85.841 Y-310.498
G1 X89.596 Y-313.110
G1 X85.296 Y-312.280
G1 X88.870 Y-314.937
G1 X84.696 Y-314.077
G1 X88.103 Y-316.777
G1 X84.041 Y-315.885
G1 X87.264 Y-318.624
G1 X83.353 Y-317.726
G1 X86.440 Y-320.501
G1 X82.562 Y-319.528
G1 X85.590 Y-322.366
G1 X81.721 Y-321.302
G1 X84.701 Y-324.210
G1 X80.843 Y-323.055
G1 X83.822 Y-326.041
G1 X79.902 Y-324.741
G1 X82.956 Y-327.838
G1 X78.917 Y-326.346
G1 X82.136 Y-329.596
G1 X77.885 Y-327.834
G1 X81.251 Y-331.253
G1 X76.903 Y-329.303
G1 X80.303 Y-332.842
G1 X75.945 Y-330.770
G1 X79.325 Y-334.399
G1 X74.972 Y-332.215
G1 X78.105 Y-335.841
G1 X74.105 Y-333.850
G1 X76.815 Y-337.346
G1 X73.134 Y-335.539
G1 X75.617 Y-338.977
G1 X71.975 Y-337.093
G1 X74.342 Y-340.564
G1 X70.804 Y-338.671
G1 X73.003 Y-342.136
G1 X69.589 Y-340.259
G1 X71.624 Y-343.711
G1 X68.312 Y-341.830
G1 X70.158 Y-345.257
G1 X66.995 Y-343.436
G1 X68.646 Y-346.817
G1 X65.601 Y-345.022
G1 X67.166 Y-348.416
G1 X64.116 Y-346.491
G1 X65.673 Y-349.970
G1 X62.613 Y-347.901
G1 X64.110 Y-351.439
G1 X61.114 Y-349.329
G1 X62.548 Y-352.905
G1 X59.567 Y-350.676
G1 X60.974 Y-354.329
G1 X58.003 Y-351.969
G1 X59.360 Y-355.685
G1 X56.433 Y-353.248
G1 X57.688 Y-356.980
G1 X54.845 Y-354.533
G1 X55.930 Y-358.215
G1 X53.221 Y-355.856
G1 X54.105 Y-359.439
G1 X51.525 Y-357.171
G1 X52.205 Y-360.643
G1 X49.755 Y-358.485
G1 X50.249 Y-361.849
G1 X47.904 Y-359.761
G1 X48.233 Y-363.036
G1 X45.985 Y-361.007
G1 X46.125 Y-364.166
G1 X43.996 Y-362.271
G1 X43.916 Y-365.257
G1 X41.912 Y-363.544
G1 X41.560 Y-366.284
G1 X39.705 Y-364.875
G1 X39.102 Y-367.341
G1 X37.351 Y-366.137
G1 X37.205 Y-369.112
G1 X35.097 Y-366.238
G1 X35.698 Y-370.646
G1 X33.233 Y-366.137
G1 X34.240 Y-371.625
G1 X31.658 Y-366.381
G1 X32.830 Y-372.473
G1 X30.177 Y-366.644
G1 X31.292 Y-372.909
G1 X28.800 Y-367.273
G1 X29.593 Y-373.090
G1 X27.381 Y-368.171
G1 X27.646 Y-373.097
G1 X25.750 Y-369.330
G1 X25.559 Y-373.387
G1 X23.835 Y-370.251
G1 X23.373 Y-373.830
G1 X21.755 Y-370.994
G1 X21.107 Y-374.296
G1 X19.572 Y-371.653
G1 X18.783 Y-374.764
G1 X17.318 Y-372.224
G1 X16.451 Y-375.268
G1 X15.049 Y-372.646
G1 X14.177 Y-375.819
G1 X12.841 Y-372.885
G1 X12.065 Y-376.505
G1 X10.809 Y-372.832
G1 X10.175 Y-377.244
G1 X9.008 Y-372.578
G1 X8.348 Y-377.477
G1 X7.271 Y-372.744
G1 X6.439 Y-377.399
G1 X5.430 Y-373.168
G1 X4.452 Y-377.435
G1 X3.511 Y-373.414
G1 X2.407 Y-377.440
G1 X1.528 Y-373.615
G1 X.308 Y-377.419
G1 X-.512 Y-373.759
G1 X-1.834 Y-377.376
G1 X-2.596 Y-373.835
G1 X-4.024 Y-377.253
G1 X-4.742 Y-373.894
G1 X-6.267 Y-377.087
G1 X-6.947 Y-373.893
G1 X-8.553 Y-376.904
G1 X-9.183 Y-373.800
G1 X-10.862 Y-376.687
G1 X-11.434 Y-373.628
G1 X-13.178 Y-376.444
G1 X-13.676 Y-373.372
G1 X-15.492 Y-376.122
G1 X-15.930 Y-373.083
G1 X-17.814 Y-375.726
G1 X-18.204 Y-372.751
G1 X-20.150 Y-375.261
G1 X-20.501 Y-372.364
G1 X-22.504 Y-374.733
G1 X-22.818 Y-371.914
G1 X-24.873 Y-374.132
G1 X-25.161 Y-371.404
G1 X-27.260 Y-373.478
G1 X-27.512 Y-370.813
G1 X-29.653 Y-372.763
G1 X-29.865 Y-370.148
G1 X-32.047 Y-371.982
G1 X-32.220 Y-369.416
G1 X-34.439 Y-371.131
G1 X-34.577 Y-368.615
G1 X-36.826 Y-370.186
G1 X-36.955 Y-367.760
G1 X-39.225 Y-369.213
G1 X-39.297 Y-366.797
G1 X-41.606 Y-368.230
G1 X-41.561 Y-365.737
G1 X-43.935 Y-367.214
G1 X-43.751 Y-364.623
G1 X-46.198 Y-366.148
G1 X-45.881 Y-363.477
G1 X-48.405 Y-365.058
G1 X-47.933 Y-362.288
G1 X-50.547 Y-363.950
G1 X-49.897 Y-361.063
G1 X-52.618 Y-362.825
G1 X-51.775 Y-359.816
G1 X-54.610 Y-361.675
G1 X-53.581 Y-358.561
G1 X-56.623 Y-360.785
G1 X-55.018 Y-357.156
G1 X-58.569 Y-360.230
G1 X-56.009 Y-355.672
G1 X-60.151 Y-359.509
G1 X-57.063 Y-354.492
G1 X-61.475 Y-358.534
G1 X-58.295 Y-353.558
G1 X-62.774 Y-357.526
G1 X-59.522 Y-352.614
G1 X-64.049 Y-356.481
G1 X-60.748 Y-351.657
G1 X-65.308 Y-355.405
G1 X-61.970 Y-350.680
G1 X-66.556 Y-354.302
G1 X-63.183 Y-349.676
G1 X-67.792 Y-353.171
G1 X-64.386 Y-348.645
G1 X-69.037 Y-352.045
G1 X-65.544 Y-347.567
G1 X-70.249 Y-350.882
G1 X-66.703 Y-346.483
G1 X-71.443 Y-349.694
G1 X-67.848 Y-345.376
G1 X-72.644 Y-348.514
G1 X-68.940 Y-344.228
G1 X-73.839 Y-347.342
G1 X-69.979 Y-343.054
G1 X-75.013 Y-346.175
G1 X-70.972 Y-341.869
G1 X-76.109 Y-344.951
G1 X-71.998 Y-340.712
G1 X-77.129 Y-343.646
G1 X-73.085 Y-339.573
G1 X-78.138 Y-342.298
G1 X-74.178 Y-338.396
G1 X-79.184 Y-340.955
G1 X-75.209 Y-337.155
G1 X-80.245 Y-339.620
G1 X-76.180 Y-335.873
G1 X-81.280 Y-338.271
G1 X-77.125 Y-334.578
G1 X-82.300 Y-336.920
G1 X-78.029 Y-333.268
G1 X-83.274 Y-335.544
G1 X-78.929 Y-331.957
G1 X-84.206 Y-334.138
G1 X-79.828 Y-330.640
G1 X-85.117 Y-332.712
G1 X-80.707 Y-329.303
G1 X-86.007 Y-331.266
G1 X-81.566 Y-327.947
G1 X-86.897 Y-329.821
G1 X-82.373 Y-326.565
G1 X-87.773 Y-328.375
G1 X-83.138 Y-325.171
G1 X-88.643 Y-326.942
G1 X-83.843 Y-323.768
G1 X-89.500 Y-325.525
G1 X-84.492 Y-322.365
G1 X-90.290 Y-324.093
G1 X-85.147 Y-320.981
G1 X-90.994 Y-322.621
G1 X-85.843 Y-319.611
G1 X-91.572 Y-321.065
G1 X-86.646 Y-318.239
G1 X-92.241 Y-319.522
G1 X-87.325 Y-316.799
G1 X-92.913 Y-317.974
G1 X-87.952 Y-315.335
G1 X-93.533 Y-316.400
G1 X-88.586 Y-313.862
G1 X-94.122 Y-314.802
G1 X-89.207 Y-312.369
G1 X-94.716 Y-313.196
G1 X-89.775 Y-310.853
G1 X-95.283 Y-311.579
G1 X-90.317 Y-309.324
G1 X-95.755 Y-309.913
G1 X-90.915 Y-307.780
G1 X-96.309 Y-308.263
G1 X-91.373 Y-306.203
G1 X-96.867 Y-306.631
G1 X-91.760 Y-304.632
G1 X-97.355 Y-304.997
G1 X-92.154 Y-303.076
G1 X-97.791 Y-303.355
G1 X-92.544 Y-301.521
G1 X-98.192 Y-301.706
G1 X-92.914 Y-299.961
G1 X-98.550 Y-300.045
G1 X-93.273 Y-298.393
G1 X-98.967 Y-298.405
G1 X-93.511 Y-296.827
G1 X-99.287 Y-296.760
G1 X-93.790 Y-295.273
G1 X-99.557 Y-295.105
G1 X-94.066 Y-293.712
G1 X-99.859 Y-293.459
G1 X-94.254 Y-292.153
G1 X-100.057 Y-291.801
G1 X-94.492 Y-290.591
G1 X-100.110 Y-290.096
G1 X-94.831 Y-288.985
G1 X-100.220 Y-288.360
G1 X-95.062 Y-287.340
G1 X-100.333 Y-286.605
G1 X-95.234 Y-285.673
G1 X-100.348 Y-284.816
G1 X-95.447 Y-283.963
G1 X-100.468 Y-283.017
G1 X-95.492 Y-282.257
G1 X-100.632 Y-281.244
G1 X-95.429 Y-280.593
G1 X-100.710 Y-279.500
G1 X-95.390 Y-278.951
G1 X-100.682 Y-277.762
G1 X-95.399 Y-277.299
G1 X-100.616 Y-276.015
G1 X-95.386 Y-275.636
G1 X-100.534 Y-274.260
G1 X-95.329 Y-273.968
G1 X-100.421 Y-272.501
G1 X-95.242 Y-272.296
G1 X-100.277 Y-270.738
G1 X-95.124 Y-270.618
G1 X-100.132 Y-268.975
G1 X-94.948 Y-268.953
G1 X-99.940 Y-267.219
G1 X-94.757 Y-267.289
G1 X-99.703 Y-265.466
G1 X-94.551 Y-265.620
G1 X-99.418 Y-263.712
G1 X-94.329 Y-263.940
G1 X-99.092 Y-261.950
G1 X-94.081 Y-262.248
G1 X-98.716 Y-260.179
G1 X-93.814 Y-260.535
G1 X-98.326 Y-258.392
G1 X-93.490 Y-258.818
G1 X-98.034 Y-256.598
G1 X-93.018 Y-257.179
G1 X-97.742 Y-254.847
G1 X-92.508 Y-255.602
G1 X-97.285 Y-253.159
G1 X-92.107 Y-253.988
G1 X-96.664 Y-251.481
G1 X-91.785 Y-252.284
G1 X-96.025 Y-249.750
G1 X-91.386 Y-250.543
G1 X-95.377 Y-247.976
G1 X-90.907 Y-248.784
G1 X-94.706 Y-246.175
G1 X-90.362 Y-247.012
G1 X-94.060 Y-244.351
G1 X-89.719 Y-245.279
G1 X-93.435 Y-242.535
G1 X-89.005 Y-243.607
G1 X-92.840 Y-240.749
G1 X-88.231 Y-242.018
G1 X-92.240 Y-239.019
G1 X-87.443 Y-240.497
G1 X-91.801 Y-237.302
G1 X-86.516 Y-239.166
G1 X-91.396 Y-235.672
G1 X-85.587 Y-237.947
G1 X-90.792 Y-234.199
G1 X-84.848 Y-236.665
G1 X-90.103 Y-232.783
G1 X-84.159 Y-235.364
G1 X-89.394 Y-231.381
G1 X-83.452 Y-234.079
G1 X-88.659 Y-229.998
G1 X-82.733 Y-232.803
G1 X-87.917 Y-228.621
G1 X-81.984 Y-231.552
G1 X-87.171 Y-227.255
G1 X-81.208 Y-230.327
G1 X-86.347 Y-225.938
G1 X-80.469 Y-229.075
G1 X-85.473 Y-224.644
G1 X-79.731 Y-227.809
G1 X-84.602 Y-223.342
G1 X-78.946 Y-226.567
G1 X-83.694 Y-222.057
G1 X-78.149 Y-225.322
G1 X-82.782 Y-220.768
G1 X-77.313 Y-224.101
G1 X-81.921 Y-219.449
G1 X-76.398 Y-222.954
G1 X-81.073 Y-218.137
G1 X-75.453 Y-221.854
G1 X-80.107 Y-216.922
G1 X-74.591 Y-220.685
G1 X-78.607 Y-216.031
G1 X-74.064 Y-219.022
G1 X-76.933 Y-215.008
G1 X-73.338 Y-217.129
G1 X-75.566 Y-213.518
G1 X-72.114 Y-215.594
G1 X-74.218 Y-211.986
G1 X-70.800 Y-214.144
G1 X-72.774 Y-210.522
G1 X-69.486 Y-212.640
G1 X-71.259 Y-209.068
G1 X-68.118 Y-211.119
G1 X-69.735 Y-207.583
G1 X-66.665 Y-209.662
G1 X-68.143 Y-206.137
G1 X-65.179 Y-208.192
G1 X-66.471 Y-204.721
G1 X-63.643 Y-206.697
G1 X-64.689 Y-203.336
G1 X-62.041 Y-205.150
G1 X-62.780 Y-201.962
G1 X-60.341 Y-203.540
G1 X-60.814 Y-200.526
G1 X-58.507 Y-201.985
G1 X-58.747 Y-199.109
G1 X-56.578 Y-200.416
G1 X-56.608 Y-197.681
G1 X-54.542 Y-198.887
G1 X-54.486 Y-196.198
G1 X-52.423 Y-197.529
G1 X-52.436 Y-194.712
G1 X-50.301 Y-196.370
G1 X-50.415 Y-193.345
G1 X-48.235 Y-195.286
G1 X-48.313 Y-192.174
G1 X-46.200 Y-194.109
G1 X-46.188 Y-191.023
G1 X-44.123 Y-193.008
G1 X-44.110 Y-189.849
G1 X-42.036 Y-192.076
G1 X-42.039 Y-188.775
G1 X-39.982 Y-191.184
G1 X-39.979 Y-187.773
G1 X-37.948 Y-190.349
G1 X-37.956 Y-186.802
G1 X-35.938 Y-189.618
G1 X-35.938 Y-185.935
G1 X-33.960 Y-188.900
G1 X-33.885 Y-185.188
G1 X-31.979 Y-188.149
G1 X-31.802 Y-184.481
G1 X-29.970 Y-187.437
G1 X-29.683 Y-183.828
G1 X-27.927 Y-186.748
G1 X-27.440 Y-183.349
G1 X-25.794 Y-185.924
G1 X-25.008 Y-182.985
G1 X-23.470 Y-184.997
G1 X-22.515 Y-182.409
G1 X-21.033 Y-184.367
G1 X-20.152 Y-181.592
G1 X-18.706 Y-184.159
G1 X-18.049 Y-180.668
G1 X-16.641 Y-184.270
G1 X-16.209 Y-179.800
G1 X-14.841 Y-184.505
G1 X-14.512 Y-179.214
G1 X-13.202 Y-184.571
G1 X-12.838 Y-178.932
G1 X-11.614 Y-184.401
G1 X-11.152 Y-178.761
G1 X-10.021 Y-184.173
G1 X-9.463 Y-178.572
G1 X-8.421 Y-184.018
G1 X-7.777 Y-178.397
G1 X-6.827 Y-183.905
G1 X-6.050 Y-178.438
G1 X-5.181 Y-183.624
G1 X-4.269 Y-178.475
G1 X-3.472 Y-183.400
G1 X-2.485 Y-178.322
G1 X-1.789 Y-183.429
G1 X-.726 Y-178.223
G1 X-.131 Y-183.463
G1 X1.022 Y-178.224
G1 X1.530 Y-183.458
G1 X2.782 Y-178.300
G1 X3.213 Y-183.436
G1 X4.555 Y-178.377
G1 X4.904 Y-183.474
G1 X6.335 Y-178.470
G1 X6.597 Y-183.557
G1 X8.114 Y-178.586
G1 X8.287 Y-183.677
G1 X9.888 Y-178.703
G1 X9.960 Y-183.856
G1 X11.656 Y-178.957
G1 X11.672 Y-183.962
G1 X13.452 Y-179.255
G1 X13.420 Y-184.095
G1 X15.271 Y-179.472
G1 X15.135 Y-184.370
G1 X17.068 Y-179.612
G1 X16.771 Y-184.772
G1 X18.813 Y-179.619
G1 X18.268 Y-185.333
G1 X20.467 Y-179.669
G1 X19.689 Y-185.873
G1 X22.041 Y-179.899
G1 X21.115 Y-186.267
G1 X23.543 Y-180.599
G1 X22.733 Y-186.267
G1 X25.137 Y-181.475
G1 X24.563 Y-186.221
G1 X26.920 Y-182.212
G1 X26.465 Y-186.450
G1 X28.820 Y-182.924
G1 X28.428 Y-186.830
G1 X30.809 Y-183.387
G1 X30.224 Y-187.520
G1 X32.716 Y-183.970
G1 X32.023 Y-188.146
G1 X34.595 Y-184.593
G1 X33.800 Y-188.796
G1 X36.460 Y-185.179
G1 X35.496 Y-189.527
G1 X38.272 Y-185.783
G1 X37.137 Y-190.274
G1 X40.074 Y-186.198
G1 X38.563 Y-191.189
G1 X41.710 Y-186.810
G1 X40.031 Y-191.920
G1 X43.288 Y-187.510
G1 X41.515 Y-192.605
G1 X44.791 Y-188.462
G1 X43.167 Y-193.148
G1 X46.298 Y-189.764
G1 X45.159 Y-193.582
G1 X48.067 Y-190.963
G1 X47.155 Y-194.349
G1 X49.992 Y-192.029
G1 X49.026 Y-195.370
G1 X51.893 Y-193.179
G1 X50.923 Y-196.416
G1 X53.771 Y-194.481
G1 X52.924 Y-197.475
G1 X55.715 Y-195.805
G1 X54.905 Y-198.666
G1 X57.703 Y-197.086
G1 X56.772 Y-199.982
G1 X59.728 Y-198.142
G1 X58.304 Y-201.441
G1 X61.629 Y-199.044
G1 X59.568 Y-202.876
G1 X63.258 Y-200.067
G1 X60.873 Y-204.107
G1 X64.751 Y-201.174
G1 X62.205 Y-205.255
G1 X66.204 Y-202.290
G1 X63.496 Y-206.410
G1 X67.530 Y-203.572
G1 X64.920 Y-207.488
G1 X68.812 Y-205.023
G1 X66.493 Y-208.582
G1 X70.162 Y-206.566
G1 X68.122 Y-209.801
G1 X71.677 Y-208.020
G1 X69.572 Y-211.212
G1 X73.292 Y-209.287
G1 X70.725 Y-212.726
G1 X74.783 Y-210.516
G1 X71.790 Y-214.167
G1 X75.971 Y-211.997
G1 X73.139 Y-215.435
G1 X77.058 Y-213.728
G1 X74.740 Y-216.733
G1 X78.346 Y-215.453
G1 X76.217 Y-218.258
G1 X79.629 Y-217.305
G1 X77.763 Y-219.881
G1 X80.936 Y-219.281
G1 X79.354 Y-221.637
G1 X82.345 Y-221.284
G1 X80.832 Y-223.540
G1 X83.804 Y-223.260
G1 X82.152 Y-225.518
G1 X85.288 Y-225.134
G1 X83.243 Y-227.498
G1 X86.625 Y-226.993
G1 X84.299 Y-229.404
G1 X87.839 Y-228.863
G1 X85.346 Y-231.268
G1 X89.039 Y-230.682
G1 X86.263 Y-233.120
G1 X90.154 Y-232.476
G1 X87.126 Y-234.928
G1 X91.224 Y-234.224
G1 X87.899 Y-236.699
G1 X92.252 Y-235.913
G1 X88.573 Y-238.424
G1 X93.129 Y-237.617
G1 X89.301 Y-240.092
G1 X93.938 Y-239.333
G1 X90.022 Y-241.750
G1 X94.706 Y-241.059
G1 X90.716 Y-243.412
G1 X95.406 Y-242.814
G1 X91.419 Y-245.082
G1 X96.079 Y-244.592
G1 X92.095 Y-246.775
G1 X96.748 Y-246.375
G1 X92.709 Y-248.488
G1 X97.403 Y-248.154
G1 X93.266 Y-250.204
G1 X98.048 Y-249.915
G1 X93.754 Y-251.912
G1 X98.667 Y-251.655
G1 X94.186 Y-253.600
G1 X99.211 Y-253.391
G1 X94.620 Y-255.269
G1 X99.734 Y-255.114
G1 X95.005 Y-256.927
G1 X100.229 Y-256.822
G1 X95.349 Y-258.569
G1 X100.654 Y-258.531
G1 X95.699 Y-260.200
G1 X101.063 Y-260.231
G1 X96.004 Y-261.824
G1 X101.476 Y-261.911
G1 X96.238 Y-263.432
G1 X101.864 Y-263.569
G1 X96.434 Y-265.016
G1 X102.228 Y-265.203
G1 X96.592 Y-266.575
G1 X102.472 Y-266.841
G1 X96.816 Y-268.123
G1 X102.654 Y-268.493
G1 X97.054 Y-269.682
G1 X102.863 Y-270.146
G1 X97.213 Y-271.246
G1 X103.044 Y-271.797
G1 X97.348 Y-272.807
G1 X103.192 Y-273.448
G1 X97.464 Y-274.367
G1 X103.305 Y-275.101
G1 X97.564 Y-275.928
G1 X103.385 Y-276.756
G1 X97.646 Y-277.492
G1 X103.438 Y-278.415
G1 X97.704 Y-279.061
G1 X103.465 Y-280.077
G1 X97.736 Y-280.632
G1 X103.488 Y-281.738
G1 X97.721 Y-282.199
G1 X103.469 Y-283.396
G1 X97.696 Y-283.765
G1 X103.409 Y-285.056
G1 X97.661 Y-285.337
G1 X103.330 Y-286.718
G1 X97.593 Y-286.909
G1 X103.216 Y-288.382
G1 X97.507 Y-288.486
G1 X103.083 Y-290.048
G1 X97.388 Y-290.064
G1 X102.931 Y-291.714
G1 X97.237 Y-291.638
G1 X102.760 Y-293.377
G1 X97.053 Y-293.206
G1 X102.547 Y-295.035
G1 X96.858 Y-294.776
G1 X102.300 Y-296.691
G1 X96.645 Y-296.348
G1 X102.040 Y-298.348
G1 X96.392 Y-297.915
G1 X101.746 Y-300.001
G1 X96.121 Y-299.481
G1 X101.425 Y-301.651
G1 X95.824 Y-301.045
G1 X101.093 Y-303.299
G1 X95.487 Y-302.598
G1 X100.742 Y-304.940
G1 X95.119 Y-304.139
G1 X100.343 Y-306.568
G1 X94.748 Y-305.682
G1 X99.902 Y-308.190
G1 X94.365 Y-307.230
G1 X99.441 Y-309.813
G1 X93.949 Y-308.775
G1 X98.959 Y-311.434
G1 X93.499 Y-310.313
G1 X98.451 Y-313.050
G1 X93.023 Y-311.846
G1 X97.931 Y-314.661
G1 X92.510 Y-313.364
G1 X97.371 Y-316.260
G1 X91.985 Y-314.881
G1 X96.776 Y-317.849
G1 X91.441 Y-316.397
G1 X96.168 Y-319.437
G1 X90.858 Y-317.898
G1 X95.551 Y-321.018
G1 X90.238 Y-319.379
G1 X94.901 Y-322.583
G1 X89.603 Y-320.850
G1 X94.161 Y-324.116
G1 X88.998 Y-322.359
G1 X93.228 Y-325.617
G1 X88.475 Y-324.004
G1 X92.277 Y-327.194
G1 X87.848 Y-325.691
G1 X91.337 Y-328.843
G1 X87.101 Y-327.374
G1 X90.268 Y-330.498
G1 X86.346 Y-329.158
G1 X89.239 Y-332.242
G1 X85.440 Y-330.901
G1 X88.235 Y-334.014
G1 X84.439 Y-332.580
G1 X86.866 Y-335.663
G1 X83.592 Y-334.574
G1 X86.008 Y-337.635
G1 X82.263 Y-336.037
G1 X85.272 Y-339.471
G1 X80.960 Y-337.272
G1 X83.958 Y-340.875
G1 X80.117 Y-338.992
G1 X82.724 Y-342.446
G1 X79.052 Y-340.619
G1 X81.453 Y-344.040
G1 X77.915 Y-342.241
G1 X80.179 Y-345.660
G1 X76.698 Y-343.813
G1 X78.853 Y-347.254
G1 X75.451 Y-345.385
G1 X77.542 Y-348.862
G1 X74.138 Y-346.878
G1 X76.111 Y-350.381
G1 X72.845 Y-348.448
G1 X74.558 Y-351.871
G1 X71.512 Y-350.102
G1 X73.062 Y-353.466
G1 X70.036 Y-351.609
G1 X71.560 Y-355.035
G1 X68.529 Y-353.053
G1 X70.049 Y-356.561
G1 X67.007 Y-354.440
G1 X68.513 Y-358.030
G1 X65.481 Y-355.796
G1 X66.946 Y-359.447
G1 X63.944 Y-357.125
G1 X65.352 Y-360.822
G1 X62.389 Y-358.427
G1 X63.707 Y-362.143
G1 X60.817 Y-359.729
G1 X62.014 Y-363.429
G1 X59.210 Y-361.024
G1 X60.238 Y-364.665
G1 X57.563 Y-362.353
G1 X58.397 Y-365.892
G1 X55.846 Y-363.676
G1 X56.514 Y-367.128
G1 X54.055 Y-364.956
G1 X54.564 Y-368.330
G1 X52.208 Y-366.233
G1 X52.545 Y-369.507
G1 X50.293 Y-367.501
G1 X50.458 Y-370.662
G1 X48.306 Y-368.751
G1 X48.296 Y-371.788
G1 X46.242 Y-369.988
G1 X46.029 Y-372.861
G1 X44.091 Y-371.249
G1 X43.628 Y-373.881
G1 X41.820 Y-372.550
G1 X41.128 Y-374.924
G1 X39.413 Y-373.788
G1 X38.671 Y-376.096
G1 X36.951 Y-374.749
G1 X36.654 Y-377.681
G1 X34.689 Y-374.897
G1 X35.144 Y-379.317
G1 X32.799 Y-374.560
G1 X33.690 Y-380.246
G1 X31.235 Y-374.725
G1 X32.155 Y-380.772
G1 X29.789 Y-375.229
G1 X30.624 Y-381.302
G1 X28.333 Y-375.679
G1 X29.109 Y-381.850
G1 X26.873 Y-376.058
G1 X27.539 Y-382.221
G1 X25.429 Y-376.576
G1 X25.891 Y-382.462
G1 X23.945 Y-377.206
G1 X24.026 Y-382.401
G1 X22.313 Y-378.176
G1 X21.946 Y-382.413
G1 X20.397 Y-379.123
G1 X19.786 Y-382.777
G1 X18.316 Y-379.687
G1 X17.562 Y-383.129
G1 X16.163 Y-380.194
G1 X15.337 Y-383.564
G1 X14.001 Y-380.522
G1 X13.159 Y-384.020
G1 X11.893 Y-380.718
G1 X11.096 Y-384.560
G1 X9.914 Y-380.709
G1 X9.219 Y-385.214
G1 X8.133 Y-380.466
G1 X7.457 Y-385.592
G1 X6.463 Y-380.412
G1 X5.665 Y-385.545
G1 X4.742 Y-380.732
G1 X3.785 Y-385.441
G1 X2.915 Y-381.058
G1 X1.827 Y-385.399
G1 X1.011 Y-381.260
G1 X-.188 Y-385.352
G1 X-.950 Y-381.397
G1 X-2.253 Y-385.274
G1 X-2.965 Y-381.487
G1 X-4.362 Y-385.170
G1 X-5.026 Y-381.521
G1 X-6.509 Y-385.037
G1 X-7.123 Y-381.496
G1 X-8.694 Y-384.834
G1 X-9.272 Y-381.447
G1 X-10.919 Y-384.605
G1 X-11.455 Y-381.326
G1 X-13.162 Y-384.395
G1 X-13.623 Y-381.090
G1 X-15.402 Y-384.098
G1 X-15.810 Y-380.843
G1 X-17.657 Y-383.726
G1 X-18.029 Y-380.566
G1 X-19.936 Y-383.300
G1 X-20.275 Y-380.234
G1 X-22.240 Y-382.809
G1 X-22.555 Y-379.851
G1 X-24.569 Y-382.273
G1 X-24.852 Y-379.395
G1 X-26.914 Y-381.670
G1 X-27.175 Y-378.885
G1 X-29.280 Y-380.996
G1 X-29.529 Y-378.317
G1 X-31.667 Y-380.278
G1 X-31.888 Y-377.663
G1 X-34.061 Y-379.505
G1 X-34.248 Y-376.939
G1 X-36.455 Y-378.683
G1 X-36.596 Y-376.141
G1 X-38.839 Y-377.792
G1 X-38.942 Y-375.287
G1 X-41.214 Y-376.838
G1 X-41.281 Y-374.370
G1 X-43.585 Y-375.883
G1 X-43.548 Y-373.351
G1 X-45.911 Y-374.907
G1 X-45.741 Y-372.275
G1 X-48.170 Y-373.853
G1 X-47.910 Y-371.188
G1 X-50.397 Y-372.792
G1 X-49.998 Y-370.037
G1 X-52.564 Y-371.707
G1 X-52.014 Y-368.854
G1 X-54.664 Y-370.580
G1 X-53.979 Y-367.657
G1 X-56.722 Y-369.477
G1 X-55.830 Y-366.408
G1 X-58.768 Y-368.601
G1 X-57.348 Y-365.034
G1 X-60.779 Y-368.143
G1 X-58.342 Y-363.517
G1 X-62.383 Y-367.480
G1 X-59.418 Y-362.354
G1 X-63.691 Y-366.478
G1 X-60.738 Y-361.504
G1 X-65.034 Y-365.506
G1 X-62.003 Y-360.578
G1 X-66.350 Y-364.493
G1 X-63.274 Y-359.646
G1 X-67.670 Y-363.482
G1 X-64.509 Y-358.672
G1 X-68.989 Y-362.478
G1 X-65.700 Y-357.664
G1 X-70.283 Y-361.462
G1 X-66.867 Y-356.644
G1 X-71.545 Y-360.420
G1 X-68.023 Y-355.622
G1 X-72.769 Y-359.337
G1 X-69.185 Y-354.605
G1 X-73.952 Y-358.197
G1 X-70.375 Y-353.592
G1 X-75.124 Y-357.021
G1 X-71.567 Y-352.553
G1 X-76.340 Y-355.883
G1 X-72.680 Y-351.441
G1 X-77.530 Y-354.725
G1 X-73.777 Y-350.321
G1 X-78.688 Y-353.540
G1 X-74.868 Y-349.195
G1 X-79.857 Y-352.373
G1 X-75.898 Y-348.031
G1 X-80.979 Y-351.174
G1 X-76.930 Y-346.875
G1 X-82.059 Y-349.939
G1 X-77.970 Y-345.720
G1 X-83.073 Y-348.626
G1 X-79.068 Y-344.576
G1 X-84.059 Y-347.245
G1 X-80.207 Y-343.405
G1 X-85.227 Y-346.010
G1 X-81.096 Y-342.090
G1 X-86.421 Y-344.860
G1 X-81.845 Y-340.754
G1 X-87.322 Y-343.512
G1 X-82.853 Y-339.581
G1 X-88.126 Y-342.035
G1 X-83.991 Y-338.409
G1 X-89.109 Y-340.642
G1 X-84.931 Y-337.090
G1 X-90.117 Y-339.274
G1 X-85.788 Y-335.737
G1 X-91.110 Y-337.920
G1 X-86.592 Y-334.380
G1 X-92.135 Y-336.625
G1 X-87.277 Y-333.006
G1 X-93.032 Y-335.285
G1 X-88.026 Y-331.691
G1 X-93.805 Y-333.868
G1 X-88.869 Y-330.410
G1 X-94.591 Y-332.443
G1 X-89.672 Y-329.092
G1 X-95.378 Y-331.010
G1 X-90.437 Y-327.747
G1 X-96.102 Y-329.530
G1 X-91.238 Y-326.397
G1 X-96.844 Y-328.043
G1 X-91.989 Y-325.008
G1 X-97.560 Y-326.531
G1 X-92.730 Y-323.600
G1 X-98.233 Y-324.981
G1 X-93.488 Y-322.172
G1 X-98.962 Y-323.446
G1 X-94.143 Y-320.703
G1 X-99.645 Y-321.892
G1 X-94.798 Y-319.230
G1 X-100.238 Y-320.283
G1 X-95.511 Y-317.748
G1 X-100.903 Y-318.690
G1 X-96.106 Y-316.223
G1 X-101.527 Y-317.084
G1 X-96.691 Y-314.694
G1 X-102.131 Y-315.473
G1 X-97.243 Y-313.157
G1 X-102.716 Y-313.858
G1 X-97.761 Y-311.613
G1 X-103.232 Y-312.217
G1 X-98.301 Y-310.065
G1 X-103.745 Y-310.568
G1 X-98.796 Y-308.499
G1 X-104.219 Y-308.902
G1 X-99.282 Y-306.920
G1 X-104.654 Y-307.213
G1 X-99.762 Y-305.324
G1 X-105.065 Y-305.504
G1 X-100.219 Y-303.706
G1 X-105.473 Y-303.783
G1 X-100.628 Y-302.069
G1 X-105.868 Y-302.056
G1 X-100.996 Y-300.422
G1 X-106.278 Y-300.340
G1 X-101.288 Y-298.778
G1 X-106.642 Y-298.630
G1 X-101.566 Y-297.144
G1 X-106.910 Y-296.901
G1 X-101.887 Y-295.503
G1 X-107.124 Y-295.143
G1 X-102.216 Y-293.833
G1 X-107.341 Y-293.365
G1 X-102.489 Y-292.138
G1 X-107.560 Y-291.577
G1 X-102.704 Y-290.432
G1 X-107.757 Y-289.785
G1 X-102.882 Y-288.722
G1 X-108.014 Y-288.017
G1 X-102.938 Y-287.040
G1 X-108.253 Y-286.283
G1 X-102.948 Y-285.397
G1 X-108.289 Y-284.545
G1 X-103.108 Y-283.737
G1 X-108.261 Y-282.771
G1 X-103.280 Y-282.032
G1 X-108.363 Y-280.990
G1 X-103.264 Y-280.344
G1 X-108.436 Y-279.229
G1 X-103.220 Y-278.678
G1 X-108.365 Y-277.467
G1 X-103.263 Y-276.986
G1 X-108.288 Y-275.687
G1 X-103.255 Y-275.279
G1 X-108.242 Y-273.902
G1 X-103.158 Y-273.585
G1 X-108.098 Y-272.118
G1 X-103.100 Y-271.869
G1 X-107.985 Y-270.325
G1 X-102.953 Y-270.166
G1 X-107.904 Y-268.546
G1 X-102.720 Y-268.502
G1 X-107.689 Y-266.791
G1 X-102.565 Y-266.818
G1 X-107.444 Y-265.028
G1 X-102.380 Y-265.124
G1 X-107.214 Y-263.258
G1 X-102.123 Y-263.447
G1 X-106.980 Y-261.500
G1 X-101.818 Y-261.793
G1 X-106.664 Y-259.760
G1 X-101.538 Y-260.129
G1 X-106.242 Y-258.019
G1 X-101.298 Y-258.417
G1 X-105.743 Y-256.248
G1 X-101.053 Y-256.644
G1 X-105.233 Y-254.428
G1 X-100.737 Y-254.836
G1 X-104.742 Y-252.572
G1 X-100.326 Y-253.030
G1 X-104.142 Y-250.707
G1 X-99.933 Y-251.162
G1 X-103.885 Y-248.784
G1 X-99.179 Y-249.538
G1 X-103.514 Y-246.996
G1 X-98.527 Y-247.960
G1 X-102.802 Y-245.315
G1 X-98.137 Y-246.220
G1 X-102.262 Y-243.552
G1 X-97.517 Y-244.583
G1 X-101.577 Y-241.836
G1 X-96.973 Y-242.886
G1 X-100.797 Y-240.112
G1 X-96.428 Y-241.124
G1 X-100.026 Y-238.338
G1 X-95.783 Y-239.367
G1 X-99.259 Y-236.542
G1 X-95.062 Y-237.632
G1 X-98.695 Y-234.708
G1 X-94.138 Y-236.106
G1 X-98.253 Y-232.943
G1 X-93.145 Y-234.771
G1 X-97.724 Y-231.329
G1 X-92.267 Y-233.468
G1 X-97.164 Y-229.795
G1 X-91.426 Y-232.206
G1 X-96.523 Y-228.340
G1 X-90.653 Y-230.939
G1 X-95.766 Y-226.957
