; generated by Slic3r Prusa Edition 1.39.1-prusa3d on 2018-05-09 at 07:50:47

; 

; external perimeters extrusion width = 0.45mm
; perimeters extrusion width = 0.45mm
; infill extrusion width = 0.45mm
; solid infill extrusion width = 0.45mm
; top infill extrusion width = 0.33mm
; first layer extrusion width = 0.42mm

M107
M115 U3.1.0 ; tell printer latest fw version
M201 X9000 Y9000 Z500 E10000 ; sets maximum accelerations, mm/sec^2
M203 X500 Y500 Z12 E120 ; sets maximum feedrates, mm/sec
M204 S1500 T1500 ; sets acceleration (S) and retract acceleration (T)
M205 X10 Y10 Z0.2 E2.5 ; sets the jerk limits, mm/sec
M205 S0 T0 ; sets the minimum extruding and travel feed rate, mm/sec
M83  ; extruder relative mode
M104 S200 ; set extruder temp
M140 S55 ; set bed temp
M190 S55 ; wait for bed temp
M109 S200 ; wait for extruder temp
G28 W ; home all without mesh bed level
G80 ; mesh bed leveling
G1 Y-3.0 F1000.0 ; go outside print area
G92 E0.0
G1 E18.0 F1000.0;
G1 X60.0 E9.0  F1000.0 ; intro line
G1 X100.0 E12.5  F1000.0 ; intro line
G92 E0.0
M900 K30; Filament gcode
G21 ; set units to millimeters
G90 ; use absolute coordinates
M83 ; use relative distances for extrusion
;BEFORE_LAYER_CHANGE
;0.2


G1 E-0.80000 F2100.00000
G1 Z0.600 F7200.000
;AFTER_LAYER_CHANGE
;0.2
G1 X109.783 Y81.950 F7200.000
G1 Z0.200 F7200.000
G1 E0.80000 F2100.00000
M204 S1000
G1 F900
G1 X110.543 Y82.544 E0.03024
G1 X110.917 Y83.151 E0.02237
G1 X123.761 Y113.722 E1.03967
G1 X123.906 Y114.432 E0.02272
G1 X123.831 Y115.149 E0.02260
G1 X123.543 Y115.814 E0.02272
G1 X123.068 Y116.361 E0.02272
G1 X122.450 Y116.739 E0.02272
G1 X121.747 Y116.914 E0.02272
G1 X101.441 Y118.316 E0.63819
G1 X81.268 Y116.912 E0.63404
G1 X80.402 Y116.650 E0.02837
G1 X79.696 Y116.084 E0.02837
G1 X79.321 Y115.477 E0.02237
G1 X76.502 Y108.812 E0.22690
G1 X76.231 Y107.928 E0.02898
G1 X76.101 Y106.973 E0.03024
G1 X76.159 Y105.763 E0.03799
G1 X76.369 Y104.868 E0.02881
G1 X76.887 Y103.532 E0.04491
G1 X77.523 Y102.358 E0.04188
G1 X91.798 Y82.611 E0.76398
G1 X92.176 Y82.221 E0.01704
G1 X92.634 Y81.928 E0.01704
G1 X93.146 Y81.745 E0.01704
G1 X93.684 Y81.684 E0.01698
G1 X108.850 Y81.706 E0.47552
G1 X109.725 Y81.934 E0.02836
G1 F5760
G1 X110.543 Y82.544 E-0.35324
G1 F5760
G1 X110.917 Y83.151 E-0.24708
G1 F5760
G1 X111.096 Y83.576 E-0.15967
G1 E-0.04000 F2100.00000
G1 Z0.800 F7200.000
G1 X85.980 Y104.932 F7200.000
G1 Z0.200 F7200.000
G1 E0.80000 F2100.00000
G1 F900
G1 X84.061 Y109.739 E0.16229
G1 X80.523 Y108.313 E0.11961
G1 X80.183 Y108.047 E0.01352
G1 X80.012 Y107.840 E0.00843
G1 X79.814 Y107.456 E0.01355
G1 X79.727 Y107.011 E0.01422
G1 X79.770 Y106.561 E0.01417
G1 X80.601 Y104.450 E0.07113
G1 X80.807 Y104.092 E0.01293
G1 X81.135 Y103.779 E0.01422
G1 X81.521 Y103.580 E0.01361
G1 X81.788 Y103.510 E0.00867
G1 X82.211 Y103.490 E0.01326
G1 X82.610 Y103.587 E0.01287
G1 X85.924 Y104.910 E0.11191
G1 X85.490 Y105.143 F7200.000
G1 F900
G1 X83.851 Y109.248 E0.13861
G1 X80.713 Y107.984 E0.10607
G1 X80.448 Y107.775 E0.01057
G1 X80.328 Y107.631 E0.00589
G1 X80.173 Y107.331 E0.01058
G1 X80.108 Y106.992 E0.01082
G1 X80.140 Y106.649 E0.01080
G1 X80.942 Y104.614 E0.06859
G1 X81.107 Y104.328 E0.01036
G1 X81.356 Y104.089 E0.01082
G1 X81.657 Y103.934 E0.01060
G1 X81.845 Y103.885 E0.00612
G1 X82.175 Y103.869 E0.01033
G1 X82.495 Y103.947 E0.01034
G1 X85.434 Y105.120 E0.09924
G1 X85.862 Y105.289 F7200.000
G1 F5760
G1 X84.648 Y107.169 E-0.76000
G1 E-0.04000 F2100.00000
G1 Z0.800 F7200.000
G1 X101.374 Y106.069 F7200.000
G1 Z0.200 F7200.000
G1 E0.80000 F2100.00000
G1 F900
G1 X108.769 Y85.691 E0.67971
G1 X120.648 Y113.960 E0.96143
G1 X117.230 Y113.960 E0.10718
G1 X108.879 Y93.777 E0.68486
G1 X101.443 Y114.252 E0.68300
G1 X93.670 Y93.762 E0.68711
G1 X85.802 Y113.960 E0.67962
G1 X82.368 Y113.960 E0.10767
G1 X82.532 Y113.540 E0.01414
G1 X82.659 Y112.957 E0.01871
G1 X82.687 Y112.379 E0.01813
G1 X82.664 Y112.065 E0.00988
G1 X82.612 Y111.750 E0.01000
G1 X82.455 Y111.213 E0.01754
G1 X82.325 Y110.913 E0.01025
G1 X82.035 Y110.421 E0.01791
G1 X81.644 Y109.956 E0.01905
G1 X81.198 Y109.576 E0.01838
G1 X80.941 Y109.408 E0.00961
G1 X80.502 Y109.171 E0.01565
G1 X80.135 Y108.916 E0.01399
G1 X79.820 Y108.619 E0.01359
G1 X79.677 Y108.453 E0.00687
G1 X79.556 Y108.286 E0.00644
G1 X79.337 Y107.899 E0.01397
G1 X79.181 Y107.494 E0.01362
G1 X79.084 Y107.059 E0.01397
G1 X79.064 Y106.864 E0.00614
G1 X79.066 Y106.431 E0.01358
G1 X79.134 Y105.989 E0.01402
G1 X79.271 Y105.554 E0.01429
G1 X79.626 Y104.666 E0.02998
G1 X79.826 Y104.256 E0.01431
G1 X80.073 Y103.898 E0.01362
G1 X80.370 Y103.581 E0.01362
G1 X80.720 Y103.305 E0.01397
G1 X80.886 Y103.202 E0.00613
G1 X81.288 Y103.011 E0.01397
G1 X81.704 Y102.885 E0.01362
G1 X82.145 Y102.820 E0.01397
G1 X82.340 Y102.814 E0.00613
G1 X82.781 Y102.849 E0.01387
G1 X83.520 Y103.028 E0.02383
G1 X84.087 Y103.106 E0.01796
G1 X84.681 Y103.088 E0.01864
G1 X85.259 Y102.974 E0.01847
G1 X85.821 Y102.762 E0.01883
G1 X86.335 Y102.463 E0.01863
G1 X86.786 Y102.088 E0.01840
G1 X87.006 Y101.853 E0.01009
G1 X87.343 Y101.389 E0.01799
G1 X87.600 Y100.875 E0.01803
G1 X93.666 Y85.682 E0.51292
G1 X101.353 Y106.013 E0.68149
G1 F5760
G1 X102.105 Y103.951 E-0.76000
G1 E-0.04000 F2100.00000
G1 Z0.800 F7200.000
G1 X101.367 Y104.983 F7200.000
G1 Z0.200 F7200.000
G1 E0.80000 F2100.00000
G1 F900
G1 X108.743 Y84.656 E0.67801
G1 X121.216 Y114.337 E1.00944
G1 X116.978 Y114.337 E0.13288
G1 X108.902 Y94.818 E0.66231
G1 X101.451 Y115.335 E0.68439
G1 X93.665 Y94.813 E0.68820
G1 X86.060 Y114.337 E0.65695
G1 X81.816 Y114.337 E0.13305
G1 X82.170 Y113.430 E0.03051
G1 X82.284 Y112.907 E0.01680
G1 X82.310 Y112.384 E0.01641
G1 X82.289 Y112.110 E0.00863
G1 X82.244 Y111.834 E0.00877
G1 X82.100 Y111.342 E0.01608
G1 X81.988 Y111.084 E0.00879
G1 X81.726 Y110.639 E0.01620
G1 X81.376 Y110.222 E0.01707
G1 X80.971 Y109.879 E0.01665
G1 X80.748 Y109.732 E0.00838
G1 X80.304 Y109.492 E0.01580
G1 X79.898 Y109.210 E0.01552
G1 X79.546 Y108.880 E0.01512
G1 X79.381 Y108.686 E0.00798
G1 X79.239 Y108.491 E0.00757
G1 X78.995 Y108.061 E0.01552
G1 X78.819 Y107.602 E0.01539
G1 X78.712 Y107.119 E0.01552
G1 X78.687 Y106.883 E0.00746
G1 X78.689 Y106.401 E0.01512
G1 X78.766 Y105.903 E0.01580
G1 X78.916 Y105.427 E0.01563
G1 X79.281 Y104.513 E0.03086
G1 X79.500 Y104.065 E0.01564
G1 X79.779 Y103.661 E0.01539
G1 X80.114 Y103.303 E0.01539
G1 X80.503 Y102.996 E0.01552
G1 X80.705 Y102.871 E0.00746
G1 X81.152 Y102.658 E0.01552
G1 X81.621 Y102.516 E0.01539
G1 X82.111 Y102.444 E0.01552
G1 X82.349 Y102.436 E0.00746
G1 X82.841 Y102.475 E0.01548
G1 X83.590 Y102.657 E0.02417
G1 X84.107 Y102.728 E0.01637
G1 X84.639 Y102.712 E0.01668
G1 X85.156 Y102.610 E0.01651
G1 X85.659 Y102.420 E0.01686
G1 X86.118 Y102.153 E0.01666
G1 X86.527 Y101.813 E0.01667
G1 X86.714 Y101.612 E0.00862
G1 X87.020 Y101.192 E0.01628
G1 X87.256 Y100.720 E0.01655
G1 X93.676 Y84.641 E0.54284
G1 X101.345 Y104.927 E0.68000
G1 X101.745 Y105.113 F7200.000
G1 F5760
G1 X102.098 Y102.866 E-0.76000
G1 E-0.04000 F2100.00000
G1 Z0.800 F7200.000
G1 X101.245 Y106.049 F7200.000
G1 Z0.200 F7200.000
G1 E0.80000 F2100.00000
G1 F900
G1 X97.037 Y101.840 E0.18774
G1 X96.709 Y100.976 E0.02917
G1 X100.628 Y104.894 E0.17481
G1 X100.301 Y104.032 E0.02909
G1 X96.381 Y100.111 E0.17489
G1 X96.053 Y99.247 E0.02917
G1 X99.975 Y103.169 E0.17498
G1 X99.649 Y102.306 E0.02909
G1 X95.725 Y98.382 E0.17506
G1 X95.397 Y97.518 E0.02917
G1 X99.323 Y101.444 E0.17514
G1 X98.997 Y100.581 E0.02909
G1 X95.069 Y96.653 E0.17522
G1 X94.741 Y95.789 E0.02917
G1 X98.671 Y99.718 E0.17530
G1 X98.344 Y98.856 E0.02909
G1 X94.413 Y94.924 E0.17538
G1 X94.085 Y94.060 E0.02917
G1 X98.310 Y98.285 E0.18848
G1 F5760
G1 X96.758 Y96.733 E-0.76000
G1 E-0.04000 F2100.00000
G1 Z0.800 F7200.000
G1 X101.433 Y106.237 F7200.000
G1 Z0.200 F7200.000
G1 E0.80000 F2100.00000
G1 F900
G1 X103.355 Y108.158 E0.08573
G1 X103.498 Y107.765 E0.01321
G1 X101.709 Y105.975 E0.07983
G1 X101.851 Y105.582 E0.01321
G1 X103.641 Y107.371 E0.07983
G1 X103.784 Y106.978 E0.01321
G1 X101.994 Y105.188 E0.07983
G1 X102.137 Y104.794 E0.01321
G1 X103.927 Y106.584 E0.07984
G1 X104.070 Y106.191 E0.01321
G1 X102.280 Y104.401 E0.07984
G1 X102.423 Y104.007 E0.01321
G1 X104.213 Y105.797 E0.07984
G1 X104.356 Y105.403 E0.01321
G1 X102.566 Y103.614 E0.07985
G1 X102.709 Y103.220 E0.01321
G1 X104.499 Y105.010 E0.07985
G1 X104.641 Y104.616 E0.01321
G1 X102.851 Y102.826 E0.07985
G1 X102.994 Y102.433 E0.01321
G1 X104.784 Y104.223 E0.07986
G1 X104.927 Y103.829 E0.01321
G1 X103.137 Y102.039 E0.07986
G1 X103.280 Y101.645 E0.01321
G1 X105.070 Y103.436 E0.07986
G1 X105.213 Y103.042 E0.01321
G1 X103.423 Y101.252 E0.07987
G1 X103.566 Y100.858 E0.01321
G1 X105.356 Y102.649 E0.07987
G1 X105.499 Y102.255 E0.01321
G1 X103.709 Y100.464 E0.07987
G1 X103.851 Y100.071 E0.01321
G1 X105.642 Y101.861 E0.07988
G1 X105.785 Y101.468 E0.01321
G1 X103.994 Y99.677 E0.07988
G1 X104.137 Y99.284 E0.01321
G1 X105.928 Y101.074 E0.07988
G1 X106.071 Y100.681 E0.01321
G1 X104.280 Y98.890 E0.07989
G1 X104.423 Y98.496 E0.01321
G1 X106.214 Y100.287 E0.07989
G1 X106.357 Y99.894 E0.01321
G1 X104.566 Y98.103 E0.07989
G1 X104.708 Y97.709 E0.01321
G1 X106.499 Y99.500 E0.07990
G1 X106.642 Y99.106 E0.01321
G1 X104.851 Y97.315 E0.07990
G1 X104.994 Y96.922 E0.01321
G1 X106.785 Y98.713 E0.07990
G1 X106.928 Y98.319 E0.01321
G1 X105.137 Y96.528 E0.07991
G1 X105.280 Y96.134 E0.01321
G1 X107.071 Y97.926 E0.07991
G1 X107.214 Y97.532 E0.01321
G1 X105.423 Y95.741 E0.07991
G1 X105.566 Y95.347 E0.01321
G1 X107.357 Y97.139 E0.07992
G1 X107.500 Y96.745 E0.01321
G1 X105.708 Y94.953 E0.07992
G1 X105.851 Y94.560 E0.01321
G1 X107.643 Y96.351 E0.07992
G1 X107.786 Y95.958 E0.01321
G1 X105.994 Y94.166 E0.07993
G1 X106.137 Y93.773 E0.01321
G1 X107.929 Y95.564 E0.07993
G1 X108.072 Y95.171 E0.01321
G1 X106.280 Y93.379 E0.07993
G1 X106.423 Y92.985 E0.01321
G1 X108.215 Y94.777 E0.07994
G1 X108.357 Y94.384 E0.01321
G1 X106.565 Y92.592 E0.07994
G1 X106.708 Y92.198 E0.01321
G1 X108.500 Y93.990 E0.07994
G1 X108.643 Y93.597 E0.01321
G1 X106.851 Y91.804 E0.07995
G1 X106.994 Y91.411 E0.01321
G1 X113.672 Y98.089 E0.29790
G1 X113.283 Y97.163 E0.03166
G1 X107.137 Y91.017 E0.27418
G1 X107.280 Y90.623 E0.01321
G1 X112.894 Y96.238 E0.25046
G1 X112.505 Y95.313 E0.03166
G1 X107.423 Y90.230 E0.22674
G1 X107.565 Y89.836 E0.01321
G1 X112.117 Y94.387 E0.20302
G1 X111.728 Y93.462 E0.03166
G1 X107.708 Y89.443 E0.17931
G1 X107.851 Y89.049 E0.01321
G1 X111.339 Y92.537 E0.15559
G1 X110.950 Y91.611 E0.03166
G1 X107.994 Y88.655 E0.13187
G1 X108.137 Y88.262 E0.01321
G1 X110.561 Y90.686 E0.10815
G1 X110.172 Y89.761 E0.03166
G1 X108.280 Y87.868 E0.08443
G1 X108.422 Y87.474 E0.01321
G1 X109.784 Y88.835 E0.06072
G1 X109.395 Y87.910 E0.03166
G1 X108.565 Y87.081 E0.03700
G1 X108.708 Y86.687 E0.01321
G1 X109.323 Y87.302 E0.02744
G1 F5760
G1 X108.708 Y86.687 E-0.30131
G1 F5760
G1 X108.565 Y87.081 E-0.14504
G1 F5760
G1 X109.206 Y87.721 E-0.31365
G1 E-0.04000 F2100.00000
G1 Z0.800 F7200.000
G1 X114.378 Y99.331 F7200.000
G1 Z0.200 F7200.000
G1 E0.80000 F2100.00000
G1 F900
G1 X109.440 Y94.393 E0.22030
G1 X109.818 Y95.308 E0.03124
G1 X114.450 Y99.939 E0.20660
G1 X114.838 Y100.865 E0.03166
G1 X110.197 Y96.223 E0.20705
G1 X110.576 Y97.138 E0.03124
G1 X115.227 Y101.790 E0.20751
G1 X115.616 Y102.715 E0.03166
G1 X110.954 Y98.053 E0.20796
G1 X111.333 Y98.969 E0.03124
G1 X116.005 Y103.641 E0.20842
G1 X116.394 Y104.566 E0.03166
G1 X111.712 Y99.884 E0.20887
G1 X112.090 Y100.799 E0.03124
G1 X116.783 Y105.491 E0.20933
G1 X117.172 Y106.417 E0.03166
G1 X112.469 Y101.714 E0.20978
G1 X112.848 Y102.629 E0.03124
G1 X117.560 Y107.342 E0.21024
G1 X117.949 Y108.267 E0.03166
G1 X113.226 Y103.544 E0.21069
G1 X113.605 Y104.459 E0.03124
G1 X118.338 Y109.193 E0.21115
G1 X118.727 Y110.118 E0.03166
G1 X113.983 Y105.375 E0.21160
G1 X114.362 Y106.290 E0.03124
G1 X119.116 Y111.043 E0.21206
G1 X119.505 Y111.969 E0.03166
G1 X114.741 Y107.205 E0.21251
G1 X115.119 Y108.120 E0.03124
G1 X119.893 Y112.894 E0.21296
G1 X120.222 Y113.677 E0.02679
G1 X120.140 Y113.677 E0.00260
G1 X115.498 Y109.035 E0.20707
G1 X115.877 Y109.950 E0.03124
G1 X119.604 Y113.677 E0.16625
G1 X119.067 Y113.677 E0.01692
G1 X116.255 Y110.865 E0.12543
G1 X116.634 Y111.780 E0.03124
G1 X118.531 Y113.677 E0.08460
G1 X117.994 Y113.677 E0.01692
G1 X117.013 Y112.696 E0.04378
G1 X117.391 Y113.611 E0.03124
G1 X117.627 Y113.847 E0.01053
G1 F5760
G1 X117.391 Y113.611 E-0.11558
G1 F5760
G1 X117.013 Y112.696 E-0.34302
G1 F5760
G1 X117.628 Y113.311 E-0.30140
G1 E-0.04000 F2100.00000
G1 Z0.800 F7200.000
G1 X103.345 Y108.684 F7200.000
G1 Z0.200 F7200.000
G1 E0.80000 F2100.00000
G1 F900
G1 X97.365 Y102.704 E0.26676
G1 X97.693 Y103.569 E0.02917
G1 X103.069 Y108.946 E0.23985
G1 X102.926 Y109.339 E0.01321
G1 X98.021 Y104.433 E0.21884
G1 X98.349 Y105.298 E0.02917
G1 X102.784 Y109.733 E0.19783
G1 X102.641 Y110.126 E0.01321
G1 X98.677 Y106.162 E0.17683
G1 X99.005 Y107.027 E0.02917
G1 X102.498 Y110.520 E0.15582
G1 X102.355 Y110.913 E0.01321
G1 X99.333 Y107.891 E0.13481
G1 X99.661 Y108.756 E0.02917
G1 X102.212 Y111.307 E0.11381
G1 X102.069 Y111.701 E0.01321
G1 X99.989 Y109.620 E0.09280
G1 X100.317 Y110.485 E0.02917
G1 X101.926 Y112.094 E0.07179
G1 X101.783 Y112.488 E0.01321
G1 X100.645 Y111.349 E0.05079
G1 X100.973 Y112.214 E0.02917
G1 X101.640 Y112.881 E0.02978
G1 X101.497 Y113.275 E0.01321
G1 X101.008 Y112.786 E0.02182
G1 F5760
G1 X101.497 Y113.275 E-0.23957
G1 F5760
G1 X101.640 Y112.881 E-0.14502
G1 F5760
G1 X100.973 Y112.214 E-0.32699
G1 F5760
G1 X100.923 Y112.083 E-0.04842
G1 E-0.04000 F2100.00000
G1 Z0.800 F7200.000
G1 X86.111 Y104.863 F7200.000
G1 Z0.200 F7200.000
G1 E0.80000 F2100.00000
G1 F900
G1 X84.621 Y103.373 E0.06646
G1 X84.100 Y103.388 E0.01644
G1 X84.913 Y104.202 E0.03630
G1 X84.020 Y103.845 E0.03033
G1 X83.484 Y103.309 E0.02394
G1 X82.807 Y103.146 E0.02196
G1 X82.804 Y103.165 E0.00062
G1 X83.431 Y103.793 E0.02800
G1 F5760
G1 X82.804 Y103.165 E-0.30746
G1 F5760
G1 X82.807 Y103.146 E-0.00679
G1 F5760
G1 X83.484 Y103.309 E-0.24114
G1 F5760
G1 X83.901 Y103.726 E-0.20460
G1 E-0.04000 F2100.00000
G1 Z0.800 F7200.000
G1 X82.513 Y103.191 F7200.000
G1 Z0.200 F7200.000
G1 E0.80000 F2100.00000
G1 F900
G1 X82.264 Y103.155 E0.00674
G1 F900
G1 X81.773 Y103.194 E0.01228
G1 F900
G1 X81.728 Y103.203 E0.00097
G1 F900
G1 X81.423 Y103.289 E0.00651
G1 F900
G1 X81.036 Y103.478 E0.00844
G1 X80.902 Y103.565 E0.00315
G1 X80.557 Y103.870 E0.00904
G1 X80.356 Y104.136 E0.00655
G1 X80.276 Y104.967 F7200.000
G1 F900
G1 X79.952 Y104.643 E0.01505
G1 X79.784 Y105.033 E0.01395
G1 X79.987 Y105.237 E0.00945
G1 X79.830 Y105.637 E0.01413
G1 X79.624 Y105.432 E0.00953
G1 X79.477 Y105.843 E0.01433
G1 X79.803 Y106.169 E0.01513
G1 X79.421 Y106.480 F7200.000
G1 F900
G1 X79.403 Y106.847 E0.00972
G1 F900
G1 X79.404 Y107.007 E0.00399
G1 F900
G1 X79.483 Y107.403 E0.00902
G1 F900
G1 X79.522 Y107.540 E0.00300
G1 F900
G1 X79.621 Y107.765 E0.00463
G1 X79.825 Y108.114 E0.00764
G1 X79.967 Y108.290 E0.00428
G1 X80.337 Y108.619 E0.00935
G1 F5760
G1 X79.967 Y108.290 E-0.17152
G1 F5760
G1 X79.825 Y108.114 E-0.07852
G1 F5760
G1 X79.621 Y107.765 E-0.14000
G1 F5760
G1 X79.522 Y107.540 E-0.08498
G1 E-0.32498 F2100.00000
G1 Z0.800 F7200.000
G1 X82.708 Y113.263 F7200.000
G1 Z0.200 F7200.000
G1 E0.80000 F2100.00000
G1 F900
G1 X83.122 Y113.677 E0.01847
G1 X83.659 Y113.677 E0.01692
G1 X82.942 Y112.960 E0.03197
G1 X82.967 Y112.449 E0.01616
G1 X84.195 Y113.677 E0.05479
G1 X84.732 Y113.677 E0.01692
G1 X82.917 Y111.862 E0.08096
G1 X82.888 Y111.687 E0.00559
G1 X82.727 Y111.136 E0.01813
G1 X85.268 Y113.677 E0.11337
G1 X85.609 Y113.677 E0.01074
G1 X85.664 Y113.536 E0.00478
G1 X80.897 Y108.769 E0.21265
G1 X81.795 Y109.131 E0.03056
G1 X85.814 Y113.150 E0.17927
G1 X85.964 Y112.764 E0.01307
G1 X82.694 Y109.493 E0.14589
G1 X83.593 Y109.856 E0.03056
G1 X86.115 Y112.378 E0.11251
G1 X86.265 Y111.992 E0.01307
G1 X84.265 Y109.991 E0.08924
G1 X84.418 Y109.608 E0.01302
G1 X86.416 Y111.605 E0.08912
G1 X86.566 Y111.219 E0.01307
G1 X84.571 Y109.224 E0.08900
G1 X84.724 Y108.841 E0.01302
G1 X86.716 Y110.833 E0.08888
G1 X86.867 Y110.447 E0.01307
G1 X84.877 Y108.457 E0.08876
