; generated by Slic3r Prusa Edition 1.39.1-prusa3d on 2018-04-22 at 18:23:20

; 

; external perimeters extrusion width = 0.45mm
; perimeters extrusion width = 0.45mm
; infill extrusion width = 0.45mm
; solid infill extrusion width = 0.45mm
; top infill extrusion width = 0.33mm
; first layer extrusion width = 0.42mm

M107
M115 U3.1.0 ; tell printer latest fw version
M201 X9000 Y9000 Z500 E10000 ; sets maximum accelerations, mm/sec^2
M203 X500 Y500 Z12 E120 ; sets maximum feedrates, mm/sec
M204 S1500 T1500 ; sets acceleration (S) and retract acceleration (T)
M205 X10 Y10 Z0.2 E2.5 ; sets the jerk limits, mm/sec
M205 S0 T0 ; sets the minimum extruding and travel feed rate, mm/sec
M83  ; extruder relative mode
M104 S215 ; set extruder temp
M140 S60 ; set bed temp
M190 S60 ; wait for bed temp
M109 S215 ; wait for extruder temp
G28 W ; home all without mesh bed level
G80 ; mesh bed leveling
G1 Y-3.0 F1000.0 ; go outside print area
G92 E0.0
G1 E18.0 F1000.0;
G1 X60.0 E9.0  F1000.0 ; intro line
G1 X100.0 E12.5  F1000.0 ; intro line
G92 E0.0
M900 K30; Filament gcode
G21 ; set units to millimeters
G90 ; use absolute coordinates
M83 ; use relative distances for extrusion
;BEFORE_LAYER_CHANGE
;0.2


G1 E-0.80000 F2100.00000
G1 Z0.600 F7200.000
;AFTER_LAYER_CHANGE
;0.2
G1 X134.783 Y86.950 F7200.000
G1 Z0.200 F7200.000
G1 E0.80000 F2100.00000
M204 S1000
G1 F900
G1 X135.543 Y87.544 E0.03024
G1 X135.917 Y88.151 E0.02237
G1 X148.761 Y118.722 E1.03967
G1 X148.906 Y119.432 E0.02272
G1 X148.831 Y120.149 E0.02260
G1 X148.543 Y120.814 E0.02272
G1 X148.068 Y121.361 E0.02272
G1 X147.450 Y121.739 E0.02272
G1 X146.747 Y121.914 E0.02272
G1 X126.441 Y123.316 E0.63819
G1 X106.268 Y121.912 E0.63404
G1 X105.402 Y121.650 E0.02837
G1 X104.696 Y121.084 E0.02837
G1 X104.321 Y120.477 E0.02237
G1 X101.502 Y113.812 E0.22690
G1 X101.231 Y112.928 E0.02898
G1 X101.101 Y111.973 E0.03023
G1 X101.159 Y110.762 E0.03800
G1 X101.370 Y109.868 E0.02881
G1 X101.887 Y108.532 E0.04490
G1 X102.523 Y107.358 E0.04188
G1 X116.795 Y87.614 E0.76387
G1 X117.174 Y87.224 E0.01704
G1 X117.630 Y86.929 E0.01704
G1 X118.142 Y86.746 E0.01704
G1 X118.684 Y86.684 E0.01710
G1 X133.850 Y86.706 E0.47552
G1 X134.725 Y86.934 E0.02836
G1 F5760
G1 X135.543 Y87.544 E-0.35324
G1 F5760
G1 X135.917 Y88.151 E-0.24709
G1 F5760
G1 X136.096 Y88.576 E-0.15967
G1 E-0.04000 F2100.00000
G1 Z0.800 F7200.000
G1 X110.980 Y109.932 F7200.000
G1 Z0.200 F7200.000
G1 E0.80000 F2100.00000
G1 F900
G1 X109.061 Y114.739 E0.16229
G1 X105.523 Y113.313 E0.11961
G1 X105.183 Y113.047 E0.01352
G1 X105.012 Y112.840 E0.00843
G1 X104.814 Y112.456 E0.01355
G1 X104.727 Y112.011 E0.01422
G1 X104.770 Y111.561 E0.01417
G1 X105.601 Y109.450 E0.07113
G1 X105.807 Y109.092 E0.01293
G1 X106.135 Y108.779 E0.01422
G1 X106.521 Y108.580 E0.01361
G1 X106.788 Y108.510 E0.00867
G1 X107.211 Y108.490 E0.01326
G1 X107.610 Y108.587 E0.01287
G1 X110.924 Y109.910 E0.11191
G1 X110.490 Y110.143 F7200.000
G1 F900
G1 X108.851 Y114.248 E0.13861
G1 X105.713 Y112.984 E0.10607
G1 X105.448 Y112.775 E0.01057
G1 X105.328 Y112.631 E0.00589
G1 X105.173 Y112.331 E0.01058
G1 X105.108 Y111.992 E0.01082
G1 X105.140 Y111.649 E0.01080
G1 X105.942 Y109.614 E0.06859
G1 X106.107 Y109.328 E0.01036
G1 X106.356 Y109.089 E0.01082
G1 X106.657 Y108.934 E0.01060
G1 X106.845 Y108.885 E0.00612
G1 X107.175 Y108.869 E0.01033
G1 X107.495 Y108.947 E0.01034
G1 X110.434 Y110.120 E0.09924
G1 X110.862 Y110.289 F7200.000
G1 F5760
G1 X109.648 Y112.169 E-0.76000
G1 E-0.04000 F2100.00000
G1 Z0.800 F7200.000
G1 X126.374 Y111.069 F7200.000
G1 Z0.200 F7200.000
G1 E0.80000 F2100.00000
G1 F900
G1 X133.769 Y90.691 E0.67971
G1 X145.648 Y118.960 E0.96143
G1 X142.230 Y118.960 E0.10718
G1 X133.879 Y98.777 E0.68486
G1 X126.443 Y119.252 E0.68300
G1 X118.670 Y98.762 E0.68711
G1 X110.802 Y118.960 E0.67962
G1 X107.368 Y118.960 E0.10767
G1 X107.532 Y118.540 E0.01414
G1 X107.659 Y117.957 E0.01871
G1 X107.687 Y117.379 E0.01813
G1 X107.664 Y117.065 E0.00988
G1 X107.612 Y116.750 E0.01000
G1 X107.455 Y116.213 E0.01754
G1 X107.325 Y115.913 E0.01025
G1 X107.035 Y115.421 E0.01791
G1 X106.644 Y114.956 E0.01905
G1 X106.198 Y114.576 E0.01838
G1 X105.941 Y114.408 E0.00961
G1 X105.502 Y114.171 E0.01565
G1 X105.127 Y113.910 E0.01433
G1 X104.979 Y113.782 E0.00613
G1 X104.671 Y113.445 E0.01431
G1 X104.556 Y113.286 E0.00613
G1 X104.337 Y112.899 E0.01397
G1 X104.181 Y112.494 E0.01362
G1 X104.084 Y112.059 E0.01397
G1 X104.064 Y111.864 E0.00614
G1 X104.066 Y111.431 E0.01358
G1 X104.134 Y110.989 E0.01402
G1 X104.271 Y110.554 E0.01429
G1 X104.626 Y109.666 E0.02998
G1 X104.826 Y109.256 E0.01431
G1 X105.073 Y108.898 E0.01362
G1 X105.370 Y108.581 E0.01362
G1 X105.711 Y108.312 E0.01362
G1 X106.089 Y108.097 E0.01362
G1 X106.494 Y107.940 E0.01363
G1 X106.917 Y107.845 E0.01359
G1 X107.135 Y107.821 E0.00687
G1 X107.340 Y107.814 E0.00644
G1 X107.781 Y107.849 E0.01387
G1 X108.520 Y108.028 E0.02383
G1 X109.087 Y108.106 E0.01796
G1 X109.681 Y108.088 E0.01864
G1 X110.259 Y107.974 E0.01847
G1 X110.821 Y107.762 E0.01883
G1 X111.335 Y107.463 E0.01863
G1 X111.786 Y107.088 E0.01840
G1 X112.006 Y106.853 E0.01009
G1 X112.343 Y106.389 E0.01799
G1 X112.600 Y105.875 E0.01803
G1 X118.666 Y90.682 E0.51292
G1 X126.353 Y111.013 E0.68149
G1 F5760
G1 X127.105 Y108.951 E-0.76000
G1 E-0.04000 F2100.00000
G1 Z0.800 F7200.000
G1 X126.367 Y109.983 F7200.000
G1 Z0.200 F7200.000
G1 E0.80000 F2100.00000
G1 F900
G1 X133.743 Y89.656 E0.67801
G1 X146.216 Y119.337 E1.00944
G1 X141.978 Y119.337 E0.13288
G1 X133.902 Y99.818 E0.66231
G1 X126.451 Y120.335 E0.68439
G1 X118.665 Y99.813 E0.68820
G1 X111.060 Y119.337 E0.65695
G1 X106.816 Y119.337 E0.13305
G1 X107.170 Y118.430 E0.03051
G1 X107.284 Y117.907 E0.01680
G1 X107.310 Y117.384 E0.01641
G1 X107.289 Y117.110 E0.00863
G1 X107.244 Y116.834 E0.00877
G1 X107.100 Y116.342 E0.01608
G1 X106.988 Y116.084 E0.00879
G1 X106.726 Y115.639 E0.01620
G1 X106.376 Y115.222 E0.01707
G1 X105.971 Y114.879 E0.01665
G1 X105.748 Y114.732 E0.00838
G1 X105.304 Y114.492 E0.01580
G1 X104.894 Y114.208 E0.01565
G1 X104.715 Y114.052 E0.00746
G1 X104.379 Y113.683 E0.01564
G1 X104.239 Y113.491 E0.00746
G1 X103.995 Y113.061 E0.01552
G1 X103.819 Y112.602 E0.01539
G1 X103.712 Y112.119 E0.01552
G1 X103.687 Y111.883 E0.00746
G1 X103.689 Y111.401 E0.01512
G1 X103.766 Y110.903 E0.01580
G1 X103.916 Y110.427 E0.01563
G1 X104.281 Y109.513 E0.03086
G1 X104.500 Y109.065 E0.01564
G1 X104.779 Y108.661 E0.01539
G1 X105.114 Y108.303 E0.01539
G1 X105.500 Y107.999 E0.01539
G1 X105.926 Y107.755 E0.01539
G1 X106.384 Y107.578 E0.01540
G1 X106.854 Y107.472 E0.01512
G1 X107.108 Y107.444 E0.00798
G1 X107.349 Y107.436 E0.00757
G1 X107.841 Y107.475 E0.01548
G1 X108.590 Y107.657 E0.02417
G1 X109.107 Y107.728 E0.01637
G1 X109.639 Y107.712 E0.01668
G1 X110.156 Y107.610 E0.01651
G1 X110.659 Y107.420 E0.01686
G1 X111.118 Y107.153 E0.01666
G1 X111.527 Y106.813 E0.01667
G1 X111.714 Y106.612 E0.00862
G1 X112.020 Y106.192 E0.01628
G1 X112.256 Y105.720 E0.01655
G1 X118.676 Y89.641 E0.54284
G1 X126.345 Y109.927 E0.68000
G1 X126.745 Y110.113 F7200.000
G1 F5760
G1 X127.098 Y107.866 E-0.76000
G1 E-0.04000 F2100.00000
G1 Z0.800 F7200.000
G1 X126.245 Y111.049 F7200.000
G1 Z0.200 F7200.000
G1 E0.80000 F2100.00000
G1 F900
G1 X122.037 Y106.840 E0.18774
G1 X121.709 Y105.976 E0.02917
G1 X125.628 Y109.894 E0.17481
G1 X125.301 Y109.032 E0.02909
G1 X121.381 Y105.111 E0.17489
G1 X121.053 Y104.247 E0.02917
G1 X124.975 Y108.169 E0.17498
G1 X124.649 Y107.306 E0.02909
G1 X120.725 Y103.382 E0.17506
G1 X120.397 Y102.518 E0.02917
G1 X124.323 Y106.444 E0.17514
G1 X123.997 Y105.581 E0.02909
G1 X120.069 Y101.653 E0.17522
G1 X119.741 Y100.789 E0.02917
G1 X123.671 Y104.718 E0.17530
G1 X123.344 Y103.856 E0.02909
G1 X119.413 Y99.924 E0.17538
G1 X119.085 Y99.060 E0.02917
G1 X123.310 Y103.285 E0.18848
G1 F5760
G1 X121.758 Y101.733 E-0.76000
G1 E-0.04000 F2100.00000
G1 Z0.800 F7200.000
G1 X126.433 Y111.237 F7200.000
G1 Z0.200 F7200.000
G1 E0.80000 F2100.00000
G1 F900
G1 X128.355 Y113.158 E0.08573
G1 X128.498 Y112.765 E0.01321
G1 X126.709 Y110.975 E0.07983
G1 X126.851 Y110.582 E0.01321
G1 X128.641 Y112.371 E0.07983
G1 X128.784 Y111.978 E0.01321
G1 X126.994 Y110.188 E0.07983
G1 X127.137 Y109.794 E0.01321
G1 X128.927 Y111.584 E0.07984
G1 X129.070 Y111.191 E0.01321
G1 X127.280 Y109.401 E0.07984
G1 X127.423 Y109.007 E0.01321
G1 X129.213 Y110.797 E0.07984
G1 X129.356 Y110.403 E0.01321
G1 X127.566 Y108.614 E0.07985
G1 X127.709 Y108.220 E0.01321
G1 X129.499 Y110.010 E0.07985
G1 X129.641 Y109.616 E0.01321
G1 X127.851 Y107.826 E0.07985
G1 X127.994 Y107.433 E0.01321
G1 X129.784 Y109.223 E0.07986
G1 X129.927 Y108.829 E0.01321
G1 X128.137 Y107.039 E0.07986
G1 X128.280 Y106.645 E0.01321
G1 X130.070 Y108.436 E0.07986
G1 X130.213 Y108.042 E0.01321
G1 X128.423 Y106.252 E0.07987
G1 X128.566 Y105.858 E0.01321
G1 X130.356 Y107.649 E0.07987
G1 X130.499 Y107.255 E0.01321
G1 X128.708 Y105.464 E0.07987
G1 X128.851 Y105.071 E0.01321
G1 X130.642 Y106.861 E0.07988
G1 X130.785 Y106.468 E0.01321
G1 X128.994 Y104.677 E0.07988
G1 X129.137 Y104.284 E0.01321
G1 X130.928 Y106.074 E0.07988
G1 X131.071 Y105.681 E0.01321
G1 X129.280 Y103.890 E0.07989
G1 X129.423 Y103.496 E0.01321
G1 X131.214 Y105.287 E0.07989
G1 X131.357 Y104.894 E0.01321
G1 X129.566 Y103.103 E0.07989
G1 X129.708 Y102.709 E0.01321
G1 X131.499 Y104.500 E0.07990
G1 X131.642 Y104.106 E0.01321
G1 X129.851 Y102.315 E0.07990
G1 X129.994 Y101.922 E0.01321
G1 X131.785 Y103.713 E0.07990
G1 X131.928 Y103.319 E0.01321
G1 X130.137 Y101.528 E0.07991
G1 X130.280 Y101.134 E0.01321
G1 X132.071 Y102.926 E0.07991
G1 X132.214 Y102.532 E0.01321
G1 X130.423 Y100.741 E0.07991
G1 X130.566 Y100.347 E0.01321
G1 X132.357 Y102.139 E0.07992
G1 X132.500 Y101.745 E0.01321
G1 X130.708 Y99.953 E0.07992
G1 X130.851 Y99.560 E0.01321
G1 X132.643 Y101.351 E0.07992
G1 X132.786 Y100.958 E0.01321
G1 X130.994 Y99.166 E0.07993
G1 X131.137 Y98.773 E0.01321
G1 X132.929 Y100.564 E0.07993
G1 X133.072 Y100.171 E0.01321
G1 X131.280 Y98.379 E0.07993
G1 X131.423 Y97.985 E0.01321
G1 X133.215 Y99.777 E0.07994
G1 X133.357 Y99.384 E0.01321
G1 X131.565 Y97.592 E0.07994
G1 X131.708 Y97.198 E0.01321
G1 X133.500 Y98.990 E0.07994
G1 X133.643 Y98.597 E0.01321
G1 X131.851 Y96.804 E0.07995
G1 X131.994 Y96.411 E0.01321
G1 X138.672 Y103.089 E0.29790
G1 X138.283 Y102.163 E0.03166
G1 X132.137 Y96.017 E0.27418
G1 X132.280 Y95.623 E0.01321
G1 X137.894 Y101.238 E0.25046
G1 X137.505 Y100.313 E0.03166
G1 X132.423 Y95.230 E0.22674
G1 X132.565 Y94.836 E0.01321
G1 X137.117 Y99.387 E0.20302
G1 X136.728 Y98.462 E0.03166
G1 X132.708 Y94.443 E0.17931
G1 X132.851 Y94.049 E0.01321
G1 X136.339 Y97.537 E0.15559
G1 X135.950 Y96.611 E0.03166
G1 X132.994 Y93.655 E0.13187
G1 X133.137 Y93.262 E0.01321
G1 X135.561 Y95.686 E0.10815
G1 X135.172 Y94.761 E0.03166
G1 X133.280 Y92.868 E0.08443
G1 X133.422 Y92.474 E0.01321
G1 X134.784 Y93.835 E0.06072
G1 X134.395 Y92.910 E0.03166
G1 X133.565 Y92.081 E0.03700
G1 X133.708 Y91.687 E0.01321
G1 X134.323 Y92.302 E0.02744
G1 F5760
G1 X133.708 Y91.687 E-0.30131
G1 F5760
G1 X133.565 Y92.081 E-0.14504
G1 F5760
G1 X134.206 Y92.721 E-0.31365
G1 E-0.04000 F2100.00000
G1 Z0.800 F7200.000
G1 X139.378 Y104.331 F7200.000
G1 Z0.200 F7200.000
G1 E0.80000 F2100.00000
G1 F900
G1 X134.440 Y99.393 E0.22030
G1 X134.818 Y100.308 E0.03124
G1 X139.450 Y104.939 E0.20660
G1 X139.838 Y105.865 E0.03166
G1 X135.197 Y101.223 E0.20705
G1 X135.576 Y102.138 E0.03124
G1 X140.227 Y106.790 E0.20751
G1 X140.616 Y107.715 E0.03166
G1 X135.954 Y103.053 E0.20796
G1 X136.333 Y103.969 E0.03124
G1 X141.005 Y108.641 E0.20842
G1 X141.394 Y109.566 E0.03166
G1 X136.712 Y104.884 E0.20887
G1 X137.090 Y105.799 E0.03124
G1 X141.783 Y110.491 E0.20933
G1 X142.172 Y111.417 E0.03166
G1 X137.469 Y106.714 E0.20978
G1 X137.848 Y107.629 E0.03124
G1 X142.560 Y112.342 E0.21024
G1 X142.949 Y113.267 E0.03166
G1 X138.226 Y108.544 E0.21069
G1 X138.605 Y109.459 E0.03124
G1 X143.338 Y114.193 E0.21115
G1 X143.727 Y115.118 E0.03166
G1 X138.983 Y110.375 E0.21160
G1 X139.362 Y111.290 E0.03124
G1 X144.116 Y116.043 E0.21206
G1 X144.505 Y116.969 E0.03166
G1 X139.741 Y112.205 E0.21251
G1 X140.119 Y113.120 E0.03124
G1 X144.893 Y117.894 E0.21296
G1 X145.222 Y118.677 E0.02679
G1 X145.140 Y118.677 E0.00260
G1 X140.498 Y114.035 E0.20707
G1 X140.877 Y114.950 E0.03124
G1 X144.604 Y118.677 E0.16625
G1 X144.067 Y118.677 E0.01692
G1 X141.255 Y115.865 E0.12543
G1 X141.634 Y116.780 E0.03124
G1 X143.531 Y118.677 E0.08460
G1 X142.994 Y118.677 E0.01692
G1 X142.013 Y117.696 E0.04378
G1 X142.391 Y118.611 E0.03124
G1 X142.627 Y118.847 E0.01053
G1 F5760
G1 X142.391 Y118.611 E-0.11558
G1 F5760
G1 X142.013 Y117.696 E-0.34302
G1 F5760
G1 X142.628 Y118.311 E-0.30140
G1 E-0.04000 F2100.00000
G1 Z0.800 F7200.000
G1 X128.345 Y113.684 F7200.000
G1 Z0.200 F7200.000
G1 E0.80000 F2100.00000
G1 F900
G1 X122.365 Y107.704 E0.26676
G1 X122.693 Y108.569 E0.02917
G1 X128.069 Y113.946 E0.23985
G1 X127.926 Y114.339 E0.01321
G1 X123.021 Y109.433 E0.21884
G1 X123.349 Y110.298 E0.02917
G1 X127.784 Y114.733 E0.19783
G1 X127.641 Y115.126 E0.01321
G1 X123.677 Y111.162 E0.17683
G1 X124.005 Y112.027 E0.02917
G1 X127.498 Y115.520 E0.15582
G1 X127.355 Y115.913 E0.01321
G1 X124.333 Y112.891 E0.13481
G1 X124.661 Y113.756 E0.02917
G1 X127.212 Y116.307 E0.11381
G1 X127.069 Y116.701 E0.01321
G1 X124.989 Y114.620 E0.09280
G1 X125.317 Y115.485 E0.02917
G1 X126.926 Y117.094 E0.07179
G1 X126.783 Y117.488 E0.01321
G1 X125.645 Y116.349 E0.05079
G1 X125.973 Y117.214 E0.02917
G1 X126.640 Y117.881 E0.02978
G1 X126.497 Y118.275 E0.01321
G1 X126.008 Y117.786 E0.02182
G1 F5760
G1 X126.497 Y118.275 E-0.23957
G1 F5760
G1 X126.640 Y117.881 E-0.14502
G1 F5760
G1 X125.973 Y117.214 E-0.32698
G1 F5760
G1 X125.923 Y117.083 E-0.04842
G1 E-0.04000 F2100.00000
G1 Z0.800 F7200.000
G1 X111.111 Y109.863 F7200.000
G1 Z0.200 F7200.000
G1 E0.80000 F2100.00000
G1 F900
G1 X109.621 Y108.373 E0.06646
G1 X109.100 Y108.388 E0.01644
G1 X109.913 Y109.202 E0.03630
G1 X109.020 Y108.845 E0.03033
G1 X108.484 Y108.309 E0.02394
G1 X107.807 Y108.146 E0.02196
G1 X107.804 Y108.165 E0.00062
G1 X108.431 Y108.793 E0.02800
G1 F5760
G1 X107.804 Y108.165 E-0.30746
G1 F5760
G1 X107.807 Y108.146 E-0.00679
G1 F5760
G1 X108.484 Y108.309 E-0.24114
G1 F5760
G1 X108.901 Y108.726 E-0.20460
G1 E-0.04000 F2100.00000
G1 Z0.800 F7200.000
G1 X107.513 Y108.191 F7200.000
G1 Z0.200 F7200.000
G1 E0.80000 F2100.00000
G1 F900
G1 X107.264 Y108.155 E0.00674
G1 F900
G1 X106.972 Y108.171 E0.00730
G1 F900
G1 X106.754 Y108.200 E0.00517
G1 F900
G1 X106.424 Y108.292 E0.00698
G1 F900
G1 X105.941 Y108.537 E0.01030
G1 X105.530 Y108.901 E0.01046
G1 F900
G1 X105.356 Y109.136 E0.00786
G1 X105.276 Y109.967 F7200.000
G1 F900
G1 X104.952 Y109.643 E0.01505
G1 X104.784 Y110.033 E0.01395
G1 X104.987 Y110.237 E0.00945
G1 X104.830 Y110.637 E0.01413
G1 X104.624 Y110.432 E0.00953
G1 X104.477 Y110.843 E0.01433
G1 X104.803 Y111.169 E0.01513
G1 X104.421 Y111.480 F7200.000
G1 F900
G1 X104.403 Y111.847 E0.00972
G1 F900
G1 X104.404 Y112.007 E0.00399
G1 F900
G1 X104.483 Y112.403 E0.00902
G1 F900
G1 X104.522 Y112.540 E0.00300
G1 F900
G1 X104.761 Y113.021 E0.01015
G1 X104.923 Y113.240 E0.00513
G1 X105.089 Y113.401 E0.00438
G1 F900
G1 X105.210 Y113.514 E0.00445
G1 X105.240 Y113.759 E0.00667
G1 F5760
G1 X105.210 Y113.514 E-0.08562
G1 F5760
G1 X105.089 Y113.401 E-0.05717
G1 E-0.65722 F2100.00000
G1 Z0.800 F7200.000
G1 X107.708 Y118.263 F7200.000
G1 Z0.200 F7200.000
G1 E0.80000 F2100.00000
G1 F900
G1 X108.122 Y118.677 E0.01847
G1 X108.659 Y118.677 E0.01692
G1 X107.942 Y117.960 E0.03197
G1 X107.967 Y117.449 E0.01616
G1 X109.195 Y118.677 E0.05479
G1 X109.732 Y118.677 E0.01692
G1 X107.917 Y116.862 E0.08096
G1 X107.888 Y116.687 E0.00559
G1 X107.727 Y116.136 E0.01813
G1 X110.268 Y118.677 E0.11337
G1 X110.609 Y118.677 E0.01074
G1 X110.664 Y118.536 E0.00478
G1 X105.897 Y113.769 E0.21265
G1 X106.795 Y114.131 E0.03056
G1 X110.814 Y118.150 E0.17927
G1 X110.964 Y117.764 E0.01307
G1 X107.694 Y114.493 E0.14589
G1 X108.593 Y114.856 E0.03056
G1 X111.115 Y117.378 E0.11251
G1 X111.265 Y116.992 E0.01307
G1 X109.265 Y114.991 E0.08924
