;FLAVOR:Marlin
;TIME:422
;Filament used:0.366495m
;Layer height: 0.3
;MINX:60.866
;MINY:67.114
;MINZ:0.2
;MAXX:103.429
;MAXY:97.864
;MAXZ:2.9
                                
;Creative3D GCode Generated by CXEngineDEV
;Generated Time:2022-04-08 18:14:05
;----------Machine Config--------------
;Machine Name:Creality Ender-2 Pro
;Machine Height:180
;Machine Width:165
;Machine Depth:165
;Material name:PLA
;Number of Extruders:1
;ExtruderParams[0] Nozzle Diameter1000
;----------Profile Config---------------
;Layer Height:0.3
;Wall Thickness:0.8
;Top/Bottom Thickness:1
;Out Wall Line Width:0.4
;Inner Wall Line Width:0.4
;Inital Layer Height:200
;Wall Line Count:1
;Infill Line Distance:4
;Infill Pattern:grid
;Infill Sparse Density:20
;Infill Wipe Distance:0
;Print Temperature:200
;Bed Temperature:60
;Support Enable:false
;Support Density:30
;Support Angle:1.0472
;Adhesion Type:none
;machine is belt:false
;machine belt offset:10
;machine belt offset Y:0
;----------Shell Config----------------
;Outer Wall Wipe Distance:200
;Infill Before Walls:false
;Infill Overlap:0.16
;Fill Gaps Between Walls:everywhere
;Minimum Infill Area:1
;Top Surface Skin Layer:0
;Top Layers:2
;Z Seam Alignment:sharpest_corner
;Seam Corner Preference:z_seam_corner_inner
;Z Seam X:82.5
;Z Seam Y:82.5
;Horizontal Expansion:0
;Top/Bottom Pattern:zigzag
;Ironing Pattern:zigzag
;Vase Model:false
;----------Support Config----------------
;Support Type:everywhere
;Support Pattern:zigzag
;Support Infill Layer Thickness:0.3
;Minimum Support Area:10
;Enable Support Roof:false
;Support Roof Thickness:0.8
;Support Roof Pattern:lines
; ---------PrintSpeed & Travel----------
;Enable Print Cool:true
;Avoid Printed Parts Traveling:true
;Enable Retraction:true
;Retraction Distance:8
;Retraction Speed:100
;Retraction Prime Speed:100
;Maximum Retraction Count:100
;Minimum Extrusion Distance Window:1
;Z Hop When Retracted:false
;Z Hop Height:0.2
;Retract Before Outer Wall:true
;Print Speed:50
;Infill Speed:50

;Prime Tower Speed:50
;Travel Speed:120
;Initial Layer Speed:25
;Skirt/Brim Speed:25
;Combing Mode:off
;---------------------End of Head--------------------------
M140 S60
M104 S200
M105
M109 S200
M82 ;absolute extrusion mode
M220 S100 ;Reset Feedrate
M221 S100 ;Reset Flowrate

G28 ;Home

G92 E0 ;Reset Extruder
G1 Z2.0 F3000 ;Move Z Axis up
G1 X10.1 Y20 Z0.28 F5000.0 ;Move to start position
G1 X10.1 Y145.0 Z0.28 F1500.0 E15 ;Draw the first line
G1 X10.4 Y145.0 Z0.28 F5000.0 ;Move to side a little
G1 X10.4 Y20 Z0.28 F1500.0 E30 ;Draw the second line
G92 E0  ;Reset Extruder
G1 E-1.0000 F1800 ;Retract a bit
G1 Z2.0 F3000 ;Move Z Axis up
G1 E0.0000 F1800 

G92 E0
G92 E0
G1 F6000 E-8

;LAYER_COUNT:10

;LAYER:0
M107
;MESH:
G0 F3600 X67.675 Y87.648 Z0.2
;TYPE:WALL-OUTER
G1 F6000 E0
G1 F1500 X67.49 Y87.574 E0.00729
G1 X64.69 Y86.457 E0.11758
G1 X64.38 Y86.382 E0.12925
G1 X64.039 Y86.394 E0.14173
G1 X63.707 Y86.508 E0.15458
G1 X63.434 Y86.701 E0.16681
G1 X63.226 Y86.963 E0.17905
G1 X63.146 Y87.124 E0.18563
G1 X62.397 Y89.002 E0.2596
G1 X62.322 Y89.311 E0.27123
G1 X62.333 Y89.653 E0.28375
G1 X62.448 Y89.985 E0.2966
G1 X62.64 Y90.258 E0.30881
G1 X62.904 Y90.467 E0.32113
G1 X63.124 Y90.57 E0.33002
G1 X66.044 Y91.735 E0.44504
G1 X67.601 Y87.833 E0.59875
G1 X67.675 Y87.648 E0.60346
G0 F3600 X67.49 Y87.574
G0 X67.654 Y87.167
;;retract;;
G1 F6000 E-7.39654
G0 F3600 X75.998 Y77.7
G1 F6000 E0.60346
G1 F1500 X75.724 Y77.698 E0.61349
G1 X75.665 Y77.849 E0.61942
G1 X68.264 Y96.848 E1.3654
G1 X64.297 Y96.848 E1.51053
G1 X64.296 Y96.848 E1.51057
G1 X64.002 Y96.848 E1.52133
G1 X64.111 Y96.574 E1.52765
G1 X64.275 Y96.163 E1.54384
G1 X64.423 Y95.677 E1.56242
G1 X64.472 Y95.398 E1.57279
G1 X64.498 Y94.885 E1.59158
G1 X64.475 Y94.598 E1.60212
G1 X64.372 Y94.098 E1.62079
G1 X64.281 Y93.828 E1.63122
G1 X64.062 Y93.374 E1.64966
G1 X63.906 Y93.133 E1.66016
G1 X63.578 Y92.744 E1.67878
G1 X63.372 Y92.551 E1.68911
G1 X63.156 Y92.383 E1.69912
G1 X62.73 Y92.127 E1.7173
G1 X62.49 Y91.998 E1.72727
G1 X62.289 Y91.869 E1.73601
G1 X62.095 Y91.724 E1.74487
G1 X61.898 Y91.552 E1.75444
G1 X61.725 Y91.376 E1.76347
G1 X61.574 Y91.198 E1.77201
G1 X61.426 Y90.994 E1.78123
G1 X61.297 Y90.786 E1.79018
G1 X61.175 Y90.548 E1.79997
G1 X61.085 Y90.335 E1.80843
G1 X60.948 Y89.879 E1.82585
G1 X60.899 Y89.617 E1.8356
G1 X60.874 Y89.38 E1.84432
G1 X60.866 Y89.141 E1.85307
G1 X60.876 Y88.896 E1.86204
G1 X60.907 Y88.636 E1.87162
G1 X60.952 Y88.409 E1.88008
G1 X61.017 Y88.17 E1.88914
G1 X61.101 Y87.931 E1.89841
G1 X61.469 Y87.01 E1.9347
G1 X61.573 Y86.777 E1.94403
G1 X61.689 Y86.56 E1.95304
G1 X61.817 Y86.358 E1.96179
G1 X61.963 Y86.161 E1.97076
G1 X62.135 Y85.964 E1.98033
G1 X62.311 Y85.79 E1.98938
G1 X62.487 Y85.641 E1.99782
G1 X62.698 Y85.487 E2.00737
G1 X62.919 Y85.351 E2.01687
G1 X63.128 Y85.243 E2.02547
G1 X63.565 Y85.073 E2.04263
G1 X63.81 Y85.008 E2.0519
G1 X64.063 Y84.961 E2.06132
G1 X64.304 Y84.935 E2.07019
G1 X64.549 Y84.927 E2.07916
G1 X64.793 Y84.937 E2.08809
G1 X65.048 Y84.966 E2.09748
G1 X65.279 Y85.01 E2.10608
G1 X65.783 Y85.146 E2.12518
G1 X66.041 Y85.192 E2.13477
G1 X66.315 Y85.218 E2.14484
G1 X66.825 Y85.205 E2.1635
G1 X67.108 Y85.159 E2.17399
G1 X67.598 Y85.02 E2.19263
G1 X67.856 Y84.909 E2.2029
G1 X68.297 Y84.654 E2.22154
G1 X68.52 Y84.484 E2.2318
G1 X68.723 Y84.301 E2.2418
G1 X69.058 Y83.913 E2.26055
G1 X69.215 Y83.676 E2.27096
G1 X69.442 Y83.222 E2.28953
G1 X75.684 Y67.591 E2.90532
G1 X75.685 Y67.59 E2.90537
G1 X75.874 Y67.114 E2.92411
G1 X76.055 Y67.594 E2.93411
G1 X83.422 Y87.081 E3.69631
G1 X83.701 Y87.079 E3.70652
G1 X90.766 Y67.609 E4.4643
G1 X90.94 Y67.129 E4.48298
G1 X91.137 Y67.6 E4.49295
G1 X103.313 Y96.572 E5.64273
G1 X103.429 Y96.848 E5.65368
G1 X103.13 Y96.848 E5.66007
G1 X103.129 Y96.848 E5.66011
G1 X99.169 Y96.848 E5.80499
G1 X91.306 Y77.846 E6.55737
G1 X91.244 Y77.696 E6.5633
G1 X90.971 Y77.702 E6.57329
G1 X90.916 Y77.855 E6.57836
G1 X83.832 Y97.359 E7.33755
G1 X83.649 Y97.864 E7.3572
G1 X83.459 Y97.361 E7.36764
G1 X76.055 Y77.852 E8.13107
G1 X75.998 Y77.7 E8.13614
G0 F3600 X75.798 Y77.699
G0 X75.801 Y77.259
;;retract;;
G1 F6000 E0.13614
G0 F3600 X90.955 Y67.786
;TYPE:SKIN
G1 F6000 E8.13614
G1 F1500 X90.811 Y68.184 E8.15162
G1 X91.349 Y68.721 E8.17943
G1 X91.759 Y69.697 E8.21816
G1 X90.66 Y68.599 E8.275
G1 X90.51 Y69.014 E8.29114
G1 X92.169 Y70.673 E8.37698
G1 X92.578 Y71.648 E8.41566
G1 X90.359 Y69.429 E8.53048
G1 X90.209 Y69.844 E8.54662
G1 X92.988 Y72.624 E8.69043
G1 X93.398 Y73.599 E8.72913
G1 X90.058 Y70.259 E8.90195
G1 X89.907 Y70.674 E8.9181
G1 X93.809 Y74.575 E9.11997
G1 X94.219 Y75.551 E9.1587
G1 X89.757 Y71.089 E9.38957
G1 X89.606 Y71.504 E9.40572
G1 X94.629 Y76.527 E9.66562
G1 X95.039 Y77.503 E9.70435
G1 X89.456 Y71.919 E9.99324
G1 X89.305 Y72.334 E10.0094
G1 X95.449 Y78.478 E10.32729
G1 X95.859 Y79.454 E10.36602
G1 X89.154 Y72.749 E10.71294
G1 X89.004 Y73.165 E10.72912
G1 X96.269 Y80.43 E11.10502
G1 X96.679 Y81.406 E11.14375
G1 X88.853 Y73.58 E11.54867
G1 X88.703 Y73.995 E11.56482
G1 X97.089 Y82.381 E11.99871
G1 X97.499 Y83.357 E12.03744
G1 X88.552 Y74.41 E12.50037
G1 X88.401 Y74.825 E12.51652
G1 X91.036 Y77.46 E12.65286
G1 X90.8 Y77.466 E12.6615
G1 X90.714 Y77.703 E12.67072
G1 X88.251 Y75.24 E12.79816
G1 X88.1 Y75.655 E12.81432
G1 X90.564 Y78.119 E12.94181
G1 X90.413 Y78.534 E12.95796
G1 X87.949 Y76.07 E13.08545
G1 X87.799 Y76.485 E13.1016
G1 X90.262 Y78.949 E13.22906
G1 X90.112 Y79.364 E13.2452
G1 X87.648 Y76.9 E13.37269
G1 X87.498 Y77.315 E13.38884
G1 X89.961 Y79.779 E13.5163
G1 X89.811 Y80.194 E13.53245
G1 X87.347 Y77.73 E13.65993
G1 X87.196 Y78.145 E13.67609
G1 X89.66 Y80.609 E13.80358
G1 X89.509 Y81.024 E13.81974
G1 X87.046 Y78.56 E13.9472
G1 X86.895 Y78.976 E13.96339
G1 X89.358 Y81.438 E14.0908
G1 X89.207 Y81.853 E14.10696
G1 X86.745 Y79.391 E14.23435
G1 X86.594 Y79.806 E14.2505
G1 X89.057 Y82.269 E14.37794
G1 X88.906 Y82.684 E14.3941
G1 X86.443 Y80.221 E14.52153
G1 X86.293 Y80.636 E14.53768
G1 X88.756 Y83.099 E14.66512
G1 X88.605 Y83.514 E14.68127
G1 X86.142 Y81.051 E14.80871
G1 X85.991 Y81.466 E14.82487
G1 X88.454 Y83.929 E14.9523
G1 X88.304 Y84.344 E14.96845
G1 X85.841 Y81.881 E15.09589
G1 X85.69 Y82.296 E15.11204
G1 X88.152 Y84.758 E15.23943
G1 X88.002 Y85.173 E15.25557
G1 X85.54 Y82.711 E15.38296
G1 X85.389 Y83.126 E15.39912
G1 X87.851 Y85.588 E15.5265
G1 X87.701 Y86.003 E15.54265
G1 X85.239 Y83.542 E15.67001
G1 X85.088 Y83.957 E15.68616
G1 X87.55 Y86.419 E15.81355
G1 X87.399 Y86.834 E15.8297
G1 X84.938 Y84.372 E15.95706
G1 X84.787 Y84.787 E15.97322
G1 X87.249 Y87.249 E16.10061
G1 X87.098 Y87.664 E16.11676
G1 X84.637 Y85.202 E16.24412
G1 X84.486 Y85.617 E16.26028
G1 X86.947 Y88.079 E16.38764
G1 X86.796 Y88.493 E16.40376
G1 X84.335 Y86.032 E16.5311
G1 X84.185 Y86.448 E16.54728
G1 X86.646 Y88.908 E16.67458
G1 X86.495 Y89.323 E16.69074
G1 X84.034 Y86.863 E16.81805
G1 X83.884 Y87.278 E16.83419
G1 X86.344 Y89.738 E16.96147
G1 X86.194 Y90.153 E16.97762
G1 X83.361 Y87.321 E17.12417
G0 F3600 X83.255 Y87.321
G1 F1500 X83.191 Y87.15 E17.13085
G1 X82.847 Y86.241 E17.16641
G1 X77.445 Y80.839 E17.44592
G1 X77.1 Y79.928 E17.48156
G1 X82.503 Y85.332 E17.76114
G1 X82.16 Y84.422 E17.79672
G1 X76.754 Y79.017 E18.0764
G1 X76.408 Y78.105 E18.11209
G1 X76.163 Y77.46 E18.13733
G0 F3600 X75.76 Y77.457
G1 F1500 X73.073 Y74.77 E18.27636
G1 X72.912 Y75.175 E18.2923
G1 X75.458 Y77.721 E18.42403
G1 X75.299 Y78.128 E18.44002
G1 X72.751 Y75.579 E18.57188
G1 X72.589 Y75.983 E18.58781
G1 X75.141 Y78.535 E18.71985
G1 X74.983 Y78.942 E18.73582
G1 X72.428 Y76.388 E18.86799
G1 X72.267 Y76.792 E18.88391
G1 X74.824 Y79.35 E19.01623
G1 X74.665 Y79.756 E19.03218
G1 X72.105 Y77.196 E19.16464
G1 X71.943 Y77.6 E19.18057
G1 X74.507 Y80.163 E19.3132
G1 X74.348 Y80.571 E19.32922
G1 X71.782 Y78.005 E19.46199
G1 X71.621 Y78.409 E19.4779
G1 X74.189 Y80.977 E19.61077
G1 X74.031 Y81.385 E19.62678
G1 X71.46 Y78.814 E19.7598
G1 X71.298 Y79.218 E19.77573
G1 X73.872 Y81.792 E19.90891
G1 X73.713 Y82.199 E19.92489
G1 X71.137 Y79.622 E20.0582
G1 X70.975 Y80.026 E20.07413
G1 X73.555 Y82.606 E20.20762
G1 X73.396 Y83.013 E20.22361
G1 X70.814 Y80.431 E20.3572
G1 X70.653 Y80.835 E20.37311
G1 X73.238 Y83.42 E20.50686
G1 X73.079 Y83.827 E20.52285
G1 X70.491 Y81.239 E20.65675
G1 X70.33 Y81.643 E20.67266
G1 X72.921 Y84.234 E20.80672
G1 X72.762 Y84.642 E20.82274
G1 X70.169 Y82.048 E20.95693
G1 X70.007 Y82.452 E20.97286
G1 X72.603 Y85.048 E21.10718
G1 X72.445 Y85.455 E21.12315
G1 X69.845 Y82.856 E21.25765
G1 X69.684 Y83.261 E21.2736
G1 X72.286 Y85.863 E21.40822
G1 X72.127 Y86.269 E21.42418
G1 X69.499 Y83.641 E21.56015
G1 X69.423 Y83.795 E21.56643
G1 X69.289 Y83.997 E21.5753
G1 X71.969 Y86.677 E21.71397
G1 X71.81 Y87.084 E21.72995
G1 X69.033 Y84.306 E21.87366
G1 X68.894 Y84.468 E21.88147
G1 X68.755 Y84.594 E21.88834
G1 X71.652 Y87.491 E22.03823
G1 X71.493 Y87.898 E22.05422
G1 X68.44 Y84.845 E22.21218
G1 X68.43 Y84.853 E22.21265
G1 X68.083 Y85.054 E22.22732
G1 X71.335 Y88.305 E22.39556
G1 X71.176 Y88.712 E22.41154
G1 X67.701 Y85.237 E22.59134
G1 X67.677 Y85.246 E22.59228
G1 X67.262 Y85.364 E22.60806
G1 X71.017 Y89.119 E22.80235
G1 X70.859 Y89.526 E22.81832
G1 X66.779 Y85.446 E23.02942
G1 X66.307 Y85.457 E23.0467
G1 X66.215 Y85.448 E23.05008
G1 X70.7 Y89.934 E23.28216
G1 X70.542 Y90.341 E23.29814
G1 X67.908 Y87.707 E23.43442
G1 X67.747 Y88.111 E23.45033
G1 X70.383 Y90.747 E23.58672
G1 X70.224 Y91.155 E23.60274
G1 X67.585 Y88.516 E23.73928
G1 X67.424 Y88.92 E23.7552
G1 X70.066 Y91.562 E23.89189
G1 X69.907 Y91.969 E23.90788
G1 X67.262 Y89.324 E24.04474
G1 X67.101 Y89.729 E24.06068
G1 X69.749 Y92.376 E24.19766
G1 X69.59 Y92.783 E24.21365
G1 X66.94 Y90.133 E24.35076
G1 X66.779 Y90.537 E24.36667
G1 X69.431 Y93.19 E24.50392
G1 X69.273 Y93.597 E24.51989
G1 X66.617 Y90.942 E24.65729
G1 X66.456 Y91.346 E24.6732
G1 X69.114 Y94.004 E24.81072
G1 X68.956 Y94.412 E24.82673
G1 X66.294 Y91.75 E24.96447
G1 X66.177 Y92.046 E24.97611
G1 X65.923 Y91.945 E24.98611
G1 X68.797 Y94.818 E25.13479
G1 X68.638 Y95.226 E25.15081
G1 X64.983 Y91.57 E25.33995
G1 X64.041 Y91.194 E25.37705
G1 X68.48 Y95.633 E25.60673
G1 X68.321 Y96.039 E25.62268
G1 X63.101 Y90.82 E25.89274
G0 F3600 X63.027 Y90.79
G1 F1500 X62.776 Y90.67 E25.90292
G1 X62.463 Y90.424 E25.91749
G1 X62.231 Y90.094 E25.93225
G1 X62.155 Y89.873 E25.9408
G1 X62.093 Y89.696 E25.94766
G1 X62.081 Y89.284 E25.96274
G1 X62.091 Y89.244 E25.96425
G1 X61.212 Y88.365 E26.00973
G1 X61.243 Y88.248 E26.01415
G1 X61.324 Y88.019 E26.02304
G1 X61.354 Y87.942 E26.02606
G1 X62.217 Y88.804 E26.07069
G1 X62.378 Y88.4 E26.0866
G1 X61.516 Y87.538 E26.1312
G1 X61.678 Y87.133 E26.14716
G1 X62.54 Y87.995 E26.19176
G1 X62.701 Y87.591 E26.20767
G1 X61.858 Y86.748 E26.25129
G1 X61.891 Y86.687 E26.25383
G1 X62.01 Y86.5 E26.26194
G1 X62.08 Y86.404 E26.26628
G1 X62.862 Y87.186 E26.30675
G1 X62.926 Y87.025 E26.31308
G1 X63.022 Y86.832 E26.32097
G1 X63.044 Y86.803 E26.3223
G1 X62.339 Y86.098 E26.35878
G1 X62.471 Y85.967 E26.36558
G1 X62.628 Y85.834 E26.37311
G1 X62.636 Y85.829 E26.37346
G1 X63.303 Y86.496 E26.40797
G1 X63.597 Y86.291 E26.42108
G1 X63.646 Y86.274 E26.42298
G1 X62.972 Y85.599 E26.45788
G1 X63.032 Y85.562 E26.46046
G1 X63.229 Y85.459 E26.46859
G1 X63.351 Y85.412 E26.47337
G1 X64.089 Y86.151 E26.51158
G1 X64.403 Y86.14 E26.52308
G1 X64.72 Y86.216 E26.535
G1 X63.771 Y85.267 E26.58411
G1 X63.857 Y85.243 E26.58737
G0 F3600 X63.856 Y85.242
G1 F1500 X64.099 Y85.198 E26.59641
G1 X64.251 Y85.182 E26.602
G1 X65.651 Y86.581 E26.67441
G1 X66.591 Y86.956 E26.71144
G1 X64.817 Y85.182 E26.80323
G1 X65.02 Y85.204 E26.8107
G1 X65.219 Y85.24 E26.81809
G0 F3600 X65.218 Y85.241
G1 F1500 X65.524 Y85.323 E26.82968
G1 X67.532 Y87.331 E26.93358
G0 F3600 X67.986 Y87.512
G1 F1500 X67.908 Y87.707 E26.94126
;;retract;;
G1 F6000 E18.94126
G0 F3600 X62.155 Y89.873
G1 F6000 E26.94126
G1 F1500 X61.124 Y88.843 E26.99458
G1 X61.115 Y88.924 E26.99756
G1 X61.106 Y89.142 E27.00555
G1 X61.113 Y89.361 E27.01356
G1 X61.117 Y89.401 E27.01503
G1 X68.162 Y96.447 E27.37957
G1 X68.1 Y96.607 E27.38585
G1 X67.757 Y96.607 E27.3984
G1 X63.88 Y92.729 E27.59902
G1 X64.098 Y92.989 E27.61144
G1 X64.272 Y93.255 E27.62307
G1 X64.504 Y93.736 E27.6426
G1 X64.596 Y94.011 E27.65321
G1 X67.191 Y96.607 E27.78751
G1 X66.625 Y96.607 E27.80821
G1 X64.723 Y94.704 E27.90665
G1 X64.737 Y94.88 E27.91311
G1 X64.718 Y95.265 E27.92721
G1 X66.06 Y96.607 E27.99665
G1 X65.494 Y96.607 E28.01736
G1 X64.647 Y95.759 E28.06121
G1 X64.515 Y96.194 E28.07784
G1 X64.928 Y96.607 E28.09921
G1 X64.362 Y96.607 E28.11992
G1 X64.355 Y96.607 E28.12017
;;retract;;
G1 F6000 E20.12017
G0 F3600 X63.88 Y92.729
G1 F6000 E28.12017
G1 F1500 X63.752 Y92.577 E28.12744
G1 X63.527 Y92.367 E28.1387
;;retract;;
G1 F6000 E20.1387
G0 F3600 X61.313 Y90.256
G1 F6000 E28.1387
G1 F1500 X61.391 Y90.443 E28.14612
G1 X61.506 Y90.667 E28.15533
G1 X61.625 Y90.86 E28.16362
G1 X61.756 Y91.042 E28.17183
G1 X61.901 Y91.212 E28.18
G1 X62.058 Y91.372 E28.1882
G1 X62.25 Y91.54 E28.19754
G1 X62.427 Y91.672 E28.20562
G1 X62.61 Y91.789 E28.21356
G1 X62.849 Y91.916 E28.22346
G1 X63.291 Y92.184 E28.24238
G1 X63.482 Y92.332 E28.25122
G1 X61.272 Y90.122 E28.36556
;;retract;;
G1 F6000 E20.36556
G0 F3600 X76.408 Y78.105
G1 F6000 E28.36556
G1 F1500 X81.815 Y83.512 E28.64532
G1 X81.472 Y82.603 E28.68087
G1 X73.235 Y74.366 E29.10706
G1 X73.396 Y73.962 E29.12297
G1 X81.128 Y81.694 E29.52303
G1 X80.784 Y80.784 E29.55862
G1 X73.558 Y73.558 E29.9325
G1 X73.719 Y73.153 E29.94844
G1 X80.441 Y79.875 E30.29624
G1 X80.096 Y78.965 E30.33185
G1 X73.88 Y72.749 E30.65347
G1 X74.042 Y72.345 E30.66939
G1 X79.753 Y78.056 E30.96488
G1 X79.409 Y77.146 E31.00048
G1 X74.203 Y71.941 E31.26981
G1 X74.365 Y71.536 E31.28577
G1 X79.065 Y76.237 E31.52898
G1 X78.721 Y75.327 E31.56457
G1 X74.526 Y71.132 E31.78162
G1 X74.688 Y70.728 E31.79755
G1 X78.377 Y74.418 E31.98845
G1 X78.034 Y73.508 E32.02403
G1 X74.849 Y70.323 E32.18882
G1 X75.01 Y69.919 E32.20473
G1 X77.69 Y72.599 E32.3434
G1 X77.346 Y71.689 E32.37899
G1 X75.171 Y69.514 E32.49152
G1 X75.333 Y69.111 E32.50741
G1 X77.002 Y70.779 E32.59374
G1 X76.658 Y69.87 E32.6293
G1 X75.494 Y68.706 E32.68953
