;FLAVOR:Marlin
;TIME:306
;Filament used:0.245979m
;Layer height: 0.3
;MINX:69.975
;MINY:68.376
;MINZ:0.2
;MAXX:94.849
;MAXY:96.624
;MAXZ:2.9
                                 
;Creative3D GCode Generated by CXEngineDEV
;Generated Time:2022-04-08 18:14:05
;----------Machine Config--------------
;Machine Name:Creality Ender-2 Pro
;Machine Height:180
;Machine Width:165
;Machine Depth:165
;Material name:PLA
;Number of Extruders:1
;ExtruderParams[0] Nozzle Diameter1000
;----------Profile Config---------------
;Layer Height:0.3
;Wall Thickness:0.8
;Top/Bottom Thickness:1
;Out Wall Line Width:0.4
;Inner Wall Line Width:0.4
;Inital Layer Height:200
;Wall Line Count:1
;Infill Line Distance:4
;Infill Pattern:grid
;Infill Sparse Density:20
;Infill Wipe Distance:0
;Print Temperature:200
;Bed Temperature:60
;Support Enable:false
;Support Density:30
;Support Angle:1.0472
;Adhesion Type:none
;machine is belt:false
;machine belt offset:10
;machine belt offset Y:0
;----------Shell Config----------------
;Outer Wall Wipe Distance:200
;Infill Before Walls:false
;Infill Overlap:0.16
;Fill Gaps Between Walls:everywhere
;Minimum Infill Area:1
;Top Surface Skin Layer:0
;Top Layers:2
;Z Seam Alignment:sharpest_corner
;Seam Corner Preference:z_seam_corner_inner
;Z Seam X:82.5
;Z Seam Y:82.5
;Horizontal Expansion:0
;Top/Bottom Pattern:zigzag
;Ironing Pattern:zigzag
;Vase Model:false
;----------Support Config----------------
;Support Type:everywhere
;Support Pattern:zigzag
;Support Infill Layer Thickness:0.3
;Minimum Support Area:10
;Enable Support Roof:false
;Support Roof Thickness:0.8
;Support Roof Pattern:lines
; ---------PrintSpeed & Travel----------
;Enable Print Cool:true
;Avoid Printed Parts Traveling:true
;Enable Retraction:true
;Retraction Distance:8
;Retraction Speed:100
;Retraction Prime Speed:100
;Maximum Retraction Count:100
;Minimum Extrusion Distance Window:1
;Z Hop When Retracted:false
;Z Hop Height:0.2
;Retract Before Outer Wall:true
;Print Speed:50
;Infill Speed:50

;Prime Tower Speed:50
;Travel Speed:120
;Initial Layer Speed:25
;Skirt/Brim Speed:25
;Combing Mode:off
;---------------------End of Head--------------------------
M140 S60
M104 S200
M105
M109 S200
M82 ;absolute extrusion mode
M220 S100 ;Reset Feedrate
M221 S100 ;Reset Flowrate

G28 ;Home

G92 E0 ;Reset Extruder
G1 Z2.0 F3000 ;Move Z Axis up
G1 X10.1 Y20 Z0.28 F5000.0 ;Move to start position
G1 X10.1 Y145.0 Z0.28 F1500.0 E15 ;Draw the first line
G1 X10.4 Y145.0 Z0.28 F5000.0 ;Move to side a little
G1 X10.4 Y20 Z0.28 F1500.0 E30 ;Draw the second line
G92 E0  ;Reset Extruder
G1 E-1.0000 F1800 ;Retract a bit
G1 Z2.0 F3000 ;Move Z Axis up
G1 E0.0000 F1800 

G92 E0
G92 E0
G1 F6000 E-8

;LAYER_COUNT:10

;LAYER:0
M107
;MESH:
G0 F3600 X76.958 Y91.551 Z0.2
;TYPE:WALL-OUTER
G1 F6000 E0
G1 F1500 X74.174 Y89.946 E0.11757
G1 X73.796 Y89.811 E0.13226
G1 X73.482 Y89.797 E0.14375
G1 X73.074 Y89.907 E0.15921
G1 X72.733 Y90.152 E0.17458
G1 X72.557 Y90.384 E0.18523
G1 X71.543 Y92.143 E0.25951
G1 X71.407 Y92.522 E0.27425
G1 X71.395 Y92.837 E0.28578
G1 X71.504 Y93.243 E0.30116
G1 X71.75 Y93.586 E0.3166
G1 X72.016 Y93.78 E0.32865
G1 X74.592 Y95.266 E0.43745
G1 X74.765 Y95.365 E0.44474
G1 X74.864 Y95.192 E0.44946
G1 X76.958 Y91.551 E0.60313
G0 F3600 X76.785 Y91.452
G0 X77.005 Y91.071
;;retract;;
G1 F6000 E-7.39687
G0 F3600 X84.078 Y86.721
G1 F6000 E0.60313
G1 F1500 X83.91 Y87.02 E0.61568
G1 X83.909 Y87.021 E0.61573
G1 X78.493 Y96.624 E1.01909
G1 X73.741 Y96.621 E1.19295
G1 X71.637 Y95.408 E1.2818
G1 X71.273 Y95.167 E1.29777
G1 X70.951 Y94.885 E1.31343
G1 X70.668 Y94.565 E1.32906
G1 X70.423 Y94.203 E1.34506
G1 X70.232 Y93.817 E1.36081
G1 X70.092 Y93.412 E1.37649
G1 X70.006 Y92.99 E1.39225
G1 X69.976 Y92.555 E1.4082
G1 X70.002 Y92.12 E1.42414
G1 X70.081 Y91.708 E1.43949
G1 X70.221 Y91.293 E1.45551
G1 X70.416 Y90.894 E1.47176
G1 X70.909 Y90.04 E1.50784
G1 X71.149 Y89.679 E1.5237
G1 X71.424 Y89.361 E1.53908
G1 X71.748 Y89.073 E1.55494
G1 X72.1 Y88.835 E1.57049
G1 X72.483 Y88.642 E1.58618
G1 X72.891 Y88.498 E1.60201
G1 X73.31 Y88.412 E1.61766
G1 X73.73 Y88.378 E1.63307
G1 X74.161 Y88.4 E1.64886
G1 X74.59 Y88.48 E1.66483
G1 X74.992 Y88.609 E1.68027
G1 X75.414 Y88.794 E1.69713
G1 X75.621 Y88.866 E1.70515
G1 X76.059 Y88.97 E1.72162
G1 X76.508 Y89.012 E1.73812
G1 X76.961 Y88.991 E1.75471
G1 X77.412 Y88.904 E1.77152
G1 X77.839 Y88.754 E1.78807
G1 X78.245 Y88.545 E1.80478
G1 X78.618 Y88.28 E1.82152
G1 X78.945 Y87.967 E1.83808
G1 X79.224 Y87.613 E1.85457
G1 X79.348 Y87.415 E1.86312
G1 X81.809 Y83.147 E2.04337
G1 X73.112 Y68.678 E2.661
G1 X72.931 Y68.376 E2.67388
G1 X73.283 Y68.376 E2.68116
G1 X73.284 Y68.376 E2.6812
G1 X77.363 Y68.376 E2.83044
G1 X83.837 Y79.245 E3.29329
G1 X84.01 Y79.537 E3.3057
G1 X84.18 Y79.243 E3.31276
G1 X90.469 Y68.376 E3.77212
G1 X94.503 Y68.376 E3.91971
G1 X94.504 Y68.376 E3.91975
G1 X94.849 Y68.376 E3.93237
G1 X94.676 Y68.675 E3.93953
G1 X86.299 Y83.151 E4.55144
G1 X94.252 Y96.321 E5.11432
G1 X94.434 Y96.624 E5.12725
G1 X94.081 Y96.624 E5.13455
G1 X94.08 Y96.624 E5.13458
G1 X89.948 Y96.624 E5.28576
G1 X84.253 Y87.017 E5.69436
G1 X84.078 Y86.721 E5.70148
G0 F3600 X83.98 Y86.895
G0 X83.598 Y86.678
;;retract;;
G1 F6000 E-2.29852
G0 F3600 X71.885 Y93.98
;TYPE:SKIN
G1 F6000 E5.70148
G1 F1500 X71.576 Y93.757 E5.71542
G1 X71.282 Y93.345 E5.73394
G0 F3600 X71.282 Y93.344
G1 F1500 X71.154 Y92.863 E5.75215
G1 X71.161 Y92.657 E5.75969
G1 X70.306 Y91.802 E5.80393
G1 X70.311 Y91.777 E5.80486
G1 X70.443 Y91.385 E5.82
G1 X70.446 Y91.377 E5.82031
G1 X71.267 Y92.198 E5.86279
G1 X71.324 Y92.041 E5.8689
G1 X71.453 Y91.818 E5.87832
G1 X70.632 Y90.996 E5.92083
G1 X70.839 Y90.638 E5.93596
G1 X71.66 Y91.459 E5.97844
G1 X71.867 Y91.1 E5.9936
G1 X71.046 Y90.279 E6.03608
G1 X71.11 Y90.17 E6.0407
G1 X71.266 Y89.934 E6.05105
G1 X72.074 Y90.742 E6.09286
G1 X72.281 Y90.383 E6.10802
G1 X71.517 Y89.619 E6.14755
G1 X71.595 Y89.53 E6.15188
G1 X71.806 Y89.342 E6.16222
G1 X72.511 Y90.047 E6.1987
G1 X72.564 Y89.977 E6.20191
G1 X72.821 Y89.791 E6.21352
G1 X72.132 Y89.103 E6.24914
G1 X72.218 Y89.043 E6.25298
G1 X72.498 Y88.903 E6.26443
G1 X73.214 Y89.619 E6.30148
G1 X73.455 Y89.555 E6.3106
G1 X73.727 Y89.566 E6.32056
G1 X72.907 Y88.746 E6.36299
G1 X72.961 Y88.727 E6.36508
G1 X73.344 Y88.649 E6.37938
G1 X73.373 Y88.647 E6.38044
G1 X74.695 Y89.968 E6.44882
G1 X76.03 Y90.738 E6.5052
G1 X73.919 Y88.627 E6.61443
G1 X74.133 Y88.637 E6.62227
G1 X74.536 Y88.713 E6.63727
G1 X74.588 Y88.73 E6.63927
G1 X79.755 Y93.897 E6.90662
G1 X79.959 Y93.536 E6.92179
G1 X75.5 Y89.077 E7.1525
G1 X75.554 Y89.095 E7.15458
G1 X76.018 Y89.207 E7.17204
G1 X76.214 Y89.225 E7.17924
G1 X80.163 Y93.174 E7.38357
G1 X80.367 Y92.812 E7.39877
G1 X76.793 Y89.238 E7.58369
G1 X76.99 Y89.229 E7.59091
G1 X77.291 Y89.171 E7.60212
G1 X80.571 Y92.45 E7.77181
G1 X80.774 Y92.088 E7.78699
G1 X77.732 Y89.045 E7.94441
G1 X77.933 Y88.974 E7.95221
G1 X78.126 Y88.874 E7.96016
G1 X80.979 Y91.727 E8.10778
G1 X81.182 Y91.365 E8.12296
G1 X78.486 Y88.668 E8.26248
G1 X78.772 Y88.465 E8.27531
G1 X78.812 Y88.428 E8.27731
G1 X81.387 Y91.003 E8.41054
G1 X81.59 Y90.641 E8.42572
G1 X79.1 Y88.151 E8.55456
G1 X79.123 Y88.128 E8.55575
G1 X79.352 Y87.837 E8.56929
G1 X81.795 Y90.28 E8.6957
G1 X81.998 Y89.918 E8.71088
G1 X79.576 Y87.495 E8.83622
G1 X79.783 Y87.137 E8.85135
G1 X82.203 Y89.557 E8.97657
G1 X82.406 Y89.195 E8.99175
G1 X79.99 Y86.778 E9.11678
G1 X80.197 Y86.419 E9.13194
G1 X82.611 Y88.833 E9.25684
G1 X82.814 Y88.471 E9.27203
G1 X80.404 Y86.061 E9.39672
G1 X80.61 Y85.702 E9.41187
G1 X83.019 Y88.11 E9.53648
G1 X83.222 Y87.748 E9.55167
G1 X80.818 Y85.343 E9.67608
G1 X81.024 Y84.984 E9.69122
G1 X83.427 Y87.387 E9.81556
G1 X83.63 Y87.025 E9.83074
G1 X81.231 Y84.625 E9.95489
G1 X81.438 Y84.267 E9.97002
G1 X83.835 Y86.663 E10.09402
G1 X84.038 Y86.301 E10.1092
G1 X81.645 Y83.908 E10.23302
G1 X81.852 Y83.549 E10.24818
G1 X92.976 Y94.673 E10.82374
G1 X92.114 Y93.246 E10.88474
G1 X82.059 Y83.19 E11.40501
G1 X82.086 Y83.144 E11.40697
G1 X81.344 Y81.91 E11.45965
G1 X91.252 Y91.817 E11.97227
G1 X90.39 Y90.39 E12.03326
G1 X80.492 Y80.492 E12.54539
G1 X79.64 Y79.074 E12.60591
G1 X89.528 Y88.962 E13.11752
G1 X88.665 Y87.534 E13.17857
G1 X78.787 Y77.655 E13.68969
G1 X77.935 Y76.238 E13.75018
G1 X87.803 Y86.106 E14.26076
G1 X86.94 Y84.678 E14.3218
G1 X77.082 Y74.819 E14.83189
G1 X76.23 Y73.401 E14.89241
G1 X86.078 Y83.25 E15.40198
G1 X86.02 Y83.153 E15.40611
G1 X86.213 Y82.819 E15.42023
G1 X75.377 Y71.983 E15.98089
G1 X74.525 Y70.565 E16.04141
G1 X86.421 Y82.461 E16.65692
G1 X86.628 Y82.102 E16.67208
G1 X84.203 Y79.678 E16.79752
G1 X84.41 Y79.319 E16.81269
G1 X86.836 Y81.745 E16.93821
G1 X87.043 Y81.386 E16.95337
G1 X84.618 Y78.961 E17.07884
G1 X84.825 Y78.602 E17.094
G1 X87.25 Y81.028 E17.2195
G1 X87.457 Y80.669 E17.23466
G1 X85.033 Y78.244 E17.36011
G1 X85.24 Y77.886 E17.37524
G1 X87.664 Y80.311 E17.50068
G1 X87.872 Y79.953 E17.51583
G1 X85.447 Y77.527 E17.64133
G1 X85.654 Y77.169 E17.65646
G1 X88.08 Y79.594 E17.78195
G1 X88.287 Y79.236 E17.79708
G1 X85.862 Y76.811 E17.92255
G1 X86.069 Y76.453 E17.93768
G1 X88.494 Y78.877 E18.06313
G1 X88.702 Y78.519 E18.07828
G1 X86.276 Y76.094 E18.20377
G1 X86.484 Y75.736 E18.21892
G1 X88.909 Y78.161 E18.34439
G1 X89.116 Y77.802 E18.35955
G1 X86.691 Y75.378 E18.485
G1 X86.899 Y75.019 E18.50018
G1 X89.323 Y77.444 E18.62562
G1 X89.531 Y77.085 E18.6408
G1 X87.106 Y74.661 E18.76625
G1 X87.314 Y74.303 E18.7814
G1 X89.738 Y76.728 E18.90684
G1 X89.946 Y76.369 E18.92202
G1 X87.521 Y73.944 E19.04749
G1 X87.728 Y73.586 E19.06262
G1 X90.153 Y76.011 E19.18809
G1 X90.36 Y75.652 E19.20325
G1 X87.935 Y73.227 E19.32873
G1 X88.143 Y72.87 E19.34384
G1 X90.567 Y75.294 E19.46926
G1 X90.775 Y74.936 E19.48441
G1 X88.35 Y72.511 E19.60988
G1 X88.558 Y72.153 E19.62503
G1 X90.982 Y74.577 E19.75045
G1 X91.189 Y74.219 E19.76558
G1 X88.765 Y71.794 E19.89102
G1 X88.973 Y71.436 E19.90617
G1 X91.397 Y73.86 E20.03159
G1 X91.604 Y73.503 E20.04669
G1 X89.18 Y71.078 E20.17213
G1 X89.387 Y70.719 E20.18729
G1 X91.812 Y73.144 E20.31277
G1 X92.019 Y72.786 E20.3279
G1 X89.595 Y70.362 E20.45331
G1 X89.802 Y70.003 E20.46848
G1 X92.226 Y72.427 E20.5939
G1 X92.433 Y72.069 E20.60902
G1 X90.009 Y69.645 E20.73444
G1 X90.216 Y69.286 E20.74961
G1 X92.641 Y71.711 E20.87508
G1 X92.848 Y71.352 E20.89024
G1 X90.424 Y68.928 E21.01566
G1 X90.605 Y68.616 E21.02885
G1 X90.677 Y68.616 E21.03149
G1 X93.055 Y70.994 E21.15453
G1 X93.263 Y70.635 E21.16971
G1 X91.243 Y68.616 E21.2742
G1 X91.809 Y68.616 E21.29491
G1 X93.47 Y70.277 E21.38085
G1 X93.678 Y69.919 E21.39599
G1 X92.375 Y68.616 E21.46341
G1 X92.94 Y68.616 E21.48408
G1 X93.885 Y69.56 E21.53295
G1 X94.092 Y69.202 E21.54808
G1 X93.506 Y68.616 E21.5784
G1 X94.072 Y68.616 E21.59911
G1 X94.431 Y68.616 E21.61224
G0 F3600 X94.299 Y68.843
G1 F1500 X94.072 Y68.616 E21.62399
;;retract;;
G1 F6000 E13.62399
G0 F3600 X84.011 Y80.01
G1 F6000 E21.62399
G1 F1500 X83.239 Y78.713 E21.67921
G1 X73.673 Y69.147 E22.17416
G1 X73.353 Y68.616 E22.19684
G1 X73.707 Y68.616 E22.2098
G1 X82.406 Y77.315 E22.65989
G1 X81.573 Y75.917 E22.71943
G1 X74.273 Y68.616 E23.09716
G1 X74.838 Y68.616 E23.11783
G1 X80.74 Y74.518 E23.4232
G1 X79.908 Y73.119 E23.48275
G1 X75.404 Y68.616 E23.71577
G1 X75.97 Y68.616 E23.73648
G1 X79.075 Y71.721 E23.89713
G1 X78.242 Y70.322 E23.9567
G1 X76.535 Y68.616 E24.045
G1 X77.101 Y68.616 E24.0657
G1 X77.225 Y68.616 E24.07024
G0 F3600 X77.409 Y68.924
G1 F1500 X77.101 Y68.616 E24.08618
;;retract;;
G1 F6000 E16.08618
G0 F3600 X84.072 Y86.24
G1 F6000 E24.08618
G1 F1500 X84.21 Y86.472 E24.09605
G1 X93.839 Y96.102 E24.59429
G1 X94.009 Y96.383 E24.60631
G1 X93.554 Y96.382 E24.62295
G1 X85.033 Y87.862 E25.06381
G1 X85.856 Y89.251 E25.12288
G1 X92.988 Y96.382 E25.49187
G1 X92.423 Y96.382 E25.51254
G1 X86.679 Y90.639 E25.80971
G1 X87.503 Y92.028 E25.8688
G1 X91.857 Y96.382 E26.09407
G1 X91.291 Y96.382 E26.11478
G1 X88.326 Y93.417 E26.26819
G1 X89.149 Y94.806 E26.32726
G1 X90.726 Y96.382 E26.40883
G1 X90.16 Y96.382 E26.42954
G1 X90.083 Y96.382 E26.43236
G0 F3600 X89.972 Y96.194
G1 F1500 X90.16 Y96.382 E26.44208
;;retract;;
G1 F6000 E18.44208
G0 F3600 X77.286 Y91.462
G1 F6000 E26.44208
G1 F1500 X77.091 Y91.799 E26.45633
G1 X79.551 Y94.259 E26.58361
G1 X79.347 Y94.62 E26.59878
G1 X76.885 Y92.158 E26.72617
G1 X76.678 Y92.517 E26.74133
G1 X79.143 Y94.982 E26.86887
G1 X78.939 Y95.344 E26.88407
G1 X76.472 Y92.877 E27.01172
G1 X76.265 Y93.236 E27.02688
G1 X78.735 Y95.706 E27.15468
G1 X78.531 Y96.067 E27.16985
G1 X76.059 Y93.595 E27.29775
G1 X75.852 Y93.953 E27.31288
G1 X78.28 Y96.382 E27.43853
G1 X77.714 Y96.382 E27.45924
G1 X75.645 Y94.313 E27.56629
G1 X75.439 Y94.672 E27.58143
G1 X77.148 Y96.381 E27.66986
G1 X76.582 Y96.381 E27.69057
G1 X75.232 Y95.031 E27.76042
G1 X75.026 Y95.39 E27.77556
G1 X76.016 Y96.38 E27.82678
G1 X75.45 Y96.38 E27.84749
G1 X74.637 Y95.567 E27.88955
G1 X73.301 Y94.797 E27.94597
G1 X74.884 Y96.38 E28.02788
G1 X74.318 Y96.38 E28.04858
G1 X71.965 Y94.027 E28.17033
;;retract;;
G1 F6000 E20.17033
G0 F3600 X71.282 Y93.344
G1 F6000 E28.17033
G1 F1500 X70.232 Y92.294 E28.22466
G1 X70.217 Y92.554 E28.23419
G1 X70.237 Y92.865 E28.24559
G1 X73.681 Y96.308 E28.42376
G1 X72.344 Y95.537 E28.48022
G1 X71.764 Y95.203 E28.50471
G1 X71.417 Y94.975 E28.5199
G1 X71.122 Y94.715 E28.53429
G1 X70.857 Y94.417 E28.54888
G1 X70.63 Y94.081 E28.56371
G1 X70.453 Y93.719 E28.57845
G0 F3600 X70.413 Y93.606
G1 F1500 X72.344 Y95.537 E28.67837
;;retract;;
G1 F6000 E20.67837
G0 F3600 X93.687 Y96.515
;TYPE:SKIN
G1 F6000 E28.67837
G1 F1500 X93.879 Y96.425 E28.68839
G1 X94.021 Y96.284 E28.69784
;;retract;;
G1 F6000 E20.69784
G0 F3600 X94.266 Y68.81
G1 F6000 E28.69784
G1 F1500 X94.354 Y68.615 E28.7089
G1 X94.547 Y68.525 E28.71991
;;retract;;
G1 F6000 E20.71991
G0 F3600 X73.606 Y68.514
G1 F6000 E28.71991
G1 F1500 X73.413 Y68.604 E28.73334
G0 F3600 X73.485 Y68.959
G1 F1500 X73.135 Y68.609 E28.7424
;;retract;;
G1 F6000 E20.7424
;MESH:NONMESH
G0 F600 X73.135 Y68.609 Z0.5
G0 F3600 X76.962 Y91.554
;TIME_ELAPSED:49.924964

;LAYER:1
M140 S60
M106 S127.5
;TYPE:WALL-OUTER
;MESH:
G1 F6000 E28.7424
G1 F1500 X74.175 Y89.946 E28.90292
G1 X73.813 Y89.815 E28.92213
G1 X73.494 Y89.796 E28.93807
G1 X73.182 Y89.865 E28.95401
G1 X72.854 Y90.046 E28.9727
G1 X72.635 Y90.267 E28.98823
G1 X72.554 Y90.39 E28.99557
G1 X71.543 Y92.142 E29.09649
G1 X71.412 Y92.504 E29.1157
G1 X71.394 Y92.824 E29.13169
G1 X71.462 Y93.135 E29.14757
G1 X71.643 Y93.464 E29.1663
G1 X71.867 Y93.685 E29.182
G1 X72.167 Y93.867 E29.19951
G1 X74.591 Y95.266 E29.33914
G1 X74.764 Y95.365 E29.34908
G1 X74.863 Y95.192 E29.35552
G1 X76.962 Y91.554 E29.56506
G0 F5400 X76.789 Y91.455
G0 X77.009 Y91.074
;;retract;;
G1 F6000 E21.56506
G0 F5400 X84.078 Y86.721
G1 F6000 E29.56506
G1 F1500 X83.91 Y87.02 E29.58217
G1 X83.909 Y87.021 E29.58224
G1 X78.493 Y96.624 E30.13228
G1 X73.745 Y96.624 E30.36916
G1 X71.633 Y95.406 E30.4908
G1 X71.296 Y95.183 E30.51096
G1 X71.103 Y95.028 E30.52331
G1 X70.813 Y94.74 E30.5437
G1 X70.663 Y94.561 E30.55535
G1 X70.432 Y94.218 E30.57598
G1 X70.32 Y94.013 E30.58763
G1 X70.165 Y93.64 E30.60778
G1 X70.087 Y93.395 E30.62061
G1 X70.01 Y93.016 E30.63991
G1 X69.982 Y92.76 E30.65276
G1 X69.98 Y92.363 E30.67256
G1 X70.002 Y92.114 E30.68503
G1 X70.077 Y91.73 E30.70455
G1 X70.148 Y91.486 E30.71723
G1 X70.302 Y91.111 E30.73746
G1 X70.415 Y90.896 E30.74957
G1 X71.009 Y89.879 E30.80833
G1 X71.154 Y89.671 E30.82098
G1 X71.413 Y89.372 E30.84072
G1 X71.581 Y89.211 E30.85233
G1 X71.905 Y88.959 E30.8728
G1 X72.108 Y88.829 E30.88483
G1 X72.459 Y88.653 E30.90442
G1 X72.691 Y88.561 E30.91687
G1 X73.074 Y88.454 E30.93671
G1 X73.323 Y88.409 E30.94934
G1 X73.704 Y88.38 E30.9684
G1 X73.955 Y88.383 E30.98092
G1 X74.348 Y88.429 E31.00066
G1 X74.602 Y88.483 E31.01362
G1 X74.961 Y88.599 E31.03244
G1 X75.432 Y88.801 E31.05801
G1 X75.61 Y88.862 E31.0674
G1 X75.87 Y88.933 E31.08084
G1 X76.258 Y88.996 E31.10045
G1 X76.541 Y89.013 E31.1146
G1 X76.939 Y88.993 E31.13448
G1 X77.217 Y88.949 E31.14852
G1 X77.624 Y88.838 E31.16957
G1 X78.033 Y88.663 E31.19176
G1 X78.429 Y88.425 E31.21481
G1 X78.772 Y88.142 E31.237
G1 X78.963 Y87.947 E31.25062
