; generated by Slic3r Prusa Edition 1.39.1-prusa3d on 2018-05-09 at 12:53:31

; 

; external perimeters extrusion width = 0.45mm
; perimeters extrusion width = 0.45mm
; infill extrusion width = 0.45mm
; solid infill extrusion width = 0.45mm
; top infill extrusion width = 0.33mm
; first layer extrusion width = 0.42mm

M107
M115 U3.1.0 ; tell printer latest fw version
M201 X9000 Y9000 Z500 E10000 ; sets maximum accelerations, mm/sec^2
M203 X500 Y500 Z12 E120 ; sets maximum feedrates, mm/sec
M204 S1500 T1500 ; sets acceleration (S) and retract acceleration (T)
M205 X10 Y10 Z0.2 E2.5 ; sets the jerk limits, mm/sec
M205 S0 T0 ; sets the minimum extruding and travel feed rate, mm/sec
M83  ; extruder relative mode
M104 S200 ; set extruder temp
M140 S65 ; set bed temp
M190 S65 ; wait for bed temp
M109 S200 ; wait for extruder temp
G28 W ; home all without mesh bed level
G80 ; mesh bed leveling
G1 Y-3.0 F1000.0 ; go outside print area
G92 E0.0
G1 E18.0 F1000.0;
G1 X60.0 E9.0  F1000.0 ; intro line
G1 X100.0 E12.5  F1000.0 ; intro line
G92 E0.0
M900 K30; Filament gcode
G21 ; set units to millimeters
G90 ; use absolute coordinates
M83 ; use relative distances for extrusion
;BEFORE_LAYER_CHANGE
;0.2


G1 E-0.80000 F2100.00000
G1 Z0.600 F7200.000
;AFTER_LAYER_CHANGE
;0.2
G1 X87.559 Y84.596 F7200.000
G1 Z0.200 F7200.000
G1 E0.80000 F2100.00000
M204 S1000
G1 F900
G1 X87.946 Y83.951 E0.02358
G1 X88.359 Y83.536 E0.01835
G1 X88.853 Y83.216 E0.01848
G1 X89.401 Y83.010 E0.01835
G1 X89.980 Y82.924 E0.01835
G1 X112.715 Y82.922 E0.71285
G1 X113.735 Y83.119 E0.03258
G1 X114.610 Y83.681 E0.03258
G1 X115.214 Y84.526 E0.03258
G1 X115.461 Y85.532 E0.03246
G1 X115.055 Y114.417 E0.90576
G1 X114.885 Y115.282 E0.02765
G1 X114.450 Y116.049 E0.02765
G1 X114.037 Y116.464 E0.01835
G1 X113.546 Y116.782 E0.01835
G1 X113.003 Y116.988 E0.01822
G1 X112.424 Y117.076 E0.01835
G1 X91.100 Y117.076 E0.66862
G1 X90.517 Y116.991 E0.01848
G1 X89.962 Y116.781 E0.01860
G1 X86.942 Y114.973 E0.11035
G1 X85.875 Y113.911 E0.04721
G1 X85.148 Y112.742 E0.04317
G1 X84.659 Y111.282 E0.04828
G1 X84.543 Y109.739 E0.04851
G1 X87.362 Y85.318 E0.77080
G1 X87.543 Y84.654 E0.02157
G1 X87.905 Y84.754 F7200.000
G1 F900
G1 X88.258 Y84.164 E0.02155
G1 X88.617 Y83.813 E0.01574
G1 X89.041 Y83.544 E0.01574
G1 X89.511 Y83.371 E0.01574
G1 X90.008 Y83.300 E0.01574
G1 X112.715 Y83.299 E0.71195
G1 X113.599 Y83.471 E0.02825
G1 X114.356 Y83.960 E0.02825
G1 X114.877 Y84.695 E0.02825
G1 X115.086 Y85.572 E0.02825
G1 X114.679 Y114.400 E0.90397
G1 X114.527 Y115.162 E0.02437
G1 X114.135 Y115.838 E0.02449
G1 X113.780 Y116.187 E0.01562
G1 X113.356 Y116.455 E0.01574
G1 X112.889 Y116.628 E0.01562
G1 X112.392 Y116.700 E0.01574
G1 X91.092 Y116.699 E0.66785
G1 X90.578 Y116.617 E0.01633
G1 X90.090 Y116.423 E0.01645
G1 X87.797 Y115.101 E0.08298
G1 X86.969 Y114.509 E0.03191
G1 X86.102 Y113.588 E0.03967
G1 X85.376 Y112.332 E0.04550
G1 X85.018 Y111.149 E0.03873
G1 X84.921 Y109.728 E0.04466
G1 X87.736 Y85.368 E0.76889
G1 X87.889 Y84.812 E0.01809
G1 F5760
G1 X88.258 Y84.164 E-0.25813
G1 F5760
G1 X88.617 Y83.813 E-0.17382
G1 F5760
G1 X89.041 Y83.544 E-0.17382
G1 F5760
G1 X89.458 Y83.390 E-0.15424
G1 E-0.04000 F2100.00000
G1 Z0.800 F7200.000
G1 X95.005 Y108.911 F7200.000
G1 Z0.200 F7200.000
G1 E0.80000 F2100.00000
G1 F900
G1 X92.420 Y113.395 E0.16228
G1 X89.150 Y111.499 E0.11851
G1 X88.887 Y111.246 E0.01144
G1 X88.764 Y111.076 E0.00657
G1 X88.663 Y110.893 E0.00657
G1 X88.547 Y110.546 E0.01147
G1 X88.517 Y110.181 E0.01147
G1 X88.540 Y109.955 E0.00713
G1 X88.641 Y109.605 E0.01143
G1 X89.747 Y107.671 E0.06984
G1 X89.957 Y107.392 E0.01094
G1 X90.254 Y107.150 E0.01203
G1 X90.602 Y106.984 E0.01207
G1 X90.984 Y106.908 E0.01223
G1 X91.342 Y106.923 E0.01124
G1 X91.564 Y106.972 E0.00712
G1 X91.867 Y107.102 E0.01034
G1 X94.953 Y108.881 E0.11170
G1 X94.490 Y109.050 F7200.000
G1 F900
G1 X92.282 Y112.879 E0.13860
G1 X89.379 Y111.195 E0.10523
G1 X89.173 Y110.998 E0.00895
G1 X89.083 Y110.874 E0.00478
G1 X89.010 Y110.741 E0.00478
G1 X88.919 Y110.470 E0.00896
G1 X88.896 Y110.185 E0.00896
G1 X88.912 Y110.027 E0.00498
G1 X88.991 Y109.753 E0.00895
G1 X90.063 Y107.879 E0.06769
G1 X90.231 Y107.655 E0.00877
G1 X90.457 Y107.470 E0.00916
G1 X90.721 Y107.345 E0.00917
G1 X91.014 Y107.286 E0.00935
G1 X91.293 Y107.298 E0.00875
G1 X91.447 Y107.333 E0.00498
G1 X91.699 Y107.440 E0.00856
G1 X94.438 Y109.020 E0.09916
G1 X94.837 Y109.248 F7200.000
G1 F5760
G1 X93.368 Y110.935 E-0.76000
G1 E-0.04000 F2100.00000
G1 Z0.800 F7200.000
G1 X101.530 Y97.801 F7200.000
G1 Z0.200 F7200.000
G1 E0.80000 F2100.00000
G1 F900
G1 X108.207 Y86.263 E0.41798
G1 X111.693 Y86.263 E0.10931
G1 X103.364 Y100.656 E0.52139
G1 X111.263 Y113.737 E0.47913
G1 X107.683 Y113.737 E0.11223
G1 X101.584 Y103.447 E0.37504
G1 X95.780 Y113.737 E0.37041
G1 X91.363 Y113.737 E0.13849
G1 X89.350 Y112.576 E0.07286
G1 X89.017 Y112.354 E0.01255
G1 X88.731 Y112.104 E0.01191
G1 X88.369 Y111.663 E0.01790
G1 X88.267 Y111.500 E0.00602
G1 X88.036 Y110.991 E0.01754
G1 X87.903 Y110.434 E0.01793
G1 X87.882 Y109.864 E0.01790
G1 X87.934 Y109.467 E0.01255
G1 X88.098 Y108.930 E0.01760
G1 X88.274 Y108.573 E0.01249
G1 X88.865 Y107.563 E0.03668
G1 X89.217 Y107.130 E0.01752
G1 X89.508 Y106.873 E0.01216
G1 X89.980 Y106.576 E0.01748
G1 X90.345 Y106.422 E0.01242
G1 X90.887 Y106.293 E0.01746
G1 X91.273 Y106.265 E0.01215
G1 X91.828 Y106.316 E0.01746
G1 X92.191 Y106.409 E0.01176
G1 X92.792 Y106.657 E0.02039
G1 X93.250 Y106.801 E0.01504
G1 X93.529 Y106.856 E0.00892
G1 X94.024 Y106.901 E0.01558
G1 X94.531 Y106.875 E0.01592
G1 X95.035 Y106.776 E0.01610
G1 X95.514 Y106.608 E0.01591
G1 X95.959 Y106.378 E0.01573
G1 X96.193 Y106.222 E0.00883
G1 X96.573 Y105.907 E0.01545
G1 X96.907 Y105.538 E0.01561
G1 X97.073 Y105.311 E0.00882
G1 X99.773 Y100.644 E0.16907
G1 X91.131 Y86.263 E0.52607
G1 X94.658 Y86.263 E0.11059
G1 X101.499 Y97.750 E0.41920
G1 X101.525 Y97.056 F7200.000
G1 F900
G1 X107.989 Y85.886 E0.40466
G1 X112.347 Y85.886 E0.13663
G1 X103.802 Y100.652 E0.53491
G1 X111.931 Y114.114 E0.49309
G1 X107.468 Y114.114 E0.13991
G1 X101.592 Y104.201 E0.36133
G1 X96.001 Y114.114 E0.35687
G1 X91.262 Y114.114 E0.14856
G1 X89.151 Y112.897 E0.07641
G1 X88.788 Y112.654 E0.01371
G1 X88.470 Y112.376 E0.01325
G1 X88.319 Y112.216 E0.00689
G1 X88.059 Y111.879 E0.01335
G1 X87.841 Y111.503 E0.01362
G1 X87.678 Y111.113 E0.01325
G1 X87.562 Y110.683 E0.01395
G1 X87.528 Y110.478 E0.00653
G1 X87.499 Y110.042 E0.01371
G1 X87.506 Y109.833 E0.00653
G1 X87.563 Y109.400 E0.01371
G1 X87.610 Y109.197 E0.00653
G1 X87.749 Y108.786 E0.01360
G1 X87.942 Y108.394 E0.01369
G1 X88.551 Y107.353 E0.03783
G1 X88.813 Y107.010 E0.01352
G1 X88.954 Y106.859 E0.00648
G1 X89.277 Y106.574 E0.01350
G1 X89.624 Y106.340 E0.01315
G1 X89.816 Y106.235 E0.00684
G1 X90.215 Y106.067 E0.01359
G1 X90.413 Y106.006 E0.00648
G1 X90.835 Y105.919 E0.01350
G1 X91.264 Y105.887 E0.01350
G1 X91.471 Y105.892 E0.00648
G1 X91.898 Y105.944 E0.01350
G1 X92.310 Y106.050 E0.01336
G1 X92.921 Y106.302 E0.02070
G1 X93.344 Y106.435 E0.01390
G1 X93.583 Y106.483 E0.00765
G1 X94.031 Y106.523 E0.01411
G1 X94.485 Y106.500 E0.01424
G1 X94.936 Y106.411 E0.01441
G1 X95.364 Y106.261 E0.01422
G1 X95.767 Y106.052 E0.01425
G1 X95.968 Y105.919 E0.00757
G1 X96.311 Y105.634 E0.01399
G1 X96.614 Y105.300 E0.01414
G1 X96.756 Y105.105 E0.00756
G1 X99.336 Y100.647 E0.16147
G1 X90.464 Y85.886 E0.54000
G1 X94.872 Y85.886 E0.13821
G1 X101.495 Y97.005 E0.40578
G1 X101.852 Y97.287 F7200.000
G1 X101.455 Y97.896 F7200.000
G1 F900
G1 X93.433 Y89.875 E0.35596
G1 F5760
G1 X94.985 Y91.426 E-0.76000
G1 E-0.04000 F2100.00000
G1 Z0.800 F7200.000
G1 X92.630 Y88.537 F7200.000
G1 Z0.200 F7200.000
G1 E0.80000 F2100.00000
G1 F900
G1 X100.669 Y96.577 E0.35675
G1 F5760
G1 X99.117 Y95.025 E-0.76000
G1 E-0.04000 F2100.00000
G1 Z0.800 F7200.000
G1 X99.883 Y95.257 F7200.000
G1 Z0.200 F7200.000
G1 E0.80000 F2100.00000
G1 F900
G1 X91.826 Y87.200 E0.35754
G1 F5760
G1 X93.377 Y88.751 E-0.76000
G1 E-0.04000 F2100.00000
G1 Z0.800 F7200.000
G1 X95.167 Y87.339 F7200.000
G1 Z0.200 F7200.000
G1 E0.80000 F2100.00000
G1 F900
G1 X94.374 Y86.546 E0.03521
G1 X93.840 Y86.546 E0.01675
G1 X95.953 Y88.659 E0.09377
G1 F5760
G1 X94.401 Y87.107 E-0.76000
G1 E-0.04000 F2100.00000
G1 Z0.800 F7200.000
G1 X96.739 Y89.978 F7200.000
G1 Z0.200 F7200.000
G1 E0.80000 F2100.00000
G1 F900
G1 X93.306 Y86.546 E0.15233
G1 X92.773 Y86.546 E0.01675
G1 X97.525 Y91.298 E0.21089
G1 F5760
G1 X95.973 Y89.746 E-0.76000
G1 E-0.04000 F2100.00000
G1 Z0.800 F7200.000
G1 X98.311 Y92.618 F7200.000
G1 Z0.200 F7200.000
G1 E0.80000 F2100.00000
G1 F900
G1 X92.239 Y86.546 E0.26945
G1 X91.705 Y86.546 E0.01675
G1 X99.097 Y93.937 E0.32801
G1 F5760
G1 X97.545 Y92.386 E-0.76000
G1 E-0.04000 F2100.00000
G1 Z0.800 F7200.000
G1 X96.649 Y95.225 F7200.000
G1 Z0.200 F7200.000
G1 E0.80000 F2100.00000
G1 F900
G1 X104.988 Y103.564 E0.37006
G1 F5760
G1 X103.436 Y102.013 E-0.76000
G1 E-0.04000 F2100.00000
G1 Z0.800 F7200.000
G1 X104.175 Y102.217 F7200.000
G1 Z0.200 F7200.000
G1 E0.80000 F2100.00000
G1 F900
G1 X95.845 Y93.887 E0.36964
G1 F5760
G1 X97.396 Y95.439 E-0.76000
G1 E-0.04000 F2100.00000
G1 Z0.800 F7200.000
G1 X95.041 Y92.550 F7200.000
G1 Z0.200 F7200.000
G1 E0.80000 F2100.00000
G1 F900
G1 X103.361 Y100.870 E0.36922
G1 F5760
G1 X101.810 Y99.319 E-0.76000
G1 E-0.04000 F2100.00000
G1 Z0.800 F7200.000
G1 X101.532 Y103.310 F7200.000
G1 Z0.200 F7200.000
G1 E0.80000 F2100.00000
G1 F900
G1 X99.648 Y101.426 E0.08361
G1 X99.452 Y101.764 E0.01226
G1 X101.215 Y103.527 E0.07823
G1 X101.022 Y103.868 E0.01229
G1 X99.256 Y102.102 E0.07836
G1 X99.061 Y102.440 E0.01226
G1 X100.830 Y104.209 E0.07850
G1 X100.637 Y104.550 E0.01229
G1 X98.865 Y102.778 E0.07864
G1 X98.670 Y103.116 E0.01226
G1 X100.445 Y104.892 E0.07878
G1 X100.253 Y105.233 E0.01229
G1 X98.474 Y103.454 E0.07892
G1 X98.278 Y103.792 E0.01226
G1 X100.060 Y105.574 E0.07906
G1 X99.868 Y105.915 E0.01229
G1 X98.083 Y104.130 E0.07920
G1 X97.887 Y104.468 E0.01226
G1 X99.675 Y106.256 E0.07934
G1 X99.483 Y106.598 E0.01229
G1 X97.692 Y104.806 E0.07948
G1 X97.496 Y105.144 E0.01226
G1 X99.290 Y106.939 E0.07962
G1 X99.098 Y107.280 E0.01229
G1 X97.299 Y105.481 E0.07983
G1 X97.067 Y105.783 E0.01194
G1 X98.905 Y107.621 E0.08157
G1 X98.713 Y107.962 E0.01229
G1 X96.813 Y106.063 E0.08430
G1 X96.528 Y106.311 E0.01187
G1 X98.520 Y108.304 E0.08841
G1 X98.328 Y108.645 E0.01229
G1 X96.224 Y106.541 E0.09337
G1 X95.884 Y106.735 E0.01227
G1 X98.135 Y108.986 E0.09990
G1 X97.943 Y109.327 E0.01229
G1 X95.521 Y106.905 E0.10747
G1 X95.126 Y107.044 E0.01314
G1 X97.751 Y109.669 E0.11648
G1 X97.558 Y110.010 E0.01229
G1 X94.682 Y107.133 E0.12764
G1 X94.566 Y107.156 E0.00371
G1 X94.190 Y107.176 E0.01180
G1 X97.366 Y110.351 E0.14091
G1 X97.173 Y110.692 E0.01229
G1 X93.630 Y107.149 E0.15721
G1 X93.180 Y107.075 E0.01434
G1 X92.950 Y107.003 E0.00756
G1 X94.350 Y108.403 E0.06214
G1 F5760
G1 X92.950 Y107.003 E-0.68588
G1 F5760
G1 X93.154 Y107.067 E-0.07412
G1 E-0.04000 F2100.00000
G1 Z0.800 F7200.000
G1 X93.090 Y107.676 F7200.000
G1 Z0.200 F7200.000
G1 E0.80000 F2100.00000
G1 F900
G1 X91.946 Y106.532 E0.05076
G1 X91.772 Y106.853 F7200.000
G1 F900
G1 X91.677 Y106.645 E0.00595
G1 X91.419 Y106.600 E0.00683
G1 F900
G1 X91.281 Y106.592 E0.00328
G1 F900
G1 X90.974 Y106.597 E0.00709
G1 F900
G1 X90.491 Y106.697 E0.00995
G1 X90.070 Y106.889 E0.00932
G1 X89.708 Y107.154 E0.00907
G1 X89.726 Y107.372 E0.00439
G1 X89.513 Y107.854 F7200.000
G1 F900
G1 X89.226 Y107.567 E0.01289
G1 X89.098 Y107.725 E0.00645
G1 X89.004 Y107.886 E0.00593
G1 X89.191 Y108.074 E0.00844
G1 X88.995 Y108.418 E0.01259
G1 X88.804 Y108.227 E0.00856
G1 X88.605 Y108.568 E0.01256
G1 X88.798 Y108.761 E0.00868
G1 X88.601 Y109.105 E0.01259
G1 X88.291 Y108.795 E0.01394
G1 X88.291 Y109.520 F7200.000
G1 F900
G1 X88.216 Y109.879 E0.00973
G1 F900
G1 X88.204 Y110.030 E0.00362
G1 F900
G1 X88.202 Y110.167 E0.00316
G1 F900
G1 X88.235 Y110.537 E0.00785
G1 F900
G1 X88.245 Y110.593 E0.00117
G1 F900
G1 X88.376 Y111.007 E0.00842
G1 X88.490 Y111.240 E0.00505
G1 X88.642 Y111.473 E0.00539
G1 X88.888 Y111.747 E0.00714
G1 X89.049 Y111.754 F7200.000
G1 F900
G1 X90.275 Y112.979 E0.06520
G1 X90.139 Y112.203 F7200.000
G1 F900
G1 X91.560 Y113.624 E0.07563
G1 F5760
G1 X90.139 Y112.203 E-0.69616
G1 E-0.10384 F2100.00000
G1 Z0.800 F7200.000
G1 X92.692 Y113.149 F7200.000
G1 Z0.200 F7200.000
G1 E0.80000 F2100.00000
G1 F900
G1 X92.998 Y113.454 E0.01355
G1 X93.531 Y113.454 E0.01675
G1 X93.012 Y112.935 E0.02306
G1 X93.207 Y112.596 E0.01226
G1 X94.065 Y113.454 E0.03808
G1 X94.599 Y113.454 E0.01675
G1 X93.402 Y112.258 E0.05310
G1 X93.597 Y111.919 E0.01226
G1 X95.132 Y113.454 E0.06812
G1 X95.615 Y113.454 E0.01515
G1 X95.633 Y113.422 E0.00117
G1 X93.792 Y111.581 E0.08170
G1 X93.988 Y111.242 E0.01226
G1 X95.826 Y113.081 E0.08158
G1 X96.018 Y112.739 E0.01229
G1 X94.183 Y110.904 E0.08146
G1 X94.378 Y110.565 E0.01226
G1 X96.211 Y112.398 E0.08134
G1 X96.403 Y112.057 E0.01229
G1 X94.573 Y110.227 E0.08121
G1 X94.768 Y109.888 E0.01226
G1 X96.596 Y111.716 E0.08109
G1 X96.788 Y111.375 E0.01229
G1 X94.964 Y109.550 E0.08097
G1 X95.159 Y109.211 E0.01226
G1 X97.105 Y111.158 E0.08638
G1 F5760
G1 X95.554 Y109.606 E-0.76000
G1 E-0.04000 F2100.00000
G1 Z0.800 F7200.000
G1 X104.113 Y107.492 F7200.000
G1 Z0.200 F7200.000
G1 E0.80000 F2100.00000
G1 F900
G1 X110.245 Y113.624 E0.27209
G1 X110.779 Y113.624 F7200.000
G1 F900
G1 X103.337 Y106.182 E0.33024
G1 F5760
G1 X104.888 Y107.734 E-0.76000
G1 E-0.04000 F2100.00000
G1 Z0.800 F7200.000
G1 X102.560 Y104.872 F7200.000
G1 Z0.200 F7200.000
G1 E0.80000 F2100.00000
G1 F900
G1 X110.681 Y112.993 E0.36038
G1 F5760
G1 X109.130 Y111.441 E-0.76000
G1 E-0.04000 F2100.00000
G1 Z0.800 F7200.000
G1 X109.711 Y113.624 F7200.000
G1 Z0.200 F7200.000
G1 E0.80000 F2100.00000
G1 F900
G1 X104.890 Y108.803 E0.21394
G1 F5760
G1 X106.442 Y110.354 E-0.76000
G1 E-0.04000 F2100.00000
G1 Z0.800 F7200.000
G1 X105.667 Y110.113 F7200.000
G1 Z0.200 F7200.000
G1 E0.80000 F2100.00000
G1 F900
G1 X109.177 Y113.624 E0.15579
G1 X108.644 Y113.624 F7200.000
G1 F900
G1 X106.443 Y111.424 E0.09764
G1 F5760
G1 X107.995 Y112.975 E-0.76000
G1 E-0.04000 F2100.00000
G1 Z0.800 F7200.000
G1 X107.220 Y112.734 F7200.000
G1 Z0.200 F7200.000
G1 E0.80000 F2100.00000
G1 F900
G1 X108.110 Y113.624 E0.03949
G1 F5760
G1 X107.220 Y112.734 E-0.43594
G1 E-0.36406 F2100.00000
G1 Z0.800 F7200.000
G1 X109.868 Y111.646 F7200.000
G1 Z0.200 F7200.000
G1 E0.80000 F2100.00000
G1 F900
G1 X101.783 Y103.561 E0.35876
G1 F5760
G1 X103.335 Y105.113 E-0.76000
G1 E-0.04000 F2100.00000
G1 Z0.800 F7200.000
G1 X105.801 Y104.911 F7200.000
G1 Z0.200 F7200.000
G1 E0.80000 F2100.00000
G1 F900
G1 X97.453 Y96.562 E0.37048
G1 F5760
G1 X99.004 Y98.114 E-0.76000
G1 E-0.04000 F2100.00000
G1 Z0.800 F7200.000
G1 X98.256 Y97.900 F7200.000
G1 Z0.200 F7200.000
G1 E0.80000 F2100.00000
G1 F900
G1 X106.615 Y106.258 E0.37090
G1 F5760
G1 X105.063 Y104.707 E-0.76000
G1 E-0.04000 F2100.00000
G1 Z0.800 F7200.000
G1 X107.428 Y107.605 F7200.000
G1 Z0.200 F7200.000
G1 E0.80000 F2100.00000
G1 F900
G1 X99.060 Y99.237 E0.37132
G1 F5760
G1 X100.612 Y100.789 E-0.76000
G1 E-0.04000 F2100.00000
G1 Z0.800 F7200.000
G1 X94.237 Y91.212 F7200.000
G1 Z0.200 F7200.000
G1 E0.80000 F2100.00000
G1 F900
G1 X103.273 Y100.248 E0.40097
G1 X103.469 Y99.910 E0.01226
G1 X101.674 Y98.116 E0.07962
G1 X101.870 Y97.778 E0.01226
G1 X103.664 Y99.572 E0.07962
G1 X103.860 Y99.234 E0.01226
G1 X102.066 Y97.440 E0.07962
G1 X102.261 Y97.102 E0.01226
G1 X104.056 Y98.896 E0.07962
G1 X104.251 Y98.558 E0.01226
G1 X102.457 Y96.764 E0.07962
G1 X102.653 Y96.426 E0.01226
G1 X104.447 Y98.220 E0.07962
G1 X104.643 Y97.882 E0.01226
G1 X102.848 Y96.088 E0.07962
G1 X103.044 Y95.750 E0.01226
G1 X104.838 Y97.544 E0.07962
G1 X105.034 Y97.206 E0.01226
G1 X103.239 Y95.411 E0.07962
G1 X103.435 Y95.073 E0.01226
G1 X105.229 Y96.868 E0.07962
G1 X105.425 Y96.530 E0.01226
G1 X103.631 Y94.735 E0.07962
G1 X103.826 Y94.397 E0.01226
G1 X105.621 Y96.192 E0.07962
G1 X105.816 Y95.854 E0.01226
G1 X104.022 Y94.059 E0.07962
G1 X104.218 Y93.721 E0.01226
G1 X106.012 Y95.516 E0.07962
G1 X106.208 Y95.177 E0.01226
