; generated by Slic3r Prusa Edition 1.39.1-prusa3d on 2018-04-22 at 18:23:37

; 

; external perimeters extrusion width = 0.45mm
; perimeters extrusion width = 0.45mm
; infill extrusion width = 0.45mm
; solid infill extrusion width = 0.45mm
; top infill extrusion width = 0.33mm
; first layer extrusion width = 0.42mm

M107
M115 U3.1.0 ; tell printer latest fw version
M201 X9000 Y9000 Z500 E10000 ; sets maximum accelerations, mm/sec^2
M203 X500 Y500 Z12 E120 ; sets maximum feedrates, mm/sec
M204 S1500 T1500 ; sets acceleration (S) and retract acceleration (T)
M205 X10 Y10 Z0.2 E2.5 ; sets the jerk limits, mm/sec
M205 S0 T0 ; sets the minimum extruding and travel feed rate, mm/sec
M83  ; extruder relative mode
M104 S215 ; set extruder temp
M140 S60 ; set bed temp
M190 S60 ; wait for bed temp
M109 S215 ; wait for extruder temp
G28 W ; home all without mesh bed level
G80 ; mesh bed leveling
G1 Y-3.0 F1000.0 ; go outside print area
G92 E0.0
G1 E18.0 F1000.0;
G1 X60.0 E9.0  F1000.0 ; intro line
G1 X100.0 E12.5  F1000.0 ; intro line
G92 E0.0
M900 K30; Filament gcode
G21 ; set units to millimeters
G90 ; use absolute coordinates
M83 ; use relative distances for extrusion
;BEFORE_LAYER_CHANGE
;0.2


G1 E-0.80000 F2100.00000
G1 Z0.600 F7200.000
;AFTER_LAYER_CHANGE
;0.2
G1 X112.561 Y89.592 F7200.000
G1 Z0.200 F7200.000
G1 E0.80000 F2100.00000
M204 S1000
G1 F900
G1 X112.946 Y88.951 E0.02345
G1 X113.359 Y88.536 E0.01835
G1 X113.850 Y88.218 E0.01835
G1 X114.397 Y88.011 E0.01835
G1 X114.980 Y87.924 E0.01848
G1 X137.715 Y87.922 E0.71285
G1 X138.735 Y88.119 E0.03258
G1 X139.610 Y88.681 E0.03258
G1 X140.214 Y89.526 E0.03258
G1 X140.461 Y90.532 E0.03246
G1 X140.055 Y119.417 E0.90576
G1 X139.885 Y120.282 E0.02765
G1 X139.450 Y121.049 E0.02765
G1 X139.037 Y121.464 E0.01835
G1 X138.546 Y121.782 E0.01835
G1 X138.003 Y121.988 E0.01822
G1 X137.424 Y122.076 E0.01835
G1 X116.100 Y122.076 E0.66862
G1 X115.517 Y121.991 E0.01848
G1 X114.965 Y121.783 E0.01848
G1 X111.942 Y119.973 E0.11048
G1 X110.875 Y118.911 E0.04721
G1 X110.148 Y117.742 E0.04316
G1 X109.659 Y116.282 E0.04829
G1 X109.543 Y114.739 E0.04851
G1 X112.363 Y90.314 E0.77093
G1 X112.545 Y89.650 E0.02157
G1 X112.906 Y89.750 F7200.000
G1 F900
G1 X113.258 Y89.164 E0.02143
G1 X113.617 Y88.813 E0.01574
G1 X114.041 Y88.544 E0.01574
G1 X114.512 Y88.371 E0.01574
G1 X115.008 Y88.300 E0.01574
G1 X137.715 Y88.299 E0.71195
G1 X138.599 Y88.471 E0.02825
G1 X139.356 Y88.960 E0.02825
G1 X139.877 Y89.695 E0.02825
G1 X140.086 Y90.572 E0.02825
G1 X139.679 Y119.400 E0.90397
G1 X139.527 Y120.162 E0.02437
G1 X139.138 Y120.835 E0.02437
G1 X138.783 Y121.184 E0.01562
G1 X138.359 Y121.454 E0.01574
G1 X137.889 Y121.628 E0.01574
G1 X137.392 Y121.700 E0.01574
G1 X116.092 Y121.699 E0.66785
G1 X115.578 Y121.617 E0.01633
G1 X115.094 Y121.425 E0.01633
G1 X112.797 Y120.101 E0.08310
G1 X111.969 Y119.509 E0.03191
G1 X111.102 Y118.588 E0.03967
G1 X110.371 Y117.321 E0.04586
G1 X110.017 Y116.146 E0.03850
G1 X109.921 Y114.728 E0.04454
G1 X112.736 Y90.368 E0.76889
G1 X112.890 Y89.808 E0.01821
G1 F5760
G1 X113.258 Y89.164 E-0.25676
G1 F5760
G1 X113.617 Y88.813 E-0.17382
G1 F5760
G1 X114.041 Y88.544 E-0.17382
G1 F5760
G1 X114.462 Y88.389 E-0.15560
G1 E-0.04000 F2100.00000
G1 Z0.800 F7200.000
G1 X120.005 Y113.911 F7200.000
G1 Z0.200 F7200.000
G1 E0.80000 F2100.00000
G1 F900
G1 X117.420 Y118.395 E0.16228
G1 X114.150 Y116.499 E0.11851
G1 X113.887 Y116.246 E0.01144
G1 X113.754 Y116.062 E0.00713
G1 X113.604 Y115.748 E0.01090
G1 X113.545 Y115.528 E0.00713
G1 X113.517 Y115.181 E0.01090
G1 X113.540 Y114.955 E0.00713
G1 X113.641 Y114.605 E0.01143
G1 X114.747 Y112.671 E0.06984
G1 X114.957 Y112.392 E0.01094
G1 X115.254 Y112.150 E0.01203
G1 X115.602 Y111.984 E0.01207
G1 X115.984 Y111.908 E0.01223
G1 X116.342 Y111.923 E0.01124
G1 X116.564 Y111.972 E0.00712
G1 X116.867 Y112.102 E0.01034
G1 X119.953 Y113.881 E0.11170
G1 X119.490 Y114.050 F7200.000
G1 F900
G1 X117.282 Y117.879 E0.13860
G1 X114.379 Y116.195 E0.10523
G1 X114.173 Y115.998 E0.00895
G1 X114.080 Y115.869 E0.00498
G1 X113.960 Y115.617 E0.00876
G1 X113.919 Y115.463 E0.00498
G1 X113.896 Y115.185 E0.00876
G1 X113.912 Y115.027 E0.00498
G1 X113.991 Y114.753 E0.00895
G1 X115.063 Y112.879 E0.06769
G1 X115.231 Y112.655 E0.00877
G1 X115.457 Y112.470 E0.00916
G1 X115.721 Y112.345 E0.00917
G1 X116.014 Y112.286 E0.00935
G1 X116.293 Y112.298 E0.00875
G1 X116.447 Y112.333 E0.00498
G1 X116.699 Y112.440 E0.00856
G1 X119.438 Y114.020 E0.09916
G1 X119.837 Y114.248 F7200.000
G1 F5760
G1 X118.368 Y115.935 E-0.76000
G1 E-0.04000 F2100.00000
G1 Z0.800 F7200.000
G1 X126.530 Y102.801 F7200.000
G1 Z0.200 F7200.000
G1 E0.80000 F2100.00000
G1 F900
G1 X133.207 Y91.263 E0.41798
G1 X136.693 Y91.263 E0.10931
G1 X128.364 Y105.656 E0.52139
G1 X136.263 Y118.737 E0.47913
G1 X132.683 Y118.737 E0.11223
G1 X126.584 Y108.447 E0.37504
G1 X120.780 Y118.737 E0.37041
G1 X116.363 Y118.737 E0.13849
G1 X114.350 Y117.576 E0.07286
G1 X114.017 Y117.354 E0.01255
G1 X113.731 Y117.104 E0.01191
G1 X113.485 Y116.825 E0.01166
G1 X113.268 Y116.500 E0.01224
G1 X113.099 Y116.159 E0.01194
G1 X112.933 Y115.613 E0.01790
G1 X112.903 Y115.434 E0.00567
G1 X112.882 Y114.864 E0.01790
G1 X112.933 Y114.477 E0.01224
G1 X113.094 Y113.939 E0.01760
G1 X113.274 Y113.573 E0.01279
G1 X113.870 Y112.555 E0.03698
G1 X114.231 Y112.116 E0.01782
G1 X114.653 Y111.769 E0.01714
G1 X114.988 Y111.572 E0.01220
G1 X115.507 Y111.372 E0.01744
G1 X115.887 Y111.293 E0.01215
G1 X116.273 Y111.265 E0.01215
G1 X116.828 Y111.316 E0.01746
G1 X117.191 Y111.409 E0.01176
G1 X117.792 Y111.657 E0.02039
G1 X118.250 Y111.801 E0.01504
G1 X118.529 Y111.856 E0.00892
G1 X119.024 Y111.901 E0.01558
G1 X119.531 Y111.875 E0.01592
G1 X120.035 Y111.776 E0.01610
G1 X120.514 Y111.608 E0.01591
G1 X120.959 Y111.378 E0.01573
G1 X121.193 Y111.222 E0.00883
G1 X121.573 Y110.907 E0.01545
G1 X121.907 Y110.538 E0.01561
G1 X122.073 Y110.311 E0.00882
G1 X124.773 Y105.644 E0.16907
G1 X116.131 Y91.263 E0.52607
G1 X119.658 Y91.263 E0.11059
G1 X126.499 Y102.750 E0.41920
G1 X126.525 Y102.056 F7200.000
G1 F900
G1 X132.989 Y90.886 E0.40466
G1 X137.347 Y90.886 E0.13663
G1 X128.802 Y105.652 E0.53491
G1 X136.931 Y119.114 E0.49309
G1 X132.468 Y119.114 E0.13991
G1 X126.592 Y109.201 E0.36133
G1 X121.001 Y119.114 E0.35687
G1 X116.262 Y119.114 E0.14856
G1 X114.151 Y117.897 E0.07641
G1 X113.788 Y117.654 E0.01371
G1 X113.470 Y117.376 E0.01325
G1 X113.182 Y117.050 E0.01362
G1 X112.941 Y116.690 E0.01360
G1 X112.750 Y116.304 E0.01349
G1 X112.611 Y115.893 E0.01360
G1 X112.563 Y115.687 E0.00664
G1 X112.528 Y115.478 E0.00664
G1 X112.499 Y115.042 E0.01371
G1 X112.506 Y114.833 E0.00653
G1 X112.562 Y114.403 E0.01360
G1 X112.674 Y113.984 E0.01360
G1 X112.748 Y113.789 E0.00653
G1 X112.942 Y113.394 E0.01380
G1 X113.553 Y112.350 E0.03794
G1 X113.673 Y112.181 E0.00650
G1 X113.959 Y111.854 E0.01360
G1 X114.109 Y111.712 E0.00649
G1 X114.441 Y111.456 E0.01315
G1 X114.819 Y111.234 E0.01374
G1 X115.215 Y111.067 E0.01349
G1 X115.413 Y111.006 E0.00648
G1 X115.835 Y110.919 E0.01350
G1 X116.264 Y110.887 E0.01350
G1 X116.471 Y110.892 E0.00648
G1 X116.898 Y110.944 E0.01350
G1 X117.310 Y111.050 E0.01336
G1 X117.921 Y111.302 E0.02070
G1 X118.344 Y111.435 E0.01390
G1 X118.583 Y111.483 E0.00765
G1 X119.031 Y111.523 E0.01411
G1 X119.485 Y111.500 E0.01424
G1 X119.936 Y111.411 E0.01441
G1 X120.364 Y111.261 E0.01422
G1 X120.767 Y111.052 E0.01425
G1 X120.968 Y110.919 E0.00757
G1 X121.311 Y110.634 E0.01399
G1 X121.614 Y110.300 E0.01414
G1 X121.756 Y110.105 E0.00756
G1 X124.336 Y105.647 E0.16147
G1 X115.464 Y90.886 E0.54000
G1 X119.872 Y90.886 E0.13821
G1 X126.495 Y102.005 E0.40578
G1 X126.852 Y102.287 F7200.000
G1 X126.455 Y102.896 F7200.000
G1 F900
G1 X118.433 Y94.875 E0.35596
G1 F5760
G1 X119.985 Y96.426 E-0.76000
G1 E-0.04000 F2100.00000
G1 Z0.800 F7200.000
G1 X119.237 Y96.212 F7200.000
G1 Z0.200 F7200.000
G1 E0.80000 F2100.00000
G1 F900
G1 X128.273 Y105.248 E0.40097
G1 X128.469 Y104.910 E0.01226
G1 X126.674 Y103.116 E0.07962
G1 X126.870 Y102.778 E0.01226
G1 X128.664 Y104.572 E0.07962
G1 X128.860 Y104.234 E0.01226
G1 X127.066 Y102.440 E0.07962
G1 X127.261 Y102.102 E0.01226
G1 X129.056 Y103.896 E0.07962
G1 X129.251 Y103.558 E0.01226
G1 X127.457 Y101.764 E0.07962
G1 X127.653 Y101.426 E0.01226
G1 X129.447 Y103.220 E0.07962
G1 X129.643 Y102.882 E0.01226
G1 X127.848 Y101.088 E0.07962
G1 X128.044 Y100.750 E0.01226
G1 X129.838 Y102.544 E0.07962
G1 X130.034 Y102.206 E0.01226
G1 X128.239 Y100.411 E0.07962
G1 X128.435 Y100.073 E0.01226
G1 X130.229 Y101.868 E0.07962
G1 X130.425 Y101.530 E0.01226
G1 X128.631 Y99.735 E0.07962
G1 X128.826 Y99.397 E0.01226
G1 X130.621 Y101.192 E0.07962
G1 X130.816 Y100.854 E0.01226
G1 X129.022 Y99.059 E0.07962
G1 X129.218 Y98.721 E0.01226
G1 X131.012 Y100.516 E0.07962
G1 X131.208 Y100.178 E0.01226
G1 X129.413 Y98.383 E0.07962
G1 X129.609 Y98.045 E0.01226
G1 X131.403 Y99.839 E0.07962
G1 X131.599 Y99.501 E0.01226
G1 X129.804 Y97.707 E0.07962
G1 X130.000 Y97.369 E0.01226
G1 X131.794 Y99.163 E0.07962
G1 X131.990 Y98.825 E0.01226
G1 X130.196 Y97.031 E0.07962
G1 X130.391 Y96.693 E0.01226
G1 X132.186 Y98.487 E0.07962
G1 X132.381 Y98.149 E0.01226
G1 X130.587 Y96.355 E0.07962
G1 X130.783 Y96.017 E0.01226
G1 X132.577 Y97.811 E0.07962
G1 X132.773 Y97.473 E0.01226
G1 X130.978 Y95.679 E0.07962
G1 X131.174 Y95.341 E0.01226
G1 X132.968 Y97.135 E0.07962
G1 X133.164 Y96.797 E0.01226
G1 X131.369 Y95.003 E0.07962
G1 X131.565 Y94.665 E0.01226
G1 X133.359 Y96.459 E0.07962
G1 X133.555 Y96.121 E0.01226
G1 X131.761 Y94.327 E0.07962
G1 X131.956 Y93.989 E0.01226
G1 X133.751 Y95.783 E0.07962
G1 X133.946 Y95.445 E0.01226
G1 X132.152 Y93.650 E0.07962
G1 X132.348 Y93.312 E0.01226
G1 X134.142 Y95.107 E0.07962
G1 X134.338 Y94.769 E0.01226
G1 X132.543 Y92.974 E0.07962
G1 X132.739 Y92.636 E0.01226
G1 X134.533 Y94.431 E0.07962
G1 X134.729 Y94.093 E0.01226
G1 X132.934 Y92.298 E0.07962
G1 X133.130 Y91.960 E0.01226
G1 X134.924 Y93.755 E0.07962
G1 X135.120 Y93.416 E0.01226
G1 X133.326 Y91.622 E0.07962
G1 X133.370 Y91.546 E0.00277
G1 X133.783 Y91.546 E0.01296
G1 X135.316 Y93.078 E0.06802
G1 X135.511 Y92.740 E0.01226
G1 X134.317 Y91.546 E0.05302
G1 X134.850 Y91.546 E0.01675
G1 X135.707 Y92.402 E0.03802
G1 X135.903 Y92.064 E0.01226
G1 X135.384 Y91.546 E0.02302
G1 X135.918 Y91.546 E0.01675
G1 X136.222 Y91.850 E0.01352
G1 F5760
G1 X135.918 Y91.546 E-0.14929
G1 F5760
G1 X135.384 Y91.546 E-0.18484
G1 F5760
G1 X135.903 Y92.064 E-0.25404
G1 F5760
G1 X135.707 Y92.402 E-0.13528
G1 F5760
G1 X135.632 Y92.328 E-0.03655
G1 E-0.04000 F2100.00000
G1 Z0.800 F7200.000
G1 X124.097 Y98.937 F7200.000
G1 Z0.200 F7200.000
G1 E0.80000 F2100.00000
G1 F900
G1 X116.705 Y91.546 E0.32801
G1 X117.239 Y91.546 E0.01675
G1 X123.311 Y97.618 E0.26945
G1 F5760
G1 X121.759 Y96.066 E-0.76000
G1 E-0.04000 F2100.00000
G1 Z0.800 F7200.000
G1 X122.525 Y96.298 F7200.000
G1 Z0.200 F7200.000
G1 E0.80000 F2100.00000
G1 F900
G1 X117.773 Y91.546 E0.21089
G1 X118.306 Y91.546 E0.01675
G1 X121.739 Y94.978 E0.15233
G1 F5760
G1 X120.187 Y93.427 E-0.76000
G1 E-0.04000 F2100.00000
G1 Z0.800 F7200.000
G1 X120.953 Y93.659 F7200.000
G1 Z0.200 F7200.000
G1 E0.80000 F2100.00000
G1 F900
G1 X118.840 Y91.546 E0.09377
G1 X119.374 Y91.546 E0.01675
G1 X120.167 Y92.339 E0.03521
G1 F5760
G1 X119.374 Y91.546 E-0.38862
G1 F5760
G1 X118.840 Y91.546 E-0.18484
G1 F5760
G1 X119.221 Y91.926 E-0.18654
G1 E-0.04000 F2100.00000
G1 Z0.800 F7200.000
G1 X117.630 Y93.537 F7200.000
G1 Z0.200 F7200.000
G1 E0.80000 F2100.00000
G1 F900
G1 X125.669 Y101.577 E0.35675
G1 F5760
G1 X124.117 Y100.025 E-0.76000
G1 E-0.04000 F2100.00000
G1 Z0.800 F7200.000
G1 X124.883 Y100.257 F7200.000
G1 Z0.200 F7200.000
G1 E0.80000 F2100.00000
G1 F900
G1 X116.826 Y92.200 E0.35754
G1 F5760
G1 X118.377 Y93.751 E-0.76000
G1 E-0.04000 F2100.00000
G1 Z0.800 F7200.000
G1 X120.041 Y97.550 F7200.000
G1 Z0.200 F7200.000
G1 E0.80000 F2100.00000
G1 F900
G1 X128.361 Y105.870 E0.36922
G1 F5760
G1 X126.810 Y104.319 E-0.76000
G1 E-0.04000 F2100.00000
G1 Z0.800 F7200.000
G1 X129.175 Y107.217 F7200.000
G1 Z0.200 F7200.000
G1 E0.80000 F2100.00000
G1 F900
G1 X120.845 Y98.887 E0.36964
G1 F5760
G1 X122.396 Y100.439 E-0.76000
G1 E-0.04000 F2100.00000
G1 Z0.800 F7200.000
G1 X121.649 Y100.225 F7200.000
G1 Z0.200 F7200.000
G1 E0.80000 F2100.00000
G1 F900
G1 X129.988 Y108.564 E0.37006
G1 F5760
G1 X128.436 Y107.013 E-0.76000
G1 E-0.04000 F2100.00000
G1 Z0.800 F7200.000
G1 X130.801 Y109.911 F7200.000
G1 Z0.200 F7200.000
G1 E0.80000 F2100.00000
G1 F900
G1 X122.453 Y101.562 E0.37048
G1 F5760
G1 X124.004 Y103.114 E-0.76000
G1 E-0.04000 F2100.00000
G1 Z0.800 F7200.000
G1 X123.256 Y102.900 F7200.000
G1 Z0.200 F7200.000
G1 E0.80000 F2100.00000
G1 F900
G1 X131.615 Y111.258 E0.37090
G1 F5760
G1 X130.063 Y109.707 E-0.76000
G1 E-0.04000 F2100.00000
G1 Z0.800 F7200.000
G1 X132.428 Y112.605 F7200.000
G1 Z0.200 F7200.000
G1 E0.80000 F2100.00000
G1 F900
G1 X124.060 Y104.237 E0.37132
G1 F5760
G1 X125.612 Y105.789 E-0.76000
G1 E-0.04000 F2100.00000
G1 Z0.800 F7200.000
G1 X126.532 Y108.310 F7200.000
G1 Z0.200 F7200.000
G1 E0.80000 F2100.00000
G1 F900
G1 X124.648 Y106.426 E0.08361
G1 X124.452 Y106.764 E0.01226
G1 X126.215 Y108.527 E0.07823
G1 X126.022 Y108.868 E0.01229
G1 X124.256 Y107.102 E0.07836
G1 X124.061 Y107.440 E0.01226
G1 X125.830 Y109.209 E0.07850
G1 X125.637 Y109.550 E0.01229
G1 X123.865 Y107.778 E0.07864
G1 X123.670 Y108.116 E0.01226
G1 X125.445 Y109.892 E0.07878
G1 X125.253 Y110.233 E0.01229
G1 X123.474 Y108.454 E0.07892
G1 X123.278 Y108.792 E0.01226
G1 X125.060 Y110.574 E0.07906
G1 X124.868 Y110.915 E0.01229
G1 X123.083 Y109.130 E0.07920
G1 X122.887 Y109.468 E0.01226
G1 X124.675 Y111.256 E0.07934
G1 X124.483 Y111.598 E0.01229
G1 X122.692 Y109.806 E0.07948
G1 X122.496 Y110.144 E0.01226
G1 X124.290 Y111.939 E0.07962
G1 X124.098 Y112.280 E0.01229
G1 X122.299 Y110.481 E0.07983
G1 X122.067 Y110.783 E0.01194
G1 X123.905 Y112.621 E0.08157
G1 X123.713 Y112.962 E0.01229
G1 X121.813 Y111.063 E0.08430
G1 X121.528 Y111.311 E0.01187
G1 X123.520 Y113.304 E0.08841
G1 X123.328 Y113.645 E0.01229
G1 X121.224 Y111.541 E0.09337
G1 X120.884 Y111.735 E0.01227
G1 X123.135 Y113.986 E0.09990
G1 X122.943 Y114.327 E0.01229
G1 X120.521 Y111.905 E0.10747
G1 X120.126 Y112.044 E0.01314
G1 X122.751 Y114.669 E0.11648
G1 X122.558 Y115.010 E0.01229
G1 X119.682 Y112.133 E0.12764
G1 X119.566 Y112.156 E0.00371
G1 X119.190 Y112.176 E0.01180
G1 X122.366 Y115.351 E0.14091
G1 X122.173 Y115.692 E0.01229
G1 X118.630 Y112.149 E0.15721
G1 X118.180 Y112.075 E0.01434
G1 X117.950 Y112.003 E0.00756
G1 X119.350 Y113.403 E0.06214
G1 F5760
G1 X117.950 Y112.003 E-0.68588
G1 F5760
G1 X118.154 Y112.067 E-0.07412
G1 E-0.04000 F2100.00000
G1 Z0.800 F7200.000
G1 X118.090 Y112.676 F7200.000
G1 Z0.200 F7200.000
G1 E0.80000 F2100.00000
G1 F900
G1 X116.946 Y111.532 E0.05076
G1 X116.772 Y111.853 F7200.000
G1 F900
G1 X116.677 Y111.645 E0.00595
G1 X116.419 Y111.600 E0.00683
G1 F900
G1 X116.281 Y111.592 E0.00328
G1 F900
G1 X115.974 Y111.597 E0.00709
G1 F900
G1 X115.519 Y111.689 E0.00937
G1 X115.131 Y111.856 E0.00853
G1 X114.842 Y112.049 E0.00700
G1 X114.578 Y112.288 E0.00719
G1 X114.590 Y112.719 F7200.000
G1 F900
G1 X114.322 Y112.451 E0.01287
G1 X114.102 Y112.717 E0.01171
G1 X114.069 Y112.775 E0.00226
G1 X114.256 Y112.962 E0.00896
G1 X114.046 Y113.329 E0.01435
G1 X113.856 Y113.139 E0.00910
G1 X113.643 Y113.503 E0.01431
G1 X113.836 Y113.696 E0.00924
G1 X113.626 Y114.063 E0.01435
G1 X113.313 Y113.750 E0.01499
G1 X113.293 Y114.511 F7200.000
G1 F900
G1 X113.216 Y114.879 E0.01002
G1 F900
G1 X113.204 Y115.030 E0.00362
G1 F900
G1 X113.202 Y115.167 E0.00316
G1 F900
G1 X113.237 Y115.552 E0.00818
G1 F900
G1 X113.314 Y115.843 E0.00607
G1 F900
G1 X113.392 Y116.038 E0.00406
G1 X113.551 Y116.337 E0.00658
G1 X113.888 Y116.747 E0.01030
G1 X114.048 Y116.752 F7200.000
G1 F900
G1 X115.275 Y117.979 E0.06526
G1 X115.139 Y117.203 F7200.000
G1 F900
G1 X116.560 Y118.624 E0.07563
G1 F5760
G1 X115.139 Y117.203 E-0.69616
G1 E-0.10384 F2100.00000
G1 Z0.800 F7200.000
G1 X117.692 Y118.149 F7200.000
G1 Z0.200 F7200.000
G1 E0.80000 F2100.00000
G1 F900
G1 X117.998 Y118.454 E0.01355
