; generated by Slic3r Prusa Edition 1.39.1-prusa3d on 2018-05-09 at 07:50:47

; 

; external perimeters extrusion width = 0.45mm
; perimeters extrusion width = 0.45mm
; infill extrusion width = 0.45mm
; solid infill extrusion width = 0.45mm
; top infill extrusion width = 0.33mm
; first layer extrusion width = 0.42mm

M107
M115 U3.1.0 ; tell printer latest fw version
M201 X9000 Y9000 Z500 E10000 ; sets maximum accelerations, mm/sec^2
M203 X500 Y500 Z12 E120 ; sets maximum feedrates, mm/sec
M204 S1500 T1500 ; sets acceleration (S) and retract acceleration (T)
M205 X10 Y10 Z0.2 E2.5 ; sets the jerk limits, mm/sec
M205 S0 T0 ; sets the minimum extruding and travel feed rate, mm/sec
M83  ; extruder relative mode
M104 S200 ; set extruder temp
M140 S55 ; set bed temp
M190 S55 ; wait for bed temp
M109 S200 ; wait for extruder temp
G28 W ; home all without mesh bed level
G80 ; mesh bed leveling
G1 Y-3.0 F1000.0 ; go outside print area
G92 E0.0
G1 E18.0 F1000.0;
G1 X60.0 E9.0  F1000.0 ; intro line
G1 X100.0 E12.5  F1000.0 ; intro line
G92 E0.0
M900 K30; Filament gcode
G21 ; set units to millimeters
G90 ; use absolute coordinates
M83 ; use relative distances for extrusion
;BEFORE_LAYER_CHANGE
;0.2


G1 E-0.80000 F2100.00000
G1 Z0.600 F7200.000
;AFTER_LAYER_CHANGE
;0.2
G1 X98.356 Y87.551 F7200.000
G1 Z0.200 F7200.000
G1 E0.80000 F2100.00000
M204 S1000
G1 F900
G1 X99.061 Y87.014 E0.02777
G1 X99.903 Y86.728 E0.02790
G1 X103.545 Y86.691 E0.11419
G1 X104.361 Y86.816 E0.02587
G1 X105.106 Y87.179 E0.02600
G1 X105.710 Y87.748 E0.02600
G1 X106.117 Y88.470 E0.02600
G1 X113.099 Y109.771 E0.70286
G1 X113.209 Y110.707 E0.02955
G1 X112.996 Y111.626 E0.02955
G1 X112.609 Y112.275 E0.02371
G1 X112.064 Y112.793 E0.02358
G1 X111.395 Y113.145 E0.02371
G1 X110.655 Y113.302 E0.02371
G1 X93.432 Y113.309 E0.54002
G1 X92.903 Y113.251 E0.01669
G1 X92.395 Y113.093 E0.01669
G1 X89.266 Y111.260 E0.11369
G1 X88.292 Y110.343 E0.04195
G1 X87.602 Y109.360 E0.03765
G1 X87.049 Y108.067 E0.04411
G1 X86.799 Y106.651 E0.04509
G1 X86.880 Y105.202 E0.04548
G1 X87.288 Y103.822 E0.04513
G1 X88.334 Y101.942 E0.06747
G1 X98.322 Y87.600 E0.54797
G1 X99.250 Y87.341 F7200.000
G1 F900
G1 X100.000 Y87.095 E0.02473
G1 X103.545 Y87.068 E0.11116
G1 X104.253 Y87.178 E0.02249
G1 X104.897 Y87.493 E0.02249
G1 X105.418 Y87.987 E0.02249
G1 X105.769 Y88.616 E0.02260
G1 X112.735 Y109.869 E0.70124
G1 X112.832 Y110.689 E0.02590
G1 X112.643 Y111.493 E0.02590
G1 X112.305 Y112.052 E0.02048
G1 X111.828 Y112.498 E0.02048
G1 X111.247 Y112.797 E0.02048
G1 X110.607 Y112.927 E0.02048
G1 X93.442 Y112.932 E0.53820
G1 X92.527 Y112.739 E0.02931
G1 X89.502 Y110.966 E0.10994
G1 X88.579 Y110.099 E0.03970
G1 X87.936 Y109.186 E0.03501
G1 X87.412 Y107.965 E0.04168
G1 X87.175 Y106.631 E0.04247
G1 X87.251 Y105.269 E0.04278
G1 X87.640 Y103.958 E0.04287
G1 X88.644 Y102.156 E0.06467
G1 X98.625 Y87.815 E0.54784
G1 X99.202 Y87.377 E0.02273
G1 F5760
G1 X100.000 Y87.095 E-0.29286
G1 F5760
G1 X101.348 Y87.085 E-0.46714
G1 E-0.04000 F2100.00000
G1 Z0.800 F7200.000
G1 X97.256 Y105.135 F7200.000
G1 Z0.200 F7200.000
G1 E0.80000 F2100.00000
G1 F900
G1 X94.677 Y109.623 E0.16230
G1 X91.412 Y107.739 E0.11819
G1 X91.082 Y107.410 E0.01464
G1 X90.907 Y107.109 E0.01091
G1 X90.799 Y106.778 E0.01091
G1 X90.772 Y106.295 E0.01515
G1 X90.896 Y105.829 E0.01512
G1 X92.002 Y103.895 E0.06986
G1 X92.276 Y103.554 E0.01371
G1 X92.557 Y103.349 E0.01091
G1 X92.862 Y103.213 E0.01046
G1 X93.208 Y103.140 E0.01109
G1 X93.668 Y103.164 E0.01446
G1 X93.998 Y103.270 E0.01088
G1 X97.204 Y105.105 E0.11582
G1 X96.741 Y105.275 F7200.000
G1 F900
G1 X94.539 Y109.108 E0.13861
G1 X91.644 Y107.437 E0.10480
G1 X91.383 Y107.177 E0.01154
G1 X91.253 Y106.954 E0.00811
G1 X91.173 Y106.708 E0.00811
G1 X91.152 Y106.334 E0.01172
G1 X91.248 Y105.974 E0.01171
G1 X92.314 Y104.108 E0.06737
G1 X92.538 Y103.830 E0.01120
G1 X92.747 Y103.677 E0.00811
G1 X92.979 Y103.573 E0.00795
G1 X93.237 Y103.519 E0.00828
G1 X93.599 Y103.538 E0.01137
G1 X93.845 Y103.617 E0.00810
G1 X96.689 Y105.245 E0.10274
G1 X97.089 Y105.472 F7200.000
G1 F5760
G1 X95.622 Y107.162 E-0.76000
G1 E-0.04000 F2100.00000
G1 Z0.800 F7200.000
G1 X101.954 Y100.938 F7200.000
G1 Z0.200 F7200.000
G1 E0.80000 F2100.00000
G1 F900
G1 X96.788 Y109.968 E0.32617
G1 X93.622 Y109.968 E0.09927
G1 X91.454 Y108.715 E0.07851
G1 X91.048 Y108.396 E0.01620
G1 X90.704 Y108.011 E0.01618
G1 X90.522 Y107.735 E0.01036
G1 X90.309 Y107.283 E0.01567
G1 X90.209 Y106.952 E0.01086
G1 X90.150 Y106.618 E0.01062
G1 X90.133 Y106.119 E0.01567
G1 X90.171 Y105.783 E0.01059
G1 X90.304 Y105.284 E0.01618
G1 X90.528 Y104.802 E0.01667
G1 X91.101 Y103.815 E0.03579
G1 X91.301 Y103.545 E0.01053
G1 X91.523 Y103.307 E0.01022
G1 X91.921 Y102.988 E0.01598
G1 X92.360 Y102.746 E0.01571
G1 X92.834 Y102.583 E0.01571
G1 X93.337 Y102.503 E0.01598
G1 X93.654 Y102.498 E0.00995
G1 X94.168 Y102.565 E0.01624
G1 X94.480 Y102.652 E0.01014
G1 X95.010 Y102.873 E0.01800
G1 X95.427 Y103.011 E0.01380
G1 X96.066 Y103.118 E0.02031
G1 X96.528 Y103.122 E0.01449
G1 X96.972 Y103.070 E0.01401
G1 X97.405 Y102.964 E0.01398
G1 X97.821 Y102.805 E0.01397
G1 X98.214 Y102.596 E0.01396
G1 X98.579 Y102.339 E0.01399
G1 X98.909 Y102.039 E0.01400
G1 X99.200 Y101.700 E0.01400
G1 X99.436 Y101.343 E0.01342
G1 X100.942 Y98.721 E0.09480
G1 X100.942 Y90.032 E0.27243
G1 X102.954 Y90.032 E0.06307
G1 X102.954 Y98.722 E0.27245
G1 X109.442 Y109.968 E0.40709
G1 X107.135 Y109.968 E0.07235
G1 X101.984 Y100.990 E0.32452
G1 X101.955 Y101.697 F7200.000
G1 F900
G1 X97.007 Y110.345 E0.31239
G1 X93.521 Y110.345 E0.10930
G1 X91.242 Y109.028 E0.08253
G1 X90.789 Y108.671 E0.01808
G1 X90.405 Y108.242 E0.01807
G1 X90.195 Y107.925 E0.01190
G1 X89.953 Y107.408 E0.01789
G1 X89.842 Y107.039 E0.01208
G1 X89.774 Y106.663 E0.01200
G1 X89.752 Y106.288 E0.01178
G1 X89.800 Y105.713 E0.01809
G1 X89.948 Y105.156 E0.01807
G1 X90.193 Y104.628 E0.01825
G1 X90.786 Y103.608 E0.03699
G1 X91.011 Y103.303 E0.01186
G1 X91.266 Y103.030 E0.01175
G1 X91.711 Y102.673 E0.01785
G1 X92.207 Y102.400 E0.01775
G1 X92.742 Y102.216 E0.01775
G1 X93.304 Y102.126 E0.01785
G1 X93.676 Y102.121 E0.01166
G1 X94.243 Y102.194 E0.01794
G1 X94.604 Y102.295 E0.01172
G1 X95.142 Y102.519 E0.01829
G1 X95.518 Y102.644 E0.01244
G1 X96.099 Y102.741 E0.01847
G1 X96.508 Y102.745 E0.01282
G1 X96.905 Y102.699 E0.01253
G1 X97.293 Y102.604 E0.01251
G1 X97.665 Y102.461 E0.01249
G1 X98.017 Y102.274 E0.01249
G1 X98.343 Y102.044 E0.01251
G1 X98.638 Y101.776 E0.01252
G1 X98.898 Y101.472 E0.01253
G1 X99.115 Y101.144 E0.01232
G1 X100.565 Y98.620 E0.09127
G1 X100.565 Y89.655 E0.28110
G1 X103.331 Y89.655 E0.08671
G1 X103.331 Y98.621 E0.28110
G1 X110.095 Y110.345 E0.42439
G1 X106.916 Y110.345 E0.09967
G1 X101.985 Y101.749 E0.31073
G1 X101.629 Y101.465 F7200.000
G1 X102.052 Y100.881 F7200.000
G1 F900
G1 X106.821 Y105.650 E0.21323
G1 F5760
G1 X105.269 Y104.098 E-0.76000
G1 E-0.04000 F2100.00000
G1 Z0.800 F7200.000
G1 X106.087 Y104.379 F7200.000
G1 Z0.200 F7200.000
G1 E0.80000 F2100.00000
G1 F900
G1 X100.962 Y99.254 E0.22915
G1 X101.159 Y98.912 E0.01245
G1 X105.354 Y103.107 E0.18758
G1 F5760
G1 X103.802 Y101.556 E-0.76000
G1 E-0.04000 F2100.00000
G1 Z0.800 F7200.000
G1 X104.620 Y101.836 F7200.000
G1 Z0.200 F7200.000
G1 E0.80000 F2100.00000
G1 F900
G1 X101.225 Y98.441 E0.15181
G1 X101.225 Y97.903 E0.01700
G1 X103.887 Y100.565 E0.11901
G1 F5760
G1 X102.335 Y99.013 E-0.76000
G1 E-0.04000 F2100.00000
G1 Z0.800 F7200.000
G1 X103.153 Y99.294 F7200.000
G1 Z0.200 F7200.000
G1 E0.80000 F2100.00000
G1 F900
G1 X101.225 Y97.366 E0.08621
G1 X101.225 Y96.828 E0.01700
G1 X102.671 Y98.274 E0.06465
G1 X102.671 Y97.736 E0.01700
G1 X101.225 Y96.290 E0.06465
G1 X101.225 Y95.752 E0.01700
G1 X102.671 Y97.198 E0.06465
G1 X102.671 Y96.660 E0.01700
G1 X101.225 Y95.215 E0.06465
G1 X101.225 Y94.677 E0.01700
G1 X102.671 Y96.123 E0.06465
G1 X102.671 Y95.585 E0.01700
G1 X101.225 Y94.139 E0.06465
G1 X101.225 Y93.601 E0.01700
G1 X102.671 Y95.047 E0.06465
G1 X102.671 Y94.509 E0.01700
G1 X101.225 Y93.063 E0.06465
G1 X101.225 Y92.526 E0.01700
G1 X102.671 Y93.971 E0.06465
G1 X102.671 Y93.434 E0.01700
G1 X101.225 Y91.988 E0.06465
G1 X101.225 Y91.450 E0.01700
G1 X102.671 Y92.896 E0.06465
G1 X102.671 Y92.358 E0.01700
G1 X101.225 Y90.912 E0.06465
G1 X101.225 Y90.375 E0.01700
G1 X102.671 Y91.820 E0.06465
G1 X102.671 Y91.283 E0.01700
G1 X101.704 Y90.315 E0.04326
G1 X102.241 Y90.315 E0.01700
G1 X102.841 Y90.915 E0.02680
G1 F5760
G1 X102.241 Y90.315 E-0.29357
G1 F5760
G1 X101.704 Y90.315 E-0.18626
G1 F5760
G1 X102.276 Y90.887 E-0.28017
G1 E-0.04000 F2100.00000
G1 Z0.800 F7200.000
G1 X101.928 Y100.757 F7200.000
G1 Z0.200 F7200.000
G1 E0.80000 F2100.00000
G1 F900
G1 X100.766 Y99.595 E0.05194
G1 X100.570 Y99.937 E0.01245
G1 X101.608 Y100.975 E0.04640
G1 X101.412 Y101.317 E0.01246
G1 X100.374 Y100.278 E0.04643
G1 X100.177 Y100.620 E0.01245
G1 X101.216 Y101.659 E0.04645
G1 X101.021 Y102.001 E0.01246
G1 X99.981 Y100.961 E0.04648
G1 X99.785 Y101.303 E0.01245
G1 X100.825 Y102.343 E0.04650
G1 X100.629 Y102.685 E0.01246
G1 X99.581 Y101.637 E0.04688
G1 X99.357 Y101.951 E0.01219
G1 X100.433 Y103.027 E0.04812
G1 X100.238 Y103.369 E0.01246
G1 X99.109 Y102.240 E0.05049
G1 X98.827 Y102.496 E0.01204
G1 X100.042 Y103.711 E0.05433
G1 X99.846 Y104.053 E0.01246
G1 X98.520 Y102.727 E0.05931
G1 X98.186 Y102.931 E0.01236
G1 X99.651 Y104.395 E0.06547
G1 X99.455 Y104.737 E0.01246
G1 X97.824 Y103.107 E0.07291
G1 X97.429 Y103.249 E0.01328
G1 X99.259 Y105.079 E0.08183
G1 X99.063 Y105.421 E0.01246
G1 X96.995 Y103.353 E0.09251
G1 X96.509 Y103.405 E0.01544
G1 X98.868 Y105.764 E0.10547
G1 X98.672 Y106.106 E0.01246
G1 X95.952 Y103.386 E0.12163
G1 X95.294 Y103.265 E0.02116
G1 X96.735 Y104.707 E0.06446
G1 F5760
G1 X95.294 Y103.265 E-0.70609
G1 F5760
G1 X95.447 Y103.293 E-0.05391
G1 E-0.04000 F2100.00000
G1 Z0.800 F7200.000
G1 X95.478 Y103.987 F7200.000
G1 Z0.200 F7200.000
G1 E0.80000 F2100.00000
G1 F900
G1 X94.225 Y102.734 E0.05602
G1 X94.069 Y102.915 F7200.000
G1 F900
G1 X93.746 Y102.843 E0.00863
G1 F900
G1 X93.365 Y102.825 E0.00896
G1 F900
G1 X93.199 Y102.834 E0.00370
G1 F900
G1 X92.780 Y102.921 E0.00830
G1 X92.412 Y103.073 E0.00771
G1 X92.060 Y103.301 E0.00812
G1 X91.815 Y103.542 E0.00666
G1 X91.826 Y103.973 F7200.000
G1 F900
G1 X91.548 Y103.695 E0.01327
G1 X91.338 Y103.971 E0.01170
G1 X91.306 Y104.026 E0.00215
G1 X91.494 Y104.214 E0.00895
G1 X91.285 Y104.579 E0.01417
G1 X91.095 Y104.389 E0.00906
G1 X90.884 Y104.751 E0.01415
G1 X91.077 Y104.944 E0.00917
G1 X90.868 Y105.309 E0.01417
G1 X90.560 Y105.001 E0.01468
G1 X90.395 Y105.676 F7200.000
G1 F900
G1 X90.516 Y105.881 E0.00604
G1 X90.467 Y106.142 E0.00671
G1 F900
G1 X90.453 Y106.241 E0.00244
G1 F900
G1 X90.495 Y106.819 E0.01294
G1 F900
G1 X90.619 Y107.224 E0.00821
G1 X90.802 Y107.573 E0.00765
G1 X91.154 Y107.983 E0.01050
G1 X91.521 Y107.932 F7200.000
G1 F900
G1 X93.157 Y109.568 E0.07278
G1 X93.978 Y109.855 F7200.000
G1 F900
G1 X92.786 Y108.662 E0.05304
G1 F5760
G1 X93.978 Y109.855 E-0.58404
G1 E-0.21596 F2100.00000
G1 Z0.800 F7200.000
G1 X94.950 Y109.375 F7200.000
G1 Z0.200 F7200.000
G1 E0.80000 F2100.00000
G1 F900
G1 X95.260 Y109.685 E0.01386
G1 X95.798 Y109.685 E0.01700
G1 X95.271 Y109.158 E0.02357
G1 X95.467 Y108.816 E0.01245
G1 X96.336 Y109.685 E0.03884
G1 X96.624 Y109.685 E0.00912
G1 X96.715 Y109.526 E0.00578
G1 X95.663 Y108.475 E0.04702
G1 X95.860 Y108.133 E0.01245
G1 X96.911 Y109.184 E0.04700
G1 X97.106 Y108.842 E0.01246
G1 X96.056 Y107.792 E0.04697
G1 X96.252 Y107.450 E0.01245
G1 X97.302 Y108.500 E0.04695
G1 X97.498 Y108.158 E0.01246
G1 X96.448 Y107.109 E0.04692
G1 X96.645 Y106.767 E0.01245
G1 X97.694 Y107.816 E0.04690
G1 X97.889 Y107.474 E0.01246
G1 X96.841 Y106.426 E0.04688
G1 X97.037 Y106.084 E0.01245
G1 X98.085 Y107.132 E0.04685
G1 X98.281 Y106.790 E0.01246
G1 X97.233 Y105.743 E0.04683
G1 X97.430 Y105.401 E0.01245
G1 X98.601 Y106.572 E0.05236
G1 F5760
G1 X97.430 Y105.401 E-0.57356
G1 F5760
G1 X97.233 Y105.743 E-0.13642
G1 F5760
G1 X97.336 Y105.845 E-0.05001
G1 E-0.04000 F2100.00000
G1 Z0.800 F7200.000
G1 X103.500 Y103.404 F7200.000
G1 Z0.200 F7200.000
G1 E0.80000 F2100.00000
G1 F900
G1 X108.287 Y108.192 E0.21409
G1 F5760
G1 X106.736 Y106.641 E-0.76000
G1 E-0.04000 F2100.00000
G1 Z0.800 F7200.000
G1 X109.021 Y109.463 F7200.000
G1 Z0.200 F7200.000
G1 E0.80000 F2100.00000
G1 F900
G1 X104.223 Y104.666 E0.21452
G1 F5760
G1 X105.775 Y106.218 E-0.76000
G1 E-0.04000 F2100.00000
G1 Z0.800 F7200.000
G1 X104.947 Y105.928 F7200.000
G1 Z0.200 F7200.000
G1 E0.80000 F2100.00000
G1 F900
G1 X108.874 Y109.855 E0.17560
G1 X108.336 Y109.855 F7200.000
G1 F900
G1 X105.671 Y107.189 E0.11918
G1 F5760
G1 X107.223 Y108.741 E-0.76000
G1 E-0.04000 F2100.00000
G1 Z0.800 F7200.000
G1 X106.395 Y108.451 F7200.000
G1 Z0.200 F7200.000
G1 E0.80000 F2100.00000
G1 F900
G1 X107.799 Y109.855 E0.06277
G1 F5760
G1 X106.395 Y108.451 E-0.68755
G1 E-0.11245 F2100.00000
G1 Z0.800 F7200.000
G1 X107.554 Y106.921 F7200.000
G1 Z0.200 F7200.000
G1 E0.80000 F2100.00000
G1 F900
G1 X102.776 Y102.143 E0.21366
M106 S255
;BEFORE_LAYER_CHANGE
;0.5


G1 F5760
G1 X104.327 Y103.694 E-0.76000
G1 E-0.04000 F2100.00000
G1 Z0.800 F7200.000
;AFTER_LAYER_CHANGE
;0.5
G1 X97.288 Y105.127 F7200.000
G1 Z0.500 F7200.000
G1 E0.80000 F2100.00000
M204 S800
G1 F982
G1 X94.686 Y109.655 E0.25118
G1 X91.412 Y107.766 E0.18180
G1 X91.170 Y107.549 E0.01566
G1 X91.033 Y107.375 E0.01061
G1 X90.885 Y107.117 E0.01434
G1 X90.775 Y106.782 E0.01693
G1 X90.749 Y106.293 E0.02357
G1 X90.874 Y105.820 E0.02353
G1 X91.982 Y103.881 E0.10740
G1 X92.260 Y103.537 E0.02126
G1 X92.545 Y103.329 E0.01701
G1 X92.857 Y103.189 E0.01642
G1 X93.223 Y103.115 E0.01798
G1 X93.690 Y103.142 E0.02250
G1 X94.116 Y103.304 E0.02191
G1 X97.236 Y105.097 E0.17308
M204 S1000
G1 X96.762 Y105.270 F7200.000
M204 S800
G1 F4800
G1 X94.544 Y109.128 E0.21405
G1 X91.640 Y107.452 E0.16129
G1 X91.452 Y107.284 E0.01212
G1 X91.354 Y107.159 E0.00764
G1 X91.239 Y106.959 E0.01108
G1 X91.158 Y106.710 E0.01259
G1 X91.137 Y106.333 E0.01819
G1 X91.234 Y105.968 E0.01817
G1 X92.302 Y104.099 E0.10350
G1 X92.528 Y103.819 E0.01734
G1 X92.740 Y103.664 E0.01262
G1 X92.975 Y103.559 E0.01240
G1 X93.251 Y103.503 E0.01352
G1 X93.609 Y103.524 E0.01724
G1 X93.950 Y103.654 E0.01758
G1 X96.710 Y105.240 E0.15308
M204 S1000
G1 X97.109 Y105.467 F7200.000
G1 F5760
G1 X95.642 Y107.157 E-0.76000
G1 E-0.04000 F2100.00000
G1 Z1.100 F7200.000
G1 X101.954 Y100.891 F7200.000
G1 Z0.500 F7200.000
G1 E0.80000 F2100.00000
M204 S800
G1 F982
G1 X96.775 Y109.944 E0.50166
G1 X93.628 Y109.944 E0.15132
G1 X91.467 Y108.696 E0.12005
G1 X91.064 Y108.378 E0.02467
G1 X90.729 Y108.003 E0.02420
G1 X90.459 Y107.568 E0.02463
G1 X90.329 Y107.268 E0.01573
G1 X90.235 Y106.955 E0.01573
G1 X90.158 Y106.439 E0.02506
G1 X90.157 Y106.112 E0.01573
G1 X90.195 Y105.787 E0.01573
G1 X90.326 Y105.292 E0.02463
G1 X90.549 Y104.813 E0.02542
G1 X91.121 Y103.828 E0.05479
G1 X91.319 Y103.560 E0.01603
G1 X91.539 Y103.324 E0.01553
G1 X91.934 Y103.008 E0.02433
G1 X92.369 Y102.768 E0.02390
G1 X92.840 Y102.606 E0.02390
G1 X93.339 Y102.526 E0.02433
G1 X93.653 Y102.522 E0.01511
G1 X94.163 Y102.588 E0.02475
G1 X94.476 Y102.675 E0.01561
G1 X95.228 Y102.977 E0.03897
G1 X95.642 Y103.084 E0.02055
G1 X96.063 Y103.141 E0.02046
G1 X96.535 Y103.146 E0.02269
G1 X96.983 Y103.093 E0.02167
G1 X97.417 Y102.985 E0.02155
G1 X97.834 Y102.825 E0.02145
G1 X98.227 Y102.616 E0.02143
G1 X98.593 Y102.358 E0.02155
G1 X98.926 Y102.056 E0.02163
G1 X99.219 Y101.714 E0.02164
G1 X99.456 Y101.355 E0.02069
G1 X100.966 Y98.727 E0.14575
G1 X100.966 Y90.056 E0.41707
G1 X102.930 Y90.056 E0.09448
G1 X102.930 Y98.728 E0.41710
G1 X109.402 Y109.944 E0.62281
G1 X107.148 Y109.944 E0.10837
G1 X101.984 Y100.943 E0.49912
M204 S1000
G1 X101.955 Y101.667 F7200.000
M204 S800
G1 F3600
G1 X96.998 Y110.330 E0.48004
G1 X93.525 Y110.330 E0.16705
G1 X91.250 Y109.016 E0.12635
G1 X90.799 Y108.660 E0.02762
G1 X90.419 Y108.235 E0.02745
G1 X90.116 Y107.747 E0.02761
G1 X89.966 Y107.401 E0.01816
G1 X89.857 Y107.039 E0.01816
G1 X89.772 Y106.468 E0.02777
G1 X89.772 Y106.091 E0.01816
G1 X89.815 Y105.716 E0.01816
G1 X89.962 Y105.161 E0.02761
