; generated by Slic3r Prusa Edition 1.39.1-prusa3d on 2018-04-22 at 18:23:48

; 

; external perimeters extrusion width = 0.45mm
; perimeters extrusion width = 0.45mm
; infill extrusion width = 0.45mm
; solid infill extrusion width = 0.45mm
; top infill extrusion width = 0.33mm
; first layer extrusion width = 0.42mm

M107
M115 U3.1.0 ; tell printer latest fw version
M201 X9000 Y9000 Z500 E10000 ; sets maximum accelerations, mm/sec^2
M203 X500 Y500 Z12 E120 ; sets maximum feedrates, mm/sec
M204 S1500 T1500 ; sets acceleration (S) and retract acceleration (T)
M205 X10 Y10 Z0.2 E2.5 ; sets the jerk limits, mm/sec
M205 S0 T0 ; sets the minimum extruding and travel feed rate, mm/sec
M83  ; extruder relative mode
M104 S215 ; set extruder temp
M140 S60 ; set bed temp
M190 S60 ; wait for bed temp
M109 S215 ; wait for extruder temp
G28 W ; home all without mesh bed level
G80 ; mesh bed leveling
G1 Y-3.0 F1000.0 ; go outside print area
G92 E0.0
G1 E18.0 F1000.0;
G1 X60.0 E9.0  F1000.0 ; intro line
G1 X100.0 E12.5  F1000.0 ; intro line
G92 E0.0
M900 K30; Filament gcode
G21 ; set units to millimeters
G90 ; use absolute coordinates
M83 ; use relative distances for extrusion
;BEFORE_LAYER_CHANGE
;0.2


G1 E-0.80000 F2100.00000
G1 Z0.600 F7200.000
;AFTER_LAYER_CHANGE
;0.2
G1 X123.356 Y92.551 F7200.000
G1 Z0.200 F7200.000
G1 E0.80000 F2100.00000
M204 S1000
G1 F900
G1 X124.061 Y92.014 E0.02777
G1 X124.903 Y91.728 E0.02790
G1 X128.545 Y91.691 E0.11419
G1 X129.361 Y91.816 E0.02587
G1 X130.106 Y92.179 E0.02600
G1 X130.710 Y92.748 E0.02600
G1 X131.117 Y93.470 E0.02600
G1 X138.099 Y114.771 E0.70286
G1 X138.209 Y115.707 E0.02955
G1 X137.996 Y116.626 E0.02955
G1 X137.612 Y117.272 E0.02358
G1 X137.064 Y117.793 E0.02371
G1 X136.395 Y118.145 E0.02371
G1 X135.655 Y118.302 E0.02371
G1 X118.432 Y118.309 E0.54002
G1 X117.903 Y118.251 E0.01669
G1 X117.395 Y118.093 E0.01669
G1 X114.266 Y116.260 E0.11369
G1 X113.294 Y115.346 E0.04182
G1 X112.607 Y114.369 E0.03745
G1 X112.054 Y113.080 E0.04399
G1 X111.798 Y111.645 E0.04572
G1 X111.878 Y110.213 E0.04496
G1 X112.284 Y108.831 E0.04515
G1 X113.334 Y106.942 E0.06778
G1 X123.322 Y92.600 E0.54797
G1 X124.250 Y92.341 F7200.000
G1 F900
G1 X125.000 Y92.095 E0.02473
G1 X128.545 Y92.068 E0.11116
G1 X129.253 Y92.178 E0.02249
G1 X129.897 Y92.493 E0.02249
G1 X130.418 Y92.987 E0.02249
G1 X130.769 Y93.616 E0.02260
G1 X137.735 Y114.869 E0.70124
G1 X137.832 Y115.689 E0.02590
G1 X137.643 Y116.493 E0.02590
G1 X137.305 Y117.052 E0.02048
G1 X136.828 Y117.498 E0.02048
G1 X136.247 Y117.797 E0.02048
G1 X135.607 Y117.927 E0.02048
G1 X118.442 Y117.932 E0.53820
G1 X117.527 Y117.739 E0.02931
G1 X114.505 Y115.968 E0.10983
G1 X113.582 Y115.102 E0.03970
G1 X112.944 Y114.199 E0.03468
G1 X112.416 Y112.974 E0.04181
G1 X112.174 Y111.625 E0.04298
G1 X112.250 Y110.276 E0.04235
G1 X112.636 Y108.967 E0.04281
G1 X113.644 Y107.156 E0.06497
G1 X123.625 Y92.815 E0.54784
G1 X124.202 Y92.377 E0.02273
G1 F5760
G1 X125.000 Y92.095 E-0.29286
G1 F5760
G1 X126.348 Y92.085 E-0.46714
G1 E-0.04000 F2100.00000
G1 Z0.800 F7200.000
G1 X122.256 Y110.135 F7200.000
G1 Z0.200 F7200.000
G1 E0.80000 F2100.00000
G1 F900
G1 X119.677 Y114.623 E0.16230
G1 X116.426 Y112.747 E0.11770
G1 X116.179 Y112.525 E0.01041
G1 X115.974 Y112.244 E0.01091
G1 X115.800 Y111.793 E0.01515
G1 X115.772 Y111.295 E0.01564
G1 X115.896 Y110.829 E0.01512
G1 X117.002 Y108.895 E0.06986
G1 X117.276 Y108.554 E0.01371
G1 X117.557 Y108.349 E0.01091
G1 X117.862 Y108.213 E0.01046
G1 X118.208 Y108.140 E0.01109
G1 X118.668 Y108.164 E0.01446
G1 X118.998 Y108.270 E0.01088
G1 X122.204 Y110.105 E0.11582
G1 X121.741 Y110.275 F7200.000
G1 F900
G1 X119.539 Y114.108 E0.13861
G1 X116.648 Y112.440 E0.10462
G1 X116.460 Y112.271 E0.00793
G1 X116.308 Y112.062 E0.00811
G1 X116.173 Y111.713 E0.01172
G1 X116.152 Y111.334 E0.01190
G1 X116.248 Y110.974 E0.01171
G1 X117.314 Y109.108 E0.06737
G1 X117.538 Y108.830 E0.01120
G1 X117.747 Y108.677 E0.00811
G1 X117.979 Y108.573 E0.00795
G1 X118.237 Y108.519 E0.00828
G1 X118.599 Y108.538 E0.01137
G1 X118.845 Y108.617 E0.00810
G1 X121.689 Y110.245 E0.10274
G1 X122.089 Y110.472 F7200.000
G1 F5760
G1 X120.622 Y112.162 E-0.76000
G1 E-0.04000 F2100.00000
G1 Z0.800 F7200.000
G1 X126.954 Y105.938 F7200.000
G1 Z0.200 F7200.000
G1 E0.80000 F2100.00000
G1 F900
G1 X121.788 Y114.968 E0.32617
G1 X118.622 Y114.968 E0.09927
G1 X116.454 Y113.715 E0.07851
G1 X116.048 Y113.396 E0.01620
G1 X115.704 Y113.011 E0.01618
G1 X115.522 Y112.735 E0.01036
G1 X115.309 Y112.283 E0.01567
G1 X115.212 Y111.960 E0.01059
G1 X115.134 Y111.441 E0.01645
G1 X115.134 Y111.111 E0.01035
G1 X115.171 Y110.783 E0.01035
G1 X115.304 Y110.284 E0.01618
G1 X115.528 Y109.802 E0.01667
G1 X116.101 Y108.815 E0.03579
G1 X116.301 Y108.545 E0.01053
G1 X116.523 Y108.307 E0.01022
G1 X116.921 Y107.988 E0.01598
G1 X117.360 Y107.746 E0.01571
G1 X117.834 Y107.583 E0.01571
G1 X118.337 Y107.503 E0.01598
G1 X118.654 Y107.498 E0.00995
G1 X119.168 Y107.565 E0.01624
G1 X119.480 Y107.652 E0.01014
G1 X120.010 Y107.873 E0.01800
G1 X120.427 Y108.011 E0.01380
G1 X121.066 Y108.118 E0.02031
G1 X121.528 Y108.122 E0.01449
G1 X121.972 Y108.070 E0.01401
G1 X122.405 Y107.964 E0.01398
G1 X122.821 Y107.805 E0.01397
G1 X123.214 Y107.596 E0.01396
G1 X123.579 Y107.339 E0.01399
G1 X123.909 Y107.039 E0.01400
G1 X124.200 Y106.700 E0.01400
G1 X124.436 Y106.343 E0.01342
G1 X125.942 Y103.721 E0.09480
G1 X125.942 Y95.032 E0.27243
G1 X127.954 Y95.032 E0.06307
G1 X127.954 Y103.722 E0.27245
G1 X134.442 Y114.968 E0.40709
G1 X132.135 Y114.968 E0.07235
G1 X126.984 Y105.990 E0.32452
G1 X126.955 Y106.697 F7200.000
G1 F900
G1 X122.007 Y115.345 E0.31239
G1 X118.521 Y115.345 E0.10930
G1 X116.242 Y114.028 E0.08253
G1 X115.789 Y113.671 E0.01808
G1 X115.405 Y113.242 E0.01807
G1 X115.195 Y112.925 E0.01190
G1 X114.953 Y112.408 E0.01789
G1 X114.843 Y112.042 E0.01199
G1 X114.757 Y111.469 E0.01817
G1 X114.757 Y111.090 E0.01190
G1 X114.800 Y110.713 E0.01190
G1 X114.948 Y110.156 E0.01807
G1 X115.193 Y109.628 E0.01825
G1 X115.786 Y108.608 E0.03699
G1 X116.011 Y108.303 E0.01186
G1 X116.266 Y108.030 E0.01175
G1 X116.711 Y107.673 E0.01785
G1 X117.207 Y107.400 E0.01775
G1 X117.742 Y107.216 E0.01775
G1 X118.304 Y107.126 E0.01785
G1 X118.676 Y107.121 E0.01166
G1 X119.243 Y107.194 E0.01794
G1 X119.604 Y107.295 E0.01172
G1 X120.142 Y107.519 E0.01829
G1 X120.518 Y107.644 E0.01244
G1 X121.099 Y107.741 E0.01847
G1 X121.508 Y107.745 E0.01282
G1 X121.905 Y107.699 E0.01253
G1 X122.293 Y107.604 E0.01251
G1 X122.665 Y107.461 E0.01249
G1 X123.017 Y107.274 E0.01249
G1 X123.343 Y107.044 E0.01251
G1 X123.638 Y106.776 E0.01252
G1 X123.898 Y106.472 E0.01253
G1 X124.115 Y106.144 E0.01232
G1 X125.565 Y103.620 E0.09127
G1 X125.565 Y94.655 E0.28110
G1 X128.331 Y94.655 E0.08671
G1 X128.331 Y103.621 E0.28110
G1 X135.095 Y115.345 E0.42439
G1 X131.916 Y115.345 E0.09967
G1 X126.985 Y106.749 E0.31073
G1 X126.629 Y106.465 F7200.000
G1 X127.052 Y105.881 F7200.000
G1 F900
G1 X131.821 Y110.650 E0.21323
G1 F5760
G1 X130.269 Y109.098 E-0.76000
G1 E-0.04000 F2100.00000
G1 Z0.800 F7200.000
G1 X132.554 Y111.921 F7200.000
G1 Z0.200 F7200.000
G1 E0.80000 F2100.00000
G1 F900
G1 X127.776 Y107.143 E0.21366
G1 F5760
G1 X129.327 Y108.694 E-0.76000
G1 E-0.04000 F2100.00000
G1 Z0.800 F7200.000
G1 X128.500 Y108.404 F7200.000
G1 Z0.200 F7200.000
G1 E0.80000 F2100.00000
G1 F900
G1 X133.287 Y113.192 E0.21409
G1 F5760
G1 X131.736 Y111.641 E-0.76000
G1 E-0.04000 F2100.00000
G1 Z0.800 F7200.000
G1 X134.021 Y114.463 F7200.000
G1 Z0.200 F7200.000
G1 E0.80000 F2100.00000
G1 F900
G1 X129.223 Y109.666 E0.21452
G1 F5760
G1 X130.775 Y111.218 E-0.76000
G1 E-0.04000 F2100.00000
G1 Z0.800 F7200.000
G1 X129.947 Y110.928 F7200.000
G1 Z0.200 F7200.000
G1 E0.80000 F2100.00000
G1 F900
G1 X133.874 Y114.855 E0.17560
G1 X133.336 Y114.855 F7200.000
G1 F900
G1 X130.671 Y112.189 E0.11918
G1 F5760
G1 X132.223 Y113.741 E-0.76000
G1 E-0.04000 F2100.00000
G1 Z0.800 F7200.000
G1 X131.395 Y113.451 F7200.000
G1 Z0.200 F7200.000
G1 E0.80000 F2100.00000
G1 F900
G1 X132.799 Y114.855 E0.06277
G1 F5760
G1 X131.395 Y113.451 E-0.68755
G1 E-0.11245 F2100.00000
G1 Z0.800 F7200.000
G1 X131.087 Y109.379 F7200.000
G1 Z0.200 F7200.000
G1 E0.80000 F2100.00000
G1 F900
G1 X125.962 Y104.254 E0.22915
G1 X126.159 Y103.912 E0.01245
G1 X130.354 Y108.107 E0.18758
G1 F5760
G1 X128.802 Y106.556 E-0.76000
G1 E-0.04000 F2100.00000
G1 Z0.800 F7200.000
G1 X129.620 Y106.836 F7200.000
G1 Z0.200 F7200.000
G1 E0.80000 F2100.00000
G1 F900
G1 X126.225 Y103.441 E0.15181
G1 X126.225 Y102.903 E0.01700
G1 X128.887 Y105.565 E0.11901
G1 F5760
G1 X127.335 Y104.013 E-0.76000
G1 E-0.04000 F2100.00000
G1 Z0.800 F7200.000
G1 X128.153 Y104.294 F7200.000
G1 Z0.200 F7200.000
G1 E0.80000 F2100.00000
G1 F900
G1 X126.225 Y102.366 E0.08621
G1 X126.225 Y101.828 E0.01700
G1 X127.671 Y103.274 E0.06465
G1 X127.671 Y102.736 E0.01700
G1 X126.225 Y101.290 E0.06465
G1 X126.225 Y100.752 E0.01700
G1 X127.671 Y102.198 E0.06465
G1 X127.671 Y101.660 E0.01700
G1 X126.225 Y100.215 E0.06465
G1 X126.225 Y99.677 E0.01700
G1 X127.671 Y101.123 E0.06465
G1 X127.671 Y100.585 E0.01700
G1 X126.225 Y99.139 E0.06465
G1 X126.225 Y98.601 E0.01700
G1 X127.671 Y100.047 E0.06465
G1 X127.671 Y99.509 E0.01700
G1 X126.225 Y98.063 E0.06465
G1 X126.225 Y97.526 E0.01700
G1 X127.671 Y98.971 E0.06465
G1 X127.671 Y98.434 E0.01700
G1 X126.225 Y96.988 E0.06465
G1 X126.225 Y96.450 E0.01700
G1 X127.671 Y97.896 E0.06465
G1 X127.671 Y97.358 E0.01700
G1 X126.225 Y95.912 E0.06465
G1 X126.225 Y95.375 E0.01700
G1 X127.671 Y96.820 E0.06465
G1 X127.671 Y96.283 E0.01700
G1 X126.704 Y95.315 E0.04326
G1 X127.241 Y95.315 E0.01700
G1 X127.841 Y95.915 E0.02680
G1 F5760
G1 X127.241 Y95.315 E-0.29357
G1 F5760
G1 X126.704 Y95.315 E-0.18626
G1 F5760
G1 X127.276 Y95.887 E-0.28017
G1 E-0.04000 F2100.00000
G1 Z0.800 F7200.000
G1 X126.928 Y105.757 F7200.000
G1 Z0.200 F7200.000
G1 E0.80000 F2100.00000
G1 F900
G1 X125.766 Y104.595 E0.05194
G1 X125.570 Y104.937 E0.01245
G1 X126.608 Y105.975 E0.04640
G1 X126.412 Y106.317 E0.01246
G1 X125.374 Y105.278 E0.04643
G1 X125.177 Y105.620 E0.01245
G1 X126.216 Y106.659 E0.04645
G1 X126.021 Y107.001 E0.01246
G1 X124.981 Y105.961 E0.04648
G1 X124.785 Y106.303 E0.01245
G1 X125.825 Y107.343 E0.04650
G1 X125.629 Y107.685 E0.01246
G1 X124.581 Y106.637 E0.04688
G1 X124.357 Y106.951 E0.01219
G1 X125.433 Y108.027 E0.04812
G1 X125.238 Y108.369 E0.01246
G1 X124.109 Y107.240 E0.05049
G1 X123.827 Y107.496 E0.01204
G1 X125.042 Y108.711 E0.05433
G1 X124.846 Y109.053 E0.01246
G1 X123.520 Y107.727 E0.05931
G1 X123.186 Y107.931 E0.01236
G1 X124.651 Y109.395 E0.06547
G1 X124.455 Y109.737 E0.01246
G1 X122.824 Y108.107 E0.07291
G1 X122.429 Y108.249 E0.01328
G1 X124.259 Y110.079 E0.08183
G1 X124.063 Y110.421 E0.01246
G1 X121.995 Y108.353 E0.09251
G1 X121.509 Y108.405 E0.01544
G1 X123.868 Y110.764 E0.10547
G1 X123.672 Y111.106 E0.01246
G1 X120.952 Y108.386 E0.12163
G1 X120.294 Y108.265 E0.02116
G1 X121.735 Y109.707 E0.06446
G1 F5760
G1 X120.294 Y108.265 E-0.70609
G1 F5760
G1 X120.447 Y108.293 E-0.05391
G1 E-0.04000 F2100.00000
G1 Z0.800 F7200.000
G1 X120.478 Y108.987 F7200.000
G1 Z0.200 F7200.000
G1 E0.80000 F2100.00000
G1 F900
G1 X119.225 Y107.734 E0.05602
G1 X119.069 Y107.915 F7200.000
G1 F900
G1 X118.746 Y107.843 E0.00863
G1 F900
G1 X118.365 Y107.825 E0.00896
G1 F900
G1 X118.199 Y107.834 E0.00370
G1 F900
G1 X117.780 Y107.921 E0.00830
G1 X117.412 Y108.073 E0.00771
G1 X117.060 Y108.301 E0.00812
G1 X116.815 Y108.542 E0.00666
G1 X116.826 Y108.973 F7200.000
G1 F900
G1 X116.548 Y108.695 E0.01327
G1 X116.338 Y108.971 E0.01170
G1 X116.306 Y109.026 E0.00215
G1 X116.494 Y109.214 E0.00895
G1 X116.285 Y109.579 E0.01417
G1 X116.095 Y109.389 E0.00906
G1 X115.884 Y109.751 E0.01415
G1 X116.077 Y109.944 E0.00917
G1 X115.868 Y110.309 E0.01417
G1 X115.560 Y110.001 E0.01468
G1 X115.395 Y110.676 F7200.000
G1 F900
G1 X115.516 Y110.881 E0.00604
G1 X115.469 Y111.130 E0.00640
G1 F900
G1 X115.455 Y111.242 E0.00276
G1 F900
G1 X115.499 Y111.840 E0.01318
G1 F900
G1 X115.608 Y112.178 E0.00680
G1 X115.707 Y112.408 E0.00478
G1 X115.941 Y112.761 E0.00810
G1 X116.155 Y112.982 E0.00588
G1 X116.521 Y112.932 F7200.000
G1 F900
G1 X118.157 Y114.568 E0.07278
G1 X118.978 Y114.855 F7200.000
G1 F900
G1 X117.786 Y113.662 E0.05304
G1 F5760
G1 X118.978 Y114.855 E-0.58404
G1 E-0.21596 F2100.00000
G1 Z0.800 F7200.000
G1 X119.950 Y114.375 F7200.000
G1 Z0.200 F7200.000
G1 E0.80000 F2100.00000
G1 F900
G1 X120.260 Y114.685 E0.01386
G1 X120.798 Y114.685 E0.01700
G1 X120.271 Y114.158 E0.02357
G1 X120.467 Y113.816 E0.01245
G1 X121.336 Y114.685 E0.03884
G1 X121.624 Y114.685 E0.00912
G1 X121.715 Y114.526 E0.00578
G1 X120.663 Y113.475 E0.04702
G1 X120.860 Y113.133 E0.01245
G1 X121.911 Y114.184 E0.04700
G1 X122.106 Y113.842 E0.01246
G1 X121.056 Y112.792 E0.04697
G1 X121.252 Y112.450 E0.01245
G1 X122.302 Y113.500 E0.04695
G1 X122.498 Y113.158 E0.01246
G1 X121.448 Y112.109 E0.04692
G1 X121.645 Y111.767 E0.01245
G1 X122.694 Y112.816 E0.04690
G1 X122.889 Y112.474 E0.01246
G1 X121.841 Y111.426 E0.04687
G1 X122.037 Y111.084 E0.01245
G1 X123.085 Y112.132 E0.04685
G1 X123.281 Y111.790 E0.01246
G1 X122.233 Y110.743 E0.04683
G1 X122.430 Y110.401 E0.01245
G1 X123.601 Y111.572 E0.05236
M106 S255
;BEFORE_LAYER_CHANGE
;0.5


G1 F5760
G1 X122.430 Y110.401 E-0.57356
G1 F5760
G1 X122.233 Y110.743 E-0.13642
G1 F5760
G1 X122.336 Y110.845 E-0.05002
G1 E-0.04000 F2100.00000
G1 Z0.800 F7200.000
;AFTER_LAYER_CHANGE
;0.5
M104 S210 ; set temperature
G1 X122.288 Y110.127 F7200.000
G1 Z0.500 F7200.000
G1 E0.80000 F2100.00000
M204 S800
G1 F4800
G1 X119.686 Y114.655 E0.25118
G1 X116.412 Y112.766 E0.18180
G1 X116.161 Y112.541 E0.01620
G1 X115.953 Y112.256 E0.01701
G1 X115.776 Y111.798 E0.02357
G1 X115.749 Y111.293 E0.02435
G1 X115.874 Y110.820 E0.02353
G1 X116.982 Y108.881 E0.10740
G1 X117.260 Y108.537 E0.02126
G1 X117.545 Y108.329 E0.01701
G1 X117.857 Y108.189 E0.01642
G1 X118.223 Y108.115 E0.01798
G1 X118.690 Y108.142 E0.02250
G1 X119.116 Y108.304 E0.02191
G1 X122.236 Y110.097 E0.17308
M204 S1000
G1 X121.762 Y110.270 F7200.000
M204 S800
G1 F4800
G1 X119.544 Y114.128 E0.21405
G1 X116.640 Y112.452 E0.16129
G1 X116.449 Y112.281 E0.01232
G1 X116.294 Y112.069 E0.01262
G1 X116.158 Y111.716 E0.01819
G1 X116.137 Y111.333 E0.01848
G1 X116.234 Y110.968 E0.01817
G1 X117.302 Y109.099 E0.10350
G1 X117.528 Y108.819 E0.01734
G1 X117.740 Y108.664 E0.01262
G1 X117.975 Y108.559 E0.01240
G1 X118.251 Y108.503 E0.01352
G1 X118.609 Y108.524 E0.01724
G1 X118.950 Y108.654 E0.01758
G1 X121.710 Y110.240 E0.15308
M204 S1000
G1 X122.109 Y110.467 F7200.000
G1 F5760
G1 X120.642 Y112.157 E-0.76000
G1 E-0.04000 F2100.00000
G1 Z1.100 F7200.000
G1 X126.954 Y105.891 F7200.000
G1 Z0.500 F7200.000
G1 E0.80000 F2100.00000
M204 S800
G1 F4800
G1 X121.775 Y114.944 E0.50166
G1 X118.628 Y114.944 E0.15132
G1 X116.467 Y113.696 E0.12005
G1 X116.064 Y113.378 E0.02467
G1 X115.723 Y112.996 E0.02463
G1 X115.543 Y112.724 E0.01573
G1 X115.395 Y112.432 E0.01573
G1 X115.233 Y111.946 E0.02463
G1 X115.158 Y111.439 E0.02463
G1 X115.157 Y111.112 E0.01573
G1 X115.195 Y110.787 E0.01573
G1 X115.326 Y110.292 E0.02463
G1 X115.549 Y109.813 E0.02542
G1 X116.121 Y108.828 E0.05479
G1 X116.319 Y108.560 E0.01603
G1 X116.539 Y108.324 E0.01553
G1 X116.934 Y108.008 E0.02433
G1 X117.369 Y107.768 E0.02390
G1 X117.840 Y107.606 E0.02390
G1 X118.339 Y107.526 E0.02433
G1 X118.653 Y107.522 E0.01511
G1 X119.163 Y107.588 E0.02475
G1 X119.476 Y107.675 E0.01561
G1 X120.228 Y107.977 E0.03897
G1 X120.642 Y108.084 E0.02055
G1 X121.063 Y108.141 E0.02046
G1 X121.535 Y108.146 E0.02269
G1 X121.983 Y108.093 E0.02167
G1 X122.417 Y107.985 E0.02155
G1 X122.834 Y107.825 E0.02145
G1 X123.227 Y107.616 E0.02143
G1 X123.593 Y107.358 E0.02155
G1 X123.926 Y107.056 E0.02163
G1 X124.219 Y106.714 E0.02164
G1 X124.456 Y106.355 E0.02069
G1 X125.966 Y103.727 E0.14575
G1 X125.966 Y95.056 E0.41707
G1 X127.930 Y95.056 E0.09448
G1 X127.930 Y103.728 E0.41710
G1 X134.402 Y114.944 E0.62281
G1 X132.148 Y114.944 E0.10837
G1 X126.984 Y105.943 E0.49912
M204 S1000
G1 X126.955 Y106.667 F7200.000
M204 S800
G1 F3600
G1 X121.998 Y115.330 E0.48004
