; generated by Slic3r Prusa Edition 1.39.1-prusa3d on 2018-05-09 at 12:53:31

; 

; external perimeters extrusion width = 0.45mm
; perimeters extrusion width = 0.45mm
; infill extrusion width = 0.45mm
; solid infill extrusion width = 0.45mm
; top infill extrusion width = 0.33mm
; first layer extrusion width = 0.42mm

M107
M115 U3.1.0 ; tell printer latest fw version
M201 X9000 Y9000 Z500 E10000 ; sets maximum accelerations, mm/sec^2
M203 X500 Y500 Z12 E120 ; sets maximum feedrates, mm/sec
M204 S1500 T1500 ; sets acceleration (S) and retract acceleration (T)
M205 X10 Y10 Z0.2 E2.5 ; sets the jerk limits, mm/sec
M205 S0 T0 ; sets the minimum extruding and travel feed rate, mm/sec
M83  ; extruder relative mode
M104 S200 ; set extruder temp
M140 S65 ; set bed temp
M190 S65 ; wait for bed temp
M109 S200 ; wait for extruder temp
G28 W ; home all without mesh bed level
G80 ; mesh bed leveling
G1 Y-3.0 F1000.0 ; go outside print area
G92 E0.0
G1 E18.0 F1000.0;
G1 X60.0 E9.0  F1000.0 ; intro line
G1 X100.0 E12.5  F1000.0 ; intro line
G92 E0.0
M900 K30; Filament gcode
G21 ; set units to millimeters
G90 ; use absolute coordinates
M83 ; use relative distances for extrusion
;BEFORE_LAYER_CHANGE
;0.2


G1 E-0.80000 F2100.00000
G1 Z0.600 F7200.000
;AFTER_LAYER_CHANGE
;0.2
G1 X98.400 Y83.293 F7200.000
G1 Z0.200 F7200.000
G1 E0.80000 F2100.00000
M204 S1000
G1 F900
G1 X99.348 Y82.956 E0.03157
G1 X104.109 Y82.922 E0.14927
G1 X104.932 Y83.049 E0.02612
G1 X105.683 Y83.419 E0.02625
G1 X106.286 Y83.994 E0.02612
G1 X106.691 Y84.727 E0.02625
G1 X116.129 Y113.525 E0.95020
G1 X116.243 Y114.485 E0.03031
G1 X116.018 Y115.425 E0.03031
G1 X115.624 Y116.070 E0.02371
G1 X115.065 Y116.586 E0.02383
G1 X114.387 Y116.929 E0.02383
G1 X113.641 Y117.074 E0.02383
G1 X90.405 Y117.078 E0.72852
G1 X89.856 Y117.018 E0.01733
G1 X89.330 Y116.849 E0.01733
G1 X86.196 Y115.003 E0.11404
G1 X85.302 Y114.165 E0.03843
G1 X84.566 Y113.129 E0.03985
G1 X83.989 Y111.746 E0.04699
G1 X83.766 Y110.453 E0.04113
G1 X83.855 Y108.921 E0.04813
G1 X84.244 Y107.613 E0.04278
G1 X97.636 Y83.949 E0.85252
G1 X98.354 Y83.333 E0.02969
G1 X98.597 Y83.616 F7200.000
G1 F900
G1 X99.441 Y83.323 E0.02801
G1 X104.109 Y83.299 E0.14636
G1 X104.825 Y83.410 E0.02272
G1 X105.474 Y83.732 E0.02272
G1 X105.993 Y84.232 E0.02260
G1 X106.341 Y84.868 E0.02272
G1 X115.766 Y113.628 E0.94892
G1 X115.867 Y114.463 E0.02637
G1 X115.668 Y115.284 E0.02649
G1 X115.323 Y115.842 E0.02060
G1 X114.837 Y116.285 E0.02060
G1 X114.249 Y116.578 E0.02060
G1 X113.604 Y116.699 E0.02060
G1 X90.411 Y116.701 E0.72719
G1 X89.472 Y116.500 E0.03013
G1 X86.434 Y114.710 E0.11055
G1 X85.589 Y113.920 E0.03625
G1 X84.903 Y112.957 E0.03707
G1 X84.351 Y111.640 E0.04478
G1 X84.143 Y110.430 E0.03849
G1 X84.227 Y108.982 E0.04549
G1 X84.596 Y107.751 E0.04028
G1 X97.924 Y84.193 E0.84869
G1 X98.551 Y83.655 E0.02591
G1 F5760
G1 X99.441 Y83.323 E-0.32878
G1 F5760
G1 X100.686 Y83.317 E-0.43122
G1 E-0.04000 F2100.00000
G1 Z0.800 F7200.000
G1 X94.221 Y108.906 F7200.000
G1 Z0.200 F7200.000
G1 E0.80000 F2100.00000
G1 F900
G1 X91.642 Y113.393 E0.16228
G1 X88.370 Y111.502 E0.11851
G1 X88.106 Y111.250 E0.01144
G1 X87.973 Y111.065 E0.00713
G1 X87.823 Y110.751 E0.01090
G1 X87.764 Y110.532 E0.00713
G1 X87.735 Y110.185 E0.01090
G1 X87.757 Y109.959 E0.00713
G1 X87.858 Y109.608 E0.01143
G1 X88.961 Y107.674 E0.06984
G1 X89.170 Y107.394 E0.01094
G1 X89.467 Y107.151 E0.01203
G1 X89.815 Y106.985 E0.01207
G1 X90.197 Y106.908 E0.01223
G1 X90.555 Y106.922 E0.01124
G1 X90.777 Y106.972 E0.00712
G1 X91.080 Y107.101 E0.01034
G1 X94.169 Y108.876 E0.11170
G1 X93.706 Y109.045 F7200.000
G1 F900
G1 X91.504 Y112.877 E0.13860
G1 X88.598 Y111.198 E0.10523
G1 X88.392 Y111.001 E0.00895
G1 X88.298 Y110.872 E0.00498
G1 X88.178 Y110.620 E0.00876
G1 X88.137 Y110.467 E0.00498
G1 X88.114 Y110.188 E0.00876
G1 X88.129 Y110.030 E0.00498
G1 X88.208 Y109.756 E0.00894
G1 X89.277 Y107.881 E0.06769
G1 X89.445 Y107.657 E0.00877
G1 X89.671 Y107.472 E0.00916
G1 X89.935 Y107.346 E0.00917
G1 X90.227 Y107.287 E0.00935
G1 X90.506 Y107.298 E0.00875
G1 X90.661 Y107.332 E0.00498
G1 X90.912 Y107.439 E0.00856
G1 X93.654 Y109.015 E0.09916
G1 X94.054 Y109.243 F7200.000
G1 F5760
G1 X92.587 Y110.932 E-0.76000
G1 E-0.04000 F2100.00000
G1 Z0.800 F7200.000
G1 X101.952 Y101.695 F7200.000
G1 Z0.200 F7200.000
G1 E0.80000 F2100.00000
G1 F900
G1 X95.062 Y113.737 E0.43500
G1 X90.588 Y113.737 E0.14030
G1 X88.394 Y112.469 E0.07944
G1 X88.091 Y112.237 E0.01197
G1 X87.821 Y111.968 E0.01195
G1 X87.589 Y111.667 E0.01191
G1 X87.401 Y111.346 E0.01166
G1 X87.247 Y110.977 E0.01255
G1 X87.119 Y110.420 E0.01790
G1 X87.101 Y109.850 E0.01790
G1 X87.194 Y109.287 E0.01790
G1 X87.393 Y108.760 E0.01765
G1 X88.074 Y107.573 E0.04290
G1 X88.315 Y107.257 E0.01245
G1 X88.720 Y106.876 E0.01744
G1 X89.043 Y106.659 E0.01220
G1 X89.380 Y106.491 E0.01182
G1 X89.719 Y106.373 E0.01126
G1 X90.277 Y106.274 E0.01777
G1 X90.654 Y106.269 E0.01182
G1 X91.040 Y106.315 E0.01220
G1 X91.403 Y106.408 E0.01174
G1 X92.005 Y106.654 E0.02039
G1 X92.463 Y106.798 E0.01504
G1 X92.742 Y106.853 E0.00892
G1 X93.237 Y106.897 E0.01559
G1 X93.750 Y106.869 E0.01610
G1 X94.232 Y106.774 E0.01540
G1 X94.496 Y106.691 E0.00870
G1 X94.957 Y106.492 E0.01574
G1 X95.393 Y106.224 E0.01606
G1 X95.772 Y105.909 E0.01545
G1 X95.962 Y105.714 E0.00852
G1 X96.134 Y105.510 E0.00838
G1 X96.398 Y105.118 E0.01482
G1 X100.369 Y98.208 E0.24987
G1 X100.369 Y86.263 E0.37455
G1 X103.518 Y86.263 E0.09874
G1 X103.518 Y98.209 E0.37456
G1 X112.477 Y113.737 E0.56210
G1 X108.861 Y113.737 E0.11338
G1 X101.982 Y101.747 E0.43342
G1 X101.952 Y102.454 F7200.000
G1 F900
G1 X95.281 Y114.114 E0.42122
G1 X90.486 Y114.114 E0.15033
G1 X88.185 Y112.783 E0.08337
G1 X87.842 Y112.522 E0.01350
G1 X87.538 Y112.218 E0.01349
G1 X87.279 Y111.883 E0.01325
G1 X87.160 Y111.694 E0.00700
G1 X87.060 Y111.508 E0.00663
G1 X86.892 Y111.104 E0.01371
G1 X86.831 Y110.905 E0.00653
G1 X86.745 Y110.476 E0.01371
G1 X86.724 Y110.269 E0.00653
G1 X86.724 Y109.832 E0.01371
G1 X86.744 Y109.625 E0.00653
G1 X86.828 Y109.196 E0.01371
G1 X86.888 Y108.996 E0.00653
G1 X87.053 Y108.594 E0.01362
G1 X87.651 Y107.540 E0.03799
G1 X87.763 Y107.359 E0.00668
G1 X88.026 Y107.014 E0.01360
G1 X88.167 Y106.862 E0.00648
G1 X88.489 Y106.577 E0.01349
G1 X88.853 Y106.333 E0.01374
G1 X89.228 Y106.145 E0.01315
G1 X89.424 Y106.070 E0.00659
G1 X89.624 Y106.007 E0.00659
G1 X90.049 Y105.919 E0.01360
G1 X90.255 Y105.897 E0.00649
G1 X90.674 Y105.892 E0.01315
G1 X91.109 Y105.943 E0.01374
G1 X91.522 Y106.049 E0.01335
G1 X92.133 Y106.299 E0.02070
G1 X92.556 Y106.432 E0.01390
G1 X92.795 Y106.479 E0.00765
G1 X93.244 Y106.519 E0.01411
G1 X93.703 Y106.494 E0.01441
G1 X94.139 Y106.408 E0.01394
G1 X94.365 Y106.337 E0.00744
G1 X94.783 Y106.157 E0.01425
G1 X95.173 Y105.917 E0.01437
G1 X95.516 Y105.632 E0.01399
G1 X95.682 Y105.461 E0.00746
G1 X95.832 Y105.282 E0.00732
G1 X96.078 Y104.918 E0.01377
G1 X99.992 Y98.108 E0.24629
G1 X99.992 Y85.886 E0.38321
G1 X103.895 Y85.886 E0.12238
G1 X103.895 Y98.108 E0.38322
G1 X113.130 Y114.114 E0.57941
G1 X108.643 Y114.114 E0.14070
G1 X101.982 Y102.506 E0.41963
G1 X101.626 Y102.223 F7200.000
G1 X102.343 Y102.149 F7200.000
G1 F900
G1 X110.186 Y109.992 E0.34931
G1 F5760
G1 X108.634 Y108.440 E-0.76000
G1 E-0.04000 F2100.00000
G1 Z0.800 F7200.000
G1 X109.455 Y108.726 F7200.000
G1 Z0.200 F7200.000
G1 E0.80000 F2100.00000
G1 F900
G1 X100.054 Y99.324 E0.41873
G1 X100.249 Y98.984 E0.01236
G1 X108.725 Y107.460 E0.37749
G1 F5760
G1 X107.173 Y105.908 E-0.76000
G1 E-0.04000 F2100.00000
G1 Z0.800 F7200.000
G1 X107.994 Y106.193 F7200.000
G1 Z0.200 F7200.000
G1 E0.80000 F2100.00000
G1 F900
G1 X100.445 Y98.644 E0.33624
G1 X100.640 Y98.304 E0.01236
G1 X107.263 Y104.927 E0.29500
G1 F5760
G1 X105.712 Y103.376 E-0.76000
G1 E-0.04000 F2100.00000
G1 Z0.800 F7200.000
G1 X106.533 Y103.661 F7200.000
G1 Z0.200 F7200.000
G1 E0.80000 F2100.00000
G1 F900
G1 X100.652 Y97.780 E0.26195
G1 X100.652 Y97.244 E0.01687
G1 X105.802 Y102.395 E0.22941
G1 F5760
G1 X104.251 Y100.843 E-0.76000
G1 E-0.04000 F2100.00000
G1 Z0.800 F7200.000
G1 X105.072 Y101.129 F7200.000
G1 Z0.200 F7200.000
G1 E0.80000 F2100.00000
G1 F900
G1 X100.652 Y96.708 E0.19687
G1 X100.652 Y96.173 E0.01687
G1 X104.341 Y99.862 E0.16433
G1 F5760
G1 X102.790 Y98.311 E-0.76000
G1 E-0.04000 F2100.00000
G1 Z0.800 F7200.000
G1 X103.611 Y98.596 F7200.000
G1 Z0.200 F7200.000
G1 E0.80000 F2100.00000
G1 F900
G1 X100.652 Y95.637 E0.13180
G1 X100.652 Y95.101 E0.01687
G1 X103.235 Y97.685 E0.11507
G1 X103.235 Y97.149 E0.01687
G1 X100.652 Y94.566 E0.11507
G1 X100.652 Y94.030 E0.01687
G1 X103.235 Y96.614 E0.11507
G1 X103.235 Y96.078 E0.01687
G1 X100.652 Y93.495 E0.11507
G1 X100.652 Y92.959 E0.01687
G1 X103.235 Y95.542 E0.11507
G1 X103.235 Y95.007 E0.01687
G1 X100.652 Y92.423 E0.11507
G1 X100.652 Y91.888 E0.01687
G1 X103.235 Y94.471 E0.11507
G1 X103.235 Y93.935 E0.01687
G1 X100.652 Y91.352 E0.11507
G1 X100.652 Y90.816 E0.01687
G1 X103.235 Y93.400 E0.11507
G1 X103.235 Y92.864 E0.01687
G1 X100.652 Y90.281 E0.11507
G1 X100.652 Y89.745 E0.01687
G1 X103.235 Y92.329 E0.11507
G1 X103.235 Y91.793 E0.01687
G1 X100.652 Y89.209 E0.11507
G1 X100.652 Y88.674 E0.01687
G1 X103.235 Y91.257 E0.11507
G1 X103.235 Y90.722 E0.01687
G1 X100.652 Y88.138 E0.11507
G1 X100.652 Y87.602 E0.01687
G1 X103.235 Y90.186 E0.11507
G1 X103.235 Y89.650 E0.01687
G1 X100.652 Y87.067 E0.11507
G1 X100.652 Y86.546 E0.01641
G1 X103.235 Y89.115 E0.11474
G1 X103.235 Y88.579 E0.01687
G1 X101.202 Y86.546 E0.09056
G1 X101.737 Y86.546 E0.01687
G1 X103.235 Y88.043 E0.06671
G1 X103.235 Y87.508 E0.01687
G1 X102.273 Y86.546 E0.04285
G1 X102.809 Y86.546 E0.01687
G1 X103.405 Y87.142 E0.02655
G1 F5760
G1 X102.809 Y86.546 E-0.29200
G1 F5760
G1 X102.273 Y86.546 E-0.18552
G1 F5760
G1 X102.850 Y87.122 E-0.28248
G1 E-0.04000 F2100.00000
G1 Z0.800 F7200.000
G1 X101.846 Y101.652 F7200.000
G1 Z0.200 F7200.000
G1 E0.80000 F2100.00000
G1 F900
G1 X99.858 Y99.664 E0.08854
G1 X99.663 Y100.005 E0.01236
G1 X101.527 Y101.869 E0.08302
G1 X101.332 Y102.209 E0.01236
G1 X99.467 Y100.345 E0.08305
G1 X99.272 Y100.685 E0.01236
G1 X101.137 Y102.550 E0.08307
G1 X100.942 Y102.891 E0.01236
G1 X99.076 Y101.025 E0.08310
G1 X98.881 Y101.365 E0.01236
G1 X100.747 Y103.232 E0.08312
G1 X100.552 Y103.572 E0.01236
G1 X98.685 Y101.705 E0.08315
G1 X98.490 Y102.046 E0.01236
G1 X100.357 Y103.913 E0.08317
G1 X100.162 Y104.254 E0.01236
G1 X98.294 Y102.386 E0.08320
G1 X98.099 Y102.726 E0.01236
G1 X99.967 Y104.594 E0.08322
G1 X99.772 Y104.935 E0.01236
G1 X97.903 Y103.066 E0.08325
G1 X97.708 Y103.406 E0.01236
G1 X99.577 Y105.276 E0.08327
G1 X99.382 Y105.616 E0.01236
G1 X97.512 Y103.746 E0.08330
G1 X97.317 Y104.086 E0.01236
G1 X99.188 Y105.957 E0.08332
G1 X98.993 Y106.298 E0.01236
G1 X97.121 Y104.427 E0.08335
G1 X96.926 Y104.767 E0.01236
G1 X98.798 Y106.639 E0.08337
G1 X98.603 Y106.979 E0.01236
G1 X96.730 Y105.107 E0.08340
G1 X96.524 Y105.436 E0.01224
G1 X98.408 Y107.320 E0.08389
G1 X98.213 Y107.661 E0.01236
G1 X96.302 Y105.750 E0.08512
G1 X96.048 Y106.031 E0.01194
G1 X98.018 Y108.001 E0.08775
G1 X97.823 Y108.342 E0.01236
G1 X95.764 Y106.283 E0.09170
G1 X95.460 Y106.515 E0.01204
G1 X97.628 Y108.683 E0.09656
G1 X97.433 Y109.024 E0.01236
G1 X95.128 Y106.719 E0.10265
G1 X94.760 Y106.886 E0.01275
G1 X97.238 Y109.364 E0.11040
G1 X97.043 Y109.705 E0.01236
G1 X94.366 Y107.028 E0.11923
G1 X93.925 Y107.123 E0.01420
G1 X96.848 Y110.046 E0.13019
G1 X96.653 Y110.386 E0.01236
G1 X93.436 Y107.169 E0.14329
G1 X93.232 Y107.180 E0.00643
G1 X92.880 Y107.149 E0.01112
G1 X96.459 Y110.727 E0.15936
G1 X96.264 Y111.068 E0.01236
G1 X94.385 Y109.189 E0.08369
G1 X94.189 Y109.529 E0.01236
G1 X96.069 Y111.409 E0.08371
G1 X95.874 Y111.749 E0.01236
G1 X93.994 Y109.869 E0.08374
G1 X93.798 Y110.209 E0.01236
G1 X95.679 Y112.090 E0.08376
G1 X95.484 Y112.431 E0.01236
G1 X93.603 Y110.550 E0.08379
G1 X93.407 Y110.890 E0.01236
G1 X95.289 Y112.771 E0.08381
G1 X95.094 Y113.112 E0.01236
G1 X93.212 Y111.230 E0.08384
G1 X93.016 Y111.570 E0.01236
G1 X94.898 Y113.454 E0.08388
G1 X94.365 Y113.454 E0.01680
G1 X92.821 Y111.910 E0.06878
G1 X92.625 Y112.250 E0.01236
G1 X93.829 Y113.454 E0.05363
G1 X93.294 Y113.454 E0.01687
G1 X92.430 Y112.590 E0.03848
G1 X92.234 Y112.931 E0.01236
G1 X92.758 Y113.454 E0.02333
G1 X92.222 Y113.454 E0.01687
G1 X91.914 Y113.146 E0.01371
G1 F5760
G1 X92.222 Y113.454 E-0.15080
G1 F5760
G1 X92.758 Y113.454 E-0.18552
G1 F5760
G1 X92.234 Y112.931 E-0.25654
G1 F5760
G1 X92.430 Y112.590 E-0.13588
G1 F5760
G1 X92.494 Y112.654 E-0.03126
G1 E-0.04000 F2100.00000
G1 Z0.800 F7200.000
G1 X90.945 Y113.624 F7200.000
G1 Z0.200 F7200.000
G1 E0.80000 F2100.00000
G1 F900
G1 X89.752 Y112.431 E0.05293
G1 X90.128 Y113.340 F7200.000
G1 F900
G1 X88.488 Y111.701 E0.07275
G1 X88.115 Y111.758 F7200.000
G1 F900
G1 X87.862 Y111.477 E0.00735
G1 X87.693 Y111.218 E0.00600
G1 X87.537 Y110.869 E0.00742
G1 X87.461 Y110.574 E0.00591
G1 F900
G1 X87.418 Y110.171 E0.00865
G1 F900
G1 X87.431 Y109.909 E0.00617
G1 F900
G1 X87.436 Y109.866 E0.00108
G1 F900
G1 X87.508 Y109.539 E0.00892
G1 X87.494 Y108.813 F7200.000
G1 F900
G1 X87.808 Y109.126 E0.01398
G1 X88.002 Y108.785 E0.01239
G1 X87.812 Y108.595 E0.00849
G1 X88.006 Y108.252 E0.01240
G1 X88.197 Y108.443 E0.00852
G1 X88.392 Y108.102 E0.01239
G1 X88.200 Y107.910 E0.00856
G1 X88.421 Y107.595 E0.01214
G1 X88.711 Y107.885 E0.01292
G1 X88.940 Y107.374 F7200.000
G1 F900
G1 X88.930 Y107.148 E0.00443
G1 X89.284 Y106.892 E0.00858
G1 X89.731 Y106.690 E0.00963
G1 F900
G1 X90.187 Y106.596 E0.00949
G1 F900
G1 X90.296 Y106.593 E0.00238
G1 F900
G1 X90.585 Y106.597 E0.00663
G1 F900
G1 X90.636 Y106.601 E0.00123
G1 F900
G1 X90.889 Y106.645 E0.00669
G1 X90.985 Y106.852 E0.00594
G1 F5760
G1 X90.889 Y106.645 E-0.07897
G1 F5760
G1 X90.636 Y106.601 E-0.08896
G1 E-0.63207 F2100.00000
G1 Z0.800 F7200.000
G1 X92.373 Y107.713 F7200.000
G1 Z0.200 F7200.000
G1 E0.80000 F2100.00000
G1 F900
G1 X91.477 Y106.817 E0.03993
G1 X91.435 Y106.726 E0.00314
G1 X91.909 Y106.920 E0.01613
G1 X92.211 Y107.015 E0.00996
G1 X93.632 Y108.437 E0.06333
G1 F5760
G1 X92.211 Y107.015 E-0.69649
G1 F5760
G1 X92.036 Y106.960 E-0.06351
G1 E-0.04000 F2100.00000
G1 Z0.800 F7200.000
G1 X103.064 Y103.406 F7200.000
G1 Z0.200 F7200.000
G1 E0.80000 F2100.00000
G1 F900
G1 X110.916 Y111.258 E0.34974
G1 F5760
G1 X109.365 Y109.707 E-0.76000
G1 E-0.04000 F2100.00000
G1 Z0.800 F7200.000
G1 X111.647 Y112.524 F7200.000
G1 Z0.200 F7200.000
G1 E0.80000 F2100.00000
G1 F900
G1 X103.785 Y104.662 E0.35017
G1 F5760
G1 X105.336 Y106.214 E-0.76000
G1 E-0.04000 F2100.00000
G1 Z0.800 F7200.000
G1 X104.506 Y105.919 F7200.000
G1 Z0.200 F7200.000
G1 E0.80000 F2100.00000
G1 F900
G1 X112.211 Y113.624 E0.34318
G1 X111.675 Y113.624 F7200.000
G1 F900
G1 X105.227 Y107.176 E0.28721
G1 F5760
G1 X106.778 Y108.727 E-0.76000
G1 E-0.04000 F2100.00000
G1 Z0.800 F7200.000
G1 X105.948 Y108.432 F7200.000
G1 Z0.200 F7200.000
G1 E0.80000 F2100.00000
G1 F900
G1 X111.139 Y113.624 E0.23124
G1 X110.604 Y113.624 F7200.000
G1 F900
G1 X106.669 Y109.689 E0.17527
G1 F5760
G1 X108.220 Y111.240 E-0.76000
G1 E-0.04000 F2100.00000
G1 Z0.800 F7200.000
G1 X107.390 Y110.945 F7200.000
G1 Z0.200 F7200.000
G1 E0.80000 F2100.00000
G1 F900
G1 X110.068 Y113.624 E0.11930
G1 X109.533 Y113.624 F7200.000
G1 F900
G1 X108.111 Y112.202 E0.06334
M106 S255
;BEFORE_LAYER_CHANGE
;0.5


G1 F5760
G1 X109.533 Y113.624 E-0.69654
G1 E-0.10346 F2100.00000
G1 Z0.800 F7200.000
;AFTER_LAYER_CHANGE
;0.5
G1 X94.253 Y108.897 F7200.000
G1 Z0.500 F7200.000
G1 E0.80000 F2100.00000
M204 S800
G1 F1822
G1 X91.651 Y113.425 E0.25119
G1 X88.356 Y111.521 E0.18306
G1 X88.088 Y111.265 E0.01779
G1 X87.952 Y111.077 E0.01115
G1 X87.801 Y110.760 E0.01693
G1 X87.740 Y110.536 E0.01115
G1 X87.711 Y110.185 E0.01693
G1 X87.734 Y109.955 E0.01115
G1 X87.836 Y109.599 E0.01778
G1 X88.942 Y107.661 E0.10733
G1 X89.153 Y107.378 E0.01699
G1 X89.454 Y107.131 E0.01873
G1 X89.810 Y106.961 E0.01894
G1 X90.215 Y106.884 E0.01981
G1 X90.559 Y106.899 E0.01660
G1 X90.784 Y106.949 E0.01106
G1 X91.091 Y107.079 E0.01604
G1 X94.201 Y108.867 E0.17255
M204 S1000
G1 X93.727 Y109.039 F7200.000
M204 S800
G1 F4800
