;FLAVOR:Marlin
;TIME:225
;Filament used:0.193413m
;Layer height: 0.3
;MINX:68.938
;MINY:68.376
;MINZ:0.2
;MAXX:95.375
;MAXY:96.624
;MAXZ:2.9
                                 
;Creative3D GCode Generated by CXEngineDEV
;Generated Time:2022-04-08 18:14:05
;----------Machine Config--------------
;Machine Name:Creality Ender-2 Pro
;Machine Height:180
;Machine Width:165
;Machine Depth:165
;Material name:PLA
;Number of Extruders:1
;ExtruderParams[0] Nozzle Diameter1000
;----------Profile Config---------------
;Layer Height:0.3
;Wall Thickness:0.8
;Top/Bottom Thickness:1
;Out Wall Line Width:0.4
;Inner Wall Line Width:0.4
;Inital Layer Height:200
;Wall Line Count:1
;Infill Line Distance:4
;Infill Pattern:grid
;Infill Sparse Density:20
;Infill Wipe Distance:0
;Print Temperature:200
;Bed Temperature:60
;Support Enable:false
;Support Density:30
;Support Angle:1.0472
;Adhesion Type:none
;machine is belt:false
;machine belt offset:10
;machine belt offset Y:0
;----------Shell Config----------------
;Outer Wall Wipe Distance:200
;Infill Before Walls:false
;Infill Overlap:0.16
;Fill Gaps Between Walls:everywhere
;Minimum Infill Area:1
;Top Surface Skin Layer:0
;Top Layers:2
;Z Seam Alignment:sharpest_corner
;Seam Corner Preference:z_seam_corner_inner
;Z Seam X:82.5
;Z Seam Y:82.5
;Horizontal Expansion:0
;Top/Bottom Pattern:zigzag
;Ironing Pattern:zigzag
;Vase Model:false
;----------Support Config----------------
;Support Type:everywhere
;Support Pattern:zigzag
;Support Infill Layer Thickness:0.3
;Minimum Support Area:10
;Enable Support Roof:false
;Support Roof Thickness:0.8
;Support Roof Pattern:lines
; ---------PrintSpeed & Travel----------
;Enable Print Cool:true
;Avoid Printed Parts Traveling:true
;Enable Retraction:true
;Retraction Distance:8
;Retraction Speed:100
;Retraction Prime Speed:100
;Maximum Retraction Count:100
;Minimum Extrusion Distance Window:1
;Z Hop When Retracted:false
;Z Hop Height:0.2
;Retract Before Outer Wall:true
;Print Speed:50
;Infill Speed:50

;Prime Tower Speed:50
;Travel Speed:120
;Initial Layer Speed:25
;Skirt/Brim Speed:25
;Combing Mode:off
;---------------------End of Head--------------------------
M140 S60
M104 S200
M105
M109 S200
M82 ;absolute extrusion mode
M220 S100 ;Reset Feedrate
M221 S100 ;Reset Flowrate

G28 ;Home

G92 E0 ;Reset Extruder
G1 Z2.0 F3000 ;Move Z Axis up
G1 X10.1 Y20 Z0.28 F5000.0 ;Move to start position
G1 X10.1 Y145.0 Z0.28 F1500.0 E15 ;Draw the first line
G1 X10.4 Y145.0 Z0.28 F5000.0 ;Move to side a little
G1 X10.4 Y20 Z0.28 F1500.0 E30 ;Draw the second line
G92 E0  ;Reset Extruder
G1 E-1.0000 F1800 ;Retract a bit
G1 Z2.0 F3000 ;Move Z Axis up
G1 E0.0000 F1800 

G92 E0
G92 E0
G1 F6000 E-8

;LAYER_COUNT:10

;LAYER:0
M107
;MESH:
G0 F3600 X75.92 Y91.548 Z0.2
;TYPE:WALL-OUTER
G1 F6000 E0
G1 F1500 X75.747 Y91.449 E0.00729
G1 X73.13 Y89.945 E0.11772
G1 X72.746 Y89.809 E0.13263
G1 X72.313 Y89.813 E0.14847
G1 X71.909 Y89.974 E0.16438
G1 X71.599 Y90.258 E0.17976
G1 X71.51 Y90.39 E0.18559
G1 X70.502 Y92.146 E0.25967
G1 X70.366 Y92.53 E0.27457
G1 X70.37 Y92.962 E0.29038
G1 X70.531 Y93.367 E0.30632
G1 X70.817 Y93.679 E0.32181
G1 X71.001 Y93.795 E0.32976
G1 X73.555 Y95.264 E0.43756
G1 X73.728 Y95.363 E0.44485
G1 X73.827 Y95.19 E0.44957
G1 X75.821 Y91.721 E0.59596
G1 X75.92 Y91.548 E0.60068
G0 F3600 X75.747 Y91.449
G0 X75.967 Y91.068
;;retract;;
G1 F6000 E-7.39932
G0 F3600 X84.064 Y85.176
G1 F6000 E0.60068
G1 F1500 X83.992 Y85.302 E0.60599
G1 X77.514 Y96.624 E1.08323
G1 X72.706 Y96.621 E1.25913
G1 X70.597 Y95.41 E1.34811
G1 X70.239 Y95.173 E1.36382
G1 X69.917 Y94.894 E1.3794
G1 X69.627 Y94.566 E1.39542
G1 X69.385 Y94.208 E1.41123
G1 X69.193 Y93.822 E1.427
G1 X69.109 Y93.602 E1.43562
G1 X68.998 Y93.193 E1.45113
G1 X68.944 Y92.781 E1.46633
G1 X68.94 Y92.341 E1.48243
G1 X68.992 Y91.919 E1.49798
G1 X69.103 Y91.501 E1.51381
G1 X69.266 Y91.097 E1.52974
G1 X69.372 Y90.9 E1.53793
G1 X69.864 Y90.044 E1.57405
G1 X70.104 Y89.682 E1.58994
G1 X70.382 Y89.361 E1.60548
G1 X70.699 Y89.078 E1.62102
G1 X71.053 Y88.837 E1.63669
G1 X71.266 Y88.721 E1.64557
G1 X71.632 Y88.567 E1.66009
G1 X72.052 Y88.45 E1.67604
G1 X72.475 Y88.389 E1.69168
G1 X72.9 Y88.381 E1.70723
G1 X73.328 Y88.432 E1.723
G1 X73.744 Y88.536 E1.73869
G1 X74.57 Y88.862 E1.77118
G1 X75.013 Y88.967 E1.78784
G1 X75.462 Y89.007 E1.80433
G1 X75.915 Y88.987 E1.82092
G1 X76.366 Y88.898 E1.83774
G1 X76.794 Y88.748 E1.85433
G1 X77.199 Y88.538 E1.87102
G1 X77.57 Y88.272 E1.88772
G1 X77.897 Y87.96 E1.90426
G1 X78.176 Y87.605 E1.92078
G1 X78.3 Y87.407 E1.92932
G1 X82.209 Y80.605 E2.21635
G1 X82.209 Y68.376 E2.66376
G1 X86.132 Y68.376 E2.80729
G1 X86.132 Y80.606 E3.25474
G1 X95.203 Y96.325 E3.91872
G1 X95.375 Y96.624 E3.93134
G1 X95.031 Y96.624 E3.93848
G1 X95.029 Y96.624 E3.93855
G1 X90.864 Y96.624 E4.09093
G1 X84.368 Y85.302 E4.5685
G1 X84.296 Y85.176 E4.57381
G1 X84.064 Y85.176 E4.5823
G0 F3600 X83.992 Y85.302
G0 X83.965 Y85.349
G0 X83.585 Y85.13
;;retract;;
G1 F6000 E-3.4177
G0 F3600 X69.593 Y94.086
;TYPE:SKIN
G1 F6000 E4.5823
G1 F1500 X69.817 Y94.419 E4.59698
G1 X70.083 Y94.72 E4.61168
G1 X70.383 Y94.981 E4.62622
G1 X70.724 Y95.205 E4.64115
G1 X71.092 Y95.416 E4.65667
G1 X72.42 Y96.179 E4.71271
G1 X69.21 Y92.968 E4.87882
G1 X69.184 Y92.764 E4.88634
G1 X69.18 Y92.373 E4.90065
G1 X70.566 Y93.759 E4.97236
G1 X70.324 Y93.496 E4.98544
G1 X70.13 Y93.007 E5.00468
G1 X70.128 Y92.756 E5.01387
G1 X69.25 Y91.877 E5.05932
G1 X69.331 Y91.573 E5.07083
G1 X69.383 Y91.445 E5.07589
G1 X70.205 Y92.266 E5.11839
G1 X70.283 Y92.044 E5.127
G1 X70.38 Y91.876 E5.1341
G1 X69.56 Y91.056 E5.17653
G1 X69.58 Y91.019 E5.17806
G1 X69.765 Y90.695 E5.19171
G1 X70.586 Y91.517 E5.23422
G1 X70.792 Y91.157 E5.24939
G1 X69.971 Y90.336 E5.29187
G1 X70.065 Y90.174 E5.29873
G1 X70.188 Y89.987 E5.30691
G1 X70.999 Y90.798 E5.34888
G1 X71.205 Y90.438 E5.36405
G1 X70.433 Y89.666 E5.40399
G1 X70.552 Y89.53 E5.41061
G1 X70.717 Y89.384 E5.41867
G1 X71.424 Y90.091 E5.45525
G1 X71.719 Y89.82 E5.4699
G1 X71.036 Y89.138 E5.50522
G1 X71.175 Y89.043 E5.51138
G1 X71.374 Y88.934 E5.51968
G1 X71.391 Y88.927 E5.52035
G1 X72.101 Y89.637 E5.55709
G1 X72.266 Y89.572 E5.56357
G1 X72.598 Y89.569 E5.57572
G1 X71.8 Y88.77 E5.61704
G1 X72.105 Y88.685 E5.62862
G1 X72.258 Y88.663 E5.63428
G1 X73.442 Y89.847 E5.69554
G1 X74.77 Y90.61 E5.75157
G1 X72.783 Y88.622 E5.85441
G1 X72.882 Y88.62 E5.85803
G1 X73.286 Y88.669 E5.87292
G1 X73.431 Y88.705 E5.87838
G1 X76.098 Y91.371 E6.01635
G0 F3600 X76.248 Y91.457
G1 F1500 X76.224 Y91.498 E6.01809
G1 X76.018 Y91.857 E6.03323
G1 X78.528 Y94.367 E6.1631
G1 X78.321 Y94.726 E6.17826
G1 X75.811 Y92.216 E6.30813
G1 X75.605 Y92.575 E6.32327
G1 X78.116 Y95.086 E6.45319
G1 X77.91 Y95.446 E6.46837
G1 X75.398 Y92.935 E6.59832
G1 X75.192 Y93.294 E6.61346
G1 X77.704 Y95.806 E6.74343
G1 X77.498 Y96.166 E6.75861
G1 X74.986 Y93.654 E6.88858
G1 X74.78 Y94.013 E6.90372
G1 X77.149 Y96.382 E7.0263
G1 X76.583 Y96.382 E7.047
G1 X74.573 Y94.372 E7.151
G1 X74.367 Y94.731 E7.16615
G1 X76.017 Y96.382 E7.25154
G1 X75.451 Y96.381 E7.27225
G1 X74.16 Y95.091 E7.33902
G1 X73.954 Y95.45 E7.35417
G1 X74.885 Y96.381 E7.40234
G1 X74.319 Y96.38 E7.42304
G1 X73.374 Y95.436 E7.47191
G1 X72.042 Y94.67 E7.52813
G1 X73.753 Y96.38 E7.61663
G1 X73.186 Y96.38 E7.63738
G1 X70.685 Y93.879 E7.76678
G0 F3600 X70.662 Y93.864
G1 F1500 X70.566 Y93.759 E7.77198
;;retract;;
G1 F6000 E-0.22802
G0 F3600 X69.425 Y93.749
G1 F6000 E7.77198
G1 F1500 X71.092 Y95.416 E7.85824
;;retract;;
G1 F6000 E-0.14176
G0 F3600 X76.224 Y91.498
G1 F6000 E7.85824
G1 F1500 X78.734 Y94.007 E7.98808
G1 X78.939 Y93.647 E8.00324
G1 X74.307 Y89.014 E8.24292
G1 X74.497 Y89.089 E8.2504
G1 X74.974 Y89.204 E8.26835
G1 X75.07 Y89.212 E8.27187
G1 X79.145 Y93.287 E8.48272
G1 X79.351 Y92.927 E8.49789
G1 X75.661 Y89.237 E8.68881
G1 X75.943 Y89.224 E8.69914
G1 X76.17 Y89.181 E8.7076
G1 X79.557 Y92.568 E8.88284
G1 X79.763 Y92.208 E8.89802
G1 X76.618 Y89.063 E9.06074
G1 X76.89 Y88.968 E9.07128
G1 X77.021 Y88.901 E9.07666
G1 X79.969 Y91.848 E9.22917
G1 X80.175 Y91.489 E9.24431
G1 X77.385 Y88.699 E9.38867
G1 X77.715 Y88.463 E9.40351
G1 X80.381 Y91.129 E9.54145
G1 X80.586 Y90.769 E9.55661
G1 X78.005 Y88.188 E9.69015
G1 X78.075 Y88.121 E9.6937
G1 X78.263 Y87.88 E9.70488
G1 X80.792 Y90.409 E9.83573
G1 X80.999 Y90.05 E9.85089
G1 X78.495 Y87.546 E9.98045
G1 X78.505 Y87.529 E9.98117
G1 X78.702 Y87.187 E9.99561
G1 X81.204 Y89.69 E10.12509
G1 X81.41 Y89.33 E10.14027
G1 X78.908 Y86.827 E10.26975
G1 X79.114 Y86.468 E10.28489
G1 X81.616 Y88.97 E10.41435
G1 X81.822 Y88.61 E10.42952
G1 X79.321 Y86.109 E10.55893
G1 X79.527 Y85.75 E10.57407
G1 X82.027 Y88.25 E10.70342
G1 X82.234 Y87.891 E10.71858
G1 X79.734 Y85.39 E10.84796
G1 X79.94 Y85.031 E10.8631
G1 X82.44 Y87.531 E10.99246
G1 X82.645 Y87.171 E11.00761
G1 X80.147 Y84.672 E11.13689
G1 X80.353 Y84.313 E11.15203
G1 X82.851 Y86.811 E11.28128
G1 X83.057 Y86.451 E11.29645
G1 X80.559 Y83.954 E11.42567
G1 X80.766 Y83.594 E11.44087
G1 X83.263 Y86.091 E11.57006
G1 X83.469 Y85.732 E11.58521
G1 X80.972 Y83.235 E11.7144
G1 X81.179 Y82.876 E11.72956
G1 X83.675 Y85.372 E11.85871
G1 X83.881 Y85.012 E11.87388
G1 X81.385 Y82.517 E12.003
G1 X81.591 Y82.157 E12.01818
G1 X84.369 Y84.934 E12.16189
G0 F3600 X84.434 Y84.935
G1 F1500 X84.521 Y85.087 E12.1683
G1 X85.283 Y86.414 E12.22428
G1 X94.559 Y95.69 E12.70423
G1 X94.958 Y96.382 E12.73345
G1 X94.685 Y96.382 E12.74344
G1 X86.045 Y87.742 E13.19048
G1 X86.807 Y89.069 E13.24646
G1 X94.12 Y96.382 E13.62484
G1 X93.554 Y96.382 E13.64555
G1 X87.568 Y90.397 E13.95524
G1 X88.33 Y91.724 E14.01123
G1 X92.988 Y96.382 E14.25224
G1 X92.423 Y96.382 E14.27291
G1 X89.091 Y93.051 E14.44528
G1 X89.853 Y94.378 E14.50127
G1 X91.857 Y96.382 E14.60495
G1 X91.291 Y96.382 E14.62566
G1 X91.003 Y96.383 E14.6362
G0 F3600 X90.615 Y95.706
G1 F1500 X91.291 Y96.382 E14.67118
;;retract;;
G1 F6000 E6.67118
G0 F3600 X84.521 Y85.087
G1 F6000 E14.67118
G1 F1500 X93.787 Y94.353 E15.1506
G1 X93.015 Y93.015 E15.20712
G1 X81.798 Y81.798 E15.78749
G1 X82.004 Y81.438 E15.80267
G1 X92.243 Y91.677 E16.33244
G1 X91.471 Y90.339 E16.38896
G1 X82.211 Y81.079 E16.86808
G1 X82.417 Y80.72 E16.88322
G1 X90.699 Y89.002 E17.31174
G1 X89.927 Y87.664 E17.36825
G1 X82.447 Y80.185 E17.75525
G1 X82.447 Y79.619 E17.77595
G1 X89.154 Y86.326 E18.12298
G1 X88.383 Y84.989 E18.17944
G1 X82.447 Y79.053 E18.48658
G1 X82.447 Y78.488 E18.50725
G1 X87.611 Y83.651 E18.77441
G1 X86.839 Y82.313 E18.83093
G1 X82.447 Y77.922 E19.05815
G1 X82.447 Y77.356 E19.07885
G1 X86.066 Y80.975 E19.2661
G1 X85.89 Y80.67 E19.27899
G1 X85.89 Y80.233 E19.29497
G1 X82.447 Y76.791 E19.47309
G1 X82.447 Y76.225 E19.4938
G1 X85.89 Y79.668 E19.67194
G1 X85.89 Y79.102 E19.69265
G1 X82.447 Y75.659 E19.87079
G1 X82.447 Y75.094 E19.89146
G1 X85.89 Y78.536 E20.06958
G1 X85.89 Y77.971 E20.09025
G1 X82.447 Y74.528 E20.26839
G1 X82.447 Y73.962 E20.2891
G1 X85.89 Y77.405 E20.46725
G1 X85.89 Y76.839 E20.48795
G1 X82.447 Y73.396 E20.6661
G1 X82.447 Y72.831 E20.68677
G1 X85.89 Y76.274 E20.86491
G1 X85.89 Y75.708 E20.88562
G1 X82.447 Y72.265 E21.06376
G1 X82.447 Y71.699 E21.08447
G1 X85.89 Y75.142 E21.26261
G1 X85.89 Y74.577 E21.28328
G1 X82.447 Y71.134 E21.46143
G1 X82.447 Y70.568 E21.48213
G1 X85.89 Y74.011 E21.66028
G1 X85.89 Y73.445 E21.68098
G1 X82.447 Y70.002 E21.85913
G1 X82.447 Y69.437 E21.8798
G1 X85.89 Y72.88 E22.05794
G1 X85.89 Y72.314 E22.07865
G1 X82.447 Y68.871 E22.25679
G1 X82.448 Y68.616 E22.26612
G1 X82.758 Y68.616 E22.27746
G1 X85.89 Y71.748 E22.43952
G1 X85.89 Y71.183 E22.46019
G1 X83.324 Y68.616 E22.59298
G1 X83.889 Y68.616 E22.61365
G1 X85.89 Y70.617 E22.71718
G1 X85.89 Y70.051 E22.73789
G1 X84.455 Y68.616 E22.81214
G1 X85.021 Y68.616 E22.83285
G1 X85.89 Y69.485 E22.87781
G1 X85.89 Y68.92 E22.89848
G1 X85.586 Y68.616 E22.91421
G1 X85.89 Y68.616 E22.92533
;;retract;;
G1 F6000 E14.92533
;MESH:NONMESH
G0 F600 X85.89 Y68.616 Z0.5
G0 F3600 X75.92 Y91.548
;TIME_ELAPSED:38.544896

;LAYER:1
M140 S60
M106 S127.5
;TYPE:WALL-OUTER
;MESH:
G1 F6000 E22.92533
G1 F1500 X75.747 Y91.449 E22.93528
G1 X73.13 Y89.945 E23.08586
G1 X72.768 Y89.815 E23.10505
G1 X72.445 Y89.797 E23.12119
G1 X72.059 Y89.897 E23.14109
G1 X71.782 Y90.067 E23.1573
G1 X71.529 Y90.361 E23.17665
G1 X70.502 Y92.146 E23.27939
G1 X70.372 Y92.507 E23.29854
G1 X70.352 Y92.831 E23.31473
G1 X70.453 Y93.218 E23.33469
G1 X70.624 Y93.494 E23.35088
G1 X70.918 Y93.746 E23.3702
G1 X73.555 Y95.264 E23.522
G1 X73.728 Y95.363 E23.53195
G1 X73.827 Y95.19 E23.53838
G1 X75.821 Y91.721 E23.73801
G1 X75.92 Y91.548 E23.74444
G0 F5400 X75.747 Y91.449
G0 X75.967 Y91.068
;;retract;;
G1 F6000 E15.74444
G0 F5400 X84.064 Y85.176
G1 F6000 E23.74444
G1 F1500 X83.992 Y85.302 E23.75168
G1 X77.514 Y96.624 E24.40246
G1 X72.71 Y96.624 E24.64213
G1 X70.597 Y95.41 E24.76371
G1 X70.259 Y95.187 E24.78391
G1 X70.066 Y95.032 E24.79626
G1 X69.782 Y94.751 E24.81619
G1 X69.622 Y94.56 E24.82862
G1 X69.394 Y94.223 E24.84892
G1 X69.277 Y94.01 E24.86105
G1 X69.128 Y93.653 E24.88035
G1 X69.048 Y93.402 E24.89349
G1 X68.97 Y93.02 E24.91294
G1 X68.942 Y92.766 E24.92569
G1 X68.939 Y92.369 E24.9455
G1 X68.961 Y92.118 E24.95807
G1 X69.033 Y91.741 E24.97722
G1 X69.107 Y91.488 E24.99037
G1 X69.256 Y91.122 E25.01008
G1 X69.372 Y90.9 E25.02258
G1 X69.864 Y90.043 E25.07188
G1 X70.086 Y89.706 E25.09201
G1 X70.246 Y89.506 E25.10479
G1 X70.511 Y89.237 E25.12363
G1 X70.709 Y89.07 E25.13655
G1 X71.029 Y88.852 E25.15587
G1 X71.295 Y88.707 E25.17099
G1 X71.612 Y88.574 E25.18814
G1 X71.844 Y88.499 E25.2003
G1 X72.234 Y88.417 E25.22018
G1 X72.488 Y88.387 E25.23294
G1 X72.88 Y88.38 E25.2525
G1 X73.118 Y88.4 E25.26442
G1 X73.521 Y88.473 E25.28485
G1 X73.748 Y88.537 E25.29662
G1 X74.121 Y88.684 E25.31662
G1 X74.385 Y88.798 E25.33097
G1 X74.563 Y88.859 E25.34035
G1 X74.824 Y88.93 E25.35385
G1 X75.212 Y88.992 E25.37345
G1 X75.495 Y89.008 E25.38759
G1 X75.893 Y88.989 E25.40747
G1 X76.171 Y88.944 E25.42152
G1 X76.578 Y88.832 E25.44258
G1 X76.987 Y88.657 E25.46478
G1 X77.381 Y88.417 E25.48779
G1 X77.724 Y88.135 E25.50995
G1 X77.915 Y87.94 E25.52357
G1 X78.168 Y87.616 E25.54407
G1 X78.3 Y87.407 E25.55641
G1 X82.209 Y80.605 E25.94781
G1 X82.209 Y68.376 E26.55791
G1 X86.132 Y68.376 E26.75363
G1 X86.132 Y80.606 E27.36379
G1 X95.203 Y96.325 E28.26922
G1 X95.375 Y96.624 E28.28643
G1 X95.031 Y96.624 E28.29616
G1 X95.029 Y96.624 E28.29626
G1 X90.864 Y96.624 E28.50406
G1 X84.368 Y85.302 E29.15528
G1 X84.296 Y85.176 E29.16252
G1 X84.064 Y85.176 E29.1741
G0 F5400 X83.992 Y85.302
G0 X83.965 Y85.349
G0 X83.585 Y85.13
;;retract;;
G1 F6000 E21.1741
G0 F5400 X94.958 Y96.382
;TYPE:SKIN
G1 F6000 E29.1741
G1 F1500 X94.907 Y96.294 E29.17917
G1 X94.818 Y96.383 E29.18545
G1 X94.252 Y96.383 E29.21369
G1 X94.699 Y95.936 E29.24523
G1 X94.493 Y95.576 E29.26592
G1 X93.686 Y96.383 E29.32286
G1 X93.121 Y96.383 E29.35105
G1 X94.286 Y95.218 E29.43324
G1 X94.079 Y94.859 E29.45392
G1 X92.555 Y96.383 E29.56144
G1 X91.989 Y96.383 E29.58968
G1 X93.871 Y94.501 E29.72247
G1 X93.665 Y94.142 E29.74312
G1 X91.423 Y96.383 E29.90127
G1 X91.003 Y96.383 E29.92222
G1 X90.95 Y96.29 E29.92756
G1 X93.458 Y93.783 E30.10448
G1 X93.251 Y93.425 E30.12511
G1 X90.745 Y95.931 E30.30192
G1 X90.538 Y95.571 E30.32264
G1 X93.043 Y93.066 E30.49938
G1 X92.837 Y92.707 E30.52003
G1 X90.332 Y95.212 E30.69677
G1 X90.126 Y94.852 E30.71746
G1 X92.63 Y92.348 E30.89414
G1 X92.423 Y91.99 E30.91477
G1 X89.919 Y94.493 E31.0914
G1 X89.713 Y94.134 E31.11205
G1 X92.215 Y91.631 E31.28862
G1 X92.009 Y91.272 E31.30927
G1 X89.507 Y93.774 E31.4858
G1 X89.301 Y93.415 E31.50645
G1 X91.802 Y90.914 E31.68291
G1 X91.595 Y90.555 E31.70358
G1 X89.094 Y93.055 E31.88
G1 X88.888 Y92.696 E31.90065
G1 X91.387 Y90.197 E32.07697
G1 X91.181 Y89.837 E32.09766
G1 X88.682 Y92.336 E32.27398
G1 X88.476 Y91.977 E32.29463
G1 X90.974 Y89.479 E32.47088
G1 X90.767 Y89.12 E32.49155
G1 X88.27 Y91.617 E32.66773
G1 X88.063 Y91.258 E32.68841
G1 X90.559 Y88.762 E32.86451
G1 X90.353 Y88.403 E32.88516
G1 X87.857 Y90.899 E33.06127
G1 X87.651 Y90.539 E33.08196
G1 X90.146 Y88.044 E33.258
G1 X89.939 Y87.686 E33.27863
G1 X87.445 Y90.18 E33.45459
G1 X87.238 Y89.82 E33.47531
G1 X89.731 Y87.327 E33.65121
