; generated by Slic3r Prusa Edition 1.39.1-prusa3d on 2018-05-09 at 12:53:32

; 

; external perimeters extrusion width = 0.45mm
; perimeters extrusion width = 0.45mm
; infill extrusion width = 0.45mm
; solid infill extrusion width = 0.45mm
; top infill extrusion width = 0.33mm
; first layer extrusion width = 0.42mm

M107
M115 U3.1.0 ; tell printer latest fw version
M201 X9000 Y9000 Z500 E10000 ; sets maximum accelerations, mm/sec^2
M203 X500 Y500 Z12 E120 ; sets maximum feedrates, mm/sec
M204 S1500 T1500 ; sets acceleration (S) and retract acceleration (T)
M205 X10 Y10 Z0.2 E2.5 ; sets the jerk limits, mm/sec
M205 S0 T0 ; sets the minimum extruding and travel feed rate, mm/sec
M83  ; extruder relative mode
M104 S200 ; set extruder temp
M140 S65 ; set bed temp
M190 S65 ; wait for bed temp
M109 S200 ; wait for extruder temp
G28 W ; home all without mesh bed level
G80 ; mesh bed leveling
G1 Y-3.0 F1000.0 ; go outside print area
G92 E0.0
G1 E18.0 F1000.0;
G1 X60.0 E9.0  F1000.0 ; intro line
G1 X100.0 E12.5  F1000.0 ; intro line
G92 E0.0
M900 K30; Filament gcode
G21 ; set units to millimeters
G90 ; use absolute coordinates
M83 ; use relative distances for extrusion
;BEFORE_LAYER_CHANGE
;0.2


G1 E-0.80000 F2100.00000
G1 Z0.600 F7200.000
;AFTER_LAYER_CHANGE
;0.2
G1 X86.764 Y81.926 F7200.000
G1 Z0.200 F7200.000
G1 E0.80000 F2100.00000
M204 S1000
G1 F900
G1 X87.108 Y81.171 E0.02600
G1 X87.660 Y80.553 E0.02600
G1 X88.371 Y80.127 E0.02600
G1 X89.181 Y79.932 E0.02612
G1 X110.274 Y79.922 E0.66136
G1 X111.268 Y80.109 E0.03170
G1 X112.127 Y80.642 E0.03170
G1 X112.736 Y81.449 E0.03170
G1 X113.012 Y82.421 E0.03170
G1 X113.340 Y111.302 E0.90560
G1 X113.235 Y112.076 E0.02447
G1 X112.898 Y112.820 E0.02562
G1 X112.358 Y113.432 E0.02562
G1 X105.517 Y118.739 E0.27147
G1 X104.580 Y119.349 E0.03504
G1 X103.366 Y119.838 E0.04102
G1 X102.131 Y120.060 E0.03935
G1 X100.241 Y120.065 E0.05926
G1 X98.961 Y119.846 E0.04074
G1 X97.880 Y119.430 E0.03629
G1 X97.058 Y118.943 E0.02998
G1 X90.025 Y113.498 E0.27888
G1 X89.459 Y112.903 E0.02574
G1 X89.094 Y112.168 E0.02574
G1 X88.970 Y111.550 E0.01975
G1 X86.669 Y82.888 E0.90157
G1 X86.758 Y81.986 E0.02843
G1 X87.129 Y82.023 F7200.000
G1 F900
G1 X87.430 Y81.367 E0.02266
G1 X87.914 Y80.832 E0.02260
G1 X88.536 Y80.467 E0.02260
G1 X89.238 Y80.305 E0.02260
G1 X110.274 Y80.299 E0.65955
G1 X111.137 Y80.462 E0.02755
G1 X111.882 Y80.929 E0.02755
G1 X112.406 Y81.633 E0.02755
G1 X112.639 Y82.481 E0.02755
G1 X112.962 Y111.306 E0.90384
G1 X112.871 Y111.979 E0.02130
G1 X112.578 Y112.621 E0.02213
G1 X112.106 Y113.151 E0.02225
G1 X105.287 Y118.440 E0.27058
G1 X104.398 Y119.019 E0.03325
G1 X103.261 Y119.476 E0.03842
G1 X102.095 Y119.684 E0.03713
G1 X100.268 Y119.688 E0.05730
G1 X99.056 Y119.481 E0.03855
G1 X97.980 Y119.059 E0.03625
G1 X97.009 Y118.436 E0.03616
G1 X90.182 Y113.140 E0.27091
G1 X89.739 Y112.645 E0.02083
G1 X89.451 Y112.047 E0.02083
G1 X89.346 Y111.521 E0.01680
G1 X87.045 Y82.858 E0.90158
G1 X87.123 Y82.083 E0.02444
G1 F5760
G1 X87.430 Y81.367 E-0.27004
G1 F5760
G1 X87.914 Y80.832 E-0.24969
G1 F5760
G1 X88.512 Y80.481 E-0.24027
G1 E-0.04000 F2100.00000
G1 Z0.800 F7200.000
G1 X98.562 Y110.737 F7200.000
G1 Z0.200 F7200.000
G1 E0.80000 F2100.00000
G1 F900
G1 X103.739 Y110.737 E0.16232
G1 X103.730 Y114.517 E0.11851
G1 X103.643 Y114.871 E0.01144
G1 X103.557 Y115.062 E0.00657
G1 X103.448 Y115.242 E0.00657
G1 X103.206 Y115.515 E0.01147
G1 X102.905 Y115.723 E0.01147
G1 X102.697 Y115.816 E0.00713
G1 X102.343 Y115.904 E0.01143
G1 X100.116 Y115.911 E0.06984
G1 X99.786 Y115.871 E0.01043
G1 X99.563 Y115.800 E0.00733
G1 X99.246 Y115.634 E0.01122
G1 X98.973 Y115.391 E0.01145
G1 X98.832 Y115.212 E0.00713
G1 X98.662 Y114.889 E0.01147
G1 X98.571 Y114.517 E0.01201
G1 X98.562 Y110.797 E0.11662
G1 X98.940 Y111.114 F7200.000
G1 F900
G1 X103.361 Y111.114 E0.13862
G1 X103.353 Y114.470 E0.10523
G1 X103.285 Y114.748 E0.00895
G1 X103.222 Y114.887 E0.00478
G1 X103.143 Y115.017 E0.00478
G1 X102.954 Y115.231 E0.00896
G1 X102.719 Y115.393 E0.00896
G1 X102.574 Y115.459 E0.00498
G1 X102.297 Y115.527 E0.00895
G1 X100.138 Y115.534 E0.06769
G1 X99.866 Y115.501 E0.00859
G1 X99.709 Y115.451 E0.00518
G1 X99.462 Y115.321 E0.00875
G1 X99.248 Y115.132 E0.00895
G1 X99.150 Y115.007 E0.00498
G1 X99.018 Y114.754 E0.00896
G1 X98.948 Y114.470 E0.00915
G1 X98.940 Y111.174 E0.10335
G1 X98.937 Y110.714 F7200.000
G1 F5760
G1 X101.134 Y111.144 E-0.76000
G1 E-0.04000 F2100.00000
G1 Z0.800 F7200.000
G1 X95.509 Y86.152 F7200.000
G1 Z0.200 F7200.000
G1 E0.80000 F2100.00000
G1 F900
G1 X109.573 Y110.737 E0.88807
G1 X108.110 Y110.737 E0.04587
G1 X107.624 Y110.772 E0.01527
G1 X107.138 Y110.877 E0.01561
G1 X106.870 Y110.965 E0.00884
G1 X106.417 Y111.171 E0.01560
G1 X105.986 Y111.447 E0.01604
G1 X105.602 Y111.778 E0.01590
G1 X105.275 Y112.153 E0.01559
G1 X105.112 Y112.385 E0.00891
G1 X104.873 Y112.821 E0.01558
G1 X104.699 Y113.279 E0.01536
G1 X104.625 Y113.561 E0.00913
G1 X104.535 Y114.228 E0.02111
G1 X104.448 Y114.631 E0.01292
G1 X104.313 Y115.002 E0.01239
G1 X104.129 Y115.352 E0.01239
G1 X103.899 Y115.673 E0.01239
G1 X103.628 Y115.961 E0.01239
G1 X103.321 Y116.209 E0.01239
G1 X102.974 Y116.418 E0.01270
G1 X102.813 Y116.494 E0.00557
G1 X102.422 Y116.632 E0.01302
G1 X102.249 Y116.674 E0.00557
G1 X101.848 Y116.729 E0.01270
G1 X100.453 Y116.729 E0.04374
G1 X100.061 Y116.676 E0.01239
G1 X99.681 Y116.570 E0.01239
G1 X99.309 Y116.409 E0.01270
G1 X98.831 Y116.097 E0.01791
G1 X98.532 Y115.821 E0.01275
G1 X98.281 Y115.516 E0.01236
G1 X98.074 Y115.180 E0.01239
G1 X97.914 Y114.819 E0.01239
G1 X97.804 Y114.439 E0.01241
G1 X97.671 Y113.538 E0.02853
G1 X97.530 Y113.068 E0.01539
G1 X97.423 Y112.812 E0.00870
G1 X97.189 Y112.385 E0.01527
G1 X97.026 Y112.153 E0.00891
G1 X96.699 Y111.778 E0.01559
G1 X96.315 Y111.447 E0.01590
G1 X95.884 Y111.171 E0.01604
G1 X95.431 Y110.965 E0.01560
G1 X95.163 Y110.877 E0.00884
G1 X94.676 Y110.772 E0.01561
G1 X94.190 Y110.737 E0.01527
G1 X92.302 Y110.737 E0.05920
G1 X92.302 Y107.848 E0.09059
G1 X104.491 Y107.848 E0.38217
G1 X90.427 Y83.263 E0.88807
G1 X109.683 Y83.263 E0.60376
G1 X109.683 Y86.152 E0.09059
G1 X95.569 Y86.152 E0.44254
G1 X96.159 Y86.529 F7200.000
G1 F900
G1 X110.223 Y111.114 E0.88807
G1 X108.124 Y111.114 E0.06583
G1 X107.678 Y111.146 E0.01401
G1 X107.237 Y111.241 E0.01414
G1 X107.008 Y111.317 E0.00757
G1 X106.598 Y111.504 E0.01413
G1 X106.212 Y111.750 E0.01436
G1 X105.869 Y112.046 E0.01422
G1 X105.572 Y112.385 E0.01411
G1 X105.433 Y112.585 E0.00764
G1 X105.216 Y112.979 E0.01411
G1 X105.059 Y113.394 E0.01390
G1 X104.996 Y113.634 E0.00778
G1 X104.907 Y114.293 E0.02086
G1 X104.811 Y114.736 E0.01419
G1 X104.659 Y115.155 E0.01400
G1 X104.451 Y115.550 E0.01400
G1 X104.191 Y115.913 E0.01400
G1 X103.885 Y116.238 E0.01400
G1 X103.538 Y116.518 E0.01400
G1 X103.153 Y116.751 E0.01411
G1 X102.957 Y116.843 E0.00678
G1 X102.530 Y116.994 E0.01422
G1 X102.319 Y117.045 E0.00678
G1 X101.874 Y117.106 E0.01411
G1 X100.427 Y117.106 E0.04535
G1 X99.985 Y117.046 E0.01400
G1 X99.555 Y116.926 E0.01400
G1 X99.142 Y116.748 E0.01411
G1 X98.953 Y116.642 E0.00678
G1 X98.594 Y116.391 E0.01374
G1 X98.257 Y116.081 E0.01436
G1 X97.974 Y115.736 E0.01399
G1 X97.739 Y115.356 E0.01400
G1 X97.559 Y114.948 E0.01400
G1 X97.435 Y114.519 E0.01400
G1 X97.302 Y113.620 E0.02847
G1 X97.175 Y113.195 E0.01392
G1 X97.083 Y112.976 E0.00744
G1 X96.868 Y112.585 E0.01400
G1 X96.728 Y112.385 E0.00764
G1 X96.432 Y112.046 E0.01411
G1 X96.089 Y111.750 E0.01422
G1 X95.703 Y111.504 E0.01436
G1 X95.293 Y111.317 E0.01413
G1 X95.064 Y111.241 E0.00757
G1 X94.623 Y111.146 E0.01414
G1 X94.177 Y111.114 E0.01401
G1 X91.925 Y111.114 E0.07060
G1 X91.925 Y107.471 E0.11424
G1 X103.841 Y107.471 E0.37361
G1 X89.777 Y82.886 E0.88807
G1 X110.060 Y82.886 E0.63597
G1 X110.060 Y86.529 E0.11424
G1 X96.219 Y86.529 E0.43398
G1 X95.796 Y86.697 F7200.000
G1 X95.928 Y87.112 F7200.000
G1 F900
G1 X92.361 Y83.546 E0.15892
G1 X92.897 Y83.546 E0.01688
G1 X95.221 Y85.869 E0.10354
G1 X95.757 Y85.869 E0.01688
G1 X93.433 Y83.546 E0.10354
G1 X93.969 Y83.546 E0.01688
G1 X96.293 Y85.869 E0.10354
G1 X96.828 Y85.869 E0.01688
G1 X94.505 Y83.546 E0.10354
G1 X95.041 Y83.546 E0.01688
G1 X97.364 Y85.869 E0.10354
G1 X97.900 Y85.869 E0.01688
G1 X95.576 Y83.546 E0.10354
G1 X96.112 Y83.546 E0.01688
G1 X98.436 Y85.869 E0.10354
G1 X98.972 Y85.869 E0.01688
G1 X96.648 Y83.546 E0.10354
G1 X97.184 Y83.546 E0.01688
G1 X99.508 Y85.869 E0.10354
G1 X100.044 Y85.869 E0.01688
G1 X97.720 Y83.546 E0.10354
G1 X98.256 Y83.546 E0.01688
G1 X100.580 Y85.869 E0.10354
G1 X101.115 Y85.869 E0.01688
G1 X98.792 Y83.546 E0.10354
G1 X99.328 Y83.546 E0.01688
G1 X101.651 Y85.869 E0.10354
G1 X102.187 Y85.869 E0.01688
G1 X99.863 Y83.546 E0.10354
G1 X100.399 Y83.546 E0.01688
G1 X102.723 Y85.869 E0.10354
G1 X103.259 Y85.869 E0.01688
G1 X100.935 Y83.546 E0.10354
G1 X101.471 Y83.546 E0.01688
G1 X103.795 Y85.869 E0.10354
G1 X104.331 Y85.869 E0.01688
G1 X102.007 Y83.546 E0.10354
G1 X102.543 Y83.546 E0.01688
G1 X104.867 Y85.869 E0.10354
G1 X105.402 Y85.869 E0.01688
G1 X103.079 Y83.546 E0.10354
G1 X103.615 Y83.546 E0.01688
G1 X105.938 Y85.869 E0.10354
G1 X106.474 Y85.869 E0.01688
G1 X104.150 Y83.546 E0.10354
G1 X104.686 Y83.546 E0.01688
G1 X107.010 Y85.869 E0.10354
G1 X107.546 Y85.869 E0.01688
G1 X105.222 Y83.546 E0.10354
G1 X105.758 Y83.546 E0.01688
G1 X108.082 Y85.869 E0.10354
G1 X108.618 Y85.869 E0.01688
G1 X106.294 Y83.546 E0.10354
G1 X106.830 Y83.546 E0.01688
G1 X109.154 Y85.869 E0.10354
G1 X109.400 Y85.869 E0.00777
G1 X109.400 Y85.580 E0.00912
G1 X107.366 Y83.546 E0.09065
G1 X107.902 Y83.546 E0.01688
G1 X109.400 Y85.044 E0.06677
G1 X109.400 Y84.508 E0.01688
G1 X108.437 Y83.546 E0.04290
G1 X108.973 Y83.546 E0.01688
G1 X109.570 Y84.142 E0.02658
G1 F5760
G1 X108.973 Y83.546 E-0.29217
G1 F5760
G1 X108.437 Y83.546 E-0.18560
G1 F5760
G1 X109.014 Y84.122 E-0.28222
G1 E-0.04000 F2100.00000
G1 Z0.800 F7200.000
G1 X98.077 Y90.869 F7200.000
G1 Z0.200 F7200.000
G1 E0.80000 F2100.00000
G1 F900
G1 X90.672 Y83.465 E0.32993
G1 F5760
G1 X92.224 Y85.016 E-0.76000
G1 E-0.04000 F2100.00000
G1 Z0.800 F7200.000
G1 X91.389 Y84.717 F7200.000
G1 Z0.200 F7200.000
G1 E0.80000 F2100.00000
G1 F900
G1 X98.793 Y92.121 E0.32993
G1 F5760
G1 X97.242 Y90.570 E-0.76000
G1 E-0.04000 F2100.00000
G1 Z0.800 F7200.000
G1 X99.510 Y93.373 F7200.000
G1 Z0.200 F7200.000
G1 E0.80000 F2100.00000
G1 F900
G1 X92.105 Y85.969 E0.32993
G1 F5760
G1 X93.657 Y87.521 E-0.76000
G1 E-0.04000 F2100.00000
G1 Z0.800 F7200.000
G1 X92.822 Y87.221 F7200.000
G1 Z0.200 F7200.000
G1 E0.80000 F2100.00000
G1 F900
G1 X100.226 Y94.626 E0.32993
G1 F5760
G1 X98.674 Y93.074 E-0.76000
G1 E-0.04000 F2100.00000
G1 Z0.800 F7200.000
G1 X100.942 Y95.878 F7200.000
G1 Z0.200 F7200.000
G1 E0.80000 F2100.00000
G1 F900
G1 X93.538 Y88.474 E0.32993
G1 F5760
G1 X95.090 Y90.025 E-0.76000
G1 E-0.04000 F2100.00000
G1 Z0.800 F7200.000
G1 X94.254 Y89.726 F7200.000
G1 Z0.200 F7200.000
G1 E0.80000 F2100.00000
G1 F900
G1 X101.659 Y97.130 E0.32993
G1 F5760
G1 X100.107 Y95.579 E-0.76000
G1 E-0.04000 F2100.00000
G1 Z0.800 F7200.000
G1 X102.375 Y98.383 F7200.000
G1 Z0.200 F7200.000
G1 E0.80000 F2100.00000
G1 F900
G1 X94.971 Y90.978 E0.32993
G1 F5760
G1 X96.522 Y92.530 E-0.76000
G1 E-0.04000 F2100.00000
G1 Z0.800 F7200.000
G1 X95.687 Y92.230 F7200.000
G1 Z0.200 F7200.000
G1 E0.80000 F2100.00000
G1 F900
G1 X103.092 Y99.635 E0.32993
G1 F5760
G1 X101.540 Y98.083 E-0.76000
G1 E-0.04000 F2100.00000
G1 Z0.800 F7200.000
G1 X103.808 Y100.887 F7200.000
G1 Z0.200 F7200.000
G1 E0.80000 F2100.00000
G1 F900
G1 X96.404 Y93.483 E0.32993
G1 F5760
G1 X97.955 Y95.034 E-0.76000
G1 E-0.04000 F2100.00000
G1 Z0.800 F7200.000
G1 X97.120 Y94.735 F7200.000
G1 Z0.200 F7200.000
G1 E0.80000 F2100.00000
G1 F900
G1 X104.524 Y102.139 E0.32993
G1 F5760
G1 X102.973 Y100.588 E-0.76000
G1 E-0.04000 F2100.00000
G1 Z0.800 F7200.000
G1 X105.241 Y103.392 F7200.000
G1 Z0.200 F7200.000
G1 E0.80000 F2100.00000
G1 F900
G1 X97.836 Y95.987 E0.32993
G1 F5760
G1 X99.388 Y97.539 E-0.76000
G1 E-0.04000 F2100.00000
G1 Z0.800 F7200.000
G1 X98.553 Y97.240 F7200.000
G1 Z0.200 F7200.000
G1 E0.80000 F2100.00000
G1 F900
G1 X105.957 Y104.644 E0.32993
G1 F5760
G1 X104.406 Y103.092 E-0.76000
G1 E-0.04000 F2100.00000
G1 Z0.800 F7200.000
G1 X106.674 Y105.896 F7200.000
G1 Z0.200 F7200.000
G1 E0.80000 F2100.00000
G1 F900
G1 X99.269 Y98.492 E0.32993
G1 F5760
G1 X100.821 Y100.043 E-0.76000
G1 E-0.04000 F2100.00000
G1 Z0.800 F7200.000
G1 X99.986 Y99.744 F7200.000
G1 Z0.200 F7200.000
G1 E0.80000 F2100.00000
G1 F900
G1 X107.390 Y107.148 E0.32993
G1 F5760
G1 X105.838 Y105.597 E-0.76000
G1 E-0.04000 F2100.00000
G1 Z0.800 F7200.000
G1 X108.106 Y108.401 F7200.000
G1 Z0.200 F7200.000
G1 E0.80000 F2100.00000
G1 F900
G1 X100.702 Y100.996 E0.32993
G1 F5760
G1 X102.254 Y102.548 E-0.76000
G1 E-0.04000 F2100.00000
G1 Z0.800 F7200.000
G1 X101.418 Y102.249 F7200.000
G1 Z0.200 F7200.000
G1 E0.80000 F2100.00000
G1 F900
G1 X108.823 Y109.653 E0.32993
G1 X108.722 Y110.624 F7200.000
G1 F900
G1 X102.851 Y104.753 E0.26160
G1 F5760
G1 X104.403 Y106.305 E-0.76000
G1 E-0.04000 F2100.00000
G1 Z0.800 F7200.000
G1 X102.135 Y103.501 F7200.000
G1 Z0.200 F7200.000
G1 E0.80000 F2100.00000
G1 F900
G1 X109.258 Y110.624 E0.31740
G1 F5760
G1 X107.706 Y109.072 E-0.76000
G1 E-0.04000 F2100.00000
G1 Z0.800 F7200.000
G1 X108.186 Y110.624 F7200.000
G1 Z0.200 F7200.000
G1 E0.80000 F2100.00000
G1 F900
G1 X103.568 Y106.005 E0.20580
G1 F5760
G1 X105.119 Y107.557 E-0.76000
G1 E-0.04000 F2100.00000
G1 Z0.800 F7200.000
G1 X103.363 Y110.624 F7200.000
G1 Z0.200 F7200.000
G1 E0.80000 F2100.00000
G1 F900
G1 X100.870 Y108.131 E0.11110
G1 X100.334 Y108.131 E0.01688
G1 X102.658 Y110.454 E0.10354
G1 X102.122 Y110.454 E0.01688
G1 X99.798 Y108.131 E0.10354
G1 X99.262 Y108.131 E0.01688
G1 X101.586 Y110.454 E0.10354
G1 X101.050 Y110.454 E0.01688
G1 X98.726 Y108.131 E0.10354
G1 X98.190 Y108.131 E0.01688
G1 X100.514 Y110.454 E0.10354
G1 X99.978 Y110.454 E0.01688
G1 X97.655 Y108.131 E0.10354
G1 X97.119 Y108.131 E0.01688
G1 X99.442 Y110.454 E0.10354
G1 X98.907 Y110.454 E0.01688
G1 X96.583 Y108.131 E0.10354
G1 X96.047 Y108.131 E0.01688
G1 X98.371 Y110.454 E0.10354
G1 X98.278 Y110.454 E0.00290
G1 X98.280 Y110.899 E0.01401
G1 X95.511 Y108.131 E0.12336
G1 X94.975 Y108.131 E0.01688
G1 X98.281 Y111.436 E0.14729
G1 X98.282 Y111.973 E0.01692
G1 X94.439 Y108.131 E0.17123
G1 X93.903 Y108.131 E0.01688
G1 X98.283 Y112.510 E0.19516
G1 X98.285 Y113.048 E0.01692
G1 X93.368 Y108.131 E0.21909
G1 X92.832 Y108.131 E0.01688
G1 X95.338 Y110.637 E0.11167
G1 X94.652 Y110.486 E0.02213
G1 X92.585 Y108.420 E0.09207
G1 X92.585 Y108.956 E0.01688
G1 X94.084 Y110.454 E0.06677
G1 X93.548 Y110.454 E0.01688
G1 X92.585 Y109.492 E0.04289
G1 X92.585 Y110.028 E0.01688
G1 X93.182 Y110.624 E0.02657
G1 F5760
G1 X92.585 Y110.028 E-0.29213
G1 F5760
G1 X92.585 Y109.492 E-0.18560
G1 F5760
G1 X93.161 Y110.068 E-0.28227
G1 E-0.04000 F2100.00000
G1 Z0.800 F7200.000
G1 X98.456 Y113.755 F7200.000
G1 Z0.200 F7200.000
G1 E0.80000 F2100.00000
G1 F900
G1 X97.850 Y113.149 E0.02702
G1 X97.948 Y113.477 E0.01080
G1 X98.001 Y113.836 E0.01143
G1 X98.457 Y114.292 E0.02033
G1 X98.221 Y114.614 F7200.000
G1 F900
G1 X98.362 Y115.021 E0.00859
G1 X98.565 Y115.372 E0.00810
G1 X98.755 Y115.609 E0.00607
G1 X99.082 Y115.896 E0.00867
G1 F900
G1 X99.327 Y116.045 E0.00658
G1 F900
G1 X99.455 Y116.113 E0.00341
G1 F900
G1 X99.726 Y116.213 E0.00756
G1 X99.913 Y116.077 E0.00603
G1 X100.212 Y116.024 F7200.000
G1 F900
G1 X100.634 Y116.446 E0.02104
G1 X101.234 Y116.446 E0.02112
G1 X100.979 Y116.191 E0.01271
G1 X101.576 Y116.189 E0.02105
G1 X101.983 Y116.596 E0.02030
G1 X102.456 Y116.243 F7200.000
G1 F900
G1 X102.817 Y116.126 E0.00761
G1 X103.138 Y115.948 E0.00735
G1 X103.420 Y115.736 E0.00706
G1 X103.704 Y115.416 E0.00856
G1 F900
G1 X103.855 Y115.183 E0.00614
G1 F900
G1 X103.959 Y114.967 E0.00564
G1 F900
G1 X103.998 Y114.863 E0.00286
G1 F900
G1 X104.076 Y114.608 E0.00709
G1 X104.396 Y114.336 F7200.000
G1 F900
G1 X104.014 Y113.954 E0.01701
G1 X104.015 Y113.420 E0.01684
G1 X104.318 Y113.722 E0.01349
G1 X104.347 Y113.506 E0.00689
G1 X104.408 Y113.276 E0.00748
