; generated by Slic3r Prusa Edition 1.39.1-prusa3d on 2018-04-22 at 18:24:27

; 

; external perimeters extrusion width = 0.45mm
; perimeters extrusion width = 0.45mm
; infill extrusion width = 0.45mm
; solid infill extrusion width = 0.45mm
; top infill extrusion width = 0.33mm
; first layer extrusion width = 0.42mm

M107
M115 U3.1.0 ; tell printer latest fw version
M201 X9000 Y9000 Z500 E10000 ; sets maximum accelerations, mm/sec^2
M203 X500 Y500 Z12 E120 ; sets maximum feedrates, mm/sec
M204 S1500 T1500 ; sets acceleration (S) and retract acceleration (T)
M205 X10 Y10 Z0.2 E2.5 ; sets the jerk limits, mm/sec
M205 S0 T0 ; sets the minimum extruding and travel feed rate, mm/sec
M83  ; extruder relative mode
M104 S215 ; set extruder temp
M140 S60 ; set bed temp
M190 S60 ; wait for bed temp
M109 S215 ; wait for extruder temp
G28 W ; home all without mesh bed level
G80 ; mesh bed leveling
G1 Y-3.0 F1000.0 ; go outside print area
G92 E0.0
G1 E18.0 F1000.0;
G1 X60.0 E9.0  F1000.0 ; intro line
G1 X100.0 E12.5  F1000.0 ; intro line
G92 E0.0
M900 K30; Filament gcode
G21 ; set units to millimeters
G90 ; use absolute coordinates
M83 ; use relative distances for extrusion
;BEFORE_LAYER_CHANGE
;0.2


G1 E-0.80000 F2100.00000
G1 Z0.600 F7200.000
;AFTER_LAYER_CHANGE
;0.2
G1 X111.764 Y86.926 F7200.000
G1 Z0.200 F7200.000
G1 E0.80000 F2100.00000
M204 S1000
G1 F900
G1 X112.108 Y86.171 E0.02600
G1 X112.660 Y85.553 E0.02600
G1 X113.371 Y85.127 E0.02600
G1 X114.181 Y84.932 E0.02612
G1 X135.274 Y84.922 E0.66136
G1 X136.268 Y85.109 E0.03170
G1 X137.127 Y85.642 E0.03170
G1 X137.736 Y86.449 E0.03170
G1 X138.012 Y87.421 E0.03170
G1 X138.340 Y116.302 E0.90560
G1 X138.235 Y117.076 E0.02447
G1 X137.898 Y117.820 E0.02562
G1 X137.358 Y118.432 E0.02562
G1 X130.517 Y123.739 E0.27147
G1 X129.580 Y124.349 E0.03504
G1 X128.370 Y124.837 E0.04089
G1 X127.143 Y125.058 E0.03910
G1 X125.241 Y125.065 E0.05963
G1 X123.961 Y124.846 E0.04074
G1 X122.880 Y124.430 E0.03629
G1 X122.058 Y123.943 E0.02998
G1 X115.025 Y118.498 E0.27888
G1 X114.459 Y117.903 E0.02574
G1 X114.094 Y117.168 E0.02574
G1 X113.970 Y116.550 E0.01975
G1 X111.669 Y87.888 E0.90157
G1 X111.758 Y86.986 E0.02843
G1 X112.129 Y87.023 F7200.000
G1 F900
G1 X112.430 Y86.367 E0.02266
G1 X112.914 Y85.832 E0.02260
G1 X113.536 Y85.467 E0.02260
G1 X114.238 Y85.305 E0.02260
G1 X135.274 Y85.299 E0.65955
G1 X136.137 Y85.462 E0.02755
G1 X136.882 Y85.929 E0.02755
G1 X137.406 Y86.633 E0.02755
G1 X137.639 Y87.481 E0.02755
G1 X137.962 Y116.306 E0.90384
G1 X137.871 Y116.979 E0.02130
G1 X137.578 Y117.621 E0.02213
G1 X137.106 Y118.151 E0.02225
G1 X130.290 Y123.438 E0.27046
G1 X129.398 Y124.019 E0.03337
G1 X128.261 Y124.476 E0.03842
G1 X127.103 Y124.683 E0.03687
G1 X125.268 Y124.688 E0.05755
G1 X124.056 Y124.481 E0.03855
G1 X122.980 Y124.059 E0.03625
G1 X122.005 Y123.434 E0.03630
G1 X115.182 Y118.140 E0.27077
G1 X114.739 Y117.645 E0.02083
G1 X114.451 Y117.047 E0.02083
G1 X114.346 Y116.521 E0.01680
G1 X112.045 Y87.858 E0.90158
G1 X112.123 Y87.083 E0.02444
G1 F5760
G1 X112.430 Y86.367 E-0.27004
G1 F5760
G1 X112.914 Y85.832 E-0.24969
G1 F5760
G1 X113.512 Y85.481 E-0.24027
G1 E-0.04000 F2100.00000
G1 Z0.800 F7200.000
G1 X123.562 Y115.737 F7200.000
G1 Z0.200 F7200.000
G1 E0.80000 F2100.00000
G1 F900
G1 X128.739 Y115.737 E0.16232
G1 X128.730 Y119.517 E0.11851
G1 X128.643 Y119.871 E0.01144
G1 X128.549 Y120.079 E0.00713
G1 X128.352 Y120.365 E0.01090
G1 X128.202 Y120.514 E0.00663
G1 X128.031 Y120.646 E0.00677
G1 X127.714 Y120.812 E0.01122
G1 X127.343 Y120.904 E0.01198
G1 X125.116 Y120.911 E0.06984
G1 X124.770 Y120.869 E0.01094
G1 X124.411 Y120.733 E0.01203
G1 X124.110 Y120.526 E0.01147
G1 X123.949 Y120.365 E0.00713
G1 X123.751 Y120.079 E0.01090
G1 X123.658 Y119.871 E0.00713
G1 X123.571 Y119.517 E0.01144
G1 X123.562 Y115.797 E0.11662
G1 X123.940 Y116.114 F7200.000
G1 F900
G1 X128.361 Y116.114 E0.13862
G1 X128.353 Y119.470 E0.10523
G1 X128.285 Y119.748 E0.00895
G1 X128.220 Y119.893 E0.00498
G1 X128.061 Y120.122 E0.00876
G1 X127.827 Y120.328 E0.00976
G1 X127.580 Y120.457 E0.00875
G1 X127.297 Y120.527 E0.00914
G1 X125.138 Y120.534 E0.06769
G1 X124.860 Y120.501 E0.00877
G1 X124.587 Y120.397 E0.00916
G1 X124.352 Y120.235 E0.00896
G1 X124.240 Y120.122 E0.00498
G1 X124.081 Y119.893 E0.00876
G1 X124.016 Y119.748 E0.00498
G1 X123.948 Y119.470 E0.00895
G1 X123.940 Y116.174 E0.10335
G1 X123.937 Y115.714 F7200.000
G1 F5760
G1 X126.134 Y116.144 E-0.76000
G1 E-0.04000 F2100.00000
G1 Z0.800 F7200.000
G1 X120.509 Y91.152 F7200.000
G1 Z0.200 F7200.000
G1 E0.80000 F2100.00000
G1 F900
G1 X134.573 Y115.737 E0.88807
G1 X133.110 Y115.737 E0.04587
G1 X132.624 Y115.772 E0.01527
G1 X132.138 Y115.877 E0.01561
G1 X131.870 Y115.965 E0.00884
G1 X131.417 Y116.171 E0.01560
G1 X130.986 Y116.447 E0.01604
G1 X130.602 Y116.778 E0.01590
G1 X130.275 Y117.153 E0.01559
G1 X130.112 Y117.385 E0.00891
G1 X129.873 Y117.821 E0.01558
G1 X129.699 Y118.279 E0.01536
G1 X129.625 Y118.561 E0.00913
G1 X129.535 Y119.228 E0.02112
G1 X129.448 Y119.631 E0.01292
G1 X129.313 Y120.002 E0.01239
G1 X129.129 Y120.352 E0.01239
G1 X128.899 Y120.673 E0.01239
G1 X128.628 Y120.961 E0.01239
G1 X128.321 Y121.209 E0.01239
G1 X127.974 Y121.418 E0.01270
G1 X127.813 Y121.494 E0.00557
G1 X127.422 Y121.632 E0.01301
G1 X127.249 Y121.674 E0.00557
G1 X126.848 Y121.729 E0.01270
G1 X125.453 Y121.729 E0.04374
G1 X125.061 Y121.676 E0.01239
G1 X124.681 Y121.570 E0.01239
G1 X124.318 Y121.413 E0.01239
G1 X123.971 Y121.204 E0.01270
G1 X123.829 Y121.097 E0.00558
G1 X123.540 Y120.829 E0.01235
G1 X123.281 Y120.516 E0.01275
G1 X123.074 Y120.180 E0.01236
G1 X122.914 Y119.819 E0.01239
G1 X122.804 Y119.439 E0.01241
G1 X122.671 Y118.538 E0.02853
G1 X122.530 Y118.068 E0.01539
G1 X122.423 Y117.812 E0.00870
G1 X122.189 Y117.385 E0.01527
G1 X122.026 Y117.153 E0.00891
G1 X121.699 Y116.778 E0.01559
G1 X121.315 Y116.447 E0.01590
G1 X120.884 Y116.171 E0.01604
G1 X120.431 Y115.965 E0.01560
G1 X120.163 Y115.877 E0.00884
G1 X119.676 Y115.772 E0.01561
G1 X119.190 Y115.737 E0.01527
G1 X117.302 Y115.737 E0.05920
G1 X117.302 Y112.848 E0.09059
G1 X129.491 Y112.848 E0.38217
G1 X115.427 Y88.263 E0.88807
G1 X134.683 Y88.263 E0.60376
G1 X134.683 Y91.152 E0.09059
G1 X120.569 Y91.152 E0.44254
G1 X121.159 Y91.529 F7200.000
G1 F900
G1 X135.223 Y116.114 E0.88807
G1 X133.124 Y116.114 E0.06583
G1 X132.678 Y116.146 E0.01401
G1 X132.237 Y116.241 E0.01414
G1 X132.008 Y116.317 E0.00757
G1 X131.598 Y116.504 E0.01413
G1 X131.212 Y116.750 E0.01436
G1 X130.869 Y117.046 E0.01422
G1 X130.572 Y117.385 E0.01411
G1 X130.433 Y117.585 E0.00764
G1 X130.216 Y117.979 E0.01411
G1 X130.059 Y118.394 E0.01390
G1 X129.996 Y118.634 E0.00778
G1 X129.907 Y119.293 E0.02086
G1 X129.811 Y119.736 E0.01419
G1 X129.659 Y120.155 E0.01400
G1 X129.451 Y120.550 E0.01400
G1 X129.191 Y120.913 E0.01400
G1 X128.885 Y121.238 E0.01400
G1 X128.538 Y121.518 E0.01400
G1 X128.153 Y121.751 E0.01411
G1 X127.957 Y121.843 E0.00678
G1 X127.530 Y121.994 E0.01422
G1 X127.319 Y122.045 E0.00678
G1 X126.874 Y122.106 E0.01411
G1 X125.427 Y122.106 E0.04535
G1 X124.985 Y122.046 E0.01400
G1 X124.555 Y121.926 E0.01400
G1 X124.145 Y121.749 E0.01400
G1 X123.760 Y121.517 E0.01411
G1 X123.587 Y121.386 E0.00678
G1 X123.265 Y121.089 E0.01374
G1 X122.973 Y120.736 E0.01436
G1 X122.739 Y120.356 E0.01399
G1 X122.559 Y119.948 E0.01400
G1 X122.435 Y119.519 E0.01400
G1 X122.302 Y118.620 E0.02847
G1 X122.175 Y118.195 E0.01392
G1 X122.083 Y117.976 E0.00744
G1 X121.868 Y117.585 E0.01400
G1 X121.728 Y117.385 E0.00764
G1 X121.432 Y117.046 E0.01411
G1 X121.089 Y116.750 E0.01422
G1 X120.703 Y116.504 E0.01436
G1 X120.293 Y116.317 E0.01413
G1 X120.064 Y116.241 E0.00757
G1 X119.623 Y116.146 E0.01414
G1 X119.177 Y116.114 E0.01401
G1 X116.925 Y116.114 E0.07060
G1 X116.925 Y112.471 E0.11424
G1 X128.841 Y112.471 E0.37361
G1 X114.777 Y87.886 E0.88807
G1 X135.060 Y87.886 E0.63597
G1 X135.060 Y91.529 E0.11424
G1 X121.219 Y91.529 E0.43398
G1 X120.796 Y91.697 F7200.000
G1 X120.928 Y92.112 F7200.000
G1 F900
G1 X117.361 Y88.546 E0.15892
G1 X117.897 Y88.546 E0.01688
G1 X120.221 Y90.869 E0.10354
G1 X120.757 Y90.869 E0.01688
G1 X118.433 Y88.546 E0.10354
G1 X118.969 Y88.546 E0.01688
G1 X121.293 Y90.869 E0.10354
G1 X121.828 Y90.869 E0.01688
G1 X119.505 Y88.546 E0.10354
G1 X120.041 Y88.546 E0.01688
G1 X122.364 Y90.869 E0.10354
G1 X122.900 Y90.869 E0.01688
G1 X120.576 Y88.546 E0.10354
G1 X121.112 Y88.546 E0.01688
G1 X123.436 Y90.869 E0.10354
G1 X123.972 Y90.869 E0.01688
G1 X121.648 Y88.546 E0.10354
G1 X122.184 Y88.546 E0.01688
G1 X124.508 Y90.869 E0.10354
G1 X125.044 Y90.869 E0.01688
G1 X122.720 Y88.546 E0.10354
G1 X123.256 Y88.546 E0.01688
G1 X125.580 Y90.869 E0.10354
G1 X126.115 Y90.869 E0.01688
G1 X123.792 Y88.546 E0.10354
G1 X124.328 Y88.546 E0.01688
G1 X126.651 Y90.869 E0.10354
G1 X127.187 Y90.869 E0.01688
G1 X124.863 Y88.546 E0.10354
G1 X125.399 Y88.546 E0.01688
G1 X127.723 Y90.869 E0.10354
G1 X128.259 Y90.869 E0.01688
G1 X125.935 Y88.546 E0.10354
G1 X126.471 Y88.546 E0.01688
G1 X128.795 Y90.869 E0.10354
G1 X129.331 Y90.869 E0.01688
G1 X127.007 Y88.546 E0.10354
G1 X127.543 Y88.546 E0.01688
G1 X129.867 Y90.869 E0.10354
G1 X130.402 Y90.869 E0.01688
G1 X128.079 Y88.546 E0.10354
G1 X128.615 Y88.546 E0.01688
G1 X130.938 Y90.869 E0.10354
G1 X131.474 Y90.869 E0.01688
G1 X129.150 Y88.546 E0.10354
G1 X129.686 Y88.546 E0.01688
G1 X132.010 Y90.869 E0.10354
G1 X132.546 Y90.869 E0.01688
G1 X130.222 Y88.546 E0.10354
G1 X130.758 Y88.546 E0.01688
G1 X133.082 Y90.869 E0.10354
G1 X133.618 Y90.869 E0.01688
G1 X131.294 Y88.546 E0.10354
G1 X131.830 Y88.546 E0.01688
G1 X134.154 Y90.869 E0.10354
G1 X134.400 Y90.869 E0.00777
G1 X134.400 Y90.580 E0.00912
G1 X132.366 Y88.546 E0.09065
G1 X132.902 Y88.546 E0.01688
G1 X134.400 Y90.044 E0.06677
G1 X134.400 Y89.508 E0.01688
G1 X133.437 Y88.546 E0.04290
G1 X133.973 Y88.546 E0.01688
G1 X134.570 Y89.142 E0.02658
G1 F5760
G1 X133.973 Y88.546 E-0.29217
G1 F5760
G1 X133.437 Y88.546 E-0.18560
G1 F5760
G1 X134.014 Y89.122 E-0.28222
G1 E-0.04000 F2100.00000
G1 Z0.800 F7200.000
G1 X123.077 Y95.869 F7200.000
G1 Z0.200 F7200.000
G1 E0.80000 F2100.00000
G1 F900
G1 X115.672 Y88.465 E0.32993
G1 F5760
G1 X117.224 Y90.016 E-0.76000
G1 E-0.04000 F2100.00000
G1 Z0.800 F7200.000
G1 X116.389 Y89.717 F7200.000
G1 Z0.200 F7200.000
G1 E0.80000 F2100.00000
G1 F900
G1 X123.793 Y97.121 E0.32993
G1 F5760
G1 X122.242 Y95.570 E-0.76000
G1 E-0.04000 F2100.00000
G1 Z0.800 F7200.000
G1 X124.510 Y98.373 F7200.000
G1 Z0.200 F7200.000
G1 E0.80000 F2100.00000
G1 F900
G1 X117.105 Y90.969 E0.32993
G1 F5760
G1 X118.657 Y92.521 E-0.76000
G1 E-0.04000 F2100.00000
G1 Z0.800 F7200.000
G1 X117.822 Y92.221 F7200.000
G1 Z0.200 F7200.000
G1 E0.80000 F2100.00000
G1 F900
G1 X125.226 Y99.626 E0.32993
G1 F5760
G1 X123.674 Y98.074 E-0.76000
G1 E-0.04000 F2100.00000
G1 Z0.800 F7200.000
G1 X125.942 Y100.878 F7200.000
G1 Z0.200 F7200.000
G1 E0.80000 F2100.00000
G1 F900
G1 X118.538 Y93.474 E0.32993
G1 F5760
G1 X120.090 Y95.025 E-0.76000
G1 E-0.04000 F2100.00000
G1 Z0.800 F7200.000
G1 X119.254 Y94.726 F7200.000
G1 Z0.200 F7200.000
G1 E0.80000 F2100.00000
G1 F900
G1 X126.659 Y102.130 E0.32993
G1 F5760
G1 X125.107 Y100.579 E-0.76000
G1 E-0.04000 F2100.00000
G1 Z0.800 F7200.000
G1 X127.375 Y103.383 F7200.000
G1 Z0.200 F7200.000
G1 E0.80000 F2100.00000
G1 F900
G1 X119.971 Y95.978 E0.32993
G1 F5760
G1 X121.522 Y97.530 E-0.76000
G1 E-0.04000 F2100.00000
G1 Z0.800 F7200.000
G1 X120.687 Y97.230 F7200.000
G1 Z0.200 F7200.000
G1 E0.80000 F2100.00000
G1 F900
G1 X128.092 Y104.635 E0.32993
G1 F5760
G1 X126.540 Y103.083 E-0.76000
G1 E-0.04000 F2100.00000
G1 Z0.800 F7200.000
G1 X128.808 Y105.887 F7200.000
G1 Z0.200 F7200.000
G1 E0.80000 F2100.00000
G1 F900
G1 X121.404 Y98.483 E0.32993
G1 F5760
G1 X122.955 Y100.034 E-0.76000
G1 E-0.04000 F2100.00000
G1 Z0.800 F7200.000
G1 X122.120 Y99.735 F7200.000
G1 Z0.200 F7200.000
G1 E0.80000 F2100.00000
G1 F900
G1 X129.524 Y107.139 E0.32993
G1 F5760
G1 X127.973 Y105.588 E-0.76000
G1 E-0.04000 F2100.00000
G1 Z0.800 F7200.000
G1 X130.241 Y108.392 F7200.000
G1 Z0.200 F7200.000
G1 E0.80000 F2100.00000
G1 F900
G1 X122.836 Y100.987 E0.32993
G1 F5760
G1 X124.388 Y102.539 E-0.76000
G1 E-0.04000 F2100.00000
G1 Z0.800 F7200.000
G1 X123.553 Y102.240 F7200.000
G1 Z0.200 F7200.000
G1 E0.80000 F2100.00000
G1 F900
G1 X130.957 Y109.644 E0.32993
G1 F5760
G1 X129.406 Y108.092 E-0.76000
G1 E-0.04000 F2100.00000
G1 Z0.800 F7200.000
G1 X131.674 Y110.896 F7200.000
G1 Z0.200 F7200.000
G1 E0.80000 F2100.00000
G1 F900
G1 X124.269 Y103.492 E0.32993
G1 F5760
G1 X125.821 Y105.043 E-0.76000
G1 E-0.04000 F2100.00000
G1 Z0.800 F7200.000
G1 X124.986 Y104.744 F7200.000
G1 Z0.200 F7200.000
G1 E0.80000 F2100.00000
G1 F900
G1 X132.390 Y112.148 E0.32993
G1 F5760
G1 X130.838 Y110.597 E-0.76000
G1 E-0.04000 F2100.00000
G1 Z0.800 F7200.000
G1 X133.106 Y113.401 F7200.000
G1 Z0.200 F7200.000
G1 E0.80000 F2100.00000
G1 F900
G1 X125.702 Y105.996 E0.32993
G1 F5760
G1 X127.254 Y107.548 E-0.76000
G1 E-0.04000 F2100.00000
G1 Z0.800 F7200.000
G1 X126.418 Y107.249 F7200.000
G1 Z0.200 F7200.000
G1 E0.80000 F2100.00000
G1 F900
G1 X133.823 Y114.653 E0.32993
G1 X133.722 Y115.624 F7200.000
G1 F900
G1 X127.851 Y109.753 E0.26160
G1 F5760
G1 X129.403 Y111.305 E-0.76000
G1 E-0.04000 F2100.00000
G1 Z0.800 F7200.000
G1 X128.568 Y111.005 F7200.000
G1 Z0.200 F7200.000
G1 E0.80000 F2100.00000
G1 F900
G1 X133.186 Y115.624 E0.20580
G1 X132.681 Y115.654 F7200.000
G1 F900
G1 X129.741 Y112.715 E0.13099
G1 X129.979 Y113.131 E0.01510
G1 X129.621 Y113.131 E0.01127
G1 X132.088 Y115.598 E0.10994
G1 X131.691 Y115.736 E0.01326
G1 X129.085 Y113.131 E0.11610
G1 X128.549 Y113.131 E0.01688
G1 X131.322 Y115.904 E0.12357
G1 X130.991 Y116.108 E0.01227
G1 X128.013 Y113.131 E0.13268
G1 X127.477 Y113.131 E0.01688
G1 X130.683 Y116.336 E0.14281
G1 X130.396 Y116.585 E0.01197
G1 X126.942 Y113.131 E0.15391
G1 X126.406 Y113.131 E0.01688
G1 X130.146 Y116.871 E0.16666
G1 X129.914 Y117.175 E0.01205
G1 X129.020 Y116.281 E0.03983
G1 X129.019 Y116.816 E0.01684
G1 X129.718 Y117.515 E0.03115
G1 X129.615 Y117.702 E0.00673
G1 X129.548 Y117.880 E0.00600
G1 X129.018 Y117.350 E0.02361
G1 X129.017 Y117.885 E0.01684
G1 X129.408 Y118.276 E0.01742
G1 X129.347 Y118.506 E0.00748
G1 X129.318 Y118.722 E0.00689
G1 X129.015 Y118.420 E0.01349
G1 X129.014 Y118.954 E0.01684
G1 X129.396 Y119.336 E0.01701
G1 X129.076 Y119.608 F7200.000
G1 F900
G1 X128.998 Y119.863 E0.00709
G1 F900
G1 X128.959 Y119.967 E0.00286
G1 F900
G1 X128.855 Y120.183 E0.00564
G1 F900
G1 X128.831 Y120.224 E0.00105
G1 F900
G1 X128.593 Y120.552 E0.00864
G1 F900
G1 X128.412 Y120.740 E0.00509
G1 X128.139 Y120.948 E0.00668
G1 X127.818 Y121.127 E0.00714
G1 X127.456 Y121.243 E0.00740
G1 X127.004 Y121.594 F7200.000
G1 F900
G1 X126.600 Y121.189 E0.01963
G1 X126.018 Y121.191 E0.01996
G1 X126.273 Y121.446 E0.01239
G1 X125.689 Y121.446 E0.02003
G1 X125.267 Y121.024 E0.02050
G1 X124.879 Y121.254 F7200.000
G1 F900
G1 X124.670 Y121.195 E0.00566
G1 F900
G1 X124.472 Y121.115 E0.00539
G1 F900
G1 X124.278 Y121.020 E0.00525
G1 F900
G1 X123.922 Y120.767 E0.00920
G1 F900
G1 X123.721 Y120.569 E0.00549
G1 X123.483 Y120.243 E0.00783
G1 X123.350 Y119.991 E0.00553
G1 X123.221 Y119.614 E0.00775
G1 X123.457 Y119.292 F7200.000
G1 F900
G1 X123.001 Y118.836 E0.02033
G1 X122.948 Y118.477 E0.01143
G1 X122.850 Y118.149 E0.01080
G1 X123.456 Y118.755 E0.02702
G1 F5760
G1 X122.850 Y118.149 E-0.29698
G1 F5760
G1 X122.948 Y118.477 E-0.11867
G1 F5760
G1 X123.001 Y118.836 E-0.12569
G1 F5760
G1 X123.447 Y119.282 E-0.21866
G1 E-0.04000 F2100.00000
G1 Z0.800 F7200.000
G1 X128.363 Y115.624 F7200.000
G1 Z0.200 F7200.000
G1 E0.80000 F2100.00000
G1 F900
G1 X125.870 Y113.131 E0.11110
G1 X125.334 Y113.131 E0.01688
G1 X127.658 Y115.454 E0.10354
G1 X127.122 Y115.454 E0.01688
G1 X124.798 Y113.131 E0.10354
G1 X124.262 Y113.131 E0.01688
G1 X126.586 Y115.454 E0.10354
G1 X126.050 Y115.454 E0.01688
G1 X123.726 Y113.131 E0.10354
G1 X123.190 Y113.131 E0.01688
G1 X125.514 Y115.454 E0.10354
G1 X124.978 Y115.454 E0.01688
G1 X122.655 Y113.131 E0.10354
G1 X122.119 Y113.131 E0.01688
G1 X124.442 Y115.454 E0.10354
G1 X123.907 Y115.454 E0.01688
