;FLAVOR:Marlin
;TIME:267
;Filament used:0.242484m
;Layer height: 0.3
;MINX:72.333
;MINY:65.376
;MINZ:0.2
;MAXX:92.814
;MAXY:99.624
;MAXZ:2.9
                                 
;Creative3D GCode Generated by CXEngineDEV
;Generated Time:2022-04-08 18:14:05
;----------Machine Config--------------
;Machine Name:Creality Ender-2 Pro
;Machine Height:180
;Machine Width:165
;Machine Depth:165
;Material name:PLA
;Number of Extruders:1
;ExtruderParams[0] Nozzle Diameter1000
;----------Profile Config---------------
;Layer Height:0.3
;Wall Thickness:0.8
;Top/Bottom Thickness:1
;Out Wall Line Width:0.4
;Inner Wall Line Width:0.4
;Inital Layer Height:200
;Wall Line Count:1
;Infill Line Distance:4
;Infill Pattern:grid
;Infill Sparse Density:20
;Infill Wipe Distance:0
;Print Temperature:200
;Bed Temperature:60
;Support Enable:false
;Support Density:30
;Support Angle:1.0472
;Adhesion Type:none
;machine is belt:false
;machine belt offset:10
;machine belt offset Y:0
;----------Shell Config----------------
;Outer Wall Wipe Distance:200
;Infill Before Walls:false
;Infill Overlap:0.16
;Fill Gaps Between Walls:everywhere
;Minimum Infill Area:1
;Top Surface Skin Layer:0
;Top Layers:2
;Z Seam Alignment:sharpest_corner
;Seam Corner Preference:z_seam_corner_inner
;Z Seam X:82.5
;Z Seam Y:82.5
;Horizontal Expansion:0
;Top/Bottom Pattern:zigzag
;Ironing Pattern:zigzag
;Vase Model:false
;----------Support Config----------------
;Support Type:everywhere
;Support Pattern:zigzag
;Support Infill Layer Thickness:0.3
;Minimum Support Area:10
;Enable Support Roof:false
;Support Roof Thickness:0.8
;Support Roof Pattern:lines
; ---------PrintSpeed & Travel----------
;Enable Print Cool:true
;Avoid Printed Parts Traveling:true
;Enable Retraction:true
;Retraction Distance:8
;Retraction Speed:100
;Retraction Prime Speed:100
;Maximum Retraction Count:100
;Minimum Extrusion Distance Window:1
;Z Hop When Retracted:false
;Z Hop Height:0.2
;Retract Before Outer Wall:true
;Print Speed:50
;Infill Speed:50

;Prime Tower Speed:50
;Travel Speed:120
;Initial Layer Speed:25
;Skirt/Brim Speed:25
;Combing Mode:off
;---------------------End of Head--------------------------
M140 S60
M104 S200
M105
M109 S200
M82 ;absolute extrusion mode
M220 S100 ;Reset Feedrate
M221 S100 ;Reset Flowrate

G28 ;Home

G92 E0 ;Reset Extruder
G1 Z2.0 F3000 ;Move Z Axis up
G1 X10.1 Y20 Z0.28 F5000.0 ;Move to start position
G1 X10.1 Y145.0 Z0.28 F1500.0 E15 ;Draw the first line
G1 X10.4 Y145.0 Z0.28 F5000.0 ;Move to side a little
G1 X10.4 Y20 Z0.28 F1500.0 E30 ;Draw the second line
G92 E0  ;Reset Extruder
G1 E-1.0000 F1800 ;Retract a bit
G1 Z2.0 F3000 ;Move Z Axis up
G1 E0.0000 F1800 

G92 E0
G92 E0
G1 F6000 E-8

;LAYER_COUNT:10

;LAYER:0
M107
;MESH:
G0 F3600 X85.924 Y93.624 Z0.2
;TYPE:WALL-OUTER
G1 F6000 E0
G1 F1500 X85.724 Y93.624 E0.00732
G1 X81.524 Y93.629 E0.16098
G1 X81.524 Y96.842 E0.27853
G1 X81.595 Y97.243 E0.29343
G1 X81.817 Y97.615 E0.30928
G1 X82.157 Y97.885 E0.32516
G1 X82.558 Y98.013 E0.34056
G1 X82.717 Y98.024 E0.34639
G1 X84.742 Y98.024 E0.42048
G1 X85.142 Y97.953 E0.43535
G1 X85.515 Y97.731 E0.45123
G1 X85.785 Y97.39 E0.46714
G1 X85.912 Y96.988 E0.48256
G1 X85.924 Y96.771 E0.49051
G1 X85.924 Y93.824 E0.59833
G1 X85.924 Y93.624 E0.60307
G0 F3600 X85.724 Y93.624
G0 X85.724 Y93.184
;;retract;;
G1 F6000 E-7.39693
G0 F3600 X86.397 Y89.961
G1 F6000 E0.60307
G1 F1500 X86.227 Y89.663 E0.61562
G1 X72.503 Y65.674 E1.62677
G1 X72.333 Y65.376 E1.63932
G1 X72.676 Y65.376 E1.64644
G1 X72.677 Y65.376 E1.64648
G1 X92.643 Y65.376 E2.37696
G1 X92.643 Y69.039 E2.51097
G1 X79.093 Y69.039 E3.00672
G1 X79.092 Y69.039 E3.00675
G1 X78.749 Y69.039 E3.0193
G1 X78.919 Y69.337 E3.02643
G1 X92.644 Y93.326 E4.03759
G1 X92.814 Y93.624 E4.05014
G1 X92.471 Y93.624 E4.05727
G1 X92.47 Y93.624 E4.0573
G1 X90.693 Y93.624 E4.12232
G1 X90.254 Y93.656 E4.13842
G1 X89.81 Y93.75 E4.15502
G1 X89.386 Y93.907 E4.17157
G1 X88.984 Y94.125 E4.1883
G1 X88.618 Y94.397 E4.20498
G1 X88.296 Y94.715 E4.22154
G1 X88.021 Y95.081 E4.23829
G1 X87.802 Y95.477 E4.25484
G1 X87.641 Y95.899 E4.27137
G1 X87.542 Y96.34 E4.2879
G1 X87.49 Y96.792 E4.30455
G1 X87.396 Y97.234 E4.32108
G1 X87.328 Y97.444 E4.32916
G1 X87.148 Y97.851 E4.34544
G1 X87.033 Y98.053 E4.35394
G1 X86.776 Y98.415 E4.37019
G1 X86.629 Y98.582 E4.37833
G1 X86.3 Y98.889 E4.39479
G1 X86.118 Y99.026 E4.40312
G1 X85.744 Y99.252 E4.41911
G1 X85.535 Y99.352 E4.42759
G1 X85.116 Y99.499 E4.44383
G1 X84.892 Y99.556 E4.45229
G1 X84.46 Y99.614 E4.46824
G1 X84.216 Y99.624 E4.47717
G1 X83.237 Y99.624 E4.51299
G1 X82.781 Y99.594 E4.52971
G1 X82.562 Y99.557 E4.53784
G1 X82.13 Y99.438 E4.55423
G1 X81.92 Y99.356 E4.56248
G1 X81.529 Y99.155 E4.57856
G1 X81.33 Y99.027 E4.58722
G1 X80.991 Y98.754 E4.60314
G1 X80.827 Y98.592 E4.61158
G1 X80.544 Y98.247 E4.6279
G1 X80.415 Y98.055 E4.63637
G1 X80.211 Y97.668 E4.65237
G1 X80.122 Y97.452 E4.66092
G1 X80.001 Y97.029 E4.67702
G1 X79.959 Y96.807 E4.68528
G1 X79.907 Y96.345 E4.70229
G1 X79.868 Y96.129 E4.71032
G1 X79.739 Y95.696 E4.72685
G1 X79.55 Y95.286 E4.74337
G1 X79.304 Y94.905 E4.75996
G1 X79.004 Y94.559 E4.77672
G1 X78.661 Y94.262 E4.79332
G1 X78.277 Y94.016 E4.81
G1 X77.861 Y93.826 E4.82673
G1 X77.426 Y93.698 E4.84332
G1 X76.981 Y93.635 E4.85976
G1 X76.748 Y93.624 E4.8683
G1 X74.489 Y93.624 E4.95095
G1 X74.489 Y89.961 E5.08496
G1 X86.053 Y89.961 E5.50804
G1 X86.054 Y89.961 E5.50808
G1 X86.397 Y89.961 E5.51521
G0 F3600 X86.298 Y89.788
G0 X86.68 Y89.571
;;retract;;
G1 F6000 E-2.48479
G0 F3600 X74.728 Y93.383
;TYPE:SKIN
G1 F6000 E5.51521
G1 F1500 X75.281 Y93.383 E5.53544
G1 X74.728 Y92.83 E5.56405
G1 X74.728 Y92.264 E5.58476
G1 X75.847 Y93.383 E5.64266
G1 X76.412 Y93.383 E5.66333
G1 X74.728 Y91.699 E5.75046
G1 X74.728 Y91.133 E5.77117
G1 X76.989 Y93.393 E5.88813
G1 X77.003 Y93.394 E5.88864
G1 X77.476 Y93.462 E5.90612
G1 X77.683 Y93.522 E5.91401
G1 X74.728 Y90.567 E6.0669
G1 X74.729 Y90.2 E6.08033
G1 X74.927 Y90.2 E6.08757
G1 X78.777 Y94.05 E6.28677
G0 F3600 X78.804 Y94.068
G1 F1500 X79.174 Y94.388 E6.30467
G1 X79.496 Y94.76 E6.32267
G1 X79.514 Y94.787 E6.32386
G1 X79.76 Y95.168 E6.34045
G1 X79.964 Y95.61 E6.35826
G1 X80.046 Y95.885 E6.36876
G1 X81.339 Y97.179 E6.43569
G1 X81.366 Y97.326 E6.44116
G1 X81.633 Y97.775 E6.46027
G1 X82.042 Y98.099 E6.47936
;;retract;;
G1 F6000 E-1.52064
G0 F3600 X80.347 Y97.368
G1 F6000 E6.47936
G1 F1500 X80.428 Y97.564 E6.48712
G1 X80.618 Y97.927 E6.50211
G1 X80.735 Y98.1 E6.50975
G1 X81.007 Y98.433 E6.52548
G1 X81.151 Y98.574 E6.53285
G1 X81.47 Y98.83 E6.54782
G1 X81.648 Y98.946 E6.55559
G1 X82.02 Y99.137 E6.57089
G1 X82.201 Y99.207 E6.57799
G1 X82.249 Y99.219 E6.5798
G1 X80.326 Y97.297 E6.67927
G1 X80.235 Y96.978 E6.69141
G1 X80.196 Y96.765 E6.69933
G1 X80.175 Y96.58 E6.70614
G1 X82.958 Y99.363 E6.85014
G1 X83.252 Y99.383 E6.86092
G1 X83.543 Y99.383 E6.87156
G1 X82.363 Y98.202 E6.93264
G1 X82.511 Y98.25 E6.93834
G1 X82.708 Y98.263 E6.94556
G1 X82.99 Y98.263 E6.95588
G1 X84.109 Y99.383 E7.0138
G1 X84.205 Y99.383 E7.01731
G1 X84.44 Y99.373 E7.02592
G1 X84.638 Y99.346 E7.03323
G1 X83.555 Y98.263 E7.08926
G1 X84.121 Y98.263 E7.10997
G1 X85.105 Y99.247 E7.16088
G1 X85.452 Y99.126 E7.17433
G1 X85.518 Y99.094 E7.17701
G1 X84.687 Y98.263 E7.22001
G1 X84.764 Y98.263 E7.22283
G1 X85.179 Y98.19 E7.23824
G1 X85.878 Y98.889 E7.27441
G1 X85.982 Y98.827 E7.27884
G1 X86.151 Y98.7 E7.28657
G1 X86.204 Y98.649 E7.28926
G1 X85.546 Y97.991 E7.32331
G1 X85.675 Y97.914 E7.32881
G1 X85.834 Y97.713 E7.33818
G1 X86.494 Y98.373 E7.37233
G1 X86.585 Y98.269 E7.37739
G1 X86.738 Y98.052 E7.3871
G1 X86.045 Y97.359 E7.42296
G1 X86.149 Y97.03 E7.43558
G1 X86.156 Y96.904 E7.4402
G1 X86.952 Y97.7 E7.48138
G1 X87.104 Y97.353 E7.49524
G1 X87.121 Y97.304 E7.49714
G1 X86.163 Y96.346 E7.54671
G1 X86.163 Y95.78 E7.56742
G1 X87.232 Y96.848 E7.6227
G1 X87.252 Y96.752 E7.62629
G1 X87.3 Y96.351 E7.64107
G1 X86.163 Y95.214 E7.69989
G1 X86.163 Y94.649 E7.72057
G1 X87.399 Y95.884 E7.78449
G1 X87.411 Y95.828 E7.78659
G1 X87.549 Y95.468 E7.80069
G1 X86.163 Y94.083 E7.87238
G1 X86.163 Y93.517 E7.89309
G1 X86.163 Y93.383 E7.89799
G0 F3600 X86.029 Y93.383
G1 F1500 X82.846 Y90.2 E8.06268
G1 X82.281 Y90.2 E8.08335
G1 X85.464 Y93.384 E8.24807
G1 X84.898 Y93.384 E8.26877
G1 X81.715 Y90.2 E8.43349
G1 X81.149 Y90.2 E8.4542
G1 X84.333 Y93.384 E8.61894
G1 X83.768 Y93.385 E8.63961
G1 X80.584 Y90.2 E8.80438
G1 X80.018 Y90.2 E8.82509
G1 X83.203 Y93.386 E8.98991
G1 X82.638 Y93.386 E9.01058
G1 X79.452 Y90.2 E9.17542
G1 X78.886 Y90.2 E9.19613
G1 X82.073 Y93.386 E9.361
G1 X81.508 Y93.387 E9.38168
G1 X78.321 Y90.2 E9.54657
G1 X77.755 Y90.2 E9.56728
G1 X81.284 Y93.729 E9.74987
G1 X81.284 Y94.294 E9.77054
G1 X77.189 Y90.2 E9.9824
G1 X76.624 Y90.2 E10.00307
G1 X81.284 Y94.86 E10.24418
G1 X81.284 Y95.426 E10.26489
G1 X76.058 Y90.2 E10.53528
G1 X75.492 Y90.2 E10.55599
G1 X81.284 Y95.991 E10.85565
G1 X81.284 Y96.557 E10.87635
G1 X79.514 Y94.787 E10.96794
;;retract;;
G1 F6000 E2.96794
G0 F3600 X86.163 Y93.517
G1 F6000 E10.96794
G1 F1500 X87.739 Y95.093 E11.04948
G1 X87.819 Y94.949 E11.05551
G1 X87.966 Y94.754 E11.06444
G1 X83.412 Y90.2 E11.30007
G1 X83.978 Y90.2 E11.32077
G1 X88.224 Y94.446 E11.54046
G1 X88.461 Y94.214 E11.5526
G1 X88.515 Y94.172 E11.5551
G1 X84.543 Y90.2 E11.76062
G1 X85.109 Y90.2 E11.78132
G1 X88.84 Y93.931 E11.97437
G1 X88.854 Y93.921 E11.975
G1 X89.204 Y93.729 E11.9896
G1 X85.675 Y90.2 E12.17219
G1 X86.24 Y90.2 E12.19287
G1 X89.607 Y93.567 E12.36708
G1 X89.743 Y93.517 E12.37238
G1 X90.057 Y93.451 E12.38412
G1 X86.806 Y90.2 E12.55233
G0 F3600 X86.81 Y90.2
G1 F1500 X86.059 Y88.888 E12.60763
G1 X90.563 Y93.391 E12.84065
G1 X90.685 Y93.383 E12.84512
G1 X91.12 Y93.383 E12.86104
G1 X85.303 Y87.566 E13.16201
G1 X84.547 Y86.244 E13.21773
G1 X91.686 Y93.383 E13.58711
G1 X92.251 Y93.383 E13.60778
G1 X83.791 Y84.922 E14.04553
G1 X83.034 Y83.6 E14.10126
G1 X91.842 Y92.408 E14.55699
G1 X91.085 Y91.085 E14.61276
G1 X82.278 Y82.278 E15.06844
G1 X81.522 Y80.956 E15.12416
G1 X90.33 Y89.764 E15.57989
G1 X89.573 Y88.442 E15.63562
G1 X80.766 Y79.635 E16.0913
G1 X80.009 Y78.312 E16.14707
G1 X88.816 Y87.119 E16.60275
G1 X88.06 Y85.797 E16.65847
G1 X79.253 Y76.991 E17.11412
G1 X78.497 Y75.668 E17.16987
G1 X87.303 Y84.475 E17.62552
G1 X86.547 Y83.152 E17.68127
G1 X77.741 Y74.347 E18.13688
G1 X76.984 Y73.025 E18.19261
G1 X85.79 Y81.83 E18.64821
G1 X85.033 Y80.508 E18.70395
G1 X76.228 Y71.703 E19.15952
G1 X75.472 Y70.381 E19.21524
G1 X84.277 Y79.186 E19.67082
G1 X83.52 Y77.863 E19.72658
G1 X74.716 Y69.059 E20.18211
G1 X73.959 Y67.737 E20.23784
G1 X82.764 Y76.541 E20.69339
G1 X82.007 Y75.219 E20.74913
G1 X73.203 Y66.415 E21.20465
G1 X72.746 Y65.615 E21.23836
G1 X72.969 Y65.615 E21.24652
G1 X81.25 Y73.896 E21.67498
G1 X80.494 Y72.574 E21.7307
G1 X73.535 Y65.615 E22.09076
G1 X74.101 Y65.615 E22.11147
G1 X79.737 Y71.252 E22.40311
G1 X78.98 Y69.93 E22.45884
G1 X74.666 Y65.615 E22.68208
G1 X75.232 Y65.615 E22.70279
G1 X78.416 Y68.799 E22.86753
G1 X78.981 Y68.799 E22.8882
G1 X75.798 Y65.615 E23.05292
G1 X76.363 Y65.615 E23.07359
G1 X79.547 Y68.799 E23.23833
G1 X80.113 Y68.799 E23.25904
G1 X76.929 Y65.615 E23.42378
G1 X77.495 Y65.615 E23.44449
G1 X80.678 Y68.799 E23.6092
G1 X81.244 Y68.799 E23.62991
G1 X78.061 Y65.615 E23.79463
G1 X78.626 Y65.615 E23.8153
G1 X81.81 Y68.799 E23.98004
G1 X82.375 Y68.799 E24.00071
G1 X79.192 Y65.615 E24.16543
G1 X79.758 Y65.615 E24.18614
G1 X82.941 Y68.799 E24.35085
G1 X83.507 Y68.799 E24.37156
G1 X80.323 Y65.615 E24.5363
G1 X80.889 Y65.615 E24.55701
G1 X84.072 Y68.799 E24.72173
G1 X84.638 Y68.799 E24.74243
G1 X81.455 Y65.615 E24.90715
G1 X82.02 Y65.615 E24.92782
G1 X85.204 Y68.799 E25.09256
G1 X85.769 Y68.799 E25.11323
G1 X82.586 Y65.615 E25.27795
G1 X83.152 Y65.615 E25.29866
G1 X86.335 Y68.799 E25.46337
G1 X86.901 Y68.799 E25.48408
G1 X83.717 Y65.615 E25.64882
G1 X84.283 Y65.615 E25.66953
G1 X87.466 Y68.799 E25.83425
G1 X88.032 Y68.799 E25.85496
G1 X84.849 Y65.615 E26.01967
G1 X85.414 Y65.615 E26.04034
G1 X88.598 Y68.799 E26.20509
G1 X89.164 Y68.799 E26.22579
G1 X85.98 Y65.615 E26.39054
G1 X86.546 Y65.615 E26.41124
G1 X89.729 Y68.799 E26.57596
G1 X90.295 Y68.799 E26.59667
G1 X87.112 Y65.615 E26.76138
G1 X87.677 Y65.615 E26.78206
G1 X90.861 Y68.799 E26.9468
G1 X91.426 Y68.799 E26.96747
G1 X88.243 Y65.615 E27.13219
G1 X88.809 Y65.615 E27.15289
G1 X91.992 Y68.799 E27.31761
G1 X92.402 Y68.799 E27.33261
G1 X92.402 Y68.643 E27.33832
G1 X89.374 Y65.615 E27.49499
G1 X89.94 Y65.615 E27.5157
G1 X92.402 Y68.078 E27.64311
G1 X92.402 Y67.512 E27.66381
G1 X90.506 Y65.615 E27.76194
G1 X91.071 Y65.615 E27.78261
G1 X92.402 Y66.946 E27.85148
G1 X92.402 Y66.381 E27.87215
G1 X91.637 Y65.615 E27.91176
G1 X92.203 Y65.615 E27.93246
G1 X92.402 Y65.615 E27.93975
G0 F3600 X92.402 Y65.815
G1 F1500 X92.203 Y65.615 E27.95007
;;retract;;
G1 F6000 E19.95007
;MESH:NONMESH
G0 F600 X92.203 Y65.615 Z0.5
G0 F3600 X85.924 Y93.624
;TIME_ELAPSED:43.192212

;LAYER:1
M140 S60
M106 S127.5
;TYPE:WALL-OUTER
;MESH:
G1 F6000 E27.95007
G1 F1500 X81.724 Y93.624 E28.15961
G1 X81.524 Y93.624 E28.16958
G1 X81.524 Y93.824 E28.17605
G1 X81.529 Y96.946 E28.3318
G1 X81.601 Y97.255 E28.34763
G1 X81.804 Y97.597 E28.36747
G1 X82.044 Y97.816 E28.38368
G1 X82.406 Y97.982 E28.40355
G1 X82.711 Y98.024 E28.41891
G1 X84.845 Y98.019 E28.52538
G1 X85.153 Y97.947 E28.54116
G1 X85.497 Y97.744 E28.56109
G1 X85.716 Y97.504 E28.5773
G1 X85.882 Y97.142 E28.59716
G1 X85.924 Y96.838 E28.61247
G1 X85.924 Y93.624 E28.77282
G0 F5400 X85.724 Y93.624
G0 X85.724 Y93.184
;;retract;;
G1 F6000 E20.77282
G0 F5400 X86.397 Y89.961
G1 F6000 E28.77282
G1 F1500 X86.227 Y89.663 E28.78994
G1 X72.503 Y65.674 E30.16877
G1 X72.333 Y65.376 E30.18588
G1 X72.676 Y65.376 E30.1956
G1 X72.677 Y65.376 E30.19565
G1 X92.643 Y65.376 E31.19176
G1 X92.643 Y69.039 E31.37451
G1 X79.093 Y69.039 E32.05052
G1 X79.092 Y69.039 E32.05057
G1 X78.749 Y69.039 E32.06768
G1 X78.919 Y69.337 E32.0774
G1 X92.644 Y93.326 E33.45625
G1 X92.814 Y93.624 E33.47337
G1 X92.471 Y93.624 E33.48309
G1 X92.47 Y93.624 E33.48314
G1 X90.683 Y93.624 E33.57229
G1 X90.258 Y93.655 E33.59355
G1 X89.819 Y93.748 E33.61594
G1 X89.403 Y93.901 E33.63805
G1 X89.159 Y94.023 E33.65166
G1 X88.803 Y94.25 E33.67273
G1 X88.468 Y94.536 E33.6947
G1 X88.277 Y94.739 E33.70861
G1 X88.024 Y95.077 E33.72967
G1 X87.807 Y95.466 E33.75189
G1 X87.649 Y95.877 E33.77386
G1 X87.578 Y96.142 E33.78755
G1 X87.519 Y96.535 E33.80738
G1 X87.489 Y96.798 E33.82058
G1 X87.405 Y97.199 E33.84102
G1 X87.323 Y97.456 E33.85448
G1 X87.161 Y97.827 E33.87468
G1 X87.036 Y98.05 E33.88743
G1 X86.794 Y98.391 E33.90829
G1 X86.623 Y98.589 E33.92135
G1 X86.325 Y98.867 E33.94168
G1 X86.123 Y99.023 E33.95441
G1 X85.768 Y99.238 E33.97512
G1 X85.526 Y99.356 E33.98855
G1 X85.154 Y99.488 E34.00824
G1 X84.889 Y99.556 E34.02189
G1 X84.489 Y99.611 E34.04203
G1 X84.215 Y99.624 E34.05572
G1 X83.236 Y99.624 E34.10456
G1 X82.807 Y99.597 E34.12601
G1 X82.564 Y99.558 E34.13829
G1 X82.16 Y99.447 E34.15919
G1 X81.917 Y99.355 E34.17215
G1 X81.552 Y99.168 E34.19261
G1 X81.331 Y99.027 E34.20569
G1 X81.012 Y98.772 E34.22607
G1 X80.821 Y98.586 E34.23937
G1 X80.564 Y98.275 E34.2595
G1 X80.415 Y98.056 E34.27271
G1 X80.219 Y97.685 E34.29364
G1 X80.123 Y97.456 E34.30603
G1 X80.009 Y97.058 E34.32669
G1 X79.959 Y96.805 E34.33955
G1 X79.904 Y96.326 E34.36361
G1 X79.869 Y96.14 E34.37305
G1 X79.8 Y95.879 E34.38652
G1 X79.661 Y95.51 E34.40619
G1 X79.533 Y95.257 E34.42034
G1 X79.317 Y94.925 E34.4401
G1 X79.141 Y94.705 E34.45415
G1 X78.84 Y94.407 E34.47528
G1 X78.485 Y94.14 E34.49745
G1 X78.081 Y93.917 E34.52047
G1 X77.664 Y93.761 E34.54268
G1 X77.401 Y93.693 E34.55623
G1 X76.995 Y93.636 E34.57669
G1 X76.748 Y93.624 E34.58902
G1 X74.489 Y93.624 E34.70173
G1 X74.489 Y89.961 E34.88447
G1 X86.053 Y89.961 E35.4614
G1 X86.054 Y89.961 E35.46145
G1 X86.397 Y89.961 E35.47117
G0 F5400 X86.298 Y89.788
G0 X86.68 Y89.571
;;retract;;
G1 F6000 E27.47117
G0 F5400 X92.4 Y93.383
;TYPE:SKIN
G1 F6000 E35.47117
G1 F1500 X92.312 Y93.232 E35.47989
G1 X92.161 Y93.383 E35.49054
G1 X91.595 Y93.383 E35.51878
G1 X92.107 Y92.872 E35.55487
G1 X91.901 Y92.512 E35.57556
G1 X91.03 Y93.383 E35.63702
